; generated by PrusaSlicer 2.2.0+win64 on 2020-07-30 at 16:48:36 UTC

; 

; external perimeters extrusion width = 0.45mm
; perimeters extrusion width = 0.45mm
; infill extrusion width = 0.45mm
; solid infill extrusion width = 0.45mm
; top infill extrusion width = 0.40mm
; support material extrusion width = 0.35mm
; first layer extrusion width = 0.42mm

M73 P0 R157
M201 X9000 Y9000 Z500 E10000 ; sets maximum accelerations, mm/sec^2
M203 X500 Y500 Z12 E120 ; sets maximum feedrates, mm/sec
M204 P2000 R1500 T2000 ; sets acceleration (P, T) and retract acceleration (R), mm/sec^2
M205 X10.00 Y10.00 Z0.20 E2.50 ; sets the jerk limits, mm/sec
M205 S0 T0 ; sets the minimum extruding and travel feed rate, mm/sec
M107
M862.3 P "MK2S" ; printer model check
M862.1 P0.4 ; nozzle diameter check
M115 U3.2.3 ; tell printer latest fw version
G90 ; use absolute coordinates
M83 ; extruder relative mode
M204 S2000 T1500 ; MK2 firmware only supports the old M204 format
M104 S215 ; set extruder temp
M140 S60 ; set bed temp
M190 S60 ; wait for bed temp
M109 S215 ; wait for extruder temp
G28 W ; home all without mesh bed level
G80 ; mesh bed leveling
G1 Y-3.0 F1000.0 ; go outside print area
G92 E0.0
G1 X60.0 E9.0  F1000.0 ; intro line
M73 P0 R157
G1 X100.0 E12.5 F1000.0 ; intro line
G92 E0.0
G21 ; set units to millimeters
G90 ; use absolute coordinates
M83 ; use relative distances for extrusion
M900 K0.06 ; Filament gcode LA 1.5
M900 K30 ; Filament gcode LA 1.0
;BEFORE_LAYER_CHANGE
G92 E0.0
;0.2


G1 E-0.80000 F2100.00000
G1 Z0.600 F10800.000
;AFTER_LAYER_CHANGE
;0.2
G1 X96.805 Y85.869
G1 Z0.200
G1 E0.80000 F2100.00000
M204 S1000
G1 F1200.000
G1 X96.282 Y85.858 E0.01639
G1 X95.393 Y85.801 E0.02796
G1 X94.520 Y85.677 E0.02764
G1 X94.038 Y85.569 E0.01547
G1 X94.057 Y85.371 E0.00626
G1 X104.199 Y85.061 E0.31815
G1 X103.180 Y84.206 E0.04170
G1 X116.239 Y84.206 E0.40946
G1 X116.239 Y86.282 E0.06511
G1 X96.865 Y85.870 E0.60759
G1 E-0.80000 F2100.00000
G1 Z0.800 F10800.000
G1 X126.533 Y86.501
G1 Z0.200
G1 E0.80000 F2100.00000
G1 F1200.000
G1 X126.533 Y84.206 E0.07197
G1 X127.753 Y84.206 E0.03826
G1 X128.346 Y84.912 E0.02889
G1 X130.848 Y86.242 E0.08887
G1 X130.821 Y86.352 E0.00353
G1 X130.821 Y86.593 E0.00756
G1 X126.593 Y86.503 E0.13259
G1 E-0.80000 F2100.00000
G1 Z0.800 F10800.000
G1 X98.636 Y86.285
G1 Z0.200
G1 E0.80000 F2100.00000
G1 F1200.000
G1 X96.266 Y86.235 E0.07433
G1 X95.354 Y86.176 E0.02867
G1 X94.452 Y86.048 E0.02856
G1 X93.563 Y85.850 E0.02856
G1 X92.692 Y85.584 E0.02856
G1 X91.821 Y85.243 E0.02933
G1 X91.853 Y85.061 E0.00579
G1 X103.199 Y84.714 E0.35592
G1 X102.144 Y83.829 E0.04318
G1 X116.616 Y83.829 E0.45376
G1 X116.616 Y86.184 E0.07384
G1 X126.156 Y86.184 E0.29912
G1 X126.156 Y83.829 E0.07384
G1 X127.929 Y83.829 E0.05559
G1 X128.587 Y84.613 E0.03211
G1 X131.933 Y86.392 E0.11881
G1 X131.933 Y86.791 E0.01250
G1 X131.198 Y86.791 E0.02305
G1 X131.198 Y86.978 E0.00586
G1 X98.696 Y86.286 E1.01930
G1 X98.443 Y85.935 F10800.000
G1 X98.269 Y85.571
G1 F1200.000
G1 X97.282 Y85.576 E0.02275
G1 X96.294 Y85.580 E0.01871
G1 X95.856 Y85.573 E0.00651
G1 X95.417 Y85.566 E0.00500
G1 X95.129 Y85.550 E0.00229
G1 X93.859 Y85.460 F10800.000
G1 F1200.000
G1 X93.618 Y85.427 E0.00942
G1 X93.378 Y85.395 E0.00849
G1 X93.137 Y85.363 E0.00756
G1 X92.896 Y85.331 E0.00663
G1 X92.656 Y85.299 E0.00570
G1 X92.415 Y85.267 E0.00477
G1 E-0.80000 F2100.00000
G1 Z0.800 F10800.000
G1 X98.269 Y85.571
G1 Z0.200
G1 E0.80000 F2100.00000
G1 F1200.000
G1 X99.257 Y85.567 E0.02680
G1 X100.244 Y85.562 E0.03085
G1 X101.231 Y85.557 E0.03489
G1 X102.219 Y85.553 E0.03894
G1 X103.206 Y85.548 E0.04299
G1 X104.194 Y85.544 E0.04704
G1 X104.335 Y85.170 F10800.000
G1 F1200.000
G1 X104.924 Y85.759 E0.02642
G1 X105.475 Y85.771 E0.01749
G1 X104.193 Y84.489 E0.05751
G1 X104.733 Y84.489 E0.01712
G1 X106.027 Y85.782 E0.05803
G1 X106.578 Y85.794 E0.01749
G1 X105.273 Y84.489 E0.05856
G1 X105.812 Y84.489 E0.01712
G1 X107.129 Y85.806 E0.05909
G1 X107.680 Y85.817 E0.01749
G1 X106.352 Y84.489 E0.05961
G1 X106.891 Y84.489 E0.01712
G1 X108.232 Y85.829 E0.06014
G1 X108.783 Y85.841 E0.01749
G1 X107.431 Y84.489 E0.06066
G1 X107.970 Y84.489 E0.01712
G1 X109.334 Y85.853 E0.06119
G1 X109.885 Y85.864 E0.01749
G1 X108.510 Y84.489 E0.06172
G1 X109.049 Y84.489 E0.01712
G1 X110.437 Y85.876 E0.06224
G1 X110.988 Y85.888 E0.01749
G1 X109.589 Y84.489 E0.06277
G1 X110.128 Y84.489 E0.01712
G1 X111.539 Y85.900 E0.06330
G1 X112.091 Y85.911 E0.01749
G1 X110.668 Y84.489 E0.06382
G1 X111.208 Y84.489 E0.01712
G1 X112.642 Y85.923 E0.06435
G1 X113.193 Y85.935 E0.01749
G1 X111.747 Y84.489 E0.06487
G1 X112.287 Y84.489 E0.01712
G1 X113.744 Y85.946 E0.06540
G1 X114.296 Y85.958 E0.01749
G1 X112.826 Y84.489 E0.06593
G1 X113.366 Y84.489 E0.01712
G1 X114.847 Y85.970 E0.06645
G1 X115.398 Y85.982 E0.01749
G1 X113.905 Y84.489 E0.06698
G1 X114.445 Y84.489 E0.01712
G1 X115.956 Y85.994 E0.06766
G1 X115.956 Y85.461 E0.01691
G1 X114.984 Y84.489 E0.04360
G1 X115.524 Y84.489 E0.01712
G1 X116.126 Y85.091 E0.02701
G1 X116.428 Y86.424 F10800.000
G1 F1200.000
G1 X118.411 Y86.445 E0.02392
G1 X120.394 Y86.466 E0.03074
G1 X122.378 Y86.487 E0.03755
G1 X124.361 Y86.508 E0.04436
G1 X126.345 Y86.529 E0.05118
G1 X126.646 Y85.523 F10800.000
G1 F1200.000
G1 X127.359 Y86.236 E0.03578
G1 X127.976 Y86.249 E0.02188
G1 X126.816 Y85.089 E0.05820
G1 X126.819 Y84.489 E0.02130
G1 X128.592 Y86.262 E0.08899
G1 X129.209 Y86.275 E0.02188
G1 X127.422 Y84.489 E0.08965
G1 X127.621 Y84.489 E0.00707
G1 X128.164 Y85.136 E0.02996
G1 X129.250 Y85.713 E0.04362
G1 X129.999 Y86.462 E0.03759
G1 E-0.80000 F2100.00000
G1 Z0.800 F10800.000
G1 X99.503 Y92.190
G1 Z0.200
G1 E0.80000 F2100.00000
G1 F1200.000
G1 X77.783 Y91.523 E0.68135
G1 X77.517 Y91.537 E0.00833
G1 X77.234 Y91.599 E0.00909
G1 X76.965 Y91.706 E0.00909
G1 X76.717 Y91.857 E0.00909
G1 X76.497 Y92.046 E0.00911
G1 X76.222 Y92.376 E0.01347
G1 X76.116 Y92.468 E0.00440
G1 X75.997 Y92.542 E0.00440
G1 X75.732 Y92.630 E0.00876
G1 X75.569 Y92.643 E0.00513
G1 X66.444 Y92.642 E0.28609
G1 X60.994 Y89.496 E0.19732
G1 X60.994 Y87.900 E0.05004
G1 X66.874 Y84.505 E0.21288
G1 X66.874 Y84.206 E0.00938
G1 X75.693 Y84.206 E0.27653
G1 X76.027 Y84.470 E0.01334
G1 X76.099 Y84.721 E0.00816
G1 X76.206 Y84.951 E0.00796
G1 X76.364 Y85.194 E0.00910
G1 X76.553 Y85.397 E0.00870
G1 X76.768 Y85.567 E0.00859
G1 X77.006 Y85.702 E0.00859
G1 X77.263 Y85.799 E0.00860
G1 X77.532 Y85.854 E0.00860
G1 X77.783 Y85.866 E0.00788
G1 X83.860 Y85.681 E0.19063
G1 X84.491 Y86.366 E0.02922
G1 X85.446 Y87.263 E0.04107
G1 X86.469 Y88.084 E0.04113
G1 X87.552 Y88.824 E0.04113
G1 X88.689 Y89.478 E0.04113
G1 X89.873 Y90.042 E0.04113
G1 X91.098 Y90.512 E0.04113
G1 X92.355 Y90.887 E0.04113
G1 X93.637 Y91.163 E0.04113
G1 X94.937 Y91.339 E0.04113
G1 X96.234 Y91.413 E0.04075
G1 X130.821 Y92.149 E1.08468
G1 X130.821 Y92.419 E0.00845
G1 X130.848 Y92.528 E0.00353
G1 X127.930 Y94.079 E0.10363
G1 X120.956 Y92.850 E0.22204
G1 X99.563 Y92.192 E0.67107
G1 X99.667 Y92.573 F10800.000
G1 F1200.000
G1 X77.787 Y91.900 E0.68638
G1 X77.568 Y91.912 E0.00687
G1 X77.346 Y91.961 E0.00714
G1 X77.134 Y92.045 E0.00714
G1 X76.939 Y92.163 E0.00714
G1 X76.766 Y92.311 E0.00715
G1 X76.492 Y92.640 E0.01343
G1 X76.341 Y92.772 E0.00628
G1 X76.171 Y92.878 E0.00628
G1 X75.986 Y92.956 E0.00628
G1 X75.792 Y93.003 E0.00628
G1 X75.584 Y93.020 E0.00655
G1 X66.343 Y93.019 E0.28972
G1 X60.617 Y89.713 E0.20732
G1 X60.617 Y87.682 E0.06369
G1 X66.497 Y84.287 E0.21288
G1 X66.497 Y83.829 E0.01437
G1 X75.825 Y83.829 E0.29247
G1 X76.379 Y84.269 E0.02219
G1 X76.453 Y84.588 E0.01027
G1 X76.536 Y84.767 E0.00620
G1 X76.663 Y84.961 E0.00725
G1 X76.810 Y85.120 E0.00679
G1 X76.979 Y85.254 E0.00675
G1 X77.166 Y85.359 E0.00675
G1 X77.368 Y85.435 E0.00675
G1 X77.579 Y85.479 E0.00675
G1 X77.786 Y85.488 E0.00649
G1 X84.020 Y85.299 E0.19556
G1 X84.759 Y86.100 E0.03419
G1 X85.694 Y86.978 E0.04019
G1 X86.694 Y87.781 E0.04021
G1 X87.753 Y88.504 E0.04021
G1 X88.864 Y89.144 E0.04021
G1 X90.022 Y89.695 E0.04021
G1 X91.219 Y90.155 E0.04021
G1 X92.449 Y90.521 E0.04021
G1 X93.702 Y90.791 E0.04021
G1 X94.973 Y90.963 E0.04021
G1 X96.249 Y91.037 E0.04008
G1 X131.198 Y91.780 E1.09604
G1 X131.198 Y91.979 E0.00624
G1 X131.933 Y91.979 E0.02305
G1 X131.933 Y92.378 E0.01250
G1 X127.992 Y94.473 E0.13994
G1 X120.917 Y93.226 E0.22526
G1 X99.727 Y92.575 E0.66470
G1 X99.482 Y92.218 F10800.000
G1 X101.211 Y91.881
G1 F1200.000
G1 X96.224 Y91.751 E0.14344
G1 X94.909 Y91.694 E0.03274
G1 X94.455 Y91.656 E0.01134
G1 X93.153 Y91.532 E0.04642
G1 X93.000 Y91.852 F10800.000
G1 F1200.000
G1 X92.316 Y91.168 E0.03078
G1 X91.549 Y90.942 E0.02546
G1 X92.293 Y91.686 E0.03349
G1 X91.735 Y91.669 E0.01778
G1 X90.746 Y90.680 E0.04450
G1 X89.867 Y90.342 E0.02998
G1 X91.176 Y91.652 E0.05895
G1 X90.618 Y91.634 E0.01778
G1 X88.852 Y89.868 E0.07950
G1 X88.558 Y89.728 E0.01036
G1 X87.646 Y89.204 E0.03346
G1 X90.059 Y91.617 E0.10861
G1 X89.501 Y91.600 E0.01778
G1 X85.851 Y87.950 E0.16427
G1 X85.261 Y87.476 E0.02411
G1 X84.290 Y86.565 E0.04236
G1 X83.739 Y85.967 E0.02587
G1 X83.339 Y85.980 E0.01275
G1 X88.942 Y91.583 E0.25221
G1 X88.384 Y91.566 E0.01778
G1 X82.814 Y85.996 E0.25072
G1 X82.288 Y86.012 E0.01673
G1 X87.825 Y91.549 E0.24923
G1 X87.267 Y91.532 E0.01778
G1 X81.763 Y86.028 E0.24774
G1 X81.238 Y86.043 E0.01673
G1 X86.708 Y91.514 E0.24625
G1 X86.150 Y91.497 E0.01778
G1 X80.712 Y86.059 E0.24475
G1 X80.187 Y86.075 E0.01673
G1 X85.591 Y91.480 E0.24326
G1 X85.033 Y91.463 E0.01778
G1 X79.662 Y86.091 E0.24177
G1 X79.136 Y86.107 E0.01673
G1 X84.475 Y91.446 E0.24028
G1 X83.916 Y91.429 E0.01778
G1 X78.611 Y86.123 E0.23879
G1 X78.086 Y86.139 E0.01673
G1 X83.358 Y91.411 E0.23729
G1 X82.799 Y91.394 E0.01778
G1 X77.333 Y85.928 E0.24602
G1 E-0.80000 F2100.00000
G1 Z0.800 F10800.000
G1 X82.416 Y91.552
G1 Z0.200
G1 E0.80000 F2100.00000
G1 F1200.000
G1 X75.352 Y84.489 E0.31793
G1 X74.811 Y84.489 E0.01723
G1 X81.682 Y91.360 E0.30927
G1 X81.124 Y91.343 E0.01778
G1 X74.270 Y84.489 E0.30850
G1 X73.728 Y84.489 E0.01723
G1 X80.565 Y91.326 E0.30773
G1 X80.007 Y91.308 E0.01778
G1 X73.187 Y84.489 E0.30696
G1 X72.646 Y84.489 E0.01723
G1 X79.448 Y91.291 E0.30618
G1 X78.890 Y91.274 E0.01778
G1 X72.104 Y84.489 E0.30541
G1 X71.563 Y84.489 E0.01723
G1 X78.331 Y91.257 E0.30464
G1 X77.773 Y91.240 E0.01777
G1 X71.022 Y84.489 E0.30389
G1 X70.480 Y84.489 E0.01723
G1 X77.289 Y91.297 E0.30646
G1 X77.151 Y91.328 E0.00450
G1 X76.885 Y91.434 E0.00913
G1 X69.939 Y84.489 E0.31262
G1 X69.398 Y84.489 E0.01723
G1 X76.543 Y91.634 E0.32160
G1 X76.258 Y91.890 E0.01220
G1 X68.857 Y84.489 E0.33315
G1 X68.315 Y84.489 E0.01723
G1 X76.011 Y92.185 E0.34639
G1 X75.947 Y92.240 E0.00269
G1 X75.876 Y92.284 E0.00266
G1 X75.639 Y92.353 E0.00788
G1 X67.774 Y84.489 E0.35399
G1 X67.233 Y84.489 E0.01723
G1 X75.104 Y92.360 E0.35429
G1 X74.563 Y92.360 E0.01723
G1 X66.976 Y84.773 E0.34149
G1 X66.632 Y84.971 E0.01261
G1 X74.021 Y92.360 E0.33257
G1 X73.480 Y92.360 E0.01723
G1 X66.289 Y85.169 E0.32365
G1 X65.946 Y85.367 E0.01261
G1 X72.939 Y92.360 E0.31474
G1 X72.397 Y92.360 E0.01723
G1 X65.603 Y85.565 E0.30582
G1 X65.260 Y85.764 E0.01261
G1 X71.856 Y92.360 E0.29690
G1 X71.315 Y92.360 E0.01723
G1 X64.916 Y85.962 E0.28798
G1 X64.573 Y86.160 E0.01261
G1 X70.773 Y92.360 E0.27906
G1 X70.232 Y92.360 E0.01723
G1 X64.230 Y86.358 E0.27014
G1 X63.887 Y86.556 E0.01261
G1 X69.691 Y92.360 E0.26122
G1 X69.149 Y92.360 E0.01723
G1 X63.544 Y86.754 E0.25230
G1 X63.201 Y86.952 E0.01261
G1 X68.608 Y92.360 E0.24338
G1 X68.066 Y92.360 E0.01723
G1 X62.857 Y87.151 E0.23446
G1 X62.514 Y87.349 E0.01261
G1 X67.525 Y92.360 E0.22554
G1 X66.984 Y92.360 E0.01723
G1 X62.171 Y87.547 E0.21663
G1 X61.828 Y87.745 E0.01261
G1 X66.337 Y92.254 E0.20294
G1 X65.056 Y91.514 E0.04707
G1 X61.485 Y87.943 E0.16074
G1 X61.277 Y88.063 E0.00764
G1 X61.277 Y88.277 E0.00680
G1 X63.775 Y90.775 E0.11244
G1 X62.494 Y90.035 E0.04707
G1 X61.107 Y88.648 E0.06243
G1 E-0.80000 F2100.00000
G1 Z0.800 F10800.000
G1 X101.211 Y91.881
G1 Z0.200
G1 E0.80000 F2100.00000
G1 F1200.000
G1 X106.198 Y92.011 E0.16278
G1 X111.184 Y92.140 E0.18212
G1 X116.171 Y92.270 E0.20145
G1 X121.158 Y92.400 E0.22079
G1 X122.235 Y92.960 F10800.000
G1 F1200.000
G1 X121.509 Y92.234 E0.03372
G1 X122.079 Y92.246 E0.01872
G1 X122.704 Y92.871 E0.02899
G1 X123.381 Y92.990 E0.02259
G1 X122.649 Y92.258 E0.03397
G1 X123.220 Y92.270 E0.01872
G1 X124.059 Y93.110 E0.03896
G1 X124.737 Y93.229 E0.02259
G1 X123.790 Y92.282 E0.04394
G1 X124.360 Y92.295 E0.01872
G1 X125.415 Y93.349 E0.04892
G1 X126.092 Y93.468 E0.02259
G1 X124.931 Y92.307 E0.05391
G1 X125.501 Y92.319 E0.01872
G1 X126.770 Y93.588 E0.05889
G1 X127.448 Y93.707 E0.02259
G1 X126.071 Y92.331 E0.06387
G1 X126.642 Y92.343 E0.01872
G1 X128.013 Y93.715 E0.06366
G1 X128.378 Y93.521 E0.01355
G1 X127.212 Y92.355 E0.05410
G1 X127.782 Y92.367 E0.01872
G1 X128.742 Y93.327 E0.04455
G1 X129.107 Y93.133 E0.01355
G1 X128.353 Y92.380 E0.03499
G1 X128.923 Y92.392 E0.01872
G1 X129.471 Y92.940 E0.02543
G1 X129.835 Y92.746 E0.01355
G1 X129.493 Y92.404 E0.01588
G1 X130.064 Y92.416 E0.01872
G1 X130.325 Y92.678 E0.01214
G1 E-0.80000 F2100.00000
G1 Z0.800 F10800.000
G1 X100.934 Y108.774
G1 Z0.200
G1 E0.80000 F2100.00000
M73 P0 R156
G1 F1200.000
G1 X101.728 Y108.577 E0.01202
G1 E-0.80000 F2100.00000
G1 Z0.800 F10800.000
G1 X93.939 Y109.559
G1 Z0.200
G1 E0.80000 F2100.00000
G1 F1200.000
G1 X76.311 Y109.934 E0.55284
G1 X76.311 Y107.854 E0.06521
G1 X89.370 Y107.854 E0.40946
G1 X88.351 Y108.709 E0.04173
G1 X98.511 Y109.018 E0.31872
G1 X98.530 Y109.217 E0.00626
G1 X98.031 Y109.328 E0.01603
G1 X97.158 Y109.452 E0.02765
G1 X96.268 Y109.509 E0.02797
G1 X93.999 Y109.557 E0.07114
G1 E-0.80000 F2100.00000
G1 Z0.800 F10800.000
G1 X66.017 Y110.153
G1 Z0.200
G1 E0.80000 F2100.00000
G1 F1200.000
G1 X61.729 Y110.244 E0.13447
G1 X61.729 Y109.999 E0.00766
G1 X61.702 Y109.890 E0.00353
G1 X64.204 Y108.560 E0.08887
G1 X64.797 Y107.854 E0.02889
G1 X66.017 Y107.854 E0.03826
G1 X66.017 Y110.093 E0.07020
G1 E-0.80000 F2100.00000
G1 Z0.800 F10800.000
G1 X93.915 Y109.936
G1 Z0.200
G1 E0.80000 F2100.00000
G1 F1200.000
G1 X61.352 Y110.629 E1.02122
G1 X61.352 Y110.439 E0.00596
G1 X60.617 Y110.439 E0.02305
G1 X60.617 Y110.040 E0.01250
G1 X63.963 Y108.261 E0.11881
G1 X64.621 Y107.477 E0.03211
G1 X66.394 Y107.477 E0.05559
G1 X66.394 Y109.832 E0.07384
G1 X75.934 Y109.832 E0.29912
G1 X75.934 Y107.477 E0.07384
G1 X90.406 Y107.477 E0.45376
G1 X89.351 Y108.362 E0.04320
G1 X100.709 Y108.707 E0.35630
G1 X100.741 Y108.889 E0.00579
G1 X99.859 Y109.235 E0.02969
G1 X98.988 Y109.501 E0.02856
G1 X98.098 Y109.699 E0.02856
G1 X97.196 Y109.827 E0.02856
G1 X96.284 Y109.886 E0.02868
G1 X93.975 Y109.935 E0.07240
G1 X93.706 Y109.595 F10800.000
G1 X94.295 Y109.220
G1 F1200.000
G1 X92.334 Y109.211 E0.05364
G1 X90.373 Y109.203 E0.06955
G1 X88.412 Y109.194 E0.08547
G1 X88.657 Y108.305 F10800.000
G1 F1200.000
G1 X88.489 Y108.137 E0.00755
G1 X87.948 Y108.137 E0.01718
G1 X88.242 Y108.431 E0.01323
G1 X87.948 Y108.677 E0.01219
G1 X87.408 Y108.137 E0.02431
G1 X86.867 Y108.137 E0.01718
G1 X88.128 Y109.399 E0.05672
G1 X87.600 Y109.411 E0.01678
G1 X86.326 Y108.137 E0.05726
G1 X85.786 Y108.137 E0.01718
G1 X87.071 Y109.422 E0.05777
G1 X86.542 Y109.433 E0.01683
G1 X85.245 Y108.137 E0.05828
G1 X84.705 Y108.137 E0.01718
G1 X86.013 Y109.444 E0.05878
G1 X85.483 Y109.456 E0.01683
G1 X84.164 Y108.137 E0.05929
G1 X83.624 Y108.137 E0.01718
G1 X84.954 Y109.467 E0.05979
G1 X84.425 Y109.478 E0.01683
G1 X83.083 Y108.137 E0.06030
G1 X82.542 Y108.137 E0.01718
G1 X83.895 Y109.489 E0.06081
G1 X83.366 Y109.501 E0.01683
G1 X82.002 Y108.137 E0.06131
G1 X81.461 Y108.137 E0.01718
G1 X82.837 Y109.512 E0.06182
G1 X82.307 Y109.523 E0.01683
G1 X80.921 Y108.137 E0.06233
G1 X80.380 Y108.137 E0.01718
G1 X81.778 Y109.534 E0.06283
G1 X81.249 Y109.546 E0.01683
G1 X79.840 Y108.137 E0.06334
G1 X79.299 Y108.137 E0.01718
G1 X80.720 Y109.557 E0.06384
G1 X80.190 Y109.568 E0.01683
G1 X78.759 Y108.137 E0.06435
G1 X78.218 Y108.137 E0.01718
G1 X79.661 Y109.579 E0.06486
G1 X79.132 Y109.591 E0.01683
G1 X77.677 Y108.137 E0.06536
G1 X77.137 Y108.137 E0.01718
G1 X78.602 Y109.602 E0.06587
