; generated by PrusaSlicer 2.2.0+win64 on 2021-04-19 at 17:11:50 UTC

; 

; external perimeters extrusion width = 0.45mm
; perimeters extrusion width = 0.45mm
; infill extrusion width = 0.45mm
; solid infill extrusion width = 0.45mm
; top infill extrusion width = 0.40mm
; first layer extrusion width = 0.42mm

M73 P0 R26
M201 X9000 Y9000 Z500 E10000 ; sets maximum accelerations, mm/sec^2
M203 X500 Y500 Z12 E120 ; sets maximum feedrates, mm/sec
M204 P2000 R1500 T2000 ; sets acceleration (P, T) and retract acceleration (R), mm/sec^2
M205 X10.00 Y10.00 Z0.20 E2.50 ; sets the jerk limits, mm/sec
M205 S0 T0 ; sets the minimum extruding and travel feed rate, mm/sec
M107
M862.3 P "MK2S" ; printer model check
M862.1 P0.4 ; nozzle diameter check
M115 U3.2.3 ; tell printer latest fw version
G90 ; use absolute coordinates
M83 ; extruder relative mode
M204 S2000 T1500 ; MK2 firmware only supports the old M204 format
M104 S215 ; set extruder temp
M140 S60 ; set bed temp
M190 S60 ; wait for bed temp
M109 S215 ; wait for extruder temp
G28 W ; home all without mesh bed level
G80 ; mesh bed leveling
G1 Y-3.0 F1000.0 ; go outside print area
G92 E0.0
G1 X60.0 E9.0  F1000.0 ; intro line
M73 P0 R26
G1 X100.0 E12.5 F1000.0 ; intro line
G92 E0.0
G21 ; set units to millimeters
G90 ; use absolute coordinates
M83 ; use relative distances for extrusion
M900 K0.05 ; Filament gcode LA 1.5
M900 K30 ; Filament gcode LA 1.0
;BEFORE_LAYER_CHANGE
G92 E0.0
;0.2


G1 E-0.80000 F2100.00000
G1 Z0.600 F10800.000
;AFTER_LAYER_CHANGE
;0.2
G1 X125.745 Y98.822
G1 Z0.200
G1 E0.80000 F2100.00000
M204 S1000
G1 F1200.000
G1 X126.149 Y98.994 E0.01377
G1 X126.596 Y99.223 E0.01577
G1 X127.024 Y99.485 E0.01572
G1 X127.431 Y99.778 E0.01572
G1 X127.814 Y100.101 E0.01572
G1 X128.172 Y100.452 E0.01572
G1 X128.502 Y100.829 E0.01572
G1 X128.803 Y101.230 E0.01572
G1 X129.072 Y101.652 E0.01572
G1 X129.309 Y102.094 E0.01572
G1 X129.512 Y102.553 E0.01572
G1 X129.679 Y103.025 E0.01572
G1 X129.810 Y103.509 E0.01572
G1 X129.905 Y104.001 E0.01572
G1 X129.961 Y104.499 E0.01572
G1 X129.980 Y105.000 E0.01572
G1 X129.965 Y105.399 E0.01252
G1 X129.904 Y106.002 E0.01902
G1 X129.810 Y106.491 E0.01560
G1 X129.679 Y106.975 E0.01572
G1 X129.512 Y107.447 E0.01572
G1 X129.350 Y107.812 E0.01252
G1 X129.070 Y108.351 E0.01902
G1 X128.803 Y108.770 E0.01560
G1 X128.563 Y109.089 E0.01252
G1 X128.169 Y109.551 E0.01902
G1 X127.814 Y109.899 E0.01560
G1 X127.431 Y110.222 E0.01572
G1 X127.024 Y110.515 E0.01572
G1 X126.596 Y110.777 E0.01572
G1 X126.149 Y111.006 E0.01577
G1 X125.745 Y111.178 E0.01377
G1 X125.745 Y98.882 E0.38555
G1 E-0.80000 F2100.00000
G1 Z0.800 F10800.000
G1 X125.000 Y113.110
G1 Z0.200
G1 E0.80000 F2100.00000
G1 F1200.000
G1 X121.348 Y113.110 E0.11452
G1 X121.348 Y96.890 E0.50857
G1 X125.368 Y96.890 E0.12604
G1 X125.368 Y113.110 E0.50857
G1 X125.060 Y113.110 E0.00964
G1 X124.997 Y113.510 F10800.000
G1 X120.970 Y111.176
G1 F1200.000
G1 X120.335 Y110.893 E0.02179
G1 X119.902 Y110.650 E0.01556
G1 X119.485 Y110.373 E0.01572
G1 X119.090 Y110.064 E0.01572
G1 X118.719 Y109.727 E0.01572
G1 X118.375 Y109.363 E0.01572
G1 X118.059 Y108.973 E0.01572
G1 X117.774 Y108.561 E0.01572
G1 X117.520 Y108.129 E0.01572
G1 X117.300 Y107.678 E0.01572
G1 X117.115 Y107.213 E0.01572
G1 X116.966 Y106.734 E0.01572
G1 X116.853 Y106.246 E0.01572
G1 X116.777 Y105.750 E0.01572
G1 X116.739 Y105.251 E0.01572
G1 X116.739 Y104.749 E0.01572
G1 X116.777 Y104.250 E0.01572
G1 X116.853 Y103.754 E0.01572
G1 X116.966 Y103.266 E0.01572
G1 X117.115 Y102.787 E0.01572
G1 X117.300 Y102.322 E0.01572
G1 X117.520 Y101.871 E0.01572
G1 X117.774 Y101.439 E0.01572
G1 X118.059 Y101.027 E0.01572
G1 X118.375 Y100.637 E0.01572
G1 X118.719 Y100.273 E0.01572
G1 X119.090 Y99.936 E0.01572
G1 X119.485 Y99.627 E0.01572
G1 X119.902 Y99.350 E0.01572
G1 X120.335 Y99.107 E0.01556
G1 X120.970 Y98.824 E0.02179
G1 X120.970 Y111.116 E0.38538
G1 X125.000 Y113.490 F10800.000
G1 F1200.000
G1 X120.968 Y113.490 E0.12644
G1 X120.968 Y111.587 E0.05967
G1 X120.166 Y111.230 E0.02750
G1 X119.706 Y110.972 E0.01656
G1 X119.264 Y110.679 E0.01661
G1 X118.847 Y110.353 E0.01661
G1 X118.455 Y109.996 E0.01661
G1 X118.091 Y109.611 E0.01661
G1 X117.757 Y109.200 E0.01661
G1 X117.456 Y108.764 E0.01661
G1 X117.188 Y108.307 E0.01661
G1 X116.955 Y107.831 E0.01661
G1 X116.760 Y107.339 E0.01661
G1 X116.602 Y106.833 E0.01661
G1 X116.482 Y106.317 E0.01661
G1 X116.402 Y105.793 E0.01661
G1 X116.362 Y105.265 E0.01661
G1 X116.362 Y104.735 E0.01661
G1 X116.402 Y104.207 E0.01661
G1 X116.482 Y103.683 E0.01661
G1 X116.602 Y103.167 E0.01661
G1 X116.760 Y102.661 E0.01661
G1 X116.955 Y102.169 E0.01661
G1 X117.188 Y101.693 E0.01661
G1 X117.456 Y101.236 E0.01661
G1 X117.757 Y100.800 E0.01661
G1 X118.091 Y100.389 E0.01661
G1 X118.455 Y100.004 E0.01661
G1 X118.847 Y99.647 E0.01661
G1 X119.264 Y99.321 E0.01661
G1 X119.706 Y99.028 E0.01661
G1 X120.166 Y98.770 E0.01656
G1 X120.968 Y98.413 E0.02750
G1 X120.968 Y96.510 E0.05967
G1 X125.748 Y96.510 E0.14987
G1 X125.748 Y98.413 E0.05967
G1 X126.309 Y98.652 E0.01913
G1 X126.781 Y98.894 E0.01663
G1 X127.233 Y99.170 E0.01661
G1 X127.663 Y99.480 E0.01661
G1 X128.068 Y99.822 E0.01661
G1 X128.446 Y100.193 E0.01661
G1 X128.795 Y100.591 E0.01661
G1 X129.113 Y101.015 E0.01661
G1 X129.398 Y101.462 E0.01661
G1 X129.648 Y101.929 E0.01661
G1 X129.862 Y102.413 E0.01661
G1 X130.039 Y102.913 E0.01661
G1 X130.178 Y103.424 E0.01661
G1 X130.278 Y103.944 E0.01661
G1 X130.338 Y104.471 E0.01661
G1 X130.358 Y105.000 E0.01661
G1 X130.342 Y105.425 E0.01334
G1 X130.277 Y106.057 E0.01992
G1 X130.178 Y106.576 E0.01657
G1 X130.039 Y107.087 E0.01661
G1 X129.862 Y107.587 E0.01661
G1 X129.690 Y107.976 E0.01334
G1 X129.397 Y108.539 E0.01992
G1 X129.113 Y108.985 E0.01657
G1 X128.858 Y109.325 E0.01334
G1 X128.445 Y109.808 E0.01992
G1 X128.068 Y110.178 E0.01657
G1 X127.663 Y110.520 E0.01661
G1 X127.233 Y110.830 E0.01661
G1 X126.781 Y111.106 E0.01661
G1 X126.309 Y111.348 E0.01663
G1 X125.748 Y111.587 E0.01913
G1 X125.748 Y113.490 E0.05967
G1 X125.060 Y113.490 E0.02156
G1 X124.681 Y113.248 F10800.000
G1 X126.391 Y110.755
G1 F1200.000
G1 X126.027 Y110.391 E0.01683
G1 X126.027 Y109.835 E0.01816
G1 X126.622 Y110.430 E0.02749
G1 X126.961 Y110.212 E0.01315
G1 X126.027 Y109.279 E0.04313
G1 X126.027 Y108.723 E0.01816
G1 X127.282 Y109.978 E0.05798
G1 X127.584 Y109.724 E0.01289
G1 X126.027 Y108.167 E0.07192
G1 X126.027 Y107.612 E0.01816
G1 X127.867 Y109.451 E0.08501
G1 X128.131 Y109.160 E0.01286
G1 X126.027 Y107.056 E0.09723
G1 X126.027 Y106.500 E0.01816
G1 X128.384 Y108.857 E0.10891
G1 X128.618 Y108.534 E0.01301
G1 X126.027 Y105.944 E0.11970
G1 X126.027 Y105.388 E0.01816
G1 X128.833 Y108.194 E0.12965
G1 X129.023 Y107.828 E0.01347
G1 X126.027 Y104.833 E0.13844
G1 X126.027 Y104.277 E0.01816
G1 X129.201 Y107.450 E0.14667
G1 X129.353 Y107.047 E0.01409
G1 X126.027 Y103.721 E0.15371
G1 X126.027 Y103.165 E0.01816
G1 X129.482 Y106.620 E0.15967
G1 X129.585 Y106.167 E0.01519
G1 X126.027 Y102.609 E0.16439
G1 X126.027 Y102.054 E0.01816
G1 X129.653 Y105.679 E0.16754
G1 X129.691 Y105.162 E0.01695
G1 X126.027 Y101.498 E0.16932
G1 X126.027 Y100.942 E0.01816
G1 X129.682 Y104.597 E0.16890
G1 X129.611 Y103.969 E0.02063
G1 X126.027 Y100.386 E0.16560
G1 X126.027 Y99.830 E0.01816
G1 X129.447 Y103.250 E0.15804
G1 X129.249 Y102.657 E0.02043
G1 X129.121 Y102.368 E0.01034
G1 X126.027 Y99.275 E0.14296
G1 X126.027 Y99.250 E0.00082
G1 X126.458 Y99.470 E0.01580
G1 X126.867 Y99.720 E0.01568
G1 X127.257 Y100.001 E0.01568
G1 X127.593 Y100.284 E0.01437
G1 X128.897 Y101.589 E0.06029
G1 E-0.80000 F2100.00000
G1 Z0.800 F10800.000
G1 X120.857 Y99.784
G1 Z0.200
G1 E0.80000 F2100.00000
G1 F1200.000
G1 X120.444 Y99.371 E0.01912
G1 X120.088 Y99.570 E0.01334
G1 X120.688 Y100.170 E0.02773
G1 X120.688 Y100.726 E0.01816
G1 X119.751 Y99.790 E0.04326
G1 X119.433 Y100.027 E0.01298
G1 X120.688 Y101.282 E0.05799
G1 X120.688 Y101.837 E0.01816
G1 X119.131 Y100.281 E0.07194
G1 X118.845 Y100.551 E0.01284
G1 X120.688 Y102.393 E0.08513
G1 X120.688 Y102.949 E0.01816
G1 X118.576 Y100.838 E0.09756
G1 X118.328 Y101.144 E0.01291
G1 X120.688 Y103.505 E0.10906
G1 X120.688 Y104.060 E0.01816
G1 X118.097 Y101.469 E0.11973
G1 X117.883 Y101.811 E0.01318
G1 X120.688 Y104.616 E0.12959
G1 X120.688 Y105.172 E0.01816
G1 X117.688 Y102.172 E0.13860
G1 X117.513 Y102.553 E0.01369
G1 X120.688 Y105.727 E0.14670
G1 X120.688 Y106.283 E0.01816
G1 X117.359 Y102.955 E0.15380
G1 X117.229 Y103.381 E0.01455
G1 X120.688 Y106.839 E0.15979
G1 X120.688 Y107.395 E0.01816
G1 X117.127 Y103.834 E0.16454
G1 X117.059 Y104.282 E0.01480
G1 X117.056 Y104.318 E0.00120
G1 X120.688 Y107.950 E0.16782
G1 X120.688 Y108.506 E0.01816
G1 X117.022 Y104.841 E0.16937
G1 X117.035 Y105.409 E0.01858
G1 X120.688 Y109.062 E0.16878
G1 X120.688 Y109.617 E0.01816
G1 X117.107 Y106.037 E0.16545
G1 X117.268 Y106.754 E0.02400
G1 X120.688 Y110.173 E0.15801
G1 X120.688 Y110.729 E0.01816
G1 X117.594 Y107.635 E0.14294
G1 X117.770 Y107.995 E0.01308
G1 X118.012 Y108.409 E0.01568
G1 X118.286 Y108.804 E0.01568
G1 X118.729 Y109.326 E0.02239
G1 X119.947 Y110.544 E0.05628
M106 S255
;BEFORE_LAYER_CHANGE
G92 E0.0
;0.4


G1 E-0.80000 F2100.00000
G1 Z0.800 F10800.000
;AFTER_LAYER_CHANGE
;0.4
G1 X125.790 Y111.353
G1 Z0.400
G1 E0.80000 F2100.00000
M204 S800
G1 F1344
G1 X125.790 Y98.647 E0.43007
G1 X126.231 Y98.828 E0.01614
G1 X126.687 Y99.061 E0.01735
G1 X127.127 Y99.330 E0.01744
G1 X127.545 Y99.632 E0.01744
G1 X127.939 Y99.964 E0.01744
G1 X128.306 Y100.324 E0.01744
G1 X128.646 Y100.712 E0.01744
G1 X128.955 Y101.124 E0.01744
G1 X129.232 Y101.559 E0.01744
G1 X129.475 Y102.013 E0.01744
G1 X129.684 Y102.484 E0.01744
G1 X129.856 Y102.970 E0.01744
G1 X129.991 Y103.467 E0.01744
G1 X130.088 Y103.973 E0.01744
G1 X130.146 Y104.485 E0.01744
G1 X130.166 Y105.000 E0.01744
G1 X130.146 Y105.515 E0.01744
G1 X130.088 Y106.027 E0.01744
G1 X129.991 Y106.533 E0.01744
G1 X129.856 Y107.030 E0.01744
G1 X129.684 Y107.516 E0.01744
G1 X129.475 Y107.987 E0.01744
G1 X129.232 Y108.441 E0.01744
G1 X128.955 Y108.876 E0.01744
G1 X128.646 Y109.288 E0.01744
G1 X128.306 Y109.676 E0.01744
G1 X127.939 Y110.036 E0.01744
G1 X127.545 Y110.368 E0.01744
G1 X127.127 Y110.670 E0.01744
G1 X126.687 Y110.939 E0.01744
G1 X126.231 Y111.172 E0.01735
G1 X125.845 Y111.330 E0.01411
M204 S1000
G1 X125.000 Y113.125 F10800.000
M204 S800
G1 F1344
G1 X121.333 Y113.125 E0.12414
G1 X121.333 Y96.875 E0.55004
G1 X125.383 Y96.875 E0.13709
G1 X125.383 Y113.125 E0.55004
G1 X125.060 Y113.125 E0.01092
M204 S1000
G1 X124.997 Y113.525 F10800.000
G1 X120.925 Y111.355
M204 S800
G1 F1344
G1 X120.255 Y111.060 E0.02478
G1 X119.806 Y110.808 E0.01744
G1 X119.377 Y110.523 E0.01744
G1 X118.970 Y110.206 E0.01744
G1 X118.589 Y109.859 E0.01744
G1 X118.235 Y109.485 E0.01744
G1 X117.911 Y109.085 E0.01744
G1 X117.617 Y108.661 E0.01744
G1 X117.357 Y108.216 E0.01744
G1 X117.131 Y107.753 E0.01744
G1 X116.941 Y107.275 E0.01744
G1 X116.787 Y106.783 E0.01744
G1 X116.671 Y106.281 E0.01744
G1 X116.593 Y105.771 E0.01744
G1 X116.554 Y105.258 E0.01744
G1 X116.554 Y104.742 E0.01744
G1 X116.593 Y104.229 E0.01744
G1 X116.671 Y103.719 E0.01744
G1 X116.787 Y103.217 E0.01744
G1 X116.941 Y102.725 E0.01744
G1 X117.131 Y102.247 E0.01744
G1 X117.357 Y101.784 E0.01744
G1 X117.617 Y101.339 E0.01744
G1 X117.911 Y100.915 E0.01744
G1 X118.235 Y100.515 E0.01744
G1 X118.589 Y100.141 E0.01744
G1 X118.970 Y99.794 E0.01744
G1 X119.377 Y99.477 E0.01744
G1 X119.806 Y99.192 E0.01744
G1 X120.255 Y98.940 E0.01744
G1 X120.925 Y98.645 E0.02478
G1 X120.925 Y111.295 E0.42817
M204 S1000
G1 X125.000 Y113.475 F10800.000
M204 S800
G1 F1344
G1 X120.983 Y113.475 E0.13599
G1 X120.983 Y111.812 E0.05630
G1 X120.565 Y111.653 E0.01511
G1 X120.070 Y111.423 E0.01850
G1 X119.593 Y111.156 E0.01848
G1 X119.138 Y110.854 E0.01848
G1 X118.708 Y110.518 E0.01848
G1 X118.304 Y110.150 E0.01848
G1 X117.929 Y109.753 E0.01848
G1 X117.585 Y109.329 E0.01848
G1 X117.274 Y108.880 E0.01848
G1 X116.998 Y108.409 E0.01848
G1 X116.758 Y107.918 E0.01848
G1 X116.557 Y107.411 E0.01848
G1 X116.394 Y106.890 E0.01848
G1 X116.271 Y106.357 E0.01848
G1 X116.188 Y105.818 E0.01848
G1 X116.147 Y105.273 E0.01848
G1 X116.147 Y104.727 E0.01848
G1 X116.188 Y104.182 E0.01848
G1 X116.271 Y103.643 E0.01848
G1 X116.394 Y103.111 E0.01848
G1 X116.557 Y102.589 E0.01848
G1 X116.758 Y102.082 E0.01848
G1 X116.998 Y101.591 E0.01848
G1 X117.274 Y101.120 E0.01848
G1 X117.585 Y100.671 E0.01848
G1 X117.929 Y100.247 E0.01848
G1 X118.304 Y99.850 E0.01848
G1 X118.708 Y99.482 E0.01848
G1 X119.138 Y99.146 E0.01848
G1 X119.593 Y98.844 E0.01848
G1 X120.070 Y98.577 E0.01848
G1 X120.565 Y98.347 E0.01850
G1 X120.983 Y98.188 E0.01511
G1 X120.983 Y96.525 E0.05630
G1 X125.733 Y96.525 E0.16078
G1 X125.733 Y98.184 E0.05615
G1 X126.401 Y98.458 E0.02445
G1 X126.886 Y98.706 E0.01845
G1 X127.352 Y98.991 E0.01848
G1 X127.795 Y99.310 E0.01848
G1 X128.213 Y99.662 E0.01848
G1 X128.602 Y100.045 E0.01848
G1 X128.962 Y100.456 E0.01848
G1 X129.290 Y100.892 E0.01848
G1 X129.584 Y101.353 E0.01848
G1 X129.841 Y101.834 E0.01848
G1 X130.062 Y102.334 E0.01848
G1 X130.245 Y102.848 E0.01848
G1 X130.388 Y103.375 E0.01848
G1 X130.491 Y103.912 E0.01848
G1 X130.552 Y104.454 E0.01848
G1 X130.573 Y105.000 E0.01848
G1 X130.564 Y105.237 E0.00804
G1 X130.552 Y105.546 E0.01044
G1 X130.491 Y106.088 E0.01848
G1 X130.388 Y106.625 E0.01848
G1 X130.245 Y107.152 E0.01848
G1 X130.062 Y107.666 E0.01848
G1 X129.841 Y108.166 E0.01848
G1 X129.584 Y108.647 E0.01848
G1 X129.290 Y109.108 E0.01848
G1 X129.147 Y109.298 E0.00804
G1 X128.962 Y109.544 E0.01044
G1 X128.602 Y109.955 E0.01848
G1 X128.213 Y110.338 E0.01848
G1 X127.795 Y110.690 E0.01848
G1 X127.352 Y111.009 E0.01848
G1 X126.886 Y111.294 E0.01848
G1 X126.401 Y111.542 E0.01845
G1 X125.733 Y111.816 E0.02445
G1 X125.733 Y113.475 E0.05615
G1 X125.060 Y113.475 E0.02276
M204 S1000
G1 X124.685 Y113.229 F10800.000
G1 X126.833 Y110.706
M204 S2000
G1 F1344
G1 X128.161 Y109.378 E0.06602
G1 X128.408 Y109.095 E0.01318
G1 X128.704 Y108.702 E0.01729
G1 X128.968 Y108.287 E0.01729
G1 X129.290 Y107.651 E0.02503
G1 X126.095 Y110.847 E0.15878
G1 X126.095 Y110.249 E0.02100
G1 X129.624 Y106.720 E0.17536
G1 X129.693 Y106.464 E0.00932
G1 X129.788 Y105.958 E0.01811
G1 X126.095 Y109.651 E0.18354
G1 X126.095 Y109.054 E0.02100
G1 X129.849 Y105.300 E0.18655
G1 X129.860 Y105.000 E0.01054
G1 X129.849 Y104.702 E0.01048
G1 X126.095 Y108.456 E0.18655
G1 X126.095 Y107.858 E0.02100
G1 X129.801 Y104.152 E0.18417
G1 X129.714 Y103.642 E0.01819
G1 X126.095 Y107.261 E0.17982
G1 X126.095 Y106.663 E0.02100
G1 X129.593 Y103.165 E0.17382
G1 X129.443 Y102.718 E0.01659
G1 X126.095 Y106.066 E0.16636
G1 X126.095 Y105.468 E0.02100
G1 X129.267 Y102.296 E0.15762
G1 X129.067 Y101.898 E0.01565
G1 X126.095 Y104.870 E0.14771
G1 X126.095 Y104.273 E0.02100
G1 X128.846 Y101.521 E0.13672
G1 X128.604 Y101.166 E0.01512
G1 X126.095 Y103.675 E0.12470
G1 X126.095 Y103.077 E0.02100
G1 X128.343 Y100.830 E0.11170
G1 X128.062 Y100.513 E0.01488
G1 X126.095 Y102.480 E0.09776
G1 X126.095 Y101.882 E0.02100
G1 X127.760 Y100.217 E0.08277
G1 X127.438 Y99.941 E0.01489
G1 X126.095 Y101.285 E0.06675
G1 X126.095 Y100.687 E0.02100
G1 X127.097 Y99.685 E0.04978
G1 X126.735 Y99.449 E0.01517
G1 X126.095 Y100.089 E0.03182
G1 X126.095 Y99.492 E0.02100
G1 X126.489 Y99.097 E0.01959
M204 S1000
G1 E-0.80000 F2100.00000
G1 Z1.000 F10800.000
G1 X119.886 Y99.287
G1 Z0.400
G1 E0.80000 F2100.00000
M204 S2000
G1 F1344
G1 X118.620 Y100.553 E0.06292
G1 X118.155 Y101.099 E0.02518
G1 X117.875 Y101.503 E0.01729
G1 X117.626 Y101.928 E0.01729
G1 X117.420 Y102.350 E0.01650
G1 X120.620 Y99.150 E0.15903
G1 X120.620 Y99.748 E0.02100
G1 X117.087 Y103.281 E0.17560
G1 X116.971 Y103.777 E0.01789
G1 X116.932 Y104.034 E0.00914
G1 X120.620 Y100.345 E0.18330
G1 X120.620 Y100.943 E0.02100
G1 X116.864 Y104.700 E0.18669
G1 X116.859 Y105.246 E0.01921
G1 X116.863 Y105.297 E0.00181
G1 X120.620 Y101.541 E0.18670
G1 X120.620 Y102.138 E0.02100
G1 X116.913 Y105.845 E0.18422
G1 X117.001 Y106.355 E0.01817
G1 X120.620 Y102.736 E0.17984
G1 X120.620 Y103.334 E0.02100
G1 X117.122 Y106.832 E0.17384
G1 X117.271 Y107.280 E0.01661
