; generated by PrusaSlicer 2.2.0+win64 on 2020-07-30 at 16:15:21 UTC

; 

; external perimeters extrusion width = 0.60mm
; perimeters extrusion width = 0.43mm
; infill extrusion width = 0.45mm
; solid infill extrusion width = 0.70mm
; top infill extrusion width = 0.43mm
; first layer extrusion width = 0.42mm

M73 P0 R27
M201 X9000 Y9000 Z500 E10000 ; sets maximum accelerations, mm/sec^2
M203 X500 Y500 Z12 E120 ; sets maximum feedrates, mm/sec
M204 P2000 R1500 T2000 ; sets acceleration (P, T) and retract acceleration (R), mm/sec^2
M205 X10.00 Y10.00 Z0.20 E2.50 ; sets the jerk limits, mm/sec
M205 S0 T0 ; sets the minimum extruding and travel feed rate, mm/sec
M107
M862.3 P "MK2S" ; printer model check
M862.1 P0.4 ; nozzle diameter check
M115 U3.2.3 ; tell printer latest fw version
G90 ; use absolute coordinates
M83 ; extruder relative mode
M204 S2000 T1500 ; MK2 firmware only supports the old M204 format
M104 S215 ; set extruder temp
M140 S60 ; set bed temp
M190 S60 ; wait for bed temp
M109 S215 ; wait for extruder temp
G28 W ; home all without mesh bed level
G80 ; mesh bed leveling
G1 Y-3.0 F1000.0 ; go outside print area
G92 E0.0
G1 X60.0 E9.0  F1000.0 ; intro line
M73 P0 R26
G1 X100.0 E12.5 F1000.0 ; intro line
G92 E0.0
G21 ; set units to millimeters
G90 ; use absolute coordinates
M83 ; use relative distances for extrusion
M900 K0.06 ; Filament gcode LA 1.5
M900 K30 ; Filament gcode LA 1.0
;BEFORE_LAYER_CHANGE
G92 E0.0
;0.2


G1 E-0.80000 F2100.00000
G1 Z0.600 F10800.000
;AFTER_LAYER_CHANGE
;0.2
G1 X99.098 Y66.642
G1 Z0.200
G1 E0.80000 F2100.00000
M204 S1000
G1 F1200.000
G1 X99.466 Y66.188 E0.01835
G1 X99.938 Y65.835 E0.01846
G1 X100.482 Y65.609 E0.01846
G1 X101.061 Y65.524 E0.01835
G1 X148.889 Y65.523 E1.49962
G1 X149.784 Y65.699 E0.02860
G1 X150.547 Y66.200 E0.02860
G1 X151.063 Y66.948 E0.02849
G1 X151.261 Y67.838 E0.02860
G1 X151.262 Y142.111 E2.32879
G1 X151.169 Y142.758 E0.02048
G1 X150.902 Y143.358 E0.02060
G1 X150.528 Y143.818 E0.01858
G1 X150.052 Y144.171 E0.01858
G1 X149.507 Y144.394 E0.01846
G1 X148.920 Y144.477 E0.01858
G1 X101.096 Y144.477 E1.49950
G1 X100.450 Y144.382 E0.02048
G1 X99.857 Y144.117 E0.02036
G1 X99.397 Y143.743 E0.01858
G1 X99.042 Y143.264 E0.01870
G1 X98.819 Y142.715 E0.01858
G1 X98.738 Y142.124 E0.01870
G1 X98.738 Y67.889 E2.32760
G1 X98.831 Y67.242 E0.02048
G1 X99.074 Y66.697 E0.01871
G1 X101.902 Y68.687 F10800.000
G1 F1200.000
G1 X148.098 Y68.687 E1.44844
G1 X148.098 Y101.213 E1.01982
G1 X101.902 Y101.213 E1.44844
G1 X101.902 Y68.747 E1.01794
G1 X101.525 Y68.310 F10800.000
G1 F1200.000
G1 X148.475 Y68.310 E1.47208
G1 X148.475 Y101.590 E1.04347
G1 X101.525 Y101.590 E1.47208
G1 X101.525 Y68.370 E1.04159
G1 X101.917 Y68.392 F10800.000
G1 E-0.80000 F2100.00000
G1 Z0.800 F10800.000
G1 X147.985 Y69.567
G1 Z0.200
G1 E0.80000 F2100.00000
G1 F1200.000
G1 X147.387 Y68.970 E0.02666
G1 X146.851 Y68.970 E0.01693
G1 X147.815 Y69.934 E0.04304
G1 X147.815 Y70.471 E0.01693
G1 X146.314 Y68.970 E0.06698
G1 X145.777 Y68.970 E0.01693
G1 X147.815 Y71.008 E0.09092
G1 X147.815 Y71.544 E0.01693
G1 X145.241 Y68.970 E0.11486
G1 X144.704 Y68.970 E0.01693
G1 X147.815 Y72.081 E0.13881
G1 X147.815 Y72.617 E0.01693
G1 X144.168 Y68.970 E0.16275
G1 X143.631 Y68.970 E0.01693
G1 X147.815 Y73.154 E0.18669
G1 X147.815 Y73.691 E0.01693
G1 X143.094 Y68.970 E0.21064
G1 X142.558 Y68.970 E0.01693
G1 X147.815 Y74.227 E0.23458
G1 X147.815 Y74.764 E0.01693
G1 X142.021 Y68.970 E0.25852
G1 X141.485 Y68.970 E0.01693
G1 X147.815 Y75.300 E0.28246
G1 X147.815 Y75.837 E0.01693
G1 X140.948 Y68.970 E0.30641
G1 X140.411 Y68.970 E0.01693
G1 X147.815 Y76.374 E0.33035
G1 X147.815 Y76.910 E0.01693
G1 X139.875 Y68.970 E0.35429
G1 X139.338 Y68.970 E0.01693
G1 X147.815 Y77.447 E0.37824
G1 X147.815 Y77.983 E0.01693
G1 X138.802 Y68.970 E0.40218
G1 X138.265 Y68.970 E0.01693
G1 X147.815 Y78.520 E0.42612
G1 X147.815 Y79.057 E0.01693
G1 X137.728 Y68.970 E0.45006
G1 X137.192 Y68.970 E0.01693
G1 X147.815 Y79.593 E0.47401
G1 X147.815 Y80.130 E0.01693
G1 X136.655 Y68.970 E0.49795
G1 X136.118 Y68.970 E0.01693
G1 X147.815 Y80.667 E0.52189
G1 X147.815 Y81.203 E0.01693
G1 X135.582 Y68.970 E0.54584
G1 X135.045 Y68.970 E0.01693
G1 X147.815 Y81.740 E0.56978
G1 X147.815 Y82.276 E0.01693
G1 X134.509 Y68.970 E0.59372
G1 X133.972 Y68.970 E0.01693
G1 X147.815 Y82.813 E0.61766
G1 X147.815 Y83.350 E0.01693
G1 X133.435 Y68.970 E0.64161
G1 X132.899 Y68.970 E0.01693
G1 X147.815 Y83.886 E0.66555
G1 X147.815 Y84.423 E0.01693
G1 X132.362 Y68.970 E0.68949
G1 X131.826 Y68.970 E0.01693
G1 X147.815 Y84.959 E0.71344
G1 X147.815 Y85.496 E0.01693
G1 X131.289 Y68.970 E0.73738
G1 X130.752 Y68.970 E0.01693
G1 X147.815 Y86.033 E0.76132
G1 X147.815 Y86.569 E0.01693
G1 X130.216 Y68.970 E0.78526
G1 X129.679 Y68.970 E0.01693
G1 X147.815 Y87.106 E0.80921
G1 X147.815 Y87.642 E0.01693
G1 X129.143 Y68.970 E0.83315
G1 X128.606 Y68.970 E0.01693
G1 X147.815 Y88.179 E0.85709
G1 X147.815 Y88.716 E0.01693
G1 X128.069 Y68.970 E0.88103
M73 P4 R25
G1 X127.533 Y68.970 E0.01693
G1 X147.815 Y89.252 E0.90498
G1 X147.815 Y89.789 E0.01693
G1 X126.996 Y68.970 E0.92892
G1 X126.460 Y68.970 E0.01693
G1 X147.815 Y90.325 E0.95286
G1 X147.815 Y90.862 E0.01693
G1 X125.923 Y68.970 E0.97681
G1 X125.386 Y68.970 E0.01693
G1 X147.815 Y91.399 E1.00075
G1 X147.815 Y91.935 E0.01693
G1 X124.850 Y68.970 E1.02469
G1 X124.313 Y68.970 E0.01693
G1 X147.815 Y92.472 E1.04863
G1 X147.815 Y93.008 E0.01693
G1 X123.777 Y68.970 E1.07258
G1 X123.240 Y68.970 E0.01693
G1 X147.815 Y93.545 E1.09652
G1 X147.815 Y94.082 E0.01693
G1 X122.703 Y68.970 E1.12046
G1 X122.167 Y68.970 E0.01693
G1 X147.815 Y94.618 E1.14441
G1 X147.815 Y95.155 E0.01693
G1 X121.630 Y68.970 E1.16835
G1 X121.094 Y68.970 E0.01693
G1 X147.815 Y95.691 E1.19229
G1 X147.815 Y96.228 E0.01693
G1 X120.557 Y68.970 E1.21623
G1 X120.020 Y68.970 E0.01693
G1 X147.815 Y96.765 E1.24018
G1 X147.815 Y97.301 E0.01693
G1 X119.484 Y68.970 E1.26412
G1 X118.947 Y68.970 E0.01693
G1 X147.815 Y97.838 E1.28806
G1 X147.815 Y98.375 E0.01693
G1 X118.410 Y68.970 E1.31201
G1 X117.874 Y68.970 E0.01693
G1 X147.815 Y98.911 E1.33595
G1 X147.815 Y99.448 E0.01693
G1 X117.337 Y68.970 E1.35989
G1 X116.801 Y68.970 E0.01693
G1 X147.815 Y99.984 E1.38383
G1 X147.815 Y100.521 E0.01693
G1 X116.264 Y68.970 E1.40778
G1 X115.727 Y68.970 E0.01693
G1 X147.688 Y100.930 E1.42603
G1 X147.151 Y100.930 E0.01693
G1 X115.191 Y68.970 E1.42603
G1 X114.654 Y68.970 E0.01693
G1 X146.614 Y100.930 E1.42603
G1 X146.078 Y100.930 E0.01693
G1 X114.118 Y68.970 E1.42603
G1 X113.581 Y68.970 E0.01693
G1 X145.541 Y100.930 E1.42603
G1 X145.005 Y100.930 E0.01693
G1 X113.044 Y68.970 E1.42603
G1 X112.508 Y68.970 E0.01693
G1 X144.468 Y100.930 E1.42603
G1 X143.931 Y100.930 E0.01693
G1 X111.971 Y68.970 E1.42603
G1 X111.435 Y68.970 E0.01693
G1 X143.395 Y100.930 E1.42603
M73 P7 R24
G1 X142.858 Y100.930 E0.01693
G1 X110.898 Y68.970 E1.42603
G1 X110.361 Y68.970 E0.01693
G1 X142.322 Y100.930 E1.42603
G1 X141.785 Y100.930 E0.01693
G1 X109.825 Y68.970 E1.42603
G1 X109.288 Y68.970 E0.01693
G1 X141.248 Y100.930 E1.42603
G1 X140.712 Y100.930 E0.01693
G1 X108.752 Y68.970 E1.42603
G1 X108.215 Y68.970 E0.01693
G1 X140.175 Y100.930 E1.42603
G1 X139.639 Y100.930 E0.01693
G1 X107.678 Y68.970 E1.42603
G1 X107.142 Y68.970 E0.01693
G1 X139.102 Y100.930 E1.42603
G1 X138.565 Y100.930 E0.01693
G1 X106.605 Y68.970 E1.42603
G1 X106.069 Y68.970 E0.01693
G1 X138.029 Y100.930 E1.42603
G1 X137.492 Y100.930 E0.01693
G1 X105.532 Y68.970 E1.42603
G1 X104.995 Y68.970 E0.01693
G1 X136.956 Y100.930 E1.42603
G1 X136.419 Y100.930 E0.01693
G1 X104.459 Y68.970 E1.42603
G1 X103.922 Y68.970 E0.01693
G1 X135.882 Y100.930 E1.42603
G1 X135.346 Y100.930 E0.01693
G1 X103.385 Y68.970 E1.42603
G1 X102.849 Y68.970 E0.01693
G1 X134.809 Y100.930 E1.42603
G1 X134.273 Y100.930 E0.01693
G1 X102.312 Y68.970 E1.42603
G1 X102.185 Y68.970 E0.00402
G1 X102.185 Y69.379 E0.01291
G1 X133.736 Y100.930 E1.40778
G1 X133.199 Y100.930 E0.01693
G1 X102.185 Y69.916 E1.38383
G1 X102.185 Y70.452 E0.01693
G1 X132.663 Y100.930 E1.35989
G1 X132.126 Y100.930 E0.01693
G1 X102.185 Y70.989 E1.33595
G1 X102.185 Y71.526 E0.01693
G1 X131.589 Y100.930 E1.31200
G1 X131.053 Y100.930 E0.01693
G1 X102.185 Y72.062 E1.28806
G1 X102.185 Y72.599 E0.01693
G1 X130.516 Y100.930 E1.26412
G1 X129.980 Y100.930 E0.01693
G1 X102.185 Y73.135 E1.24018
G1 X102.185 Y73.672 E0.01693
G1 X129.443 Y100.930 E1.21623
G1 X128.906 Y100.930 E0.01693
G1 X102.185 Y74.209 E1.19229
G1 X102.185 Y74.745 E0.01693
G1 X128.370 Y100.930 E1.16835
M73 P11 R23
G1 X127.833 Y100.930 E0.01693
G1 X102.185 Y75.282 E1.14441
G1 X102.185 Y75.818 E0.01693
G1 X127.297 Y100.930 E1.12046
G1 X126.760 Y100.930 E0.01693
G1 X102.185 Y76.355 E1.09652
G1 X102.185 Y76.892 E0.01693
G1 X126.223 Y100.930 E1.07258
G1 X125.687 Y100.930 E0.01693
G1 X102.185 Y77.428 E1.04863
G1 X102.185 Y77.965 E0.01693
G1 X125.150 Y100.930 E1.02469
G1 X124.614 Y100.930 E0.01693
G1 X102.185 Y78.501 E1.00075
G1 X102.185 Y79.038 E0.01693
G1 X124.077 Y100.930 E0.97681
G1 X123.540 Y100.930 E0.01693
G1 X102.185 Y79.575 E0.95286
G1 X102.185 Y80.111 E0.01693
G1 X123.004 Y100.930 E0.92892
G1 X122.467 Y100.930 E0.01693
G1 X102.185 Y80.648 E0.90498
G1 X102.185 Y81.184 E0.01693
G1 X121.931 Y100.930 E0.88103
G1 X121.394 Y100.930 E0.01693
G1 X102.185 Y81.721 E0.85709
G1 X102.185 Y82.258 E0.01693
G1 X120.857 Y100.930 E0.83315
G1 X120.321 Y100.930 E0.01693
G1 X102.185 Y82.794 E0.80921
G1 X102.185 Y83.331 E0.01693
G1 X119.784 Y100.930 E0.78526
G1 X119.248 Y100.930 E0.01693
G1 X102.185 Y83.867 E0.76132
G1 X102.185 Y84.404 E0.01693
G1 X118.711 Y100.930 E0.73738
G1 X118.174 Y100.930 E0.01693
G1 X102.185 Y84.941 E0.71343
G1 X102.185 Y85.477 E0.01693
G1 X117.638 Y100.930 E0.68949
G1 X117.101 Y100.930 E0.01693
G1 X102.185 Y86.014 E0.66555
G1 X102.185 Y86.550 E0.01693
G1 X116.565 Y100.930 E0.64161
G1 X116.028 Y100.930 E0.01693
G1 X102.185 Y87.087 E0.61766
G1 X102.185 Y87.624 E0.01693
G1 X115.491 Y100.930 E0.59372
G1 X114.955 Y100.930 E0.01693
G1 X102.185 Y88.160 E0.56978
G1 X102.185 Y88.697 E0.01693
G1 X114.418 Y100.930 E0.54583
G1 X113.881 Y100.930 E0.01693
G1 X102.185 Y89.234 E0.52189
G1 X102.185 Y89.770 E0.01693
G1 X113.345 Y100.930 E0.49795
G1 X112.808 Y100.930 E0.01693
G1 X102.185 Y90.307 E0.47401
G1 X102.185 Y90.843 E0.01693
G1 X112.272 Y100.930 E0.45006
G1 X111.735 Y100.930 E0.01693
G1 X102.185 Y91.380 E0.42612
G1 X102.185 Y91.917 E0.01693
G1 X111.198 Y100.930 E0.40218
G1 X110.662 Y100.930 E0.01693
G1 X102.185 Y92.453 E0.37823
G1 X102.185 Y92.990 E0.01693
G1 X110.125 Y100.930 E0.35429
G1 X109.589 Y100.930 E0.01693
G1 X102.185 Y93.526 E0.33035
G1 X102.185 Y94.063 E0.01693
G1 X109.052 Y100.930 E0.30641
G1 X108.515 Y100.930 E0.01693
G1 X102.185 Y94.600 E0.28246
G1 X102.185 Y95.136 E0.01693
G1 X107.979 Y100.930 E0.25852
G1 X107.442 Y100.930 E0.01693
G1 X102.185 Y95.673 E0.23458
G1 X102.185 Y96.209 E0.01693
G1 X106.906 Y100.930 E0.21063
G1 X106.369 Y100.930 E0.01693
G1 X102.185 Y96.746 E0.18669
G1 X102.185 Y97.283 E0.01693
G1 X105.832 Y100.930 E0.16275
G1 X105.296 Y100.930 E0.01693
G1 X102.185 Y97.819 E0.13881
G1 X102.185 Y98.356 E0.01693
G1 X104.759 Y100.930 E0.11486
G1 X104.223 Y100.930 E0.01693
G1 X102.185 Y98.892 E0.09092
G1 X102.185 Y99.429 E0.01693
G1 X103.686 Y100.930 E0.06698
G1 X103.149 Y100.930 E0.01693
G1 X102.185 Y99.966 E0.04303
G1 X102.185 Y100.502 E0.01693
G1 X102.782 Y101.100 E0.02666
G1 E-0.80000 F2100.00000
G1 Z0.800 F10800.000
G1 X101.902 Y108.787
G1 Z0.200
G1 E0.80000 F2100.00000
G1 F1200.000
G1 X148.098 Y108.787 E1.44844
G1 X148.098 Y141.313 E1.01982
G1 X101.902 Y141.313 E1.44844
G1 X101.902 Y108.847 E1.01794
G1 X101.525 Y108.410 F10800.000
G1 F1200.000
G1 X148.475 Y108.410 E1.47208
G1 X148.475 Y141.690 E1.04347
G1 X101.525 Y141.690 E1.47208
M73 P15 R22
G1 X101.525 Y108.470 E1.04159
G1 X101.917 Y108.492 F10800.000
G1 E-0.80000 F2100.00000
G1 Z0.800 F10800.000
G1 X147.985 Y109.667
G1 Z0.200
G1 E0.80000 F2100.00000
G1 F1200.000
G1 X147.387 Y109.070 E0.02666
G1 X146.851 Y109.070 E0.01693
G1 X147.815 Y110.034 E0.04304
G1 X147.815 Y110.571 E0.01693
G1 X146.314 Y109.070 E0.06698
G1 X145.777 Y109.070 E0.01693
G1 X147.815 Y111.108 E0.09092
G1 X147.815 Y111.644 E0.01693
G1 X145.241 Y109.070 E0.11486
G1 X144.704 Y109.070 E0.01693
G1 X147.815 Y112.181 E0.13881
G1 X147.815 Y112.717 E0.01693
G1 X144.168 Y109.070 E0.16275
G1 X143.631 Y109.070 E0.01693
G1 X147.815 Y113.254 E0.18669
G1 X147.815 Y113.791 E0.01693
G1 X143.094 Y109.070 E0.21064
G1 X142.558 Y109.070 E0.01693
G1 X147.815 Y114.327 E0.23458
G1 X147.815 Y114.864 E0.01693
G1 X142.021 Y109.070 E0.25852
G1 X141.485 Y109.070 E0.01693
G1 X147.815 Y115.400 E0.28246
G1 X147.815 Y115.937 E0.01693
G1 X140.948 Y109.070 E0.30641
G1 X140.411 Y109.070 E0.01693
G1 X147.815 Y116.474 E0.33035
G1 X147.815 Y117.010 E0.01693
G1 X139.875 Y109.070 E0.35429
G1 X139.338 Y109.070 E0.01693
G1 X147.815 Y117.547 E0.37824
G1 X147.815 Y118.083 E0.01693
G1 X138.802 Y109.070 E0.40218
G1 X138.265 Y109.070 E0.01693
G1 X147.815 Y118.620 E0.42612
G1 X147.815 Y119.157 E0.01693
G1 X137.728 Y109.070 E0.45006
G1 X137.192 Y109.070 E0.01693
G1 X147.815 Y119.693 E0.47401
G1 X147.815 Y120.230 E0.01693
G1 X136.655 Y109.070 E0.49795
G1 X136.118 Y109.070 E0.01693
G1 X147.815 Y120.767 E0.52189
G1 X147.815 Y121.303 E0.01693
G1 X135.582 Y109.070 E0.54584
G1 X135.045 Y109.070 E0.01693
G1 X147.815 Y121.840 E0.56978
G1 X147.815 Y122.376 E0.01693
G1 X134.509 Y109.070 E0.59372
G1 X133.972 Y109.070 E0.01693
G1 X147.815 Y122.913 E0.61766
G1 X147.815 Y123.450 E0.01693
G1 X133.435 Y109.070 E0.64161
G1 X132.899 Y109.070 E0.01693
G1 X147.815 Y123.986 E0.66555
G1 X147.815 Y124.523 E0.01693
G1 X132.362 Y109.070 E0.68949
G1 X131.826 Y109.070 E0.01693
G1 X147.815 Y125.059 E0.71344
G1 X147.815 Y125.596 E0.01693
G1 X131.289 Y109.070 E0.73738
G1 X130.752 Y109.070 E0.01693
G1 X147.815 Y126.133 E0.76132
G1 X147.815 Y126.669 E0.01693
G1 X130.216 Y109.070 E0.78526
G1 X129.679 Y109.070 E0.01693
G1 X147.815 Y127.206 E0.80921
G1 X147.815 Y127.742 E0.01693
G1 X129.143 Y109.070 E0.83315
G1 X128.606 Y109.070 E0.01693
G1 X147.815 Y128.279 E0.85709
G1 X147.815 Y128.816 E0.01693
G1 X128.069 Y109.070 E0.88103
G1 X127.533 Y109.070 E0.01693
G1 X147.815 Y129.352 E0.90498
G1 X147.815 Y129.889 E0.01693
G1 X126.996 Y109.070 E0.92892
G1 X126.460 Y109.070 E0.01693
G1 X147.815 Y130.425 E0.95286
G1 X147.815 Y130.962 E0.01693
G1 X125.923 Y109.070 E0.97681
G1 X125.386 Y109.070 E0.01693
G1 X147.815 Y131.499 E1.00075
G1 X147.815 Y132.035 E0.01693
G1 X124.850 Y109.070 E1.02469
G1 X124.313 Y109.070 E0.01693
G1 X147.815 Y132.572 E1.04863
G1 X147.815 Y133.108 E0.01693
G1 X123.777 Y109.070 E1.07258
G1 X123.240 Y109.070 E0.01693
G1 X147.815 Y133.645 E1.09652
G1 X147.815 Y134.182 E0.01693
G1 X122.703 Y109.070 E1.12046
G1 X122.167 Y109.070 E0.01693
G1 X147.815 Y134.718 E1.14441
G1 X147.815 Y135.255 E0.01693
G1 X121.630 Y109.070 E1.16835
G1 X121.094 Y109.070 E0.01693
G1 X147.815 Y135.791 E1.19229
G1 X147.815 Y136.328 E0.01693
G1 X120.557 Y109.070 E1.21623
G1 X120.020 Y109.070 E0.01693
G1 X147.815 Y136.865 E1.24018
G1 X147.815 Y137.401 E0.01693
G1 X119.484 Y109.070 E1.26412
G1 X118.947 Y109.070 E0.01693
G1 X147.815 Y137.938 E1.28806
M73 P19 R21
G1 X147.815 Y138.475 E0.01693
G1 X118.410 Y109.070 E1.31201
G1 X117.874 Y109.070 E0.01693
G1 X147.815 Y139.011 E1.33595
G1 X147.815 Y139.548 E0.01693
G1 X117.337 Y109.070 E1.35989
G1 X116.801 Y109.070 E0.01693
G1 X147.815 Y140.084 E1.38383
G1 X147.815 Y140.621 E0.01693
G1 X116.264 Y109.070 E1.40778
G1 X115.727 Y109.070 E0.01693
G1 X147.688 Y141.030 E1.42603
G1 X147.151 Y141.030 E0.01693
G1 X115.191 Y109.070 E1.42603
G1 X114.654 Y109.070 E0.01693
G1 X146.614 Y141.030 E1.42603
G1 X146.078 Y141.030 E0.01693
G1 X114.118 Y109.070 E1.42603
G1 X113.581 Y109.070 E0.01693
G1 X145.541 Y141.030 E1.42603
G1 X145.005 Y141.030 E0.01693
G1 X113.044 Y109.070 E1.42603
G1 X112.508 Y109.070 E0.01693
G1 X144.468 Y141.030 E1.42603
G1 X143.931 Y141.030 E0.01693
G1 X111.971 Y109.070 E1.42603
G1 X111.435 Y109.070 E0.01693
G1 X143.395 Y141.030 E1.42603
G1 X142.858 Y141.030 E0.01693
G1 X110.898 Y109.070 E1.42603
