; generated by PrusaSlicer 2.2.0+win64 on 2020-07-17 at 18:08:11 UTC

; 

; external perimeters extrusion width = 0.60mm
; perimeters extrusion width = 0.43mm
; infill extrusion width = 0.45mm
; solid infill extrusion width = 0.70mm
; top infill extrusion width = 0.43mm
; first layer extrusion width = 0.42mm

M73 P0 R27
M201 X9000 Y9000 Z500 E10000 ; sets maximum accelerations, mm/sec^2
M203 X500 Y500 Z12 E120 ; sets maximum feedrates, mm/sec
M204 P2000 R1500 T2000 ; sets acceleration (P, T) and retract acceleration (R), mm/sec^2
M205 X10.00 Y10.00 Z0.20 E2.50 ; sets the jerk limits, mm/sec
M205 S0 T0 ; sets the minimum extruding and travel feed rate, mm/sec
M107
M862.3 P "MK2S" ; printer model check
M862.1 P0.4 ; nozzle diameter check
M115 U3.2.3 ; tell printer latest fw version
G90 ; use absolute coordinates
M83 ; extruder relative mode
M204 S2000 T1500 ; MK2 firmware only supports the old M204 format
M104 S215 ; set extruder temp
M140 S60 ; set bed temp
M190 S60 ; wait for bed temp
M109 S215 ; wait for extruder temp
G28 W ; home all without mesh bed level
G80 ; mesh bed leveling
G1 Y-3.0 F1000.0 ; go outside print area
G92 E0.0
G1 X60.0 E9.0  F1000.0 ; intro line
M73 P0 R26
G1 X100.0 E12.5 F1000.0 ; intro line
G92 E0.0
G21 ; set units to millimeters
G90 ; use absolute coordinates
M83 ; use relative distances for extrusion
M900 K0.06 ; Filament gcode LA 1.5
M900 K30 ; Filament gcode LA 1.0
;BEFORE_LAYER_CHANGE
G92 E0.0
;0.2


G1 E-0.80000 F2100.00000
G1 Z0.600 F10800.000
;AFTER_LAYER_CHANGE
;0.2
G1 X99.042 Y79.737
G1 Z0.200
G1 E0.80000 F2100.00000
M204 S1000
G1 F1200.000
G1 X99.393 Y79.072 E0.02355
G1 X99.761 Y78.683 E0.01680
G1 X100.207 Y78.386 E0.01680
G1 X100.708 Y78.196 E0.01680
G1 X101.239 Y78.124 E0.01680
G1 X139.905 Y78.123 E1.21234
G1 X140.793 Y78.297 E0.02837
G1 X141.555 Y78.792 E0.02849
G1 X142.073 Y79.534 E0.02837
G1 X142.277 Y80.415 E0.02837
G1 X142.278 Y129.523 E1.53974
G1 X142.152 Y130.263 E0.02355
G1 X141.802 Y130.928 E0.02355
G1 X141.428 Y131.322 E0.01704
G1 X140.974 Y131.621 E0.01704
G1 X140.464 Y131.809 E0.01704
G1 X139.929 Y131.877 E0.01692
G1 X101.267 Y131.877 E1.21222
G1 X100.530 Y131.751 E0.02343
G1 X99.866 Y131.401 E0.02355
G1 X99.472 Y131.027 E0.01704
G1 X99.173 Y130.573 E0.01704
G1 X98.984 Y130.063 E0.01704
G1 X98.917 Y129.520 E0.01716
G1 X98.917 Y80.477 E1.53771
G1 X99.032 Y79.796 E0.02167
G1 E-0.80000 F2100.00000
G1 Z0.800 F10800.000
G1 X103.307 Y82.513
G1 Z0.200
G1 E0.80000 F2100.00000
G1 F1200.000
G1 X137.381 Y82.513 E1.06837
G1 X137.381 Y99.987 E0.54789
G1 X103.307 Y99.987 E1.06837
G1 X103.307 Y82.573 E0.54601
G1 X103.684 Y82.890 F10800.000
G1 F1200.000
G1 X137.004 Y82.890 E1.04473
G1 X137.004 Y99.610 E0.52424
G1 X103.684 Y99.610 E1.04473
G1 X103.684 Y82.950 E0.52236
G1 X103.540 Y82.517 F10800.000
G1 X102.081 Y81.287
G1 F1200.000
G1 X138.677 Y81.287 E1.14744
G1 X138.677 Y101.213 E0.62476
G1 X102.081 Y101.213 E1.14744
G1 X102.081 Y81.347 E0.62288
G1 X101.704 Y80.910 F10800.000
G1 F1200.000
G1 X139.054 Y80.910 E1.17108
G1 X139.054 Y101.590 E0.64841
G1 X101.704 Y101.590 E1.17108
G1 X101.704 Y80.970 E0.64653
G1 X102.098 Y80.977 F10800.000
G1 E-0.80000 F2100.00000
G1 Z0.800 F10800.000
G1 X103.193 Y99.731
G1 Z0.200
G1 E0.80000 F2100.00000
G1 F1200.000
G1 X102.363 Y98.901 E0.03690
G1 X102.363 Y98.366 E0.01681
G1 X103.024 Y99.026 E0.02936
G1 X103.024 Y98.492 E0.01681
G1 X102.363 Y97.832 E0.02936
G1 X102.363 Y97.297 E0.01681
G1 X103.024 Y97.957 E0.02936
G1 X103.024 Y97.422 E0.01681
G1 X102.363 Y96.762 E0.02936
G1 X102.363 Y96.227 E0.01681
G1 X103.024 Y96.888 E0.02936
G1 X103.024 Y96.353 E0.01681
G1 X102.363 Y95.693 E0.02936
G1 X102.363 Y95.158 E0.01681
G1 X103.024 Y95.818 E0.02936
G1 X103.024 Y95.284 E0.01681
G1 X102.363 Y94.623 E0.02936
G1 X102.363 Y94.089 E0.01681
G1 X103.024 Y94.749 E0.02936
G1 X103.024 Y94.214 E0.01681
G1 X102.363 Y93.554 E0.02936
G1 X102.363 Y93.019 E0.01681
G1 X103.024 Y93.679 E0.02936
G1 X103.024 Y93.145 E0.01681
G1 X102.363 Y92.484 E0.02936
G1 X102.363 Y91.950 E0.01681
G1 X103.024 Y92.610 E0.02936
G1 X103.024 Y92.075 E0.01681
G1 X102.363 Y91.415 E0.02936
G1 X102.363 Y90.880 E0.01681
G1 X103.024 Y91.541 E0.02936
G1 X103.024 Y91.006 E0.01681
G1 X102.363 Y90.346 E0.02936
G1 X102.363 Y89.811 E0.01681
G1 X103.024 Y90.471 E0.02936
G1 X103.024 Y89.936 E0.01681
G1 X102.363 Y89.276 E0.02936
G1 X102.363 Y88.741 E0.01681
G1 X103.024 Y89.402 E0.02936
G1 X103.024 Y88.867 E0.01681
G1 X102.363 Y88.207 E0.02936
G1 X102.363 Y87.672 E0.01681
G1 X103.024 Y88.332 E0.02936
G1 X103.024 Y87.798 E0.01681
G1 X102.363 Y87.137 E0.02936
G1 X102.363 Y86.603 E0.01681
G1 X103.024 Y87.263 E0.02936
G1 X103.024 Y86.728 E0.01681
G1 X102.363 Y86.068 E0.02936
G1 X102.363 Y85.533 E0.01681
G1 X103.024 Y86.193 E0.02936
G1 X103.024 Y85.659 E0.01681
G1 X102.363 Y84.998 E0.02936
G1 X102.363 Y84.464 E0.01681
G1 X103.024 Y85.124 E0.02936
G1 X103.024 Y84.589 E0.01681
G1 X102.363 Y83.929 E0.02936
G1 X102.363 Y83.394 E0.01681
G1 X103.024 Y84.055 E0.02936
G1 X103.024 Y83.520 E0.01681
G1 X102.363 Y82.860 E0.02936
G1 X102.363 Y82.325 E0.01681
G1 X103.024 Y82.985 E0.02936
G1 X103.024 Y82.450 E0.01681
G1 X102.363 Y81.790 E0.02936
G1 X102.363 Y81.570 E0.00693
G1 X102.678 Y81.570 E0.00988
G1 X103.338 Y82.230 E0.02936
G1 X103.873 Y82.230 E0.01681
G1 X103.213 Y81.570 E0.02936
G1 X103.747 Y81.570 E0.01681
G1 X104.408 Y82.230 E0.02936
G1 X104.942 Y82.230 E0.01681
G1 X104.282 Y81.570 E0.02936
G1 X104.817 Y81.570 E0.01681
G1 X105.477 Y82.230 E0.02936
G1 X106.012 Y82.230 E0.01681
G1 X105.351 Y81.570 E0.02936
G1 X105.886 Y81.570 E0.01681
G1 X106.546 Y82.230 E0.02936
G1 X107.081 Y82.230 E0.01681
G1 X106.421 Y81.570 E0.02936
G1 X106.956 Y81.570 E0.01681
G1 X107.616 Y82.230 E0.02936
G1 X108.150 Y82.230 E0.01681
G1 X107.490 Y81.570 E0.02936
G1 X108.025 Y81.570 E0.01681
G1 X108.685 Y82.230 E0.02936
G1 X109.220 Y82.230 E0.01681
G1 X108.560 Y81.570 E0.02936
G1 X109.094 Y81.570 E0.01681
G1 X109.755 Y82.230 E0.02936
G1 X110.289 Y82.230 E0.01681
G1 X109.629 Y81.570 E0.02936
G1 X110.164 Y81.570 E0.01681
G1 X110.824 Y82.230 E0.02936
G1 X111.359 Y82.230 E0.01681
G1 X110.698 Y81.570 E0.02936
G1 X111.233 Y81.570 E0.01681
G1 X111.893 Y82.230 E0.02936
G1 X112.428 Y82.230 E0.01681
G1 X111.768 Y81.570 E0.02936
G1 X112.303 Y81.570 E0.01681
G1 X112.963 Y82.230 E0.02936
G1 X113.498 Y82.230 E0.01681
G1 X112.837 Y81.570 E0.02936
G1 X113.372 Y81.570 E0.01681
G1 X114.032 Y82.230 E0.02936
G1 X114.567 Y82.230 E0.01681
G1 X113.907 Y81.570 E0.02936
G1 X114.441 Y81.570 E0.01681
G1 X115.102 Y82.230 E0.02936
G1 X115.636 Y82.230 E0.01681
G1 X114.976 Y81.570 E0.02936
G1 X115.511 Y81.570 E0.01681
G1 X116.171 Y82.230 E0.02936
G1 X116.706 Y82.230 E0.01681
G1 X116.046 Y81.570 E0.02936
G1 X116.580 Y81.570 E0.01681
G1 X117.241 Y82.230 E0.02936
G1 X117.775 Y82.230 E0.01681
G1 X117.115 Y81.570 E0.02936
G1 X117.650 Y81.570 E0.01681
G1 X118.310 Y82.230 E0.02936
G1 X118.845 Y82.230 E0.01681
G1 X118.184 Y81.570 E0.02936
G1 X118.719 Y81.570 E0.01681
G1 X119.379 Y82.230 E0.02936
G1 X119.914 Y82.230 E0.01681
G1 X119.254 Y81.570 E0.02936
G1 X119.789 Y81.570 E0.01681
G1 X120.449 Y82.230 E0.02936
G1 X120.984 Y82.230 E0.01681
G1 X120.323 Y81.570 E0.02936
G1 X120.858 Y81.570 E0.01681
G1 X121.518 Y82.230 E0.02936
G1 X122.053 Y82.230 E0.01681
G1 X121.393 Y81.570 E0.02936
G1 X121.927 Y81.570 E0.01681
G1 X122.588 Y82.230 E0.02936
G1 X123.122 Y82.230 E0.01681
G1 X122.462 Y81.570 E0.02936
G1 X122.997 Y81.570 E0.01681
G1 X123.657 Y82.230 E0.02936
G1 X124.192 Y82.230 E0.01681
G1 X123.532 Y81.570 E0.02936
G1 X124.066 Y81.570 E0.01681
G1 X124.726 Y82.230 E0.02936
G1 X125.261 Y82.230 E0.01681
G1 X124.601 Y81.570 E0.02936
G1 X125.136 Y81.570 E0.01681
G1 X125.796 Y82.230 E0.02936
G1 X126.331 Y82.230 E0.01681
G1 X125.670 Y81.570 E0.02936
G1 X126.205 Y81.570 E0.01681
G1 X126.865 Y82.230 E0.02936
G1 X127.400 Y82.230 E0.01681
G1 X126.740 Y81.570 E0.02936
G1 X127.275 Y81.570 E0.01681
G1 X127.935 Y82.230 E0.02936
G1 X128.469 Y82.230 E0.01681
G1 X127.809 Y81.570 E0.02936
G1 X128.344 Y81.570 E0.01681
G1 X129.004 Y82.230 E0.02936
G1 X129.539 Y82.230 E0.01681
G1 X128.879 Y81.570 E0.02936
G1 X129.413 Y81.570 E0.01681
G1 X130.074 Y82.230 E0.02936
G1 X130.608 Y82.230 E0.01681
G1 X129.948 Y81.570 E0.02936
G1 X130.483 Y81.570 E0.01681
G1 X131.143 Y82.230 E0.02936
G1 X131.678 Y82.230 E0.01681
G1 X131.017 Y81.570 E0.02936
G1 X131.552 Y81.570 E0.01681
G1 X132.212 Y82.230 E0.02936
G1 X132.747 Y82.230 E0.01681
G1 X132.087 Y81.570 E0.02936
G1 X132.622 Y81.570 E0.01681
G1 X133.282 Y82.230 E0.02936
G1 X133.817 Y82.230 E0.01681
G1 X133.156 Y81.570 E0.02936
G1 X133.691 Y81.570 E0.01681
G1 X134.351 Y82.230 E0.02936
G1 X134.886 Y82.230 E0.01681
G1 X134.226 Y81.570 E0.02936
G1 X134.760 Y81.570 E0.01681
G1 X135.421 Y82.230 E0.02936
G1 X135.955 Y82.230 E0.01681
G1 X135.295 Y81.570 E0.02936
G1 X135.830 Y81.570 E0.01681
G1 X136.490 Y82.230 E0.02936
G1 X137.025 Y82.230 E0.01681
G1 X136.365 Y81.570 E0.02936
G1 X136.899 Y81.570 E0.01681
G1 X138.394 Y83.064 E0.06645
G1 X138.394 Y82.530 E0.01681
G1 X137.434 Y81.570 E0.04267
G1 X137.969 Y81.570 E0.01681
G1 X138.563 Y82.165 E0.02644
G1 X138.563 Y83.769 F10800.000
G1 F1200.000
G1 X137.663 Y82.869 E0.04001
G1 X137.663 Y83.404 E0.01681
G1 X138.394 Y84.134 E0.03247
G1 X138.394 Y84.668 E0.01681
G1 X137.663 Y83.938 E0.03247
G1 X137.663 Y84.473 E0.01681
G1 X138.394 Y85.203 E0.03247
G1 X138.394 Y85.738 E0.01681
G1 X137.663 Y85.008 E0.03247
G1 X137.663 Y85.542 E0.01681
G1 X138.394 Y86.273 E0.03247
G1 X138.394 Y86.807 E0.01681
G1 X137.663 Y86.077 E0.03247
G1 X137.663 Y86.612 E0.01681
G1 X138.394 Y87.342 E0.03247
G1 X138.394 Y87.877 E0.01681
G1 X137.663 Y87.146 E0.03247
G1 X137.663 Y87.681 E0.01681
G1 X138.394 Y88.411 E0.03247
G1 X138.394 Y88.946 E0.01681
G1 X137.663 Y88.216 E0.03247
G1 X137.663 Y88.751 E0.01681
G1 X138.394 Y89.481 E0.03247
G1 X138.394 Y90.016 E0.01681
G1 X137.663 Y89.285 E0.03247
G1 X137.663 Y89.820 E0.01681
G1 X138.394 Y90.550 E0.03247
G1 X138.394 Y91.085 E0.01681
G1 X137.663 Y90.355 E0.03247
G1 X137.663 Y90.889 E0.01681
G1 X138.394 Y91.620 E0.03247
G1 X138.394 Y92.154 E0.01681
G1 X137.663 Y91.424 E0.03247
G1 X137.663 Y91.959 E0.01681
G1 X138.394 Y92.689 E0.03247
G1 X138.394 Y93.224 E0.01681
G1 X137.663 Y92.494 E0.03247
G1 X137.663 Y93.028 E0.01681
G1 X138.394 Y93.759 E0.03247
G1 X138.394 Y94.293 E0.01681
G1 X137.663 Y93.563 E0.03247
G1 X137.663 Y94.098 E0.01681
G1 X138.394 Y94.828 E0.03247
G1 X138.394 Y95.363 E0.01681
G1 X137.663 Y94.632 E0.03247
G1 X137.663 Y95.167 E0.01681
G1 X138.394 Y95.897 E0.03247
G1 X138.394 Y96.432 E0.01681
G1 X137.663 Y95.702 E0.03247
G1 X137.663 Y96.237 E0.01681
G1 X138.394 Y96.967 E0.03247
G1 X138.394 Y97.502 E0.01681
G1 X137.663 Y96.771 E0.03247
G1 X137.663 Y97.306 E0.01681
G1 X138.394 Y98.036 E0.03247
G1 X138.394 Y98.571 E0.01681
G1 X137.663 Y97.841 E0.03247
G1 X137.663 Y98.375 E0.01681
G1 X138.394 Y99.106 E0.03247
G1 X138.394 Y99.640 E0.01681
G1 X137.663 Y98.910 E0.03247
G1 X137.663 Y99.445 E0.01681
G1 X138.394 Y100.175 E0.03247
G1 X138.394 Y100.710 E0.01681
G1 X137.663 Y99.980 E0.03247
G1 X137.663 Y100.270 E0.00913
G1 X137.419 Y100.270 E0.00768
G1 X138.079 Y100.930 E0.02936
G1 X137.545 Y100.930 E0.01681
G1 X136.884 Y100.270 E0.02936
G1 X136.350 Y100.270 E0.01681
G1 X137.010 Y100.930 E0.02936
G1 X136.475 Y100.930 E0.01681
G1 X135.815 Y100.270 E0.02936
G1 X135.280 Y100.270 E0.01681
G1 X135.941 Y100.930 E0.02936
G1 X135.406 Y100.930 E0.01681
G1 X134.746 Y100.270 E0.02936
G1 X134.211 Y100.270 E0.01681
G1 X134.871 Y100.930 E0.02936
G1 X134.336 Y100.930 E0.01681
G1 X133.676 Y100.270 E0.02936
G1 X133.141 Y100.270 E0.01681
G1 X133.802 Y100.930 E0.02936
G1 X133.267 Y100.930 E0.01681
G1 X132.607 Y100.270 E0.02936
G1 X132.072 Y100.270 E0.01681
G1 X132.732 Y100.930 E0.02936
G1 X132.198 Y100.930 E0.01681
G1 X131.537 Y100.270 E0.02936
G1 X131.003 Y100.270 E0.01681
G1 X131.663 Y100.930 E0.02936
G1 X131.128 Y100.930 E0.01681
G1 X130.468 Y100.270 E0.02936
G1 X129.933 Y100.270 E0.01681
G1 X130.593 Y100.930 E0.02936
G1 X130.059 Y100.930 E0.01681
G1 X129.399 Y100.270 E0.02936
G1 X128.864 Y100.270 E0.01681
G1 X129.524 Y100.930 E0.02936
G1 X128.989 Y100.930 E0.01681
G1 X128.329 Y100.270 E0.02936
G1 X127.794 Y100.270 E0.01681
G1 X128.455 Y100.930 E0.02936
G1 X127.920 Y100.930 E0.01681
G1 X127.260 Y100.270 E0.02936
G1 X126.725 Y100.270 E0.01681
G1 X127.385 Y100.930 E0.02936
G1 X126.850 Y100.930 E0.01681
G1 X126.190 Y100.270 E0.02936
G1 X125.656 Y100.270 E0.01681
G1 X126.316 Y100.930 E0.02936
G1 X125.781 Y100.930 E0.01681
G1 X125.121 Y100.270 E0.02936
G1 X124.586 Y100.270 E0.01681
G1 X125.246 Y100.930 E0.02936
G1 X124.712 Y100.930 E0.01681
G1 X124.051 Y100.270 E0.02936
G1 X123.517 Y100.270 E0.01681
G1 X124.177 Y100.930 E0.02936
G1 X123.642 Y100.930 E0.01681
G1 X122.982 Y100.270 E0.02936
G1 X122.447 Y100.270 E0.01681
G1 X123.108 Y100.930 E0.02936
G1 X122.573 Y100.930 E0.01681
G1 X121.913 Y100.270 E0.02936
G1 X121.378 Y100.270 E0.01681
G1 X122.038 Y100.930 E0.02936
G1 X121.503 Y100.930 E0.01681
G1 X120.843 Y100.270 E0.02936
G1 X120.308 Y100.270 E0.01681
G1 X120.969 Y100.930 E0.02936
G1 X120.434 Y100.930 E0.01681
G1 X119.774 Y100.270 E0.02936
G1 X119.239 Y100.270 E0.01681
G1 X119.899 Y100.930 E0.02936
G1 X119.365 Y100.930 E0.01681
G1 X118.704 Y100.270 E0.02936
G1 X118.170 Y100.270 E0.01681
G1 X118.830 Y100.930 E0.02936
G1 X118.295 Y100.930 E0.01681
G1 X117.635 Y100.270 E0.02936
G1 X117.100 Y100.270 E0.01681
G1 X117.760 Y100.930 E0.02936
G1 X117.226 Y100.930 E0.01681
G1 X116.565 Y100.270 E0.02936
G1 X116.031 Y100.270 E0.01681
G1 X116.691 Y100.930 E0.02936
G1 X116.156 Y100.930 E0.01681
G1 X115.496 Y100.270 E0.02936
G1 X114.961 Y100.270 E0.01681
G1 X115.622 Y100.930 E0.02936
G1 X115.087 Y100.930 E0.01681
G1 X114.427 Y100.270 E0.02936
G1 X113.892 Y100.270 E0.01681
G1 X114.552 Y100.930 E0.02936
G1 X114.017 Y100.930 E0.01681
G1 X113.357 Y100.270 E0.02936
G1 X112.822 Y100.270 E0.01681
G1 X113.483 Y100.930 E0.02936
G1 X112.948 Y100.930 E0.01681
G1 X112.288 Y100.270 E0.02936
G1 X111.753 Y100.270 E0.01681
G1 X112.413 Y100.930 E0.02936
G1 X111.879 Y100.930 E0.01681
G1 X111.218 Y100.270 E0.02936
G1 X110.684 Y100.270 E0.01681
G1 X111.344 Y100.930 E0.02936
G1 X110.809 Y100.930 E0.01681
G1 X110.149 Y100.270 E0.02936
G1 X109.614 Y100.270 E0.01681
G1 X110.274 Y100.930 E0.02936
G1 X109.740 Y100.930 E0.01681
G1 X109.080 Y100.270 E0.02936
G1 X108.545 Y100.270 E0.01681
G1 X109.205 Y100.930 E0.02936
G1 X108.670 Y100.930 E0.01681
G1 X108.010 Y100.270 E0.02936
G1 X107.475 Y100.270 E0.01681
G1 X108.136 Y100.930 E0.02936
G1 X107.601 Y100.930 E0.01681
G1 X106.941 Y100.270 E0.02936
G1 X106.406 Y100.270 E0.01681
G1 X107.066 Y100.930 E0.02936
G1 X106.532 Y100.930 E0.01681
G1 X105.871 Y100.270 E0.02936
G1 X105.337 Y100.270 E0.01681
G1 X105.997 Y100.930 E0.02936
G1 X105.462 Y100.930 E0.01681
G1 X104.802 Y100.270 E0.02936
G1 X104.267 Y100.270 E0.01681
G1 X104.927 Y100.930 E0.02936
G1 X104.393 Y100.930 E0.01681
G1 X103.563 Y100.100 E0.03690
G1 X104.028 Y101.100 F10800.000
G1 F1200.000
G1 X102.363 Y99.436 E0.07399
G1 X102.363 Y99.970 E0.01681
G1 X103.323 Y100.930 E0.04267
G1 X102.789 Y100.930 E0.01681
G1 X102.194 Y100.335 E0.02644
G1 E-0.80000 F2100.00000
G1 Z0.800 F10800.000
G1 X103.307 Y110.013
G1 Z0.200
G1 E0.80000 F2100.00000
G1 F1200.000
G1 X137.381 Y110.013 E1.06837
G1 X137.381 Y127.487 E0.54789
G1 X103.307 Y127.487 E1.06837
G1 X103.307 Y110.073 E0.54601
G1 X103.684 Y110.390 F10800.000
G1 F1200.000
G1 X137.004 Y110.390 E1.04473
G1 X137.004 Y127.110 E0.52424
G1 X103.684 Y127.110 E1.04473
M73 P4 R25
G1 X103.684 Y110.450 E0.52236
G1 X103.540 Y110.017 F10800.000
G1 X102.081 Y108.787
G1 F1200.000
G1 X138.677 Y108.787 E1.14744
G1 X138.677 Y128.713 E0.62476
G1 X102.081 Y128.713 E1.14744
G1 X102.081 Y108.847 E0.62288
G1 X101.704 Y108.410 F10800.000
G1 F1200.000
G1 X139.054 Y108.410 E1.17108
G1 X139.054 Y129.090 E0.64841
G1 X101.704 Y129.090 E1.17108
G1 X101.704 Y108.470 E0.64653
G1 X102.098 Y108.477 F10800.000
G1 E-0.80000 F2100.00000
G1 Z0.800 F10800.000
G1 X103.193 Y127.231
G1 Z0.200
G1 E0.80000 F2100.00000
G1 F1200.000
G1 X102.363 Y126.401 E0.03690
G1 X102.363 Y125.866 E0.01681
