; generated by PrusaSlicer 2.0.0+ on 2019-08-14 at 12:03:10

; 

; external perimeters extrusion width = 0.45mm
; perimeters extrusion width = 0.45mm
; infill extrusion width = 0.45mm
; solid infill extrusion width = 0.45mm
; top infill extrusion width = 0.40mm
; support material extrusion width = 0.35mm
; first layer extrusion width = 0.42mm

M73 P0 R48
M201 X9000 Y9000 Z500 E10000 ; sets maximum accelerations, mm/sec^2
M203 X500 Y500 Z12 E120 ; sets maximum feedrates, mm/sec
M204 P2000 R1500 T2000 ; sets acceleration (P, T) and retract acceleration (R), mm/sec^2
M205 X10.00 Y10.00 Z0.20 E2.50 ; sets the jerk limits, mm/sec
M205 S0 T0 ; sets the minimum extruding and travel feed rate, mm/sec
M107
M115 U3.2.3 ; tell printer latest fw version
G90 ; use absolute coordinates
M83 ; extruder relative mode
M204 S2000 T1500 ; MK2 firmware only supports the old M204 format
M104 S215 ; set extruder temp
M140 S60 ; set bed temp
M190 S60 ; wait for bed temp
M109 S215 ; wait for extruder temp
G28 W ; home all without mesh bed level
G80 ; mesh bed leveling
G1 Y-3.0 F1000.0 ; go outside print area
G92 E0.0
G1 X60.0 E9.0  F1000.0 ; intro line
M73 P0 R48
G1 X100.0 E12.5 F1000.0 ; intro line
G92 E0.0
M900 K30 ; Filament gcode
G21 ; set units to millimeters
G90 ; use absolute coordinates
M83 ; use relative distances for extrusion
;BEFORE_LAYER_CHANGE
G92 E0.0
;0.2


G1 E-0.80000 F2100.00000
G1 Z0.600 F10800.000
;AFTER_LAYER_CHANGE
;0.2
G1 X111.717 Y87.610
G1 Z0.200
G1 E0.80000 F2100.00000
M204 S1000
G1 F1200
G1 X118.781 Y85.371 E0.23235
G1 X124.194 Y83.827 E0.17649
G1 X125.004 Y83.724 E0.02560
G1 X125.707 Y83.804 E0.02218
G1 X132.403 Y85.351 E0.21548
G1 X140.397 Y87.684 E0.26109
G1 X141.174 Y88.109 E0.02777
G1 X141.721 Y88.809 E0.02788
G1 X144.881 Y98.239 E0.31182
G1 X146.268 Y104.817 E0.21076
G1 X145.708 Y121.450 E0.52182
G1 X145.586 Y121.990 E0.01737
G1 X145.331 Y122.483 E0.01737
G1 X144.961 Y122.895 E0.01737
G1 X144.500 Y123.202 E0.01737
G1 X141.898 Y124.302 E0.08857
G1 X141.420 Y124.433 E0.01555
G1 X131.702 Y125.568 E0.30676
G1 X124.767 Y126.263 E0.21853
G1 X118.488 Y125.519 E0.19825
G1 X111.775 Y123.109 E0.22366
G1 X111.088 Y122.659 E0.02574
G1 X108.207 Y119.833 E0.12652
G1 X107.816 Y119.280 E0.02123
G1 X103.839 Y105.847 E0.43927
G1 X103.725 Y104.954 E0.02821
G1 X103.868 Y104.063 E0.02831
G1 X108.376 Y91.134 E0.42931
G1 X108.699 Y90.644 E0.01839
G1 X111.021 Y88.103 E0.10793
G1 X111.668 Y87.644 E0.02488
G1 F8640
G1 X114.803 Y86.642 E-0.76000
G1 E-0.04000 F2100.00000
G1 Z0.800 F10800.000
G1 X112.609 Y89.608
G1 Z0.200
G1 E0.80000 F2100.00000
G1 F1200
G1 X112.609 Y90.797 E0.03727
G1 X112.882 Y90.846 E0.00869
G1 X113.222 Y90.959 E0.01123
G1 X113.363 Y91.031 E0.00498
G1 X113.363 Y89.778 E0.03928
G1 X114.117 Y89.778 E0.02365
G1 X114.117 Y91.791 E0.06313
G1 F8640
G1 X114.117 Y89.778 E-0.46491
G1 X113.363 Y89.778 E-0.17414
G1 X113.363 Y90.302 E-0.12096
G1 E-0.04000 F2100.00000
G1 Z0.800 F10800.000
G1 X108.084 Y98.837
G1 Z0.200
G1 E0.80000 F2100.00000
G1 F1200
G1 X108.084 Y103.193 E0.13658
G1 X108.297 Y103.207 E0.00669
G1 X108.661 Y103.277 E0.01161
G1 X108.838 Y103.334 E0.00585
G1 X108.838 Y99.006 E0.13568
G1 X109.592 Y99.006 E0.02365
G1 X109.592 Y111.857 E0.40294
G1 X109.778 Y111.857 E0.00582
G1 X109.778 Y118.310 E0.20230
G1 X110.347 Y118.276 E0.01786
G1 X110.347 Y92.085 E0.82120
G1 X110.794 Y92.085 E0.01403
G1 X110.780 Y92.486 E0.01259
G1 X110.839 Y92.858 E0.01179
G1 X110.962 Y93.226 E0.01216
G1 X111.101 Y93.504 E0.00974
G1 X111.101 Y116.498 E0.72097
G1 X111.357 Y116.104 E0.01472
G1 X111.622 Y115.806 E0.01251
G1 X111.855 Y115.600 E0.00976
G1 X111.855 Y94.400 E0.66471
G1 X112.229 Y94.666 E0.01438
G1 X112.609 Y94.833 E0.01302
G1 X112.609 Y115.304 E0.64185
G1 X112.677 Y115.329 E0.00227
G1 X113.363 Y115.991 E0.02989
G1 X113.363 Y94.422 E0.67626
G1 X114.117 Y93.685 E0.03307
G1 X114.117 Y116.983 E0.73049
G1 F8640
G1 X114.117 Y113.691 E-0.76000
G1 E-0.04000 F2100.00000
G1 Z0.800 F10800.000
G1 X112.609 Y119.031
G1 Z0.200
G1 E0.80000 F2100.00000
G1 F1200
G1 X112.609 Y121.086 E0.06442
G1 X113.363 Y121.086 E0.02365
G1 X113.363 Y118.970 E0.06633
G1 X113.580 Y118.859 E0.00763
G1 X113.878 Y118.656 E0.01129
G1 X114.117 Y118.448 E0.00997
G1 X114.117 Y121.086 E0.08272
G1 X114.872 Y121.086 E0.02365
G1 X114.872 Y89.778 E0.98163
G1 X115.626 Y89.778 E0.02365
G1 X115.626 Y121.086 E0.98163
G1 X116.380 Y121.086 E0.02365
G1 X116.380 Y89.778 E0.98163
G1 X117.134 Y89.778 E0.02365
G1 X117.134 Y121.086 E0.98163
G1 X117.888 Y121.086 E0.02365
G1 X117.888 Y89.778 E0.98163
G1 X118.642 Y89.778 E0.02365
G1 X118.642 Y121.086 E0.98163
G1 X119.006 Y121.086 E0.01141
G1 X119.006 Y123.393 E0.07234
G1 X119.396 Y123.393 E0.01224
G1 X119.396 Y87.471 E1.12631
G1 X120.151 Y87.471 E0.02365
G1 X120.151 Y123.393 E1.12631
G1 X120.905 Y123.393 E0.02365
G1 X120.905 Y87.471 E1.12631
G1 X121.659 Y87.471 E0.02365
G1 X121.659 Y123.393 E1.12631
G1 X122.413 Y123.393 E0.02365
G1 X122.413 Y87.471 E1.12631
G1 X123.167 Y87.471 E0.02365
G1 X123.167 Y123.393 E1.12631
G1 X123.469 Y123.393 E0.00947
G1 X123.400 Y123.257 E0.00478
G1 X123.278 Y122.888 E0.01219
G1 X123.205 Y122.499 E0.01240
G1 X123.181 Y122.101 E0.01251
G1 X123.204 Y121.729 E0.01167
G1 X123.285 Y121.299 E0.01374
G1 X123.334 Y121.200 E0.00345
G1 X123.432 Y121.089 E0.00464
G1 X123.594 Y121.017 E0.00556
G1 X123.921 Y121.013 E0.01028
G1 X123.921 Y88.990 E1.00406
G1 X124.676 Y88.997 E0.02365
G1 X124.676 Y121.003 E1.00351
G1 X125.430 Y121.003 E0.02365
G1 X125.430 Y88.997 E1.00351
G1 X126.184 Y88.984 E0.02365
G1 X126.184 Y121.013 E1.00426
G1 X126.470 Y121.020 E0.00896
G1 X126.699 Y121.210 E0.00935
G1 X126.792 Y121.700 E0.01564
G1 X126.819 Y122.099 E0.01254
G1 X126.792 Y122.521 E0.01327
G1 X126.715 Y122.909 E0.01241
G1 X126.609 Y123.231 E0.01062
G1 X126.532 Y123.393 E0.00561
G1 X126.938 Y123.393 E0.01273
G1 X126.938 Y87.471 E1.12631
G1 X127.692 Y87.471 E0.02365
G1 X127.692 Y123.393 E1.12631
G1 X128.446 Y123.393 E0.02365
G1 X128.446 Y87.471 E1.12631
G1 X129.201 Y87.471 E0.02365
G1 X129.201 Y123.393 E1.12631
G1 X129.955 Y123.393 E0.02365
G1 X129.955 Y87.471 E1.12631
G1 X130.709 Y87.471 E0.02365
G1 X130.709 Y123.393 E1.12631
G1 X131.463 Y123.393 E0.02365
G1 X131.463 Y87.471 E1.12631
M73 P2 R47
G1 X131.857 Y87.471 E0.01236
G1 X131.857 Y89.778 E0.07234
G1 X132.217 Y89.778 E0.01128
G1 X132.217 Y121.087 E0.98169
G1 X132.971 Y121.086 E0.02365
G1 X132.971 Y89.778 E0.98165
G1 X133.726 Y89.778 E0.02365
G1 X133.726 Y121.085 E0.98161
G1 X134.480 Y121.084 E0.02365
G1 X134.480 Y89.778 E0.98158
G1 X135.234 Y89.778 E0.02365
G1 X135.234 Y92.425 E0.08301
G1 X135.337 Y92.225 E0.00708
G1 X135.558 Y91.902 E0.01227
G1 X135.805 Y91.623 E0.01166
G1 X135.988 Y91.459 E0.00771
G1 X135.988 Y89.778 E0.05272
G1 X136.742 Y89.778 E0.02365
G1 X136.742 Y90.977 E0.03759
G1 X137.111 Y90.847 E0.01225
G1 X137.496 Y90.781 E0.01226
G1 X137.496 Y89.778 E0.03146
G1 X138.250 Y89.778 E0.02365
G1 X138.250 Y90.875 E0.03440
G1 X138.524 Y91.002 E0.00945
G1 X138.774 Y91.195 E0.00991
G1 X138.998 Y91.476 E0.01125
G1 X139.005 Y89.778 E0.05323
G1 X139.759 Y89.778 E0.02365
G1 X139.759 Y90.340 E0.01764
G1 F8640
G1 X139.759 Y89.778 E-0.12988
G1 X139.005 Y89.778 E-0.17414
G1 X138.998 Y91.476 E-0.39203
G1 X138.825 Y91.259 E-0.06395
G1 E-0.04000 F2100.00000
G1 Z0.800 F10800.000
G1 X139.005 Y92.763
G1 Z0.200
G1 E0.80000 F2100.00000
G1 F1200
G1 X139.005 Y116.705 E0.75070
G1 X138.859 Y116.420 E0.01004
G1 X138.656 Y116.122 E0.01129
G1 X138.394 Y115.822 E0.01249
G1 X138.250 Y115.693 E0.00607
G1 X138.250 Y94.307 E0.67055
G1 X138.078 Y94.457 E0.00715
G1 X137.772 Y94.665 E0.01161
G1 X137.496 Y94.806 E0.00971
G1 X137.496 Y115.276 E0.64184
G1 X137.368 Y115.288 E0.00405
G1 X136.742 Y115.893 E0.02728
G1 X136.742 Y94.881 E0.65881
G1 X135.988 Y94.156 E0.03281
G1 X135.988 Y116.651 E0.70534
G1 X135.475 Y117.188 E0.02330
G1 X135.349 Y117.291 E0.00508
G1 X135.270 Y117.467 E0.00604
G1 X135.275 Y117.625 E0.00497
G1 X135.310 Y117.735 E0.00363
G1 X135.543 Y118.078 E0.01300
G1 X135.806 Y118.378 E0.01250
G1 X135.988 Y118.540 E0.00764
G1 X135.988 Y121.082 E0.07968
G1 X136.742 Y121.081 E0.02365
G1 X136.742 Y119.022 E0.06454
G1 X137.118 Y119.154 E0.01250
G1 X137.496 Y119.219 E0.01202
G1 X137.496 Y121.079 E0.05834
G1 X138.250 Y121.078 E0.02365
G1 X138.250 Y119.125 E0.06123
G1 X138.538 Y118.990 E0.00996
G1 X138.770 Y118.808 E0.00925
G1 X139.005 Y118.513 E0.01182
G1 X139.005 Y121.077 E0.08040
G1 X139.759 Y121.078 E0.02365
G1 X139.759 Y92.085 E0.90906
G1 X140.513 Y92.085 E0.02365
G1 X140.513 Y121.755 E0.93030
G1 X141.086 Y122.270 E0.02413
G1 X141.086 Y121.074 E0.03749
G1 X141.267 Y121.074 E0.00569
G1 X141.267 Y119.051 E0.06341
G1 X142.021 Y119.685 E0.03088
G1 X142.021 Y121.073 E0.04351
G1 X142.775 Y121.072 E0.02365
G1 X142.775 Y120.319 E0.02361
G1 X143.530 Y120.952 E0.03088
G1 X143.530 Y121.240 E0.00903
G1 X135.234 Y121.253 F10800.000
G1 F1200
G1 X135.234 Y93.141 E0.88142
G1 F8640
G1 X135.234 Y96.432 E-0.76000
G1 E-0.04000 F2100.00000
G1 Z0.800 F10800.000
G1 X142.775 Y98.837
G1 Z0.200
G1 E0.80000 F2100.00000
G1 F1200
G1 X142.775 Y103.256 E0.13858
G1 X142.501 Y103.205 E0.00874
G1 X142.021 Y103.186 E0.01506
G1 X142.021 Y99.006 E0.13106
G1 X141.267 Y99.006 E0.02365
G1 X141.267 Y103.290 E0.13432
G1 X141.210 Y103.301 E0.00183
G1 X141.020 Y103.530 E0.00935
G1 X141.003 Y105.000 E0.04609
G1 X141.017 Y106.406 E0.04409
G1 X141.089 Y106.568 E0.00556
G1 X141.200 Y106.666 E0.00464
G1 X141.267 Y106.700 E0.00235
G1 X141.267 Y111.857 E0.16171
G1 X142.021 Y111.857 E0.02365
G1 X142.021 Y106.814 E0.15813
G1 X142.499 Y106.795 E0.01500
G1 X142.775 Y106.743 E0.00881
G1 X142.775 Y112.027 E0.16567
G1 X108.838 Y112.027 F10800.000
G1 F1200
G1 X108.838 Y106.666 E0.16808
G1 X108.658 Y106.724 E0.00594
G1 X108.300 Y106.792 E0.01142
G1 X108.084 Y106.807 E0.00679
G1 X108.084 Y112.027 E0.16366
G1 F8640
G1 X108.084 Y108.736 E-0.76000
G1 E-0.04000 F2100.00000
G1 Z0.800 F10800.000
G1 X124.189 Y122.012
G1 Z0.200
G1 E0.80000 F2100.00000
G1 F1200
G1 X125.811 Y122.014 E0.05085
G1 X125.800 Y122.380 E0.01150
G1 X125.751 Y122.639 E0.00825
G1 X125.675 Y122.867 E0.00752
G1 X125.571 Y123.076 E0.00735
G1 X125.454 Y123.241 E0.00633
G1 X125.335 Y123.358 E0.00523
G1 X125.210 Y123.442 E0.00472
G1 X125.102 Y123.483 E0.00364
G1 X125.000 Y123.496 E0.00321
G1 X124.898 Y123.483 E0.00323
G1 X124.788 Y123.442 E0.00367
G1 X124.669 Y123.363 E0.00449
G1 X124.546 Y123.241 E0.00543
G1 X124.429 Y123.076 E0.00633
G1 X124.327 Y122.873 E0.00712
G1 X124.249 Y122.638 E0.00776
G1 X124.200 Y122.380 E0.00823
G1 X124.185 Y122.072 E0.00969
G1 X123.825 Y121.794 F10800.000
G1 F1200
G1 X123.855 Y121.638 E0.00497
G1 X125.007 Y121.626 E0.03611
G1 X126.146 Y121.641 E0.03572
G1 X126.175 Y121.793 E0.00486
G1 X126.195 Y122.111 E0.00997
G1 X126.175 Y122.428 E0.00996
G1 X126.116 Y122.734 E0.00977
G1 X126.025 Y123.011 E0.00914
G1 X125.895 Y123.271 E0.00912
G1 X125.742 Y123.486 E0.00828
G1 X125.575 Y123.652 E0.00738
G1 X125.384 Y123.779 E0.00719
G1 X125.193 Y123.852 E0.00641
G1 X125.000 Y123.876 E0.00610
G1 X124.806 Y123.852 E0.00612
G1 X124.615 Y123.779 E0.00642
G1 X124.430 Y123.657 E0.00696
G1 X124.258 Y123.486 E0.00761
G1 X124.105 Y123.271 E0.00828
G1 X123.978 Y123.018 E0.00888
G1 X123.884 Y122.733 E0.00939
G1 X123.825 Y122.428 E0.00976
G1 X123.805 Y122.111 E0.00996
G1 X123.821 Y121.854 E0.00807
G1 X123.971 Y121.733 F10800.000
G1 X124.379 Y122.670
G1 F1200
G1 X124.857 Y123.148 E0.02156
G1 X125.000 Y123.211 E0.00497
G1 X125.080 Y123.189 E0.00263
G1 X125.156 Y123.138 E0.00291
G1 X125.267 Y123.016 E0.00527
G1 X124.546 Y122.295 E0.03247
G1 X125.089 Y122.296 E0.01728
G1 X125.582 Y122.789 E0.02222
G1 F8640
G1 X125.089 Y122.296 E-0.16106
G1 X124.546 Y122.295 E-0.12526
G1 X125.267 Y123.016 E-0.23535
G1 X125.156 Y123.138 E-0.03823
G1 X125.080 Y123.189 E-0.02108
G1 X125.000 Y123.211 E-0.01906
G1 X124.857 Y123.148 E-0.03603
G1 X124.478 Y122.769 E-0.12393
G1 E-0.04000 F2100.00000
G1 Z0.800 F10800.000
G1 X113.551 Y117.595
G1 Z0.200
G1 E0.80000 F2100.00000
G1 F1200
G1 X113.276 Y117.855 E0.01189
G1 X113.058 Y118.003 E0.00825
G1 X112.843 Y118.112 E0.00756
G1 X112.627 Y118.185 E0.00713
G1 X112.429 Y118.219 E0.00631
G1 X112.249 Y118.218 E0.00564
G1 X112.109 Y118.190 E0.00447
G1 X112.003 Y118.142 E0.00368
G1 X111.921 Y118.078 E0.00323
G1 X111.858 Y117.998 E0.00321
G1 X111.810 Y117.890 E0.00370
G1 X111.783 Y117.757 E0.00425
G1 X111.781 Y117.570 E0.00587
G1 X111.814 Y117.379 E0.00608
G1 X111.886 Y117.163 E0.00714
G1 X111.997 Y116.941 E0.00776
G1 X112.145 Y116.724 E0.00823
G1 X112.397 Y116.456 E0.01156
G1 X113.510 Y117.551 E0.04895
G1 X114.046 Y117.574 F10800.000
G1 F1200
G1 X113.956 Y117.706 E0.00499
G1 X113.746 Y117.944 E0.00997
G1 X113.508 Y118.154 E0.00996
G1 X113.250 Y118.329 E0.00977
G1 X112.989 Y118.460 E0.00916
G1 X112.720 Y118.551 E0.00889
G1 X112.460 Y118.596 E0.00827
G1 X112.210 Y118.595 E0.00784
G1 X111.993 Y118.551 E0.00695
G1 X111.807 Y118.467 E0.00642
G1 X111.653 Y118.347 E0.00612
G1 X111.533 Y118.194 E0.00610
G1 X111.449 Y118.007 E0.00643
G1 X111.406 Y117.797 E0.00671
G1 X111.404 Y117.539 E0.00808
G1 X111.447 Y117.287 E0.00803
G1 X111.537 Y117.018 E0.00889
G1 X111.671 Y116.750 E0.00939
G1 X111.846 Y116.492 E0.00976
G1 X112.056 Y116.254 E0.00996
G1 X112.294 Y116.044 E0.00997
G1 X112.425 Y115.955 E0.00495
G1 X113.739 Y117.243 E0.05771
G1 X114.005 Y117.530 E0.01226
G1 X113.898 Y117.634 F10800.000
G1 X113.248 Y117.726
G1 F1200
G1 X112.393 Y116.872 E0.04386
G1 X112.242 Y117.085 E0.00948
G1 X112.157 Y117.253 E0.00686
G1 X112.747 Y117.843 E0.03030
G1 X112.558 Y117.910 E0.00728
G1 X112.406 Y117.936 E0.00561
G1 X112.207 Y117.921 E0.00723
G1 X111.895 Y117.609 E0.01603
G1 F8640
G1 X112.207 Y117.921 E-0.10193
G1 X112.406 Y117.936 E-0.04599
G1 X112.558 Y117.910 E-0.03566
G1 X112.747 Y117.843 E-0.04631
G1 X112.157 Y117.253 E-0.19267
G1 X112.242 Y117.085 E-0.04362
G1 X112.393 Y116.872 E-0.06025
G1 X113.109 Y117.588 E-0.23357
G1 E-0.04000 F2100.00000
G1 Z0.800 F10800.000
G1 X108.254 Y105.782
G1 Z0.200
G1 E0.80000 F2100.00000
G1 F1200
G1 X107.889 Y105.817 E0.01149
G1 X107.619 Y105.800 E0.00849
G1 X107.368 Y105.752 E0.00801
G1 X107.132 Y105.675 E0.00780
G1 X106.929 Y105.575 E0.00710
G1 X106.759 Y105.454 E0.00653
G1 X106.637 Y105.331 E0.00543
G1 X106.559 Y105.212 E0.00447
G1 X106.517 Y105.101 E0.00374
G1 X106.504 Y104.999 E0.00321
G1 X106.517 Y104.898 E0.00319
G1 X106.558 Y104.788 E0.00368
G1 X106.637 Y104.669 E0.00449
G1 X106.759 Y104.546 E0.00543
G1 X106.924 Y104.429 E0.00633
G1 X107.127 Y104.327 E0.00712
G1 X107.362 Y104.249 E0.00776
G1 X107.620 Y104.200 E0.00823
G1 X107.889 Y104.183 E0.00847
G1 X108.255 Y104.219 E0.01152
G1 X108.255 Y105.722 E0.04715
G1 X108.628 Y106.079 F10800.000
G1 F1200
G1 X108.207 Y106.175 E0.01355
G1 X107.889 Y106.195 E0.00997
G1 X107.572 Y106.175 E0.00996
G1 X107.274 Y106.118 E0.00951
G1 X106.989 Y106.025 E0.00941
G1 X106.735 Y105.899 E0.00888
G1 X106.514 Y105.742 E0.00850
G1 X106.343 Y105.570 E0.00761
G1 X106.221 Y105.385 E0.00695
G1 X106.148 Y105.191 E0.00649
G1 X106.124 Y104.999 E0.00609
G1 X106.148 Y104.807 E0.00607
G1 X106.221 Y104.615 E0.00642
G1 X106.343 Y104.430 E0.00696
G1 X106.514 Y104.258 E0.00761
G1 X106.729 Y104.105 E0.00828
G1 X106.982 Y103.978 E0.00888
G1 X107.267 Y103.884 E0.00939
G1 X107.572 Y103.825 E0.00976
G1 X107.889 Y103.805 E0.00996
G1 X108.198 Y103.824 E0.00970
G1 X108.628 Y103.921 E0.01384
G1 X108.629 Y106.019 E0.06578
G1 X108.247 Y105.957 F10800.000
G1 X108.142 Y105.186
G1 F1200
G1 X107.472 Y104.516 E0.03379
G1 X107.235 Y104.589 E0.00884
G1 X107.041 Y104.692 E0.00784
G1 X107.882 Y105.533 E0.04243
G1 X107.654 Y105.519 E0.00813
G1 X107.439 Y105.478 E0.00783
G1 X107.239 Y105.412 E0.00751
G1 X107.074 Y105.331 E0.00655
G1 X106.638 Y104.896 E0.02197
G1 F8640
G1 X107.074 Y105.331 E-0.14214
G1 X107.239 Y105.412 E-0.04241
G1 X107.439 Y105.478 E-0.04859
G1 X107.654 Y105.519 E-0.05065
G1 X107.882 Y105.533 E-0.05263
G1 X107.041 Y104.692 E-0.27453
G1 X107.235 Y104.589 E-0.05073
G1 X107.472 Y104.516 E-0.05720
G1 X107.598 Y104.642 E-0.04111
G1 E-0.04000 F2100.00000
G1 Z0.800 F10800.000
G1 X112.627 Y93.727
G1 Z0.200
G1 E0.80000 F2100.00000
G1 F1200
G1 X112.323 Y93.479 E0.01230
