; generated by PrusaSlicer 2.1.1+win64 on 2020-01-07 at 21:09:08 UTC

; 

; external perimeters extrusion width = 0.45mm
; perimeters extrusion width = 0.45mm
; infill extrusion width = 0.45mm
; solid infill extrusion width = 0.45mm
; top infill extrusion width = 0.40mm
; support material extrusion width = 0.35mm
; first layer extrusion width = 0.42mm

M73 P0 R24
M201 X9000 Y9000 Z500 E10000 ; sets maximum accelerations, mm/sec^2
M203 X500 Y500 Z12 E120 ; sets maximum feedrates, mm/sec
M204 P2000 R1500 T2000 ; sets acceleration (P, T) and retract acceleration (R), mm/sec^2
M205 X10.00 Y10.00 Z0.20 E2.50 ; sets the jerk limits, mm/sec
M205 S0 T0 ; sets the minimum extruding and travel feed rate, mm/sec
M107
M862.3 P "MK2S" ; printer model check
M862.1 P0.4 ; nozzle diameter check
M115 U3.2.3 ; tell printer latest fw version
G90 ; use absolute coordinates
M83 ; extruder relative mode
M204 S2000 T1500 ; MK2 firmware only supports the old M204 format
M104 S215 ; set extruder temp
M140 S60 ; set bed temp
M190 S60 ; wait for bed temp
M109 S215 ; wait for extruder temp
G28 W ; home all without mesh bed level
G80 ; mesh bed leveling
G1 Y-3.0 F1000.0 ; go outside print area
G92 E0.0
G1 X60.0 E9.0  F1000.0 ; intro line
M73 P0 R24
G1 X100.0 E12.5 F1000.0 ; intro line
G92 E0.0
G21 ; set units to millimeters
G90 ; use absolute coordinates
M83 ; use relative distances for extrusion
M900 K30 ; Filament gcode
;BEFORE_LAYER_CHANGE
G92 E0.0
;0.2


G1 E-0.80000 F2100.00000
G1 Z0.600 F10800.000
;AFTER_LAYER_CHANGE
;0.2
G1 X131.013 Y128.559
G1 Z0.200
G1 E0.80000 F2100.00000
M204 S1000
G1 F1200
G1 X130.132 Y128.802 E0.02867
G1 X119.978 Y128.806 E0.31837
G1 X119.355 Y128.710 E0.01976
G1 X118.618 Y128.318 E0.02620
G1 X118.083 Y127.680 E0.02608
G1 X98.365 Y90.913 E1.30815
G1 X98.175 Y90.312 E0.01976
G1 X98.164 Y89.682 E0.01976
G1 X98.928 Y86.498 E0.10266
G1 X99.134 Y86.031 E0.01601
G1 X99.440 Y85.627 E0.01589
G1 X107.048 Y78.018 E0.33736
G1 X107.470 Y77.689 E0.01680
G1 X107.960 Y77.472 E0.01680
G1 X108.430 Y77.384 E0.01498
G1 X135.714 Y75.369 E0.85781
G1 X136.397 Y75.479 E0.02168
G1 X141.329 Y77.124 E0.16300
G1 X141.860 Y77.396 E0.01873
G1 X149.647 Y85.137 E0.34425
G1 X150.083 Y85.807 E0.02507
G1 X150.249 Y86.585 E0.02496
G1 X149.780 Y90.175 E0.11351
G1 X131.979 Y127.560 E1.29827
G1 X131.721 Y127.975 E0.01532
G1 X131.060 Y128.521 E0.02690
G1 E-0.80000 F2100.00000
G1 Z0.800 F10800.000
G1 X125.000 Y124.705
G1 Z0.200
G1 E0.80000 F2100.00000
G1 F1200
G1 X124.397 Y124.645 E0.01899
G1 X123.818 Y124.469 E0.01899
G1 X123.283 Y124.184 E0.01899
G1 X122.815 Y123.800 E0.01899
G1 X122.431 Y123.331 E0.01899
G1 X122.145 Y122.797 E0.01899
G1 X121.969 Y122.217 E0.01899
G1 X121.910 Y121.615 E0.01899
G1 X121.969 Y121.012 E0.01899
G1 X122.145 Y120.432 E0.01899
G1 X122.431 Y119.898 E0.01899
G1 X122.815 Y119.430 E0.01899
G1 X123.283 Y119.045 E0.01899
G1 X123.822 Y118.757 E0.01916
G1 X124.451 Y118.579 E0.02050
G1 X125.000 Y118.525 E0.01729
G1 X125.603 Y118.584 E0.01899
G1 X126.182 Y118.760 E0.01899
G1 X126.717 Y119.045 E0.01899
G1 X127.185 Y119.430 E0.01899
G1 X127.569 Y119.898 E0.01899
G1 X127.855 Y120.432 E0.01899
G1 X128.031 Y121.012 E0.01899
G1 X128.090 Y121.615 E0.01899
G1 X128.031 Y122.217 E0.01899
G1 X127.855 Y122.797 E0.01899
G1 X127.569 Y123.331 E0.01899
G1 X127.185 Y123.800 E0.01899
G1 X126.717 Y124.184 E0.01899
G1 X126.182 Y124.469 E0.01899
G1 X125.603 Y124.645 E0.01899
G1 X125.060 Y124.699 E0.01711
G1 X125.000 Y124.326 F10800.000
G1 F1200
G1 X124.471 Y124.274 E0.01666
G1 X123.963 Y124.119 E0.01666
G1 X123.494 Y123.869 E0.01666
G1 X123.083 Y123.532 E0.01666
G1 X122.746 Y123.121 E0.01666
G1 X122.495 Y122.652 E0.01666
G1 X122.341 Y122.144 E0.01666
G1 X122.289 Y121.615 E0.01666
G1 X122.341 Y121.086 E0.01666
G1 X122.495 Y120.577 E0.01666
G1 X122.746 Y120.108 E0.01666
G1 X123.083 Y119.698 E0.01666
G1 X123.494 Y119.360 E0.01666
G1 X123.964 Y119.109 E0.01672
G1 X124.522 Y118.951 E0.01817
G1 X125.000 Y118.904 E0.01507
G1 X125.529 Y118.956 E0.01666
G1 X126.037 Y119.110 E0.01666
G1 X126.506 Y119.360 E0.01666
G1 X126.917 Y119.698 E0.01666
G1 X127.254 Y120.108 E0.01666
G1 X127.505 Y120.577 E0.01666
G1 X127.659 Y121.086 E0.01666
G1 X127.711 Y121.615 E0.01666
G1 X127.659 Y122.144 E0.01666
G1 X127.505 Y122.652 E0.01666
G1 X127.254 Y123.121 E0.01666
G1 X126.917 Y123.532 E0.01666
G1 X126.506 Y123.869 E0.01666
G1 X126.037 Y124.119 E0.01666
G1 X125.529 Y124.274 E0.01666
G1 X125.060 Y124.320 E0.01478
G1 X124.800 Y124.672 F10800.000
G1 X125.000 Y126.031
G1 F1200
G1 X120.583 Y126.031 E0.13848
G1 X120.583 Y116.672 E0.29342
G1 X122.610 Y106.975 E0.31063
G1 X122.200 Y106.688 E0.01571
G1 X121.933 Y106.421 E0.01182
G1 X121.554 Y105.935 E0.01935
G1 X121.250 Y105.398 E0.01935
G1 X121.099 Y105.035 E0.01231
G1 X120.935 Y104.445 E0.01921
G1 X120.875 Y104.045 E0.01267
G1 X120.860 Y103.429 E0.01933
G1 X120.935 Y102.823 E0.01912
G1 X121.099 Y102.229 E0.01935
G1 X121.252 Y101.860 E0.01253
G1 X121.444 Y101.501 E0.01276
G1 X121.670 Y101.162 E0.01276
G1 X121.916 Y100.862 E0.01217
G1 X122.376 Y100.423 E0.01995
G1 X122.697 Y100.185 E0.01251
G1 X123.040 Y99.980 E0.01253
G1 X123.610 Y99.727 E0.01957
G1 X123.993 Y99.611 E0.01253
G1 X124.392 Y99.531 E0.01276
G1 X124.797 Y99.491 E0.01276
G1 X125.185 Y99.491 E0.01217
G1 X125.816 Y99.568 E0.01995
G1 X126.203 Y99.665 E0.01251
G1 X126.580 Y99.800 E0.01253
G1 X127.137 Y100.080 E0.01957
G1 X127.470 Y100.302 E0.01253
G1 X127.778 Y100.556 E0.01253
G1 X128.209 Y101.008 E0.01957
G1 X128.447 Y101.329 E0.01253
G1 X128.656 Y101.678 E0.01276
G1 X128.830 Y102.046 E0.01276
G1 X128.961 Y102.411 E0.01217
G1 X129.100 Y103.024 E0.01972
G1 X129.145 Y103.639 E0.01933
G1 X129.126 Y104.031 E0.01231
G1 X129.022 Y104.635 E0.01921
G1 X128.905 Y105.022 E0.01267
G1 X128.652 Y105.593 E0.01956
G1 X128.451 Y105.929 E0.01230
G1 X128.067 Y106.421 E0.01957
G1 X127.800 Y106.688 E0.01182
G1 X127.390 Y106.975 E0.01571
G1 X129.417 Y116.672 E0.31063
G1 X129.417 Y126.031 E0.29342
G1 X125.060 Y126.031 E0.13660
G1 X125.000 Y126.408 F10800.000
G1 F1200
G1 X120.206 Y126.408 E0.15030
G1 X120.206 Y116.633 E0.30647
G1 X122.190 Y107.141 E0.30405
G1 X121.957 Y106.978 E0.00894
G1 X121.650 Y106.672 E0.01358
G1 X121.239 Y106.145 E0.02095
G1 X120.910 Y105.564 E0.02095
G1 X120.742 Y105.158 E0.01376
G1 X120.566 Y104.523 E0.02065
G1 X120.499 Y104.078 E0.01413
G1 X120.483 Y103.410 E0.02094
G1 X120.564 Y102.750 E0.02086
G1 X120.742 Y102.106 E0.02095
G1 X120.911 Y101.698 E0.01384
G1 X121.120 Y101.307 E0.01392
G1 X121.367 Y100.938 E0.01392
G1 X121.639 Y100.605 E0.01346
G1 X122.133 Y100.134 E0.02140
G1 X122.487 Y99.871 E0.01383
G1 X122.866 Y99.644 E0.01384
G1 X123.479 Y99.373 E0.02103
G1 X123.901 Y99.244 E0.01384
G1 X124.336 Y99.158 E0.01392
G1 X124.778 Y99.114 E0.01392
G1 X125.208 Y99.114 E0.01346
G1 X125.885 Y99.196 E0.02140
G1 X126.313 Y99.304 E0.01383
G1 X126.729 Y99.452 E0.01384
G1 X127.328 Y99.754 E0.02103
G1 X127.694 Y99.999 E0.01384
G1 X128.036 Y100.279 E0.01384
G1 X128.498 Y100.765 E0.02103
G1 X128.761 Y101.119 E0.01384
G1 X128.989 Y101.500 E0.01392
G1 X129.179 Y101.901 E0.01392
G1 X129.324 Y102.305 E0.01346
G1 X129.474 Y102.969 E0.02132
G1 X129.523 Y103.635 E0.02094
G1 X129.502 Y104.073 E0.01376
G1 X129.389 Y104.722 E0.02065
G1 X129.259 Y105.154 E0.01413
G1 X128.988 Y105.767 E0.02102
G1 X128.762 Y106.143 E0.01376
G1 X128.350 Y106.672 E0.02103
G1 X128.043 Y106.978 E0.01358
G1 X127.810 Y107.141 E0.00894
G1 X129.794 Y116.633 E0.30405
G1 X129.794 Y126.408 E0.30647
G1 X125.060 Y126.408 E0.14842
G1 X124.688 Y126.158 F10800.000
G1 X124.163 Y125.917
G1 F1200
G1 X120.866 Y122.620 E0.14780
G1 X120.866 Y123.160 E0.01709
G1 X123.454 Y125.748 E0.11602
G1 X122.915 Y125.748 E0.01709
G1 X120.866 Y123.699 E0.09186
G1 X120.866 Y124.238 E0.01709
G1 X122.376 Y125.748 E0.06769
G1 X121.837 Y125.748 E0.01709
G1 X120.866 Y124.777 E0.04352
G1 X120.866 Y125.316 E0.01709
G1 X121.468 Y125.917 E0.02696
G1 E-0.80000 F2100.00000
G1 Z0.800 F10800.000
G1 X120.996 Y125.618
G1 X121.890 Y124.724
G1 X123.467 Y125.211
G1 X124.976 Y125.368
G1 X126.533 Y125.211
G1 X128.110 Y124.724
G1 X128.597 Y123.148
G1 X128.754 Y121.639
G1 X129.303 Y121.893
G1 Z0.200
G1 E0.80000 F2100.00000
G1 F1200
G1 X128.284 Y120.873 E0.04570
G1 X128.309 Y120.956 E0.00276
G1 X128.362 Y121.490 E0.01700
G1 X129.134 Y122.262 E0.03461
G1 X129.134 Y122.801 E0.01709
G1 X128.336 Y122.003 E0.03577
G1 X128.309 Y122.273 E0.00859
G1 X128.253 Y122.459 E0.00617
G1 X129.134 Y123.340 E0.03950
G1 X129.134 Y123.879 E0.01709
G1 X128.127 Y122.873 E0.04512
G1 X127.944 Y123.229 E0.01269
G1 X129.134 Y124.419 E0.05332
G1 X129.134 Y124.958 E0.01709
G1 X127.742 Y123.566 E0.06238
G1 X127.499 Y123.862 E0.01214
G1 X129.134 Y125.497 E0.07328
G1 X129.134 Y125.748 E0.00796
G1 X128.846 Y125.748 E0.00913
G1 X127.228 Y124.130 E0.07252
G1 X126.932 Y124.373 E0.01214
G1 X128.307 Y125.748 E0.06163
G1 X127.767 Y125.748 E0.01709
G1 X126.591 Y124.572 E0.05273
G1 X126.231 Y124.750 E0.01275
G1 X127.228 Y125.748 E0.04472
G1 X126.689 Y125.748 E0.01709
G1 X125.817 Y124.876 E0.03909
G1 X125.658 Y124.924 E0.00526
G1 X125.356 Y124.954 E0.00963
G1 X126.150 Y125.748 E0.03560
G1 X125.611 Y125.748 E0.01709
G1 X124.836 Y124.972 E0.03476
G1 X124.342 Y124.924 E0.01573
G1 X124.207 Y124.883 E0.00447
G1 X125.072 Y125.748 E0.03877
G1 X124.533 Y125.748 E0.01709
G1 X120.866 Y122.081 E0.16436
G1 X120.866 Y121.542 E0.01709
G1 X121.732 Y122.408 E0.03880
G1 X121.691 Y122.273 E0.00447
G1 X121.642 Y121.779 E0.01573
G1 X120.866 Y121.003 E0.03478
G1 X120.866 Y120.464 E0.01709
G1 X121.661 Y121.259 E0.03563
G1 X121.691 Y120.956 E0.00963
G1 X121.739 Y120.798 E0.00526
G1 X120.866 Y119.925 E0.03912
G1 X120.866 Y119.386 E0.01709
G1 X121.864 Y120.384 E0.04475
G1 X122.043 Y120.023 E0.01275
G1 X120.866 Y118.847 E0.05276
G1 X120.866 Y118.307 E0.01709
G1 X122.242 Y119.683 E0.06166
G1 X122.485 Y119.387 E0.01214
G1 X120.866 Y117.768 E0.07255
G1 X120.866 Y117.229 E0.01709
G1 X122.752 Y119.115 E0.08456
G1 X123.048 Y118.872 E0.01214
G1 X120.868 Y116.692 E0.09774
G1 X120.961 Y116.246 E0.01444
G1 X123.385 Y118.670 E0.10867
G1 X123.741 Y118.487 E0.01268
G1 X121.055 Y115.800 E0.12043
G1 X121.148 Y115.354 E0.01444
G1 X124.161 Y118.367 E0.13507
G1 X124.398 Y118.300 E0.00782
G1 X124.611 Y118.279 E0.00679
G1 X121.241 Y114.908 E0.15109
G1 X121.334 Y114.462 E0.01444
G1 X125.125 Y118.253 E0.16992
G1 X125.658 Y118.305 E0.01700
G1 X125.742 Y118.331 E0.00276
G1 X121.427 Y114.017 E0.19340
G1 X121.521 Y113.571 E0.01444
G1 X129.134 Y121.184 E0.34129
G1 X129.134 Y120.645 E0.01709
G1 X121.614 Y113.125 E0.33711
G1 X121.707 Y112.679 E0.01444
G1 X129.134 Y120.106 E0.33293
G1 X129.134 Y119.566 E0.01709
G1 X121.800 Y112.233 E0.32876
G1 X121.893 Y111.787 E0.01444
G1 X129.134 Y119.027 E0.32458
G1 X129.134 Y118.488 E0.01709
G1 X121.987 Y111.341 E0.32040
G1 X122.080 Y110.895 E0.01444
G1 X129.134 Y117.949 E0.31622
G1 X129.134 Y117.410 E0.01709
G1 X122.173 Y110.449 E0.31204
G1 X122.266 Y110.003 E0.01444
G1 X129.134 Y116.871 E0.30786
G1 X129.134 Y116.702 E0.00536
G1 X129.036 Y116.234 E0.01515
G1 X122.359 Y109.557 E0.29930
G1 X122.453 Y109.111 E0.01444
G1 X128.894 Y115.552 E0.28874
G1 X128.751 Y114.871 E0.02207
G1 X122.546 Y108.665 E0.27817
G1 X122.639 Y108.220 E0.01444
G1 X128.609 Y114.189 E0.26761
G1 X128.466 Y113.507 E0.02207
G1 X122.732 Y107.774 E0.25704
G1 X122.826 Y107.328 E0.01444
G1 X128.324 Y112.826 E0.24648
G1 X128.181 Y112.144 E0.02207
G1 X121.757 Y105.720 E0.28798
G1 X121.504 Y105.274 E0.01627
G1 X121.367 Y104.943 E0.01135
G1 X121.309 Y104.733 E0.00691
G1 X128.039 Y111.463 E0.30169
G1 X127.896 Y110.781 E0.02207
G1 X121.161 Y104.046 E0.30191
G1 X121.145 Y103.490 E0.01763
G1 X127.754 Y110.099 E0.29628
G1 X127.611 Y109.418 E0.02207
G1 X121.198 Y103.004 E0.28752
G1 X121.213 Y102.879 E0.00400
G1 X121.299 Y102.567 E0.01027
G1 X127.469 Y108.736 E0.27657
G1 X127.326 Y108.055 E0.02207
G1 X121.433 Y102.162 E0.26418
G1 X121.607 Y101.796 E0.01283
G1 X127.184 Y107.373 E0.25001
G1 X127.075 Y106.850 E0.01694
G1 X127.148 Y106.798 E0.00286
G1 X121.811 Y101.461 E0.23928
G1 X122.043 Y101.154 E0.01220
G1 X127.466 Y106.577 E0.24310
G1 X127.618 Y106.470 E0.00588
G1 X127.758 Y106.330 E0.00630
G1 X122.308 Y100.879 E0.24434
G1 X122.586 Y100.619 E0.01209
G1 X128.006 Y106.039 E0.24297
G1 X128.239 Y105.732 E0.01220
G1 X122.900 Y100.393 E0.23935
G1 X123.244 Y100.198 E0.01254
G1 X128.434 Y105.388 E0.23265
G1 X128.599 Y105.015 E0.01295
G1 X123.618 Y100.033 E0.22333
G1 X124.021 Y99.897 E0.01350
G1 X128.734 Y104.610 E0.21126
G1 X128.818 Y104.155 E0.01468
G1 X124.471 Y99.808 E0.19487
G1 X124.976 Y99.774 E0.01606
G1 X128.861 Y103.659 E0.17416
G1 X128.820 Y103.079 E0.01843
G1 X125.563 Y99.822 E0.14601
G1 X125.765 Y99.847 E0.00643
G1 X126.269 Y99.989 E0.01662
G1 X128.890 Y102.610 E0.11749
G1 X128.561 Y101.742 F10800.000
G1 F1200
G1 X126.914 Y100.095 E0.07383
G1 E-0.80000 F2100.00000
G1 Z0.800 F10800.000
G1 X133.966 Y93.251
G1 Z0.200
G1 E0.80000 F2100.00000
G1 F1200
G1 X137.326 Y89.891 E0.12135
G1 X136.967 Y89.532 E0.01295
G1 X136.443 Y90.056 E0.01892
G1 X136.443 Y90.004 E0.00132
G1 X136.474 Y89.974 E0.00109
G1 X136.474 Y89.309 E0.01699
G1 X136.707 Y89.076 E0.00841
G1 X137.118 Y89.439 F10800.000
G1 F1200
G1 X143.987 Y82.570 E0.30457
G1 X143.453 Y82.037 E0.02365
G1 X136.705 Y88.786 E0.29925
G1 X136.509 Y88.590 E0.00869
G1 X136.509 Y87.963 E0.01964
G1 X137.827 Y86.645 E0.05845
G1 X137.803 Y86.621 E0.00106
G1 X142.920 Y81.504 E0.22691
G1 X142.387 Y80.970 E0.02365
G1 X137.269 Y86.088 E0.22691
G1 X136.736 Y85.554 E0.02365
G1 X141.853 Y80.437 E0.22691
G1 X141.320 Y79.904 E0.02365
G1 X136.203 Y85.021 E0.22691
G1 X135.670 Y84.488 E0.02365
G1 X140.787 Y79.371 E0.22691
G1 X140.606 Y79.189 E0.00804
G1 X138.974 Y80.821 E0.07234
G1 X138.622 Y80.469 E0.01561
G1 X135.136 Y83.955 E0.15457
G1 X134.603 Y83.421 E0.02365
G1 X138.089 Y79.935 E0.15457
G1 X137.556 Y79.402 E0.02365
G1 X132.438 Y84.519 E0.22691
G1 X131.905 Y83.986 E0.02365
G1 X137.022 Y78.869 E0.22691
G1 X136.489 Y78.336 E0.02365
G1 X131.372 Y83.453 E0.22691
G1 X130.839 Y82.920 E0.02365
G1 X135.956 Y77.802 E0.22691
G1 X135.712 Y77.558 E0.01084
G1 X132.449 Y80.821 E0.14467
G1 X132.160 Y80.532 E0.01281
G1 X128.674 Y84.018 E0.15457
G1 X128.141 Y83.484 E0.02365
G1 X131.627 Y79.999 E0.15457
G1 X131.093 Y79.465 E0.02365
G1 X127.607 Y82.951 E0.15457
G1 X127.555 Y82.899 E0.00234
G1 X125.923 Y84.530 E0.07234
G1 X125.443 Y84.049 E0.02131
G1 X128.929 Y80.563 E0.15457
G1 X128.396 Y80.030 E0.02365
G1 X124.910 Y83.516 E0.15457
G1 X124.376 Y82.983 E0.02365
G1 X127.862 Y79.497 E0.15457
G1 X127.555 Y79.189 E0.01363
G1 X125.923 Y80.821 E0.07234
G1 X125.698 Y80.595 E0.01001
G1 X122.212 Y84.081 E0.15457
G1 X121.678 Y83.548 E0.02365
G1 X125.164 Y80.062 E0.15457
G1 X124.631 Y79.528 E0.02365
G1 X121.145 Y83.014 E0.15457
G1 X121.029 Y82.899 E0.00513
G1 X119.398 Y84.530 E0.07234
G1 X118.980 Y84.112 E0.01851
G1 X122.466 Y80.626 E0.15457
G1 X121.933 Y80.093 E0.02365
G1 X118.447 Y83.579 E0.15457
G1 X117.914 Y83.046 E0.02365
G1 X121.400 Y79.560 E0.15457
G1 X121.029 Y79.189 E0.01643
G1 X119.398 Y80.821 E0.07234
G1 X119.235 Y80.658 E0.00721
G1 X115.749 Y84.144 E0.15457
G1 X115.216 Y83.611 E0.02365
G1 X118.702 Y80.125 E0.15457
G1 X118.169 Y79.591 E0.02365
G1 X114.683 Y83.077 E0.15457
G1 X114.504 Y82.899 E0.00793
G1 X112.873 Y84.530 E0.07234
G1 X112.518 Y84.175 E0.01572
G1 X116.004 Y80.689 E0.15457
G1 X115.471 Y80.156 E0.02365
G1 X111.985 Y83.642 E0.15457
G1 X111.452 Y83.109 E0.02365
G1 X114.938 Y79.623 E0.15457
G1 X114.504 Y79.189 E0.01923
G1 X112.873 Y80.821 E0.07234
G1 X112.773 Y80.721 E0.00442
G1 X109.287 Y84.207 E0.15457
G1 X108.754 Y83.674 E0.02365
G1 X112.240 Y80.188 E0.15457
G1 X111.706 Y79.654 E0.02365
G1 X108.220 Y83.140 E0.15457
G1 X107.979 Y82.899 E0.01073
G1 X105.863 Y85.014 E0.09379
G1 X106.105 Y85.256 E0.01073
G1 X100.988 Y90.373 E0.22691
G1 X101.521 Y90.906 E0.02365
G1 X106.639 Y85.789 E0.22691
G1 X107.172 Y86.322 E0.02365
G1 X101.935 Y91.559 E0.23223
G1 X100.335 Y89.960 F10800.000
G1 F1200
G1 X109.542 Y80.753 E0.40826
G1 X109.009 Y80.219 E0.02365
G1 X101.553 Y87.675 E0.33060
G1 X101.020 Y87.142 E0.02365
G1 X108.595 Y79.566 E0.33592
