; generated by PrusaSlicer 2.2.0+win64 on 2020-12-08 at 19:06:43 UTC

; 

; external perimeters extrusion width = 0.60mm
; perimeters extrusion width = 0.43mm
; infill extrusion width = 0.45mm
; solid infill extrusion width = 0.70mm
; top infill extrusion width = 0.43mm
; first layer extrusion width = 0.42mm

M73 P0 R5
M201 X9000 Y9000 Z500 E10000 ; sets maximum accelerations, mm/sec^2
M203 X500 Y500 Z12 E120 ; sets maximum feedrates, mm/sec
M204 P2000 R1500 T2000 ; sets acceleration (P, T) and retract acceleration (R), mm/sec^2
M205 X10.00 Y10.00 Z0.20 E2.50 ; sets the jerk limits, mm/sec
M205 S0 T0 ; sets the minimum extruding and travel feed rate, mm/sec
M107
M862.3 P "MK2S" ; printer model check
M862.1 P0.4 ; nozzle diameter check
M115 U3.2.3 ; tell printer latest fw version
G90 ; use absolute coordinates
M83 ; extruder relative mode
M204 S2000 T1500 ; MK2 firmware only supports the old M204 format
M104 S215 ; set extruder temp
M140 S60 ; set bed temp
M190 S60 ; wait for bed temp
M109 S215 ; wait for extruder temp
G28 W ; home all without mesh bed level
G80 ; mesh bed leveling
G1 Y-3.0 F1000.0 ; go outside print area
G92 E0.0
G1 X60.0 E9.0  F1000.0 ; intro line
M73 P1 R5
G1 X100.0 E12.5 F1000.0 ; intro line
G92 E0.0
G21 ; set units to millimeters
G90 ; use absolute coordinates
M83 ; use relative distances for extrusion
M900 K0.05 ; Filament gcode LA 1.5
M900 K30 ; Filament gcode LA 1.0
;BEFORE_LAYER_CHANGE
G92 E0.0
;0.2


G1 E-0.80000 F2100.00000
G1 Z0.600 F10800.000
;AFTER_LAYER_CHANGE
;0.2
G1 X118.369 Y77.885
G1 Z0.200
G1 E0.80000 F2100.00000
M204 S1000
G1 F1200.000
G1 X119.099 Y77.208 E0.03123
G1 X120.077 Y76.751 E0.03383
G1 X120.966 Y76.622 E0.02816
G1 X129.004 Y76.622 E0.25203
G1 X130.158 Y76.827 E0.03677
G1 X130.813 Y77.153 E0.02294
G1 X131.233 Y77.474 E0.01657
G1 X131.734 Y78.017 E0.02316
G1 X132.094 Y78.662 E0.02316
G1 X132.266 Y79.149 E0.01621
G1 X132.372 Y79.850 E0.02222
G1 X132.352 Y130.344 E1.58320
G1 X132.152 Y131.207 E0.02776
G1 X131.627 Y132.118 E0.03299
G1 X130.894 Y132.793 E0.03123
G1 X129.901 Y133.252 E0.03430
G1 X129.027 Y133.376 E0.02769
G1 X120.655 Y133.350 E0.26250
G1 X119.960 Y133.212 E0.02221
G1 X119.319 Y132.919 E0.02209
G1 X118.907 Y132.647 E0.01550
G1 X118.460 Y132.215 E0.01948
G1 X118.154 Y131.812 E0.01585
G1 X117.841 Y131.189 E0.02187
G1 X117.627 Y130.132 E0.03382
G1 X117.648 Y79.653 E1.58272
G1 X117.847 Y78.794 E0.02765
G1 X118.339 Y77.937 E0.03099
G1 E-0.80000 F2100.00000
G1 Z0.800 F10800.000
G1 X124.358 Y122.771
G1 Z0.200
G1 E0.80000 F2100.00000
G1 F1200.000
G1 X124.960 Y122.712 E0.01898
G1 X125.638 Y122.770 E0.02134
G1 X126.259 Y122.958 E0.02034
G1 X126.828 Y123.262 E0.02023
G1 X127.327 Y123.672 E0.02023
G1 X127.736 Y124.170 E0.02023
G1 X128.040 Y124.739 E0.02023
G1 X128.228 Y125.357 E0.02023
G1 X128.291 Y125.999 E0.02023
G1 X128.228 Y126.641 E0.02023
G1 X128.040 Y127.258 E0.02023
G1 X127.736 Y127.827 E0.02023
G1 X127.327 Y128.326 E0.02023
G1 X126.828 Y128.735 E0.02023
G1 X126.259 Y129.039 E0.02023
G1 X125.642 Y129.226 E0.02023
G1 X125.000 Y129.289 E0.02023
G1 X124.358 Y129.226 E0.02023
G1 X123.741 Y129.039 E0.02023
G1 X123.172 Y128.735 E0.02023
G1 X122.673 Y128.326 E0.02023
G1 X122.264 Y127.827 E0.02023
G1 X121.960 Y127.258 E0.02023
G1 X121.772 Y126.641 E0.02023
G1 X121.709 Y125.999 E0.02023
G1 X121.772 Y125.357 E0.02023
G1 X121.960 Y124.739 E0.02023
G1 X122.264 Y124.170 E0.02023
G1 X122.673 Y123.672 E0.02023
G1 X123.172 Y123.262 E0.02023
G1 X123.741 Y122.958 E0.02023
G1 X124.301 Y122.788 E0.01835
G1 X124.410 Y123.149 F10800.000
G1 F1200.000
G1 X124.963 Y123.090 E0.01743
G1 X125.567 Y123.142 E0.01901
G1 X126.114 Y123.308 E0.01794
G1 X126.618 Y123.577 E0.01790
G1 X127.059 Y123.940 E0.01790
G1 X127.421 Y124.381 E0.01790
G1 X127.690 Y124.884 E0.01790
G1 X127.856 Y125.431 E0.01790
G1 X127.912 Y125.999 E0.01790
G1 X127.856 Y126.567 E0.01790
G1 X127.690 Y127.113 E0.01790
G1 X127.421 Y127.616 E0.01790
G1 X127.059 Y128.058 E0.01790
G1 X126.618 Y128.420 E0.01790
G1 X126.114 Y128.689 E0.01790
G1 X125.568 Y128.855 E0.01790
G1 X125.000 Y128.911 E0.01790
G1 X124.432 Y128.855 E0.01790
G1 X123.886 Y128.689 E0.01790
G1 X123.382 Y128.420 E0.01790
G1 X122.941 Y128.058 E0.01790
G1 X122.579 Y127.616 E0.01790
G1 X122.310 Y127.113 E0.01790
G1 X122.144 Y126.567 E0.01790
G1 X122.088 Y125.999 E0.01790
G1 X122.144 Y125.431 E0.01790
G1 X122.310 Y124.884 E0.01790
G1 X122.579 Y124.381 E0.01790
G1 X122.941 Y123.940 E0.01790
G1 X123.382 Y123.577 E0.01790
G1 X123.886 Y123.308 E0.01790
G1 X124.353 Y123.167 E0.01530
G1 X124.536 Y122.770 F10800.000
G1 E-0.80000 F2100.00000
G1 Z0.800 F10800.000
G1 X125.000 Y87.289
G1 Z0.200
G1 E0.80000 F2100.00000
G1 F1200.000
G1 X124.358 Y87.226 E0.02023
G1 X123.741 Y87.039 E0.02023
G1 X123.172 Y86.735 E0.02023
G1 X122.673 Y86.326 E0.02023
G1 X122.264 Y85.827 E0.02023
G1 X121.960 Y85.258 E0.02023
G1 X121.772 Y84.641 E0.02023
G1 X121.709 Y83.999 E0.02023
G1 X121.772 Y83.357 E0.02023
G1 X121.960 Y82.739 E0.02023
G1 X122.264 Y82.170 E0.02023
G1 X122.673 Y81.672 E0.02023
G1 X123.172 Y81.262 E0.02023
G1 X123.744 Y80.956 E0.02036
G1 X124.405 Y80.766 E0.02155
G1 X125.000 Y80.708 E0.01875
G1 X125.642 Y80.771 E0.02023
G1 X126.259 Y80.958 E0.02023
G1 X126.828 Y81.262 E0.02023
G1 X127.327 Y81.672 E0.02023
G1 X127.736 Y82.170 E0.02023
G1 X128.040 Y82.739 E0.02023
G1 X128.228 Y83.357 E0.02023
G1 X128.291 Y83.999 E0.02023
G1 X128.228 Y84.641 E0.02023
G1 X128.040 Y85.258 E0.02023
G1 X127.736 Y85.827 E0.02023
G1 X127.327 Y86.326 E0.02023
G1 X126.828 Y86.735 E0.02023
G1 X126.259 Y87.039 E0.02023
G1 X125.642 Y87.226 E0.02023
G1 X125.060 Y87.284 E0.01835
G1 X125.023 Y86.908 F10800.000
G1 F1200.000
G1 X124.432 Y86.855 E0.01860
G1 X123.886 Y86.689 E0.01790
G1 X123.382 Y86.420 E0.01790
G1 X122.941 Y86.058 E0.01790
G1 X122.579 Y85.616 E0.01790
G1 X122.310 Y85.113 E0.01790
G1 X122.144 Y84.567 E0.01790
G1 X122.088 Y83.999 E0.01790
G1 X122.144 Y83.431 E0.01790
G1 X122.310 Y82.884 E0.01790
G1 X122.579 Y82.381 E0.01790
G1 X122.941 Y81.940 E0.01790
G1 X123.382 Y81.577 E0.01790
G1 X123.887 Y81.308 E0.01795
G1 X124.476 Y81.138 E0.01922
G1 X125.000 Y81.087 E0.01650
G1 X125.568 Y81.143 E0.01790
G1 X126.114 Y81.308 E0.01790
G1 X126.618 Y81.577 E0.01790
G1 X127.059 Y81.940 E0.01790
G1 X127.421 Y82.381 E0.01790
G1 X127.690 Y82.884 E0.01790
G1 X127.856 Y83.430 E0.01790
G1 X127.912 Y83.999 E0.01790
G1 X127.856 Y84.567 E0.01790
G1 X127.690 Y85.113 E0.01790
G1 X127.421 Y85.616 E0.01790
G1 X127.059 Y86.058 E0.01790
G1 X126.618 Y86.420 E0.01790
G1 X126.114 Y86.689 E0.01790
G1 X125.568 Y86.855 E0.01790
G1 X125.082 Y86.902 E0.01530
G1 X124.825 Y87.256 F10800.000
G1 E-0.80000 F2100.00000
G1 Z0.800 F10800.000
G1 X129.193 Y79.936
G1 Z0.200
G1 E0.80000 F2100.00000
G1 F1200.000
G1 X129.213 Y80.061 E0.00396
G1 X129.213 Y129.937 E1.56383
G1 X129.193 Y130.061 E0.00396
G1 X129.119 Y130.163 E0.00394
G1 X129.063 Y130.192 E0.00199
G1 X128.938 Y130.212 E0.00396
G1 X121.062 Y130.212 E0.24695
G1 X120.937 Y130.192 E0.00396
G1 X120.836 Y130.118 E0.00394
G1 X120.807 Y130.061 E0.00199
G1 X120.787 Y129.937 E0.00396
G1 X120.787 Y80.061 E1.56383
G1 X120.807 Y79.936 E0.00396
G1 X120.881 Y79.834 E0.00394
G1 X120.937 Y79.805 E0.00199
G1 X121.062 Y79.786 E0.00396
G1 X128.938 Y79.786 E0.24695
G1 X129.063 Y79.805 E0.00396
G1 X129.166 Y79.882 E0.00404
G1 X129.473 Y79.655 F10800.000
G1 F1200.000
G1 X129.556 Y79.818 E0.00574
G1 X129.590 Y80.031 E0.00676
G1 X129.590 Y129.966 E1.56569
G1 X129.556 Y130.179 E0.00676
G1 X129.473 Y130.342 E0.00574
G1 X129.344 Y130.472 E0.00574
G1 X129.181 Y130.555 E0.00574
G1 X128.968 Y130.589 E0.00676
G1 X121.032 Y130.589 E0.24881
G1 X120.819 Y130.555 E0.00676
G1 X120.656 Y130.472 E0.00574
G1 X120.527 Y130.342 E0.00574
G1 X120.444 Y130.179 E0.00574
G1 X120.410 Y129.966 E0.00676
G1 X120.410 Y80.031 E1.56569
G1 X120.444 Y79.818 E0.00676
G1 X120.527 Y79.655 E0.00574
G1 X120.656 Y79.525 E0.00574
G1 X120.819 Y79.442 E0.00574
G1 X121.032 Y79.409 E0.00676
G1 X128.968 Y79.409 E0.24881
G1 X129.181 Y79.442 E0.00676
G1 X129.344 Y79.525 E0.00574
G1 X129.431 Y79.612 E0.00386
G1 X129.399 Y79.822 F10800.000
G1 X129.100 Y80.751
G1 F1200.000
G1 X128.417 Y80.068 E0.03036
G1 X127.882 Y80.068 E0.01682
G1 X128.930 Y81.116 E0.04660
G1 X128.930 Y81.651 E0.01682
G1 X127.347 Y80.068 E0.07039
G1 X126.813 Y80.068 E0.01682
G1 X128.930 Y82.186 E0.09418
G1 X128.930 Y82.721 E0.01682
G1 X126.278 Y80.068 E0.11796
G1 X125.743 Y80.068 E0.01682
G1 X126.372 Y80.698 E0.02799
G1 X125.697 Y80.492 E0.02218
G1 X125.625 Y80.485 E0.00230
G1 X125.208 Y80.068 E0.01853
G1 X124.673 Y80.068 E0.01682
G1 X125.031 Y80.427 E0.01593
G1 X124.539 Y80.469 E0.01554
G1 X124.138 Y80.068 E0.01781
G1 X123.603 Y80.068 E0.01682
G1 X124.096 Y80.561 E0.02190
G1 X123.680 Y80.680 E0.01359
G1 X123.069 Y80.068 E0.02721
G1 X122.534 Y80.068 E0.01682
G1 X123.325 Y80.860 E0.03519
G1 X122.982 Y81.052 E0.01236
G1 X121.999 Y80.068 E0.04374
G1 X121.464 Y80.068 E0.01682
G1 X122.689 Y81.293 E0.05446
G1 X122.472 Y81.471 E0.00881
G1 X122.409 Y81.548 E0.00314
G1 X121.070 Y80.209 E0.05954
G1 X121.070 Y80.744 E0.01682
G1 X122.168 Y81.842 E0.04882
G1 X122.027 Y82.012 E0.00694
G1 X121.949 Y82.158 E0.00521
G1 X121.070 Y81.279 E0.03911
G1 X121.070 Y81.814 E0.01682
G1 X121.763 Y82.507 E0.03083
G1 X121.697 Y82.630 E0.00440
G1 X121.617 Y82.895 E0.00871
G1 X121.070 Y82.349 E0.02432
G1 X121.070 Y82.883 E0.01682
G1 X121.493 Y83.307 E0.01882
G1 X121.445 Y83.794 E0.01539
G1 X121.070 Y83.418 E0.01669
G1 X121.070 Y83.953 E0.01682
G1 X121.459 Y84.342 E0.01730
G1 X121.494 Y84.696 E0.01119
G1 X121.588 Y85.006 E0.01018
G1 X121.070 Y84.488 E0.02302
G1 X121.070 Y85.023 E0.01682
G1 X128.930 Y92.883 E0.34957
G1 X128.930 Y92.348 E0.01682
G1 X123.993 Y87.411 E0.21958
G1 X124.303 Y87.505 E0.01018
G1 X124.657 Y87.540 E0.01119
G1 X128.930 Y91.813 E0.19006
G1 X128.930 Y91.279 E0.01682
G1 X125.205 Y87.553 E0.16567
G1 X125.692 Y87.506 E0.01539
G1 X128.930 Y90.744 E0.14401
G1 X128.930 Y90.209 E0.01682
G1 X126.103 Y87.382 E0.12572
G1 X126.368 Y87.302 E0.00871
G1 X126.492 Y87.236 E0.00440
G1 X128.930 Y89.674 E0.10845
G1 X128.930 Y89.139 E0.01682
G1 X126.840 Y87.049 E0.09295
G1 X126.986 Y86.971 E0.00521
G1 X127.157 Y86.831 E0.00694
G1 X128.930 Y88.604 E0.07886
G1 X128.930 Y88.069 E0.01682
G1 X127.451 Y86.590 E0.06580
G1 X127.528 Y86.527 E0.00314
G1 X127.706 Y86.310 E0.00881
G1 X128.930 Y87.535 E0.05446
G1 X128.930 Y87.000 E0.01682
G1 X127.947 Y86.016 E0.04374
G1 X128.139 Y85.674 E0.01236
G1 X128.930 Y86.465 E0.03519
G1 X128.930 Y85.930 E0.01682
G1 X128.318 Y85.318 E0.02723
G1 X128.442 Y84.907 E0.01349
G1 X128.930 Y85.395 E0.02170
G1 X128.930 Y84.860 E0.01682
G1 X128.530 Y84.460 E0.01781
G1 X128.572 Y83.967 E0.01554
G1 X128.930 Y84.325 E0.01593
G1 X128.930 Y83.791 E0.01682
G1 X128.514 Y83.374 E0.01853
G1 X128.506 Y83.301 E0.00230
G1 X128.301 Y82.626 E0.02218
G1 X129.100 Y83.425 E0.03554
G1 E-0.80000 F2100.00000
G1 Z0.800 F10800.000
G1 X129.100 Y93.588
G1 Z0.200
G1 E0.80000 F2100.00000
G1 F1200.000
G1 X121.070 Y85.558 E0.35712
G1 X121.070 Y86.093 E0.01682
G1 X128.930 Y93.953 E0.34957
G1 X128.930 Y94.488 E0.01682
G1 X121.070 Y86.627 E0.34957
G1 X121.070 Y87.162 E0.01682
G1 X128.930 Y95.023 E0.34957
G1 X128.930 Y95.557 E0.01682
G1 X121.070 Y87.697 E0.34957
G1 X121.070 Y88.232 E0.01682
G1 X128.930 Y96.092 E0.34957
G1 X128.930 Y96.627 E0.01682
G1 X121.070 Y88.767 E0.34957
G1 X121.070 Y89.302 E0.01682
G1 X128.930 Y97.162 E0.34957
G1 X128.930 Y97.697 E0.01682
G1 X121.070 Y89.837 E0.34957
G1 X121.070 Y90.371 E0.01682
G1 X128.930 Y98.232 E0.34957
G1 X128.930 Y98.767 E0.01682
G1 X121.070 Y90.906 E0.34957
G1 X121.070 Y91.441 E0.01682
G1 X128.930 Y99.301 E0.34957
G1 X128.930 Y99.836 E0.01682
G1 X121.070 Y91.976 E0.34957
G1 X121.070 Y92.511 E0.01682
G1 X128.930 Y100.371 E0.34957
G1 X128.930 Y100.906 E0.01682
G1 X121.070 Y93.046 E0.34957
G1 X121.070 Y93.581 E0.01682
G1 X128.930 Y101.441 E0.34957
G1 X128.930 Y101.976 E0.01682
G1 X121.070 Y94.115 E0.34957
G1 X121.070 Y94.650 E0.01682
G1 X128.930 Y102.510 E0.34957
G1 X128.930 Y103.045 E0.01682
G1 X121.070 Y95.185 E0.34957
G1 X121.070 Y95.720 E0.01682
G1 X128.930 Y103.580 E0.34957
G1 X128.930 Y104.115 E0.01682
G1 X121.070 Y96.255 E0.34957
G1 X121.070 Y96.790 E0.01682
G1 X128.930 Y104.650 E0.34957
G1 X128.930 Y105.185 E0.01682
G1 X121.070 Y97.325 E0.34957
G1 X121.070 Y97.859 E0.01682
G1 X128.930 Y105.720 E0.34957
G1 X128.930 Y106.254 E0.01682
G1 X121.070 Y98.394 E0.34957
G1 X121.070 Y98.929 E0.01682
G1 X128.930 Y106.789 E0.34957
G1 X128.930 Y107.324 E0.01682
G1 X121.070 Y99.464 E0.34957
G1 X121.070 Y99.999 E0.01682
G1 X128.930 Y107.859 E0.34957
G1 X128.930 Y108.394 E0.01682
G1 X121.070 Y100.534 E0.34957
G1 X121.070 Y101.068 E0.01682
G1 X128.930 Y108.929 E0.34957
G1 X128.930 Y109.464 E0.01682
G1 X121.070 Y101.603 E0.34957
G1 X121.070 Y102.138 E0.01682
G1 X128.930 Y109.998 E0.34957
G1 X128.930 Y110.533 E0.01682
G1 X121.070 Y102.673 E0.34957
G1 X121.070 Y103.208 E0.01682
G1 X128.930 Y111.068 E0.34957
G1 X128.930 Y111.603 E0.01682
G1 X121.070 Y103.743 E0.34957
G1 X121.070 Y104.278 E0.01682
G1 X128.930 Y112.138 E0.34957
G1 X128.930 Y112.673 E0.01682
G1 X121.070 Y104.812 E0.34957
G1 X121.070 Y105.347 E0.01682
G1 X128.930 Y113.208 E0.34957
G1 X128.930 Y113.742 E0.01682
G1 X121.070 Y105.882 E0.34957
G1 X121.070 Y106.417 E0.01682
G1 X128.930 Y114.277 E0.34957
G1 X128.930 Y114.812 E0.01682
G1 X121.070 Y106.952 E0.34957
G1 X121.070 Y107.487 E0.01682
G1 X128.930 Y115.347 E0.34957
G1 X128.930 Y115.882 E0.01682
G1 X121.070 Y108.022 E0.34957
G1 X121.070 Y108.556 E0.01682
G1 X128.930 Y116.417 E0.34957
G1 X128.930 Y116.952 E0.01682
G1 X121.070 Y109.091 E0.34957
M73 P21 R4
G1 X121.070 Y109.626 E0.01682
G1 X128.930 Y117.486 E0.34957
G1 X128.930 Y118.021 E0.01682
G1 X121.070 Y110.161 E0.34957
G1 X121.070 Y110.696 E0.01682
G1 X128.930 Y118.556 E0.34957
G1 X128.930 Y119.091 E0.01682
G1 X121.070 Y111.231 E0.34957
G1 X121.070 Y111.766 E0.01682
G1 X128.930 Y119.626 E0.34957
G1 X128.930 Y120.161 E0.01682
G1 X121.070 Y112.300 E0.34957
G1 X121.070 Y112.835 E0.01682
G1 X128.930 Y120.695 E0.34957
G1 X128.930 Y121.230 E0.01682
G1 X121.070 Y113.370 E0.34957
G1 X121.070 Y113.905 E0.01682
G1 X128.930 Y121.765 E0.34957
G1 X128.930 Y122.300 E0.01682
G1 X121.070 Y114.440 E0.34957
G1 X121.070 Y114.975 E0.01682
G1 X128.930 Y122.835 E0.34957
G1 X128.930 Y123.370 E0.01682
G1 X121.070 Y115.509 E0.34957
G1 X121.070 Y116.044 E0.01682
G1 X128.930 Y123.905 E0.34957
G1 X128.930 Y124.439 E0.01682
G1 X121.070 Y116.579 E0.34957
G1 X121.070 Y117.114 E0.01682
G1 X128.930 Y124.974 E0.34957
G1 X128.930 Y125.509 E0.01682
G1 X128.412 Y124.991 E0.02302
G1 X128.506 Y125.301 E0.01018
G1 X128.541 Y125.655 E0.01119
G1 X128.930 Y126.044 E0.01730
G1 X128.930 Y126.579 E0.01682
G1 X128.555 Y126.204 E0.01669
G1 X128.507 Y126.690 E0.01539
G1 X128.930 Y127.114 E0.01882
G1 X128.930 Y127.649 E0.01682
G1 X128.383 Y127.102 E0.02432
G1 X128.303 Y127.367 E0.00871
G1 X128.237 Y127.490 E0.00440
G1 X128.930 Y128.183 E0.03083
G1 X128.930 Y128.718 E0.01682
G1 X128.051 Y127.839 E0.03911
G1 X127.973 Y127.985 E0.00521
G1 X127.832 Y128.155 E0.00694
G1 X128.930 Y129.253 E0.04882
G1 X128.930 Y129.788 E0.01682
G1 X127.591 Y128.449 E0.05954
G1 X127.528 Y128.527 E0.00314
G1 X127.311 Y128.704 E0.00881
G1 X128.536 Y129.929 E0.05446
G1 X128.001 Y129.929 E0.01682
G1 X127.018 Y128.945 E0.04374
G1 X126.675 Y129.137 E0.01236
G1 X127.466 Y129.929 E0.03519
G1 X126.931 Y129.929 E0.01682
G1 X126.319 Y129.316 E0.02723
G1 X125.909 Y129.441 E0.01349
G1 X126.397 Y129.929 E0.02170
G1 X125.862 Y129.929 E0.01682
G1 X125.461 Y129.528 E0.01781
G1 X124.969 Y129.571 E0.01554
G1 X125.327 Y129.929 E0.01593
G1 X124.792 Y129.929 E0.01682
G1 X124.375 Y129.512 E0.01853
G1 X124.303 Y129.505 E0.00230
G1 X123.628 Y129.299 E0.02218
G1 X124.257 Y129.929 E0.02799
G1 X123.722 Y129.929 E0.01682
G1 X121.070 Y127.276 E0.11796
G1 X121.070 Y126.741 E0.01682
G1 X121.699 Y127.371 E0.02799
G1 X121.494 Y126.696 E0.02218
G1 X121.486 Y126.623 E0.00230
G1 X121.070 Y126.207 E0.01853
G1 X121.070 Y125.672 E0.01682
G1 X121.428 Y126.030 E0.01593
G1 X121.470 Y125.537 E0.01554
G1 X121.070 Y125.137 E0.01781
