; generated by PrusaSlicer 2.2.0+win64 on 2020-12-08 at 19:05:32 UTC

; 

; external perimeters extrusion width = 0.60mm
; perimeters extrusion width = 0.43mm
; infill extrusion width = 0.45mm
; solid infill extrusion width = 0.70mm
; top infill extrusion width = 0.43mm
; first layer extrusion width = 0.42mm

M73 P0 R8
M201 X9000 Y9000 Z500 E10000 ; sets maximum accelerations, mm/sec^2
M203 X500 Y500 Z12 E120 ; sets maximum feedrates, mm/sec
M204 P2000 R1500 T2000 ; sets acceleration (P, T) and retract acceleration (R), mm/sec^2
M205 X10.00 Y10.00 Z0.20 E2.50 ; sets the jerk limits, mm/sec
M205 S0 T0 ; sets the minimum extruding and travel feed rate, mm/sec
M107
M862.3 P "MK2S" ; printer model check
M862.1 P0.4 ; nozzle diameter check
M115 U3.2.3 ; tell printer latest fw version
G90 ; use absolute coordinates
M83 ; extruder relative mode
M204 S2000 T1500 ; MK2 firmware only supports the old M204 format
M104 S215 ; set extruder temp
M140 S60 ; set bed temp
M190 S60 ; wait for bed temp
M109 S215 ; wait for extruder temp
G28 W ; home all without mesh bed level
G80 ; mesh bed leveling
G1 Y-3.0 F1000.0 ; go outside print area
G92 E0.0
G1 X60.0 E9.0  F1000.0 ; intro line
M73 P0 R8
G1 X100.0 E12.5 F1000.0 ; intro line
G92 E0.0
G21 ; set units to millimeters
G90 ; use absolute coordinates
M83 ; use relative distances for extrusion
M900 K0.05 ; Filament gcode LA 1.5
M900 K30 ; Filament gcode LA 1.0
;BEFORE_LAYER_CHANGE
G92 E0.0
;0.2


G1 E-0.80000 F2100.00000
G1 Z0.600 F10800.000
;AFTER_LAYER_CHANGE
;0.2
G1 X109.856 Y90.659
G1 Z0.200
G1 E0.80000 F2100.00000
M204 S1000
G1 F1200.000
G1 X110.303 Y89.720 E0.03261
G1 X110.622 Y89.261 E0.01752
G1 X111.325 Y88.567 E0.03096
G1 X127.249 Y77.107 E0.61517
G1 X127.993 Y76.770 E0.02560
G1 X128.864 Y76.624 E0.02769
G1 X136.986 Y76.622 E0.25466
G1 X138.141 Y76.827 E0.03677
G1 X138.796 Y77.153 E0.02294
G1 X139.215 Y77.474 E0.01657
G1 X139.717 Y78.017 E0.02316
G1 X140.077 Y78.662 E0.02316
G1 X140.248 Y79.149 E0.01621
G1 X140.355 Y79.850 E0.02222
G1 X140.334 Y130.344 E1.58320
G1 X140.134 Y131.207 E0.02776
G1 X139.609 Y132.118 E0.03299
G1 X138.877 Y132.793 E0.03123
G1 X137.883 Y133.252 E0.03430
G1 X137.009 Y133.376 E0.02769
G1 X128.637 Y133.350 E0.26250
G1 X127.853 Y133.181 E0.02517
G1 X127.050 Y132.768 E0.02828
G1 X111.434 Y121.548 E0.60292
G1 X110.513 Y120.637 E0.04061
G1 X109.952 Y119.616 E0.03653
G1 X109.783 Y119.091 E0.01728
G1 X109.641 Y118.038 E0.03333
G1 X109.666 Y91.670 E0.82676
G1 X109.845 Y90.718 E0.03037
G1 E-0.80000 F2100.00000
G1 Z0.800 F10800.000
G1 X116.376 Y111.787
G1 Z0.200
G1 E0.80000 F2100.00000
G1 F1200.000
G1 X116.979 Y111.728 E0.01898
G1 X117.657 Y111.786 E0.02134
G1 X118.277 Y111.975 E0.02034
G1 X118.846 Y112.279 E0.02023
G1 X119.345 Y112.688 E0.02023
G1 X119.754 Y113.187 E0.02023
G1 X120.058 Y113.756 E0.02023
G1 X120.246 Y114.373 E0.02023
G1 X120.309 Y115.015 E0.02023
G1 X120.246 Y115.657 E0.02023
G1 X120.058 Y116.274 E0.02023
G1 X119.754 Y116.843 E0.02023
G1 X119.345 Y117.342 E0.02023
G1 X118.846 Y117.751 E0.02023
G1 X118.277 Y118.055 E0.02023
G1 X117.660 Y118.243 E0.02023
G1 X117.018 Y118.306 E0.02023
G1 X116.376 Y118.243 E0.02023
G1 X115.759 Y118.055 E0.02023
G1 X115.190 Y117.751 E0.02023
G1 X114.691 Y117.342 E0.02023
G1 X114.282 Y116.843 E0.02023
G1 X113.978 Y116.274 E0.02023
G1 X113.790 Y115.657 E0.02023
G1 X113.727 Y115.015 E0.02023
G1 X113.790 Y114.373 E0.02023
G1 X113.978 Y113.756 E0.02023
G1 X114.282 Y113.187 E0.02023
G1 X114.691 Y112.688 E0.02023
G1 X115.190 Y112.279 E0.02023
G1 X115.759 Y111.975 E0.02023
G1 X116.319 Y111.805 E0.01835
G1 X116.428 Y112.166 F10800.000
G1 F1200.000
G1 X116.981 Y112.107 E0.01743
G1 X117.585 Y112.159 E0.01901
G1 X118.132 Y112.325 E0.01794
G1 X118.636 Y112.594 E0.01790
G1 X119.077 Y112.956 E0.01790
G1 X119.439 Y113.397 E0.01790
G1 X119.708 Y113.901 E0.01790
G1 X119.874 Y114.447 E0.01790
G1 X119.930 Y115.015 E0.01790
G1 X119.874 Y115.583 E0.01790
G1 X119.708 Y116.129 E0.01790
G1 X119.439 Y116.633 E0.01790
G1 X119.077 Y117.074 E0.01790
G1 X118.636 Y117.436 E0.01790
G1 X118.132 Y117.705 E0.01790
G1 X117.586 Y117.871 E0.01790
G1 X117.018 Y117.927 E0.01790
G1 X116.450 Y117.871 E0.01790
G1 X115.904 Y117.705 E0.01790
G1 X115.400 Y117.436 E0.01790
G1 X114.959 Y117.074 E0.01790
G1 X114.597 Y116.633 E0.01790
G1 X114.328 Y116.129 E0.01790
G1 X114.162 Y115.583 E0.01790
G1 X114.106 Y115.015 E0.01790
G1 X114.162 Y114.447 E0.01790
G1 X114.328 Y113.901 E0.01790
G1 X114.597 Y113.397 E0.01790
G1 X114.959 Y112.956 E0.01790
G1 X115.400 Y112.594 E0.01790
G1 X115.904 Y112.325 E0.01790
G1 X116.371 Y112.183 E0.01530
G1 X116.554 Y111.786 F10800.000
G1 E-0.80000 F2100.00000
G1 Z0.800 F10800.000
G1 X117.018 Y98.306
G1 Z0.200
G1 E0.80000 F2100.00000
G1 F1200.000
G1 X116.376 Y98.243 E0.02023
G1 X115.759 Y98.055 E0.02023
G1 X115.190 Y97.751 E0.02023
G1 X114.691 Y97.342 E0.02023
G1 X114.282 Y96.843 E0.02023
G1 X113.978 Y96.274 E0.02023
G1 X113.790 Y95.657 E0.02023
G1 X113.727 Y95.015 E0.02023
G1 X113.790 Y94.373 E0.02023
G1 X113.978 Y93.756 E0.02023
G1 X114.282 Y93.187 E0.02023
G1 X114.691 Y92.688 E0.02023
G1 X115.190 Y92.279 E0.02023
G1 X115.759 Y91.975 E0.02023
G1 X116.376 Y91.787 E0.02023
G1 X116.979 Y91.728 E0.01898
G1 X117.657 Y91.786 E0.02134
G1 X118.277 Y91.975 E0.02034
G1 X118.846 Y92.279 E0.02023
G1 X119.345 Y92.688 E0.02023
G1 X119.754 Y93.187 E0.02023
G1 X120.058 Y93.756 E0.02023
G1 X120.246 Y94.373 E0.02023
G1 X120.309 Y95.015 E0.02023
G1 X120.246 Y95.657 E0.02023
G1 X120.058 Y96.274 E0.02023
G1 X119.754 Y96.843 E0.02023
G1 X119.345 Y97.342 E0.02023
G1 X118.846 Y97.751 E0.02023
G1 X118.277 Y98.055 E0.02023
G1 X117.660 Y98.243 E0.02023
G1 X117.078 Y98.300 E0.01835
G1 X117.041 Y97.925 F10800.000
G1 F1200.000
G1 X116.450 Y97.871 E0.01860
G1 X115.904 Y97.705 E0.01790
G1 X115.400 Y97.436 E0.01790
G1 X114.959 Y97.074 E0.01790
G1 X114.597 Y96.633 E0.01790
G1 X114.328 Y96.129 E0.01790
G1 X114.162 Y95.583 E0.01790
G1 X114.106 Y95.015 E0.01790
G1 X114.162 Y94.447 E0.01790
G1 X114.328 Y93.901 E0.01790
G1 X114.597 Y93.397 E0.01790
G1 X114.959 Y92.956 E0.01790
G1 X115.400 Y92.594 E0.01790
G1 X115.904 Y92.325 E0.01790
G1 X116.450 Y92.159 E0.01790
G1 X116.981 Y92.107 E0.01673
G1 X117.585 Y92.159 E0.01901
G1 X118.132 Y92.325 E0.01794
G1 X118.636 Y92.594 E0.01790
G1 X119.077 Y92.956 E0.01790
G1 X119.439 Y93.397 E0.01790
G1 X119.708 Y93.901 E0.01790
G1 X119.874 Y94.447 E0.01790
G1 X119.930 Y95.015 E0.01790
G1 X119.874 Y95.583 E0.01790
G1 X119.708 Y96.129 E0.01790
G1 X119.439 Y96.633 E0.01790
G1 X119.077 Y97.074 E0.01790
G1 X118.636 Y97.436 E0.01790
G1 X118.132 Y97.705 E0.01790
G1 X117.586 Y97.871 E0.01790
G1 X117.101 Y97.919 E0.01530
G1 X116.843 Y98.272 F10800.000
G1 E-0.80000 F2100.00000
G1 Z0.800 F10800.000
G1 X121.162 Y91.643
G1 Z0.200
G1 E0.80000 F2100.00000
G1 F1200.000
G1 X121.231 Y92.077 E0.01377
G1 X121.231 Y117.953 E0.81133
G1 X121.162 Y118.387 E0.01377
G1 X120.991 Y118.722 E0.01180
G1 X120.725 Y118.988 E0.01180
G1 X120.390 Y119.159 E0.01180
G1 X119.956 Y119.228 E0.01377
G1 X114.080 Y119.228 E0.18424
G1 X113.646 Y119.159 E0.01377
G1 X113.311 Y118.988 E0.01180
G1 X113.045 Y118.722 E0.01180
G1 X112.874 Y118.387 E0.01180
G1 X112.805 Y117.953 E0.01377
G1 X112.805 Y92.077 E0.81133
G1 X112.874 Y91.643 E0.01377
G1 X113.045 Y91.308 E0.01180
G1 X113.311 Y91.042 E0.01180
G1 X113.646 Y90.871 E0.01180
G1 X114.080 Y90.802 E0.01377
G1 X119.956 Y90.802 E0.18424
G1 X120.390 Y90.871 E0.01377
G1 X120.725 Y91.042 E0.01180
G1 X120.991 Y91.308 E0.01180
G1 X121.135 Y91.590 E0.00992
G1 X121.525 Y91.525 F10800.000
G1 F1200.000
G1 X121.608 Y92.047 E0.01657
G1 X121.608 Y117.983 E0.81319
G1 X121.525 Y118.505 E0.01657
G1 X121.300 Y118.947 E0.01555
G1 X120.950 Y119.297 E0.01555
G1 X120.508 Y119.522 E0.01555
G1 X119.986 Y119.605 E0.01657
G1 X114.050 Y119.605 E0.18610
G1 X113.528 Y119.522 E0.01657
G1 X113.086 Y119.297 E0.01555
G1 X112.736 Y118.947 E0.01555
G1 X112.511 Y118.505 E0.01555
G1 X112.428 Y117.983 E0.01657
G1 X112.428 Y92.047 E0.81319
G1 X112.511 Y91.525 E0.01657
G1 X112.736 Y91.083 E0.01555
G1 X113.086 Y90.733 E0.01555
G1 X113.528 Y90.508 E0.01555
G1 X114.050 Y90.425 E0.01657
G1 X119.986 Y90.425 E0.18610
G1 X120.508 Y90.508 E0.01657
G1 X120.950 Y90.733 E0.01555
G1 X121.300 Y91.083 E0.01555
G1 X121.498 Y91.472 E0.01367
G1 X121.258 Y91.823 F10800.000
G1 X121.071 Y91.791
G1 F1200.000
G1 X120.550 Y91.270 E0.02340
G1 X120.301 Y91.143 E0.00886
G1 X119.934 Y91.085 E0.01181
G1 X119.825 Y91.085 E0.00345
G1 X120.948 Y92.208 E0.05041
G1 X120.948 Y92.748 E0.01714
G1 X119.285 Y91.085 E0.07465
G1 X118.745 Y91.085 E0.01714
G1 X120.948 Y93.288 E0.09889
G1 X120.948 Y93.828 E0.01714
G1 X118.205 Y91.085 E0.12313
G1 X117.666 Y91.085 E0.01714
G1 X118.252 Y91.671 E0.02633
G1 X117.710 Y91.507 E0.01797
G1 X117.533 Y91.492 E0.00566
G1 X117.126 Y91.085 E0.01827
G1 X116.586 Y91.085 E0.01714
G1 X116.948 Y91.447 E0.01625
G1 X116.456 Y91.495 E0.01568
G1 X116.046 Y91.085 E0.01842
G1 X115.506 Y91.085 E0.01714
G1 X116.021 Y91.600 E0.02311
G1 X115.613 Y91.732 E0.01361
G1 X114.966 Y91.085 E0.02904
G1 X114.426 Y91.085 E0.01714
G1 X115.261 Y91.920 E0.03749
G1 X115.032 Y92.042 E0.00825
G1 X114.929 Y92.127 E0.00424
G1 X113.916 Y91.114 E0.04547
G1 X113.735 Y91.143 E0.00582
G1 X113.516 Y91.255 E0.00780
G1 X114.632 Y92.371 E0.05010
G1 X114.490 Y92.487 E0.00583
G1 X114.363 Y92.642 E0.00635
G1 X113.250 Y91.528 E0.04999
G1 X113.146 Y91.732 E0.00725
G1 X113.114 Y91.933 E0.00646
G1 X114.120 Y92.938 E0.04514
G1 X114.045 Y93.029 E0.00372
G1 X113.915 Y93.273 E0.00880
G1 X113.088 Y92.446 E0.03712
G1 X113.088 Y92.986 E0.01714
G1 X113.727 Y93.625 E0.02868
G1 X113.597 Y94.036 E0.01366
G1 X113.088 Y93.526 E0.02287
G1 X113.088 Y94.066 E0.01714
G1 X113.496 Y94.474 E0.01833
G1 X113.448 Y94.966 E0.01568
G1 X113.088 Y94.606 E0.01616
G1 X113.088 Y95.146 E0.01714
G1 X113.496 Y95.554 E0.01832
G1 X113.512 Y95.713 E0.00505
G1 X113.685 Y96.282 E0.01891
G1 X113.088 Y95.686 E0.02679
G1 X113.088 Y96.226 E0.01714
G1 X120.948 Y104.086 E0.35288
G1 X120.948 Y103.546 E0.01714
G1 X115.751 Y98.348 E0.23334
G1 X116.321 Y98.521 E0.01891
G1 X116.479 Y98.537 E0.00505
G1 X120.948 Y103.006 E0.20064
G1 X120.948 Y102.466 E0.01714
G1 X117.067 Y98.585 E0.17423
G1 X117.559 Y98.537 E0.01568
G1 X120.948 Y101.926 E0.15217
G1 X120.948 Y101.386 E0.01714
G1 X117.998 Y98.436 E0.13246
G1 X118.408 Y98.306 E0.01366
G1 X120.948 Y100.847 E0.11404
G1 X120.948 Y100.307 E0.01714
G1 X118.760 Y98.118 E0.09824
G1 X119.004 Y97.988 E0.00880
G1 X119.095 Y97.913 E0.00372
G1 X120.948 Y99.767 E0.08321
G1 X120.948 Y99.227 E0.01714
G1 X119.391 Y97.670 E0.06989
G1 X119.546 Y97.543 E0.00635
G1 X119.662 Y97.401 E0.00583
G1 X120.948 Y98.687 E0.05772
G1 X120.948 Y98.147 E0.01714
G1 X119.906 Y97.105 E0.04680
G1 X119.991 Y97.001 E0.00424
G1 X120.113 Y96.772 E0.00825
G1 X120.948 Y97.607 E0.03749
G1 X120.948 Y97.067 E0.01714
G1 X120.301 Y96.420 E0.02905
G1 X120.433 Y96.012 E0.01361
G1 X120.948 Y96.527 E0.02311
G1 X120.948 Y95.987 E0.01714
G1 X120.538 Y95.577 E0.01842
G1 X120.586 Y95.085 E0.01568
G1 X120.948 Y95.447 E0.01625
G1 X120.948 Y94.907 E0.01714
G1 X120.543 Y94.502 E0.01821
G1 X120.524 Y94.318 E0.00588
G1 X120.362 Y93.781 E0.01780
G1 X121.118 Y94.537 E0.03395
G1 E-0.80000 F2100.00000
G1 Z0.800 F10800.000
G1 X121.118 Y104.796
G1 Z0.200
G1 E0.80000 F2100.00000
G1 F1200.000
G1 X113.088 Y96.766 E0.36049
G1 X113.088 Y97.306 E0.01714
G1 X120.948 Y105.166 E0.35288
G1 X120.948 Y105.706 E0.01714
G1 X113.088 Y97.845 E0.35288
G1 X113.088 Y98.385 E0.01714
G1 X120.948 Y106.246 E0.35288
G1 X120.948 Y106.786 E0.01714
G1 X113.088 Y98.925 E0.35288
G1 X113.088 Y99.465 E0.01714
G1 X120.948 Y107.325 E0.35288
G1 X120.948 Y107.865 E0.01714
G1 X113.088 Y100.005 E0.35288
G1 X113.088 Y100.545 E0.01714
G1 X120.948 Y108.405 E0.35288
G1 X120.948 Y108.945 E0.01714
G1 X113.088 Y101.085 E0.35288
G1 X113.088 Y101.625 E0.01714
G1 X120.948 Y109.485 E0.35288
G1 X120.948 Y110.025 E0.01714
G1 X113.088 Y102.165 E0.35288
G1 X113.088 Y102.705 E0.01714
G1 X120.948 Y110.565 E0.35288
G1 X120.948 Y111.105 E0.01714
G1 X113.088 Y103.245 E0.35288
G1 X113.088 Y103.785 E0.01714
G1 X120.948 Y111.645 E0.35288
G1 X120.948 Y112.185 E0.01714
G1 X113.088 Y104.324 E0.35288
G1 X113.088 Y104.864 E0.01714
G1 X120.948 Y112.725 E0.35288
G1 X120.948 Y113.265 E0.01714
G1 X113.088 Y105.404 E0.35288
G1 X113.088 Y105.944 E0.01714
G1 X120.948 Y113.804 E0.35288
G1 X120.948 Y114.344 E0.01714
G1 X120.352 Y113.748 E0.02679
G1 X120.524 Y114.318 E0.01891
G1 X120.540 Y114.476 E0.00506
G1 X120.948 Y114.884 E0.01832
G1 X120.948 Y115.424 E0.01714
G1 X120.588 Y115.064 E0.01616
G1 X120.540 Y115.556 E0.01568
G1 X120.948 Y115.964 E0.01833
G1 X120.948 Y116.504 E0.01714
G1 X120.439 Y115.995 E0.02287
G1 X120.309 Y116.405 E0.01366
G1 X120.948 Y117.044 E0.02868
G1 X120.948 Y117.584 E0.01714
G1 X120.121 Y116.757 E0.03712
G1 X119.991 Y117.001 E0.00880
G1 X119.916 Y117.092 E0.00372
G1 X120.922 Y118.097 E0.04514
G1 X120.890 Y118.298 E0.00646
G1 X120.786 Y118.502 E0.00725
G1 X119.673 Y117.388 E0.04999
G1 X119.546 Y117.543 E0.00635
G1 X119.404 Y117.659 E0.00583
G1 X120.520 Y118.775 E0.05010
G1 X120.301 Y118.887 E0.00779
G1 X120.120 Y118.916 E0.00582
G1 X119.108 Y117.903 E0.04547
G1 X119.004 Y117.988 E0.00424
G1 X118.775 Y118.110 E0.00825
G1 X119.610 Y118.945 E0.03749
G1 X119.070 Y118.945 E0.01714
G1 X118.423 Y118.298 E0.02904
G1 X118.015 Y118.430 E0.01361
G1 X118.530 Y118.945 E0.02311
G1 X117.990 Y118.945 E0.01714
G1 X117.580 Y118.535 E0.01842
G1 X117.088 Y118.583 E0.01568
G1 X117.450 Y118.945 E0.01625
G1 X116.910 Y118.945 E0.01714
G1 X116.505 Y118.540 E0.01821
G1 X116.321 Y118.521 E0.00588
G1 X115.784 Y118.359 E0.01780
G1 X116.370 Y118.945 E0.02633
G1 X115.831 Y118.945 E0.01714
G1 X113.088 Y116.203 E0.12313
G1 X113.088 Y115.663 E0.01714
G1 X113.674 Y116.249 E0.02633
G1 X113.512 Y115.713 E0.01780
G1 X113.494 Y115.528 E0.00588
G1 X113.088 Y115.123 E0.01821
G1 X113.088 Y114.583 E0.01714
G1 X113.450 Y114.945 E0.01625
G1 X113.498 Y114.453 E0.01568
G1 X113.088 Y114.043 E0.01842
G1 X113.088 Y113.503 E0.01714
G1 X113.603 Y114.018 E0.02311
G1 X113.735 Y113.610 E0.01361
G1 X113.088 Y112.963 E0.02904
G1 X113.088 Y112.423 E0.01714
G1 X113.923 Y113.258 E0.03749
G1 X114.045 Y113.029 E0.00825
G1 X114.130 Y112.926 E0.00424
G1 X113.088 Y111.883 E0.04679
G1 X113.088 Y111.343 E0.01714
G1 X114.374 Y112.629 E0.05772
G1 X114.490 Y112.487 E0.00583
G1 X114.645 Y112.360 E0.00635
G1 X113.088 Y110.803 E0.06989
G1 X113.088 Y110.263 E0.01714
G1 X114.941 Y112.117 E0.08320
G1 X115.032 Y112.042 E0.00372
G1 X115.276 Y111.912 E0.00880
G1 X113.088 Y109.724 E0.09824
G1 X113.088 Y109.184 E0.01714
G1 X115.628 Y111.724 E0.11404
G1 X116.038 Y111.594 E0.01366
G1 X113.088 Y108.644 E0.13246
G1 X113.088 Y108.104 E0.01714
G1 X116.477 Y111.493 E0.15216
G1 X116.969 Y111.445 E0.01568
G1 X113.088 Y107.564 E0.17423
G1 X113.088 Y107.024 E0.01714
G1 X117.558 Y111.494 E0.20068
G1 X117.710 Y111.507 E0.00485
G1 X118.285 Y111.682 E0.01908
G1 X112.918 Y106.314 E0.24095
G1 E-0.80000 F2100.00000
G1 Z0.800 F10800.000
G1 X113.794 Y119.068
G1 Z0.200
G1 E0.80000 F2100.00000
G1 F1200.000
G1 X113.273 Y118.547 E0.02339
G1 X113.146 Y118.298 E0.00886
G1 X113.088 Y117.931 E0.01181
G1 X113.088 Y117.822 E0.00345
G1 X114.211 Y118.945 E0.05041
G1 X114.751 Y118.945 E0.01714
G1 X113.088 Y117.282 E0.07465
G1 X113.088 Y116.742 E0.01714
G1 X115.460 Y119.115 E0.10651
G1 E-0.80000 F2100.00000
G1 Z0.800 F10800.000
G1 X129.942 Y124.739
G1 Z0.200
G1 E0.80000 F2100.00000
G1 F1200.000
G1 X130.246 Y124.170 E0.02023
G1 X130.655 Y123.672 E0.02023
G1 X131.154 Y123.262 E0.02023
G1 X131.723 Y122.958 E0.02023
G1 X132.340 Y122.771 E0.02023
G1 X132.943 Y122.712 E0.01898
G1 X133.621 Y122.770 E0.02134
G1 X134.242 Y122.958 E0.02034
G1 X134.811 Y123.262 E0.02023
G1 X135.309 Y123.672 E0.02023
G1 X135.719 Y124.170 E0.02023
G1 X136.023 Y124.739 E0.02023
G1 X136.210 Y125.357 E0.02023
G1 X136.273 Y125.999 E0.02023
G1 X136.210 Y126.641 E0.02023
G1 X136.023 Y127.258 E0.02023
G1 X135.719 Y127.827 E0.02023
G1 X135.309 Y128.326 E0.02023
G1 X134.811 Y128.735 E0.02023
G1 X134.242 Y129.039 E0.02023
G1 X133.624 Y129.226 E0.02023
G1 X132.982 Y129.289 E0.02023
