; generated by PrusaSlicer 2.2.0+win64 on 2020-12-08 at 19:06:10 UTC

; 

; external perimeters extrusion width = 0.60mm
; perimeters extrusion width = 0.43mm
; infill extrusion width = 0.45mm
; solid infill extrusion width = 0.70mm
; top infill extrusion width = 0.43mm
; first layer extrusion width = 0.42mm

M73 P0 R4
M201 X9000 Y9000 Z500 E10000 ; sets maximum accelerations, mm/sec^2
M203 X500 Y500 Z12 E120 ; sets maximum feedrates, mm/sec
M204 P2000 R1500 T2000 ; sets acceleration (P, T) and retract acceleration (R), mm/sec^2
M205 X10.00 Y10.00 Z0.20 E2.50 ; sets the jerk limits, mm/sec
M205 S0 T0 ; sets the minimum extruding and travel feed rate, mm/sec
M107
M862.3 P "MK2S" ; printer model check
M862.1 P0.4 ; nozzle diameter check
M115 U3.2.3 ; tell printer latest fw version
G90 ; use absolute coordinates
M83 ; extruder relative mode
M204 S2000 T1500 ; MK2 firmware only supports the old M204 format
M104 S215 ; set extruder temp
M140 S60 ; set bed temp
M190 S60 ; wait for bed temp
M109 S215 ; wait for extruder temp
G28 W ; home all without mesh bed level
G80 ; mesh bed leveling
G1 Y-3.0 F1000.0 ; go outside print area
G92 E0.0
G1 X60.0 E9.0  F1000.0 ; intro line
M73 P1 R4
G1 X100.0 E12.5 F1000.0 ; intro line
G92 E0.0
G21 ; set units to millimeters
G90 ; use absolute coordinates
M83 ; use relative distances for extrusion
M900 K0.05 ; Filament gcode LA 1.5
M900 K30 ; Filament gcode LA 1.0
;BEFORE_LAYER_CHANGE
G92 E0.0
;0.2


G1 E-0.80000 F2100.00000
G1 Z0.600 F10800.000
;AFTER_LAYER_CHANGE
;0.2
G1 X120.497 Y87.490
G1 Z0.200
G1 E0.80000 F2100.00000
M204 S1000
G1 F1200.000
G1 X121.911 Y87.247 E0.04498
G1 X128.004 Y87.246 E0.19102
G1 X129.564 Y87.511 E0.04961
G1 X130.544 Y87.992 E0.03426
G1 X131.046 Y88.360 E0.01950
G1 X131.718 Y89.043 E0.03003
G1 X132.064 Y89.559 E0.01950
G1 X132.523 Y90.537 E0.03385
G1 X132.726 Y91.610 E0.03424
G1 X132.754 Y118.012 E0.82784
G1 X132.601 Y119.166 E0.03649
G1 X132.440 Y119.686 E0.01707
G1 X132.064 Y120.441 E0.02643
G1 X131.614 Y121.073 E0.02434
G1 X130.695 Y121.915 E0.03909
G1 X129.388 Y122.546 E0.04549
G1 X128.018 Y122.754 E0.04346
G1 X121.942 Y122.754 E0.19051
G1 X120.834 Y122.601 E0.03508
G1 X120.261 Y122.418 E0.01886
G1 X119.325 Y121.929 E0.03311
G1 X118.263 Y120.935 E0.04560
G1 X117.522 Y119.595 E0.04801
G1 X117.261 Y118.297 E0.04152
G1 X117.245 Y91.988 E0.82490
G1 X117.398 Y90.834 E0.03649
G1 X117.559 Y90.314 E0.01707
G1 X117.929 Y89.570 E0.02605
G1 X118.363 Y88.951 E0.02371
G1 X119.267 Y88.110 E0.03871
G1 X120.444 Y87.517 E0.04132
G1 X120.613 Y87.856 F10800.000
G1 F1200.000
G1 X120.654 Y87.835 E0.00146
G1 X121.931 Y87.624 E0.04057
G1 X128.003 Y87.623 E0.19040
G1 X129.435 Y87.866 E0.04552
G1 X130.355 Y88.318 E0.03215
G1 X130.798 Y88.645 E0.01728
G1 X131.425 Y89.281 E0.02798
G1 X131.734 Y89.742 E0.01740
G1 X132.166 Y90.658 E0.03177
G1 X132.356 Y91.685 E0.03273
G1 X132.377 Y118.011 E0.82546
G1 X132.230 Y119.095 E0.03428
G1 X131.727 Y120.272 E0.04014
G1 X131.331 Y120.824 E0.02130
G1 X130.482 Y121.604 E0.03615
G1 X129.250 Y122.193 E0.04281
G1 X128.011 Y122.377 E0.03927
G1 X121.950 Y122.377 E0.19004
G1 X120.905 Y122.231 E0.03309
G1 X120.402 Y122.068 E0.01657
G1 X119.521 Y121.606 E0.03120
G1 X118.542 Y120.681 E0.04222
G1 X117.869 Y119.446 E0.04410
G1 X117.634 Y118.236 E0.03866
G1 X117.623 Y91.989 E0.82297
G1 X117.769 Y90.905 E0.03428
G1 X118.269 Y89.735 E0.03990
G1 X118.650 Y89.196 E0.02071
G1 X119.489 Y88.415 E0.03593
G1 X120.559 Y87.882 E0.03748
G1 E-0.80000 F2100.00000
G1 Z0.800 F10800.000
G1 X124.358 Y111.772
G1 Z0.200
G1 E0.80000 F2100.00000
G1 F1200.000
G1 X124.960 Y111.713 E0.01898
G1 X125.638 Y111.771 E0.02134
G1 X126.259 Y111.960 E0.02034
G1 X126.828 Y112.264 E0.02023
G1 X127.327 Y112.673 E0.02023
G1 X127.736 Y113.172 E0.02023
G1 X128.040 Y113.741 E0.02023
G1 X128.227 Y114.358 E0.02023
G1 X128.290 Y115.000 E0.02023
G1 X128.227 Y115.642 E0.02023
G1 X128.040 Y116.259 E0.02023
G1 X127.736 Y116.828 E0.02023
G1 X127.327 Y117.327 E0.02023
G1 X126.828 Y117.736 E0.02023
G1 X126.259 Y118.040 E0.02023
G1 X125.642 Y118.228 E0.02023
G1 X125.000 Y118.291 E0.02023
G1 X124.358 Y118.228 E0.02023
G1 X123.740 Y118.040 E0.02023
G1 X123.171 Y117.736 E0.02023
G1 X122.673 Y117.327 E0.02023
G1 X122.263 Y116.828 E0.02023
G1 X121.959 Y116.259 E0.02023
G1 X121.772 Y115.642 E0.02023
G1 X121.709 Y115.000 E0.02023
G1 X121.772 Y114.358 E0.02023
G1 X121.959 Y113.741 E0.02023
G1 X122.263 Y113.172 E0.02023
G1 X122.673 Y112.673 E0.02023
G1 X123.171 Y112.264 E0.02023
G1 X123.740 Y111.960 E0.02023
G1 X124.300 Y111.790 E0.01835
G1 X124.410 Y112.151 F10800.000
G1 F1200.000
G1 X124.962 Y112.092 E0.01743
G1 X125.566 Y112.144 E0.01901
G1 X126.114 Y112.310 E0.01794
G1 X126.617 Y112.579 E0.01790
G1 X127.059 Y112.941 E0.01790
G1 X127.421 Y113.382 E0.01790
G1 X127.690 Y113.886 E0.01790
G1 X127.856 Y114.432 E0.01790
G1 X127.912 Y115.000 E0.01790
G1 X127.856 Y115.568 E0.01790
G1 X127.690 Y116.114 E0.01790
G1 X127.421 Y116.618 E0.01790
G1 X127.059 Y117.059 E0.01790
G1 X126.617 Y117.421 E0.01790
G1 X126.114 Y117.690 E0.01790
G1 X125.568 Y117.856 E0.01790
G1 X125.000 Y117.912 E0.01790
G1 X124.431 Y117.856 E0.01790
G1 X123.885 Y117.690 E0.01790
G1 X123.382 Y117.421 E0.01790
G1 X122.940 Y117.059 E0.01790
G1 X122.578 Y116.618 E0.01790
G1 X122.309 Y116.114 E0.01790
G1 X122.144 Y115.568 E0.01790
G1 X122.088 Y115.000 E0.01790
G1 X122.144 Y114.432 E0.01790
G1 X122.309 Y113.886 E0.01790
G1 X122.578 Y113.382 E0.01790
G1 X122.940 Y112.941 E0.01790
G1 X123.382 Y112.579 E0.01790
G1 X123.885 Y112.310 E0.01790
G1 X124.352 Y112.168 E0.01530
G1 X124.536 Y111.771 F10800.000
G1 E-0.80000 F2100.00000
G1 Z0.800 F10800.000
G1 X125.000 Y98.291
G1 Z0.200
G1 E0.80000 F2100.00000
G1 F1200.000
G1 X124.358 Y98.228 E0.02023
G1 X123.740 Y98.040 E0.02023
G1 X123.171 Y97.736 E0.02023
G1 X122.673 Y97.327 E0.02023
G1 X122.263 Y96.828 E0.02023
G1 X121.959 Y96.259 E0.02023
G1 X121.772 Y95.642 E0.02023
G1 X121.709 Y95.000 E0.02023
G1 X121.772 Y94.358 E0.02023
G1 X121.959 Y93.741 E0.02023
G1 X122.263 Y93.172 E0.02023
G1 X122.673 Y92.673 E0.02023
G1 X123.171 Y92.264 E0.02023
G1 X123.740 Y91.960 E0.02023
G1 X124.358 Y91.772 E0.02023
G1 X124.960 Y91.713 E0.01898
G1 X125.638 Y91.771 E0.02134
G1 X126.259 Y91.960 E0.02034
G1 X126.828 Y92.264 E0.02023
G1 X127.327 Y92.673 E0.02023
G1 X127.736 Y93.172 E0.02023
G1 X128.040 Y93.741 E0.02023
G1 X128.227 Y94.358 E0.02023
G1 X128.290 Y95.000 E0.02023
G1 X128.227 Y95.642 E0.02023
G1 X128.040 Y96.259 E0.02023
G1 X127.736 Y96.828 E0.02023
G1 X127.327 Y97.327 E0.02023
G1 X126.828 Y97.736 E0.02023
G1 X126.259 Y98.040 E0.02023
G1 X125.642 Y98.228 E0.02023
G1 X125.059 Y98.285 E0.01835
G1 X125.022 Y97.910 F10800.000
G1 F1200.000
G1 X124.431 Y97.856 E0.01860
G1 X123.885 Y97.690 E0.01790
G1 X123.382 Y97.421 E0.01790
G1 X122.940 Y97.059 E0.01790
G1 X122.578 Y96.618 E0.01790
G1 X122.309 Y96.114 E0.01790
G1 X122.144 Y95.568 E0.01790
G1 X122.088 Y95.000 E0.01790
G1 X122.144 Y94.432 E0.01790
G1 X122.309 Y93.886 E0.01790
G1 X122.578 Y93.382 E0.01790
G1 X122.940 Y92.941 E0.01790
G1 X123.382 Y92.579 E0.01790
G1 X123.885 Y92.310 E0.01790
G1 X124.431 Y92.144 E0.01790
G1 X124.962 Y92.092 E0.01673
G1 X125.566 Y92.144 E0.01901
G1 X126.114 Y92.310 E0.01794
G1 X126.617 Y92.579 E0.01790
G1 X127.059 Y92.941 E0.01790
G1 X127.421 Y93.382 E0.01790
G1 X127.690 Y93.886 E0.01790
G1 X127.856 Y94.432 E0.01790
G1 X127.912 Y95.000 E0.01790
G1 X127.856 Y95.568 E0.01790
G1 X127.690 Y96.114 E0.01790
G1 X127.421 Y96.618 E0.01790
G1 X127.059 Y97.059 E0.01790
G1 X126.617 Y97.421 E0.01790
G1 X126.114 Y97.690 E0.01790
G1 X125.568 Y97.856 E0.01790
G1 X125.082 Y97.904 E0.01530
G1 X124.824 Y98.257 F10800.000
G1 E-0.80000 F2100.00000
G1 Z0.800 F10800.000
G1 X129.144 Y91.628
G1 Z0.200
G1 E0.80000 F2100.00000
G1 F1200.000
G1 X129.212 Y92.062 E0.01377
G1 X129.212 Y117.938 E0.81133
G1 X129.144 Y118.372 E0.01377
G1 X128.973 Y118.707 E0.01180
G1 X128.707 Y118.973 E0.01180
G1 X128.371 Y119.144 E0.01180
G1 X127.938 Y119.213 E0.01377
G1 X122.062 Y119.213 E0.18424
G1 X121.628 Y119.144 E0.01377
G1 X121.292 Y118.973 E0.01180
G1 X121.026 Y118.707 E0.01180
G1 X120.855 Y118.372 E0.01180
G1 X120.787 Y117.938 E0.01377
G1 X120.787 Y92.062 E0.81133
G1 X120.855 Y91.628 E0.01377
G1 X121.026 Y91.293 E0.01180
G1 X121.292 Y91.027 E0.01180
G1 X121.628 Y90.856 E0.01180
G1 X122.062 Y90.787 E0.01377
G1 X127.938 Y90.787 E0.18424
G1 X128.371 Y90.856 E0.01377
G1 X128.707 Y91.027 E0.01180
G1 X128.973 Y91.293 E0.01180
G1 X129.117 Y91.575 E0.00992
G1 X129.507 Y91.510 F10800.000
G1 F1200.000
G1 X129.590 Y92.032 E0.01657
G1 X129.590 Y117.968 E0.81319
G1 X129.507 Y118.490 E0.01657
G1 X129.282 Y118.932 E0.01555
G1 X128.931 Y119.282 E0.01555
G1 X128.489 Y119.507 E0.01555
G1 X127.967 Y119.590 E0.01657
G1 X122.032 Y119.590 E0.18610
G1 X121.510 Y119.507 E0.01657
G1 X121.068 Y119.282 E0.01555
G1 X120.717 Y118.932 E0.01555
G1 X120.492 Y118.490 E0.01555
G1 X120.410 Y117.968 E0.01657
G1 X120.410 Y92.032 E0.81319
G1 X120.492 Y91.510 E0.01657
G1 X120.717 Y91.068 E0.01555
G1 X121.068 Y90.718 E0.01555
G1 X121.510 Y90.493 E0.01555
G1 X122.032 Y90.410 E0.01657
G1 X127.967 Y90.410 E0.18610
G1 X128.489 Y90.493 E0.01657
G1 X128.931 Y90.718 E0.01555
G1 X129.282 Y91.068 E0.01555
G1 X129.480 Y91.457 E0.01367
G1 X129.239 Y91.808 F10800.000
G1 X129.053 Y91.776
G1 F1200.000
G1 X128.532 Y91.255 E0.02340
G1 X128.283 Y91.128 E0.00886
G1 X127.915 Y91.070 E0.01181
G1 X127.807 Y91.070 E0.00345
G1 X128.930 Y92.193 E0.05041
G1 X128.930 Y92.733 E0.01714
G1 X127.267 Y91.070 E0.07465
G1 X126.727 Y91.070 E0.01714
G1 X128.930 Y93.273 E0.09889
G1 X128.930 Y93.813 E0.01714
G1 X126.187 Y91.070 E0.12313
G1 X125.647 Y91.070 E0.01714
G1 X126.234 Y91.656 E0.02633
G1 X125.692 Y91.492 E0.01797
G1 X125.514 Y91.477 E0.00566
G1 X125.107 Y91.070 E0.01827
G1 X124.567 Y91.070 E0.01714
G1 X124.929 Y91.432 E0.01625
G1 X124.438 Y91.480 E0.01568
G1 X124.027 Y91.070 E0.01842
G1 X123.487 Y91.070 E0.01714
G1 X124.002 Y91.585 E0.02311
G1 X123.594 Y91.717 E0.01361
G1 X122.947 Y91.070 E0.02904
G1 X122.408 Y91.070 E0.01714
G1 X123.243 Y91.905 E0.03749
G1 X123.013 Y92.027 E0.00825
G1 X122.910 Y92.112 E0.00424
G1 X121.897 Y91.099 E0.04547
G1 X121.716 Y91.128 E0.00582
G1 X121.497 Y91.240 E0.00780
G1 X122.613 Y92.356 E0.05010
G1 X122.472 Y92.472 E0.00583
G1 X122.345 Y92.627 E0.00635
G1 X121.231 Y91.513 E0.04999
G1 X121.128 Y91.717 E0.00725
G1 X121.096 Y91.918 E0.00646
G1 X122.101 Y92.923 E0.04514
G1 X122.027 Y93.014 E0.00372
G1 X121.896 Y93.258 E0.00880
G1 X121.069 Y92.431 E0.03712
G1 X121.069 Y92.971 E0.01714
G1 X121.708 Y93.610 E0.02868
G1 X121.579 Y94.020 E0.01366
G1 X121.069 Y93.511 E0.02287
G1 X121.069 Y94.051 E0.01714
G1 X121.478 Y94.459 E0.01833
G1 X121.429 Y94.951 E0.01568
G1 X121.069 Y94.591 E0.01616
G1 X121.069 Y95.131 E0.01714
G1 X121.478 Y95.539 E0.01832
G1 X121.493 Y95.697 E0.00505
G1 X121.666 Y96.267 E0.01891
G1 X121.069 Y95.671 E0.02679
G1 X121.069 Y96.211 E0.01714
G1 X128.930 Y104.071 E0.35288
G1 X128.930 Y103.531 E0.01714
G1 X123.732 Y98.333 E0.23334
G1 X124.302 Y98.506 E0.01891
G1 X124.461 Y98.522 E0.00505
G1 X128.930 Y102.991 E0.20064
G1 X128.930 Y102.451 E0.01714
G1 X125.049 Y98.570 E0.17423
G1 X125.540 Y98.522 E0.01568
G1 X128.930 Y101.911 E0.15217
G1 X128.930 Y101.371 E0.01714
G1 X125.979 Y98.421 E0.13246
G1 X126.389 Y98.291 E0.01366
G1 X128.930 Y100.831 E0.11404
G1 X128.930 Y100.292 E0.01714
G1 X126.741 Y98.103 E0.09824
G1 X126.986 Y97.973 E0.00880
G1 X127.076 Y97.898 E0.00372
G1 X128.930 Y99.752 E0.08321
G1 X128.930 Y99.212 E0.01714
G1 X127.373 Y97.655 E0.06989
G1 X127.528 Y97.528 E0.00635
G1 X127.644 Y97.386 E0.00583
G1 X128.930 Y98.672 E0.05772
G1 X128.930 Y98.132 E0.01714
G1 X127.887 Y97.090 E0.04680
G1 X127.972 Y96.986 E0.00424
G1 X128.095 Y96.757 E0.00825
G1 X128.930 Y97.592 E0.03749
G1 X128.930 Y97.052 E0.01714
G1 X128.283 Y96.405 E0.02905
G1 X128.415 Y95.997 E0.01361
G1 X128.930 Y96.512 E0.02311
G1 X128.930 Y95.972 E0.01714
G1 X128.519 Y95.562 E0.01842
G1 X128.568 Y95.070 E0.01568
G1 X128.930 Y95.432 E0.01625
G1 X128.930 Y94.892 E0.01714
G1 X128.524 Y94.487 E0.01821
G1 X128.506 Y94.303 E0.00588
G1 X128.343 Y93.766 E0.01780
G1 X129.099 Y94.522 E0.03395
G1 E-0.80000 F2100.00000
G1 Z0.800 F10800.000
G1 X129.099 Y104.781
G1 Z0.200
G1 E0.80000 F2100.00000
G1 F1200.000
G1 X121.069 Y96.751 E0.36049
G1 X121.069 Y97.291 E0.01714
G1 X128.930 Y105.151 E0.35288
G1 X128.930 Y105.691 E0.01714
G1 X121.069 Y97.830 E0.35288
G1 X121.069 Y98.370 E0.01714
G1 X128.930 Y106.231 E0.35288
G1 X128.930 Y106.771 E0.01714
G1 X121.069 Y98.910 E0.35288
G1 X121.069 Y99.450 E0.01714
G1 X128.930 Y107.310 E0.35288
G1 X128.930 Y107.850 E0.01714
G1 X121.069 Y99.990 E0.35288
G1 X121.069 Y100.530 E0.01714
G1 X128.930 Y108.390 E0.35288
G1 X128.930 Y108.930 E0.01714
G1 X121.069 Y101.070 E0.35288
G1 X121.069 Y101.610 E0.01714
G1 X128.930 Y109.470 E0.35288
G1 X128.930 Y110.010 E0.01714
G1 X121.069 Y102.150 E0.35288
G1 X121.069 Y102.690 E0.01714
G1 X128.930 Y110.550 E0.35288
G1 X128.930 Y111.090 E0.01714
G1 X121.069 Y103.230 E0.35288
G1 X121.069 Y103.769 E0.01714
G1 X128.930 Y111.630 E0.35288
G1 X128.930 Y112.170 E0.01714
G1 X121.069 Y104.309 E0.35288
G1 X121.069 Y104.849 E0.01714
G1 X128.930 Y112.710 E0.35288
G1 X128.930 Y113.249 E0.01714
G1 X121.069 Y105.389 E0.35288
G1 X121.069 Y105.929 E0.01714
G1 X128.930 Y113.789 E0.35288
G1 X128.930 Y114.329 E0.01714
G1 X128.333 Y113.733 E0.02679
G1 X128.506 Y114.303 E0.01891
G1 X128.522 Y114.461 E0.00506
G1 X128.930 Y114.869 E0.01832
G1 X128.930 Y115.409 E0.01714
G1 X128.570 Y115.049 E0.01616
G1 X128.521 Y115.541 E0.01568
G1 X128.930 Y115.949 E0.01833
G1 X128.930 Y116.489 E0.01714
G1 X128.420 Y115.980 E0.02287
G1 X128.291 Y116.390 E0.01366
G1 X128.930 Y117.029 E0.02868
G1 X128.930 Y117.569 E0.01714
G1 X128.103 Y116.742 E0.03712
G1 X127.972 Y116.986 E0.00880
G1 X127.898 Y117.077 E0.00372
G1 X128.903 Y118.082 E0.04514
G1 X128.871 Y118.283 E0.00646
G1 X128.768 Y118.487 E0.00725
G1 X127.654 Y117.373 E0.04999
G1 X127.528 Y117.528 E0.00635
G1 X127.386 Y117.644 E0.00583
G1 X128.502 Y118.760 E0.05010
G1 X128.283 Y118.872 E0.00779
G1 X128.102 Y118.901 E0.00582
G1 X127.089 Y117.888 E0.04547
G1 X126.986 Y117.973 E0.00424
G1 X126.756 Y118.095 E0.00825
G1 X127.591 Y118.930 E0.03749
G1 X127.052 Y118.930 E0.01714
G1 X126.405 Y118.283 E0.02904
G1 X125.997 Y118.415 E0.01361
G1 X126.512 Y118.930 E0.02311
G1 X125.972 Y118.930 E0.01714
G1 X125.561 Y118.520 E0.01842
G1 X125.070 Y118.568 E0.01568
G1 X125.432 Y118.930 E0.01625
G1 X124.892 Y118.930 E0.01714
G1 X124.486 Y118.524 E0.01821
G1 X124.302 Y118.506 E0.00588
G1 X123.765 Y118.344 E0.01780
G1 X124.352 Y118.930 E0.02633
G1 X123.812 Y118.930 E0.01714
G1 X121.069 Y116.187 E0.12313
G1 X121.069 Y115.648 E0.01714
G1 X121.656 Y116.234 E0.02633
G1 X121.493 Y115.697 E0.01780
G1 X121.475 Y115.513 E0.00588
G1 X121.069 Y115.108 E0.01821
G1 X121.069 Y114.568 E0.01714
G1 X121.431 Y114.930 E0.01625
G1 X121.480 Y114.438 E0.01568
G1 X121.069 Y114.028 E0.01842
G1 X121.069 Y113.488 E0.01714
G1 X121.584 Y114.003 E0.02311
G1 X121.716 Y113.595 E0.01361
G1 X121.069 Y112.948 E0.02904
G1 X121.069 Y112.408 E0.01714
G1 X121.904 Y113.243 E0.03749
G1 X122.027 Y113.014 E0.00825
G1 X122.112 Y112.911 E0.00424
G1 X121.069 Y111.868 E0.04679
G1 X121.069 Y111.328 E0.01714
G1 X122.355 Y112.614 E0.05772
G1 X122.472 Y112.472 E0.00583
G1 X122.626 Y112.345 E0.00635
G1 X121.069 Y110.788 E0.06989
G1 X121.069 Y110.248 E0.01714
G1 X122.923 Y112.102 E0.08320
G1 X123.013 Y112.027 E0.00372
G1 X123.258 Y111.897 E0.00880
G1 X121.069 Y109.709 E0.09824
G1 X121.069 Y109.169 E0.01714
G1 X123.610 Y111.709 E0.11404
G1 X124.020 Y111.579 E0.01366
G1 X121.069 Y108.629 E0.13246
G1 X121.069 Y108.089 E0.01714
G1 X124.459 Y111.478 E0.15216
G1 X124.950 Y111.430 E0.01568
G1 X121.069 Y107.549 E0.17423
G1 X121.069 Y107.009 E0.01714
G1 X125.539 Y111.479 E0.20068
G1 X125.692 Y111.492 E0.00485
G1 X126.267 Y111.667 E0.01908
G1 X120.900 Y106.299 E0.24095
G1 E-0.80000 F2100.00000
G1 Z0.800 F10800.000
G1 X121.775 Y119.053
G1 Z0.200
G1 E0.80000 F2100.00000
G1 F1200.000
G1 X121.254 Y118.532 E0.02339
G1 X121.128 Y118.283 E0.00886
G1 X121.069 Y117.916 E0.01181
