; generated by PrusaSlicer 2.1.1+win64 on 2019-12-20 at 16:43:54 UTC

; 

; external perimeters extrusion width = 0.60mm
; perimeters extrusion width = 0.43mm
; infill extrusion width = 0.45mm
; solid infill extrusion width = 0.70mm
; top infill extrusion width = 0.43mm
; support material extrusion width = 0.37mm
; first layer extrusion width = 0.42mm

M73 P0 R49
M201 X9000 Y9000 Z500 E10000 ; sets maximum accelerations, mm/sec^2
M203 X500 Y500 Z12 E120 ; sets maximum feedrates, mm/sec
M204 P2000 R1500 T2000 ; sets acceleration (P, T) and retract acceleration (R), mm/sec^2
M205 X10.00 Y10.00 Z0.20 E2.50 ; sets the jerk limits, mm/sec
M205 S0 T0 ; sets the minimum extruding and travel feed rate, mm/sec
M107
M862.3 P "MK2S" ; printer model check
M862.1 P0.4 ; nozzle diameter check
M115 U3.2.3 ; tell printer latest fw version
G90 ; use absolute coordinates
M83 ; extruder relative mode
M204 S2000 T1500 ; MK2 firmware only supports the old M204 format
M104 S215 ; set extruder temp
M140 S60 ; set bed temp
M190 S60 ; wait for bed temp
M109 S215 ; wait for extruder temp
G28 W ; home all without mesh bed level
G80 ; mesh bed leveling
G1 Y-3.0 F1000.0 ; go outside print area
G92 E0.0
G1 X60.0 E9.0  F1000.0 ; intro line
M73 P0 R49
G1 X100.0 E12.5 F1000.0 ; intro line
G92 E0.0
G21 ; set units to millimeters
G90 ; use absolute coordinates
M83 ; use relative distances for extrusion
M900 K30 ; Filament gcode
;BEFORE_LAYER_CHANGE
G92 E0.0
;0.2


G1 E-0.80000 F2100.00000
G1 Z0.600 F10800.000
;AFTER_LAYER_CHANGE
;0.2
G1 X97.922 Y75.900
G1 Z0.200
G1 E0.80000 F2100.00000
M204 S1000
G1 F1200
G1 X98.212 Y75.325 E0.02021
G1 X98.553 Y74.945 E0.01601
G1 X98.976 Y74.653 E0.01612
G1 X99.455 Y74.467 E0.01612
G1 X99.961 Y74.399 E0.01601
G1 X150.004 Y74.398 E1.56904
G1 X150.779 Y74.542 E0.02473
G1 X151.454 Y74.951 E0.02473
G1 X151.939 Y75.572 E0.02473
G1 X152.172 Y76.322 E0.02462
G1 X152.152 Y91.983 E0.49104
G1 X142.374 Y116.888 E0.83892
G1 X142.126 Y117.347 E0.01635
G1 X141.774 Y117.737 E0.01646
G1 X141.336 Y118.033 E0.01658
G1 X110.601 Y133.519 E1.07911
G1 X110.049 Y133.696 E0.01817
G1 X109.474 Y133.723 E0.01805
G1 X108.908 Y133.597 E0.01817
G1 X108.399 Y133.329 E0.01805
G1 X107.859 Y132.784 E0.02405
G1 X107.542 Y132.085 E0.02405
G1 X97.844 Y91.965 E1.29416
G1 X97.812 Y76.539 E0.48367
G1 X97.912 Y75.960 E0.01844
G1 X100.587 Y77.174 F10800.000
G1 F1200
G1 X149.413 Y77.174 E1.53090
G1 X149.413 Y91.000 E0.43350
G1 X100.587 Y91.000 E1.53090
G1 X100.587 Y77.234 E0.43162
G1 X100.210 Y76.797 F10800.000
G1 F1200
G1 X149.790 Y76.797 E1.55455
G1 X149.790 Y91.377 E0.45715
G1 X100.210 Y91.377 E1.55455
G1 X100.210 Y76.857 E0.45526
G1 X100.608 Y76.835 F10800.000
G1 E-0.80000 F2100.00000
G1 Z0.800 F10800.000
G1 X101.468 Y90.887
G1 Z0.200
G1 E0.80000 F2100.00000
G1 F1200
G1 X100.870 Y90.289 E0.02669
G1 X100.870 Y89.752 E0.01695
G1 X101.835 Y90.717 E0.04308
G1 X102.372 Y90.717 E0.01695
G1 X100.870 Y89.215 E0.06705
G1 X100.870 Y88.678 E0.01695
G1 X102.909 Y90.717 E0.09101
G1 X103.446 Y90.717 E0.01695
G1 X100.870 Y88.141 E0.11498
G1 X100.870 Y87.604 E0.01695
G1 X103.982 Y90.717 E0.13894
G1 X104.519 Y90.717 E0.01695
G1 X100.870 Y87.068 E0.16290
G1 X100.870 Y86.531 E0.01695
G1 X105.056 Y90.717 E0.18687
G1 X105.593 Y90.717 E0.01695
G1 X100.870 Y85.994 E0.21083
G1 X100.870 Y85.457 E0.01695
G1 X106.130 Y90.717 E0.23480
G1 X106.667 Y90.717 E0.01695
G1 X100.870 Y84.920 E0.25876
G1 X100.870 Y84.383 E0.01695
G1 X107.203 Y90.717 E0.28273
G1 X107.740 Y90.717 E0.01695
G1 X100.870 Y83.846 E0.30669
G1 X100.870 Y83.310 E0.01695
G1 X108.277 Y90.717 E0.33066
G1 X108.814 Y90.717 E0.01695
G1 X100.870 Y82.773 E0.35462
G1 X100.870 Y82.236 E0.01695
G1 X109.351 Y90.717 E0.37859
G1 X109.888 Y90.717 E0.01695
G1 X100.870 Y81.699 E0.40255
G1 X100.870 Y81.162 E0.01695
G1 X110.425 Y90.717 E0.42651
G1 X110.961 Y90.717 E0.01695
G1 X100.870 Y80.625 E0.45048
G1 X100.870 Y80.088 E0.01695
G1 X111.498 Y90.717 E0.47444
G1 X112.035 Y90.717 E0.01695
G1 X100.870 Y79.552 E0.49841
G1 X100.870 Y79.015 E0.01695
G1 X112.572 Y90.717 E0.52237
G1 X113.109 Y90.717 E0.01695
G1 X100.870 Y78.478 E0.54634
G1 X100.870 Y77.941 E0.01695
G1 X113.646 Y90.717 E0.57030
G1 X114.183 Y90.717 E0.01695
G1 X100.922 Y77.457 E0.59193
G1 X101.459 Y77.457 E0.01695
G1 X114.719 Y90.717 E0.59193
G1 X115.256 Y90.717 E0.01695
G1 X101.996 Y77.457 E0.59193
G1 X102.533 Y77.457 E0.01695
G1 X115.793 Y90.717 E0.59193
G1 X116.330 Y90.717 E0.01695
G1 X103.070 Y77.457 E0.59193
G1 X103.606 Y77.457 E0.01695
G1 X116.867 Y90.717 E0.59193
G1 X117.404 Y90.717 E0.01695
G1 X104.143 Y77.457 E0.59193
G1 X104.680 Y77.457 E0.01695
G1 X117.940 Y90.717 E0.59193
G1 X118.477 Y90.717 E0.01695
G1 X105.217 Y77.457 E0.59193
G1 X105.754 Y77.457 E0.01695
G1 X119.014 Y90.717 E0.59193
G1 X119.551 Y90.717 E0.01695
G1 X106.291 Y77.457 E0.59193
G1 X106.828 Y77.457 E0.01695
G1 X120.088 Y90.717 E0.59193
G1 X120.625 Y90.717 E0.01695
G1 X107.364 Y77.457 E0.59193
G1 X107.901 Y77.457 E0.01695
G1 X121.162 Y90.717 E0.59193
G1 X121.698 Y90.717 E0.01695
G1 X108.438 Y77.457 E0.59193
G1 X108.975 Y77.457 E0.01695
G1 X122.235 Y90.717 E0.59193
G1 X122.772 Y90.717 E0.01695
G1 X109.512 Y77.457 E0.59193
G1 X110.049 Y77.457 E0.01695
G1 X123.309 Y90.717 E0.59193
G1 X123.846 Y90.717 E0.01695
G1 X110.586 Y77.457 E0.59193
G1 X111.122 Y77.457 E0.01695
G1 X124.383 Y90.717 E0.59193
G1 X124.920 Y90.717 E0.01695
G1 X111.659 Y77.457 E0.59193
G1 X112.196 Y77.457 E0.01695
G1 X125.456 Y90.717 E0.59193
G1 X125.993 Y90.717 E0.01695
G1 X112.733 Y77.457 E0.59193
M73 P2 R48
G1 X113.270 Y77.457 E0.01695
G1 X126.530 Y90.717 E0.59193
G1 X127.067 Y90.717 E0.01695
G1 X113.807 Y77.457 E0.59193
G1 X114.343 Y77.457 E0.01695
G1 X127.604 Y90.717 E0.59193
G1 X128.141 Y90.717 E0.01695
G1 X114.880 Y77.457 E0.59193
G1 X115.417 Y77.457 E0.01695
G1 X128.677 Y90.717 E0.59193
G1 X129.214 Y90.717 E0.01695
G1 X115.954 Y77.457 E0.59193
G1 X116.491 Y77.457 E0.01695
G1 X129.751 Y90.717 E0.59193
G1 X130.288 Y90.717 E0.01695
G1 X117.028 Y77.457 E0.59193
G1 X117.565 Y77.457 E0.01695
G1 X130.825 Y90.717 E0.59193
G1 X131.362 Y90.717 E0.01695
G1 X118.101 Y77.457 E0.59193
G1 X118.638 Y77.457 E0.01695
G1 X131.899 Y90.717 E0.59193
G1 X132.435 Y90.717 E0.01695
G1 X119.175 Y77.457 E0.59193
G1 X119.712 Y77.457 E0.01695
G1 X132.972 Y90.717 E0.59193
G1 X133.509 Y90.717 E0.01695
G1 X120.249 Y77.457 E0.59193
G1 X120.786 Y77.457 E0.01695
G1 X134.046 Y90.717 E0.59193
G1 X134.583 Y90.717 E0.01695
G1 X121.323 Y77.457 E0.59193
G1 X121.859 Y77.457 E0.01695
G1 X135.120 Y90.717 E0.59193
G1 X135.657 Y90.717 E0.01695
G1 X122.396 Y77.457 E0.59193
G1 X122.933 Y77.457 E0.01695
G1 X136.193 Y90.717 E0.59193
G1 X136.730 Y90.717 E0.01695
G1 X123.470 Y77.457 E0.59193
G1 X124.007 Y77.457 E0.01695
G1 X137.267 Y90.717 E0.59193
G1 X137.804 Y90.717 E0.01695
G1 X124.544 Y77.457 E0.59193
G1 X125.080 Y77.457 E0.01695
G1 X138.341 Y90.717 E0.59193
G1 X138.878 Y90.717 E0.01695
G1 X125.617 Y77.457 E0.59193
G1 X126.154 Y77.457 E0.01695
G1 X139.414 Y90.717 E0.59193
G1 X139.951 Y90.717 E0.01695
G1 X126.691 Y77.457 E0.59193
G1 X127.228 Y77.457 E0.01695
G1 X140.488 Y90.717 E0.59193
G1 X141.025 Y90.717 E0.01695
G1 X127.765 Y77.457 E0.59193
G1 X128.302 Y77.457 E0.01695
G1 X141.562 Y90.717 E0.59193
G1 X142.099 Y90.717 E0.01695
G1 X128.838 Y77.457 E0.59193
G1 X129.375 Y77.457 E0.01695
G1 X142.636 Y90.717 E0.59193
G1 X143.172 Y90.717 E0.01695
G1 X129.912 Y77.457 E0.59193
G1 X130.449 Y77.457 E0.01695
G1 X143.709 Y90.717 E0.59193
G1 X144.246 Y90.717 E0.01695
G1 X130.986 Y77.457 E0.59193
G1 X131.523 Y77.457 E0.01695
G1 X144.783 Y90.717 E0.59193
G1 X145.320 Y90.717 E0.01695
G1 X132.060 Y77.457 E0.59193
G1 X132.596 Y77.457 E0.01695
G1 X145.857 Y90.717 E0.59193
G1 X146.393 Y90.717 E0.01695
G1 X133.133 Y77.457 E0.59193
G1 X133.670 Y77.457 E0.01695
G1 X146.930 Y90.717 E0.59193
G1 X147.467 Y90.717 E0.01695
G1 X134.207 Y77.457 E0.59193
G1 X134.744 Y77.457 E0.01695
G1 X148.004 Y90.717 E0.59193
G1 X148.541 Y90.717 E0.01695
G1 X135.281 Y77.457 E0.59193
G1 X135.817 Y77.457 E0.01695
G1 X149.078 Y90.717 E0.59193
G1 X149.130 Y90.717 E0.00165
G1 X149.130 Y90.232 E0.01529
G1 X136.354 Y77.457 E0.57030
G1 X136.891 Y77.457 E0.01695
G1 X149.130 Y89.696 E0.54634
G1 X149.130 Y89.159 E0.01695
G1 X137.428 Y77.457 E0.52237
G1 X137.965 Y77.457 E0.01695
G1 X149.130 Y88.622 E0.49841
G1 X149.130 Y88.085 E0.01695
G1 X138.502 Y77.457 E0.47444
G1 X139.039 Y77.457 E0.01695
G1 X149.130 Y87.548 E0.45048
G1 X149.130 Y87.011 E0.01695
G1 X139.575 Y77.457 E0.42651
G1 X140.112 Y77.457 E0.01695
G1 X149.130 Y86.474 E0.40255
G1 X149.130 Y85.938 E0.01695
G1 X140.649 Y77.457 E0.37859
G1 X141.186 Y77.457 E0.01695
G1 X149.130 Y85.401 E0.35462
G1 X149.130 Y84.864 E0.01695
G1 X141.723 Y77.457 E0.33066
G1 X142.260 Y77.457 E0.01695
G1 X149.130 Y84.327 E0.30669
G1 X149.130 Y83.790 E0.01695
G1 X142.797 Y77.457 E0.28273
G1 X143.333 Y77.457 E0.01695
G1 X149.130 Y83.253 E0.25876
G1 X149.130 Y82.717 E0.01695
G1 X143.870 Y77.457 E0.23480
G1 X144.407 Y77.457 E0.01695
G1 X149.130 Y82.180 E0.21083
G1 X149.130 Y81.643 E0.01695
G1 X144.944 Y77.457 E0.18687
G1 X145.481 Y77.457 E0.01695
G1 X149.130 Y81.106 E0.16290
G1 X149.130 Y80.569 E0.01695
G1 X146.018 Y77.457 E0.13894
G1 X146.554 Y77.457 E0.01695
G1 X149.130 Y80.032 E0.11498
G1 X149.130 Y79.495 E0.01695
G1 X147.091 Y77.457 E0.09101
G1 X147.628 Y77.457 E0.01695
G1 X149.130 Y78.959 E0.06705
G1 X149.130 Y78.422 E0.01695
G1 X148.165 Y77.457 E0.04308
G1 X148.702 Y77.457 E0.01695
G1 X149.300 Y78.055 E0.02669
G1 E-0.80000 F2100.00000
G1 Z0.800 F10800.000
G1 X139.751 Y98.174
G1 Z0.200
G1 E0.80000 F2100.00000
G1 F1200
G1 X139.751 Y115.724 E0.55026
G1 X110.249 Y130.589 E1.03580
G1 X110.249 Y129.897 E0.02170
G1 X137.925 Y115.941 E0.97184
G1 X137.925 Y98.174 E0.55709
G1 X139.691 Y98.174 E0.05537
G1 E-0.80000 F2100.00000
G1 Z0.800 F10800.000
G1 X137.548 Y115.709
G1 Z0.200
G1 E0.80000 F2100.00000
G1 F1200
G1 X137.548 Y97.797 E0.56163
M73 P4 R47
G1 X140.128 Y97.797 E0.08089
G1 X140.128 Y115.956 E0.56937
G1 X109.872 Y131.201 E1.06228
G1 X109.872 Y129.665 E0.04818
G1 X137.494 Y115.736 E0.96996
G1 X137.942 Y115.642 F10800.000
G1 X138.114 Y116.198
G1 F1200
G1 X110.438 Y130.148 E0.64443
G1 E-0.80000 F2100.00000
G1 Z0.800 F10800.000
G1 X138.821 Y116.066
G1 Z0.200
G1 E0.80000 F2100.00000
G1 F1200
G1 X138.208 Y115.452 E0.02754
G1 X138.208 Y114.912 E0.01715
G1 X139.054 Y115.758 E0.03799
G1 X139.413 Y115.577 E0.01277
G1 X138.208 Y114.372 E0.05412
G1 X138.208 Y113.832 E0.01715
G1 X139.468 Y115.092 E0.05660
G1 X139.468 Y114.552 E0.01715
G1 X138.208 Y113.292 E0.05660
G1 X138.208 Y112.752 E0.01715
G1 X139.468 Y114.012 E0.05660
G1 X139.468 Y113.472 E0.01715
G1 X138.208 Y112.212 E0.05660
G1 X138.208 Y111.672 E0.01715
G1 X139.468 Y112.932 E0.05660
G1 X139.468 Y112.392 E0.01715
G1 X138.208 Y111.132 E0.05660
G1 X138.208 Y110.592 E0.01715
G1 X139.468 Y111.852 E0.05660
G1 X139.468 Y111.312 E0.01715
G1 X138.208 Y110.051 E0.05660
G1 X138.208 Y109.511 E0.01715
G1 X139.468 Y110.772 E0.05660
G1 X139.468 Y110.232 E0.01715
G1 X138.208 Y108.971 E0.05660
G1 X138.208 Y108.431 E0.01715
G1 X139.468 Y109.691 E0.05660
G1 X139.468 Y109.151 E0.01715
G1 X138.208 Y107.891 E0.05660
G1 X138.208 Y107.351 E0.01715
G1 X139.468 Y108.611 E0.05660
G1 X139.468 Y108.071 E0.01715
G1 X138.208 Y106.811 E0.05660
G1 X138.208 Y106.271 E0.01715
G1 X139.468 Y107.531 E0.05660
G1 X139.468 Y106.991 E0.01715
G1 X138.208 Y105.731 E0.05660
G1 X138.208 Y105.191 E0.01715
G1 X139.468 Y106.451 E0.05660
G1 X139.468 Y105.911 E0.01715
G1 X138.208 Y104.651 E0.05660
G1 X138.208 Y104.110 E0.01715
G1 X139.468 Y105.371 E0.05660
G1 X139.468 Y104.831 E0.01715
G1 X138.208 Y103.570 E0.05660
G1 X138.208 Y103.030 E0.01715
G1 X139.468 Y104.291 E0.05660
G1 X139.468 Y103.751 E0.01715
G1 X138.208 Y102.490 E0.05660
G1 X138.208 Y101.950 E0.01715
G1 X139.468 Y103.210 E0.05660
G1 X139.468 Y102.670 E0.01715
G1 X138.208 Y101.410 E0.05660
G1 X138.208 Y100.870 E0.01715
G1 X139.468 Y102.130 E0.05660
G1 X139.468 Y101.590 E0.01715
G1 X138.208 Y100.330 E0.05660
G1 X138.208 Y99.790 E0.01715
G1 X139.468 Y101.050 E0.05660
G1 X139.468 Y100.510 E0.01715
G1 X138.208 Y99.250 E0.05660
G1 X138.208 Y98.710 E0.01715
G1 X139.468 Y99.970 E0.05660
G1 X139.468 Y99.430 E0.01715
G1 X138.495 Y98.457 E0.04371
G1 X139.035 Y98.457 E0.01715
G1 X139.638 Y99.059 E0.02707
M106 S255
;BEFORE_LAYER_CHANGE
G92 E0.0
;0.55


G1 E-0.80000 F2100.00000
G1 Z0.800 F10800.000
;AFTER_LAYER_CHANGE
;0.55
G1 X152.152 Y91.983
G1 Z0.550
G1 E0.80000 F2100.00000
G1 F3000
G1 X142.374 Y116.888 E1.34278
G1 X142.126 Y117.347 E0.02617
G1 X141.774 Y117.737 E0.02635
G1 X141.336 Y118.033 E0.02653
G1 X110.601 Y133.519 E1.72723
G1 X110.049 Y133.696 E0.02908
G1 X109.474 Y133.723 E0.02890
G1 X108.908 Y133.597 E0.02908
G1 X108.399 Y133.329 E0.02890
G1 X107.859 Y132.784 E0.03850
G1 X107.542 Y132.085 E0.03850
G1 X97.844 Y91.965 E2.07144
G1 X97.812 Y76.539 E0.77417
G1 X97.922 Y75.900 E0.03253
G1 X98.212 Y75.325 E0.03235
G1 X98.553 Y74.945 E0.02562
G1 X98.976 Y74.653 E0.02580
G1 X99.455 Y74.467 E0.02580
G1 X99.961 Y74.399 E0.02562
G1 X150.004 Y74.398 E2.51142
G1 X150.779 Y74.542 E0.03958
G1 X151.454 Y74.951 E0.03958
G1 X151.939 Y75.572 E0.03958
G1 X152.172 Y76.322 E0.03940
G1 X152.152 Y91.923 E0.78295
G1 X149.260 Y90.847 F10800.000
M204 S800
G1 F3000
G1 X100.740 Y90.847 E2.50564
G1 X100.740 Y77.327 E0.69820
G1 X149.260 Y77.327 E2.50564
G1 X149.260 Y90.787 E0.69510
M204 S1000
G1 X149.700 Y91.287 F10800.000
M204 S800
G1 F2400
G1 X100.300 Y91.287 E3.77309
G1 X100.300 Y76.887 E1.09985
G1 X149.700 Y76.887 E3.77309
G1 X149.700 Y91.227 E1.09526
M204 S1000
G1 X149.302 Y91.249 F10800.000
G1 X147.892 Y90.761
M204 S2000
G1 F3600
G1 X148.893 Y89.760 E0.13041
G1 X148.893 Y88.864 E0.08260
G1 X147.278 Y90.479 E0.21056
G1 X146.382 Y90.479 E0.08260
G1 X148.893 Y87.968 E0.32737
G1 X148.893 Y87.072 E0.08260
G1 X145.486 Y90.479 E0.44417
G1 X144.590 Y90.479 E0.08260
G1 X148.893 Y86.177 E0.56098
G1 X148.893 Y85.281 E0.08260
G1 X143.694 Y90.479 E0.67779
G1 X142.798 Y90.479 E0.08260
G1 X148.893 Y84.385 E0.79459
G1 X148.893 Y83.489 E0.08260
G1 X141.902 Y90.479 E0.91140
G1 X141.006 Y90.479 E0.08260
G1 X148.893 Y82.593 E1.02821
G1 X148.893 Y81.697 E0.08260
G1 X140.110 Y90.479 E1.14502
G1 X139.214 Y90.479 E0.08260
G1 X148.893 Y80.801 E1.26182
G1 X148.893 Y79.905 E0.08260
G1 X138.318 Y90.479 E1.37863
G1 X137.422 Y90.479 E0.08260
G1 X148.893 Y79.009 E1.49544
G1 X148.893 Y78.113 E0.08260
G1 X136.526 Y90.479 E1.61224
G1 X135.630 Y90.479 E0.08260
G1 X148.416 Y77.694 E1.66686
G1 X147.520 Y77.694 E0.08260
G1 X134.734 Y90.479 E1.66686
G1 X133.838 Y90.479 E0.08260
G1 X146.624 Y77.694 E1.66686
G1 X145.728 Y77.694 E0.08260
G1 X132.942 Y90.479 E1.66686
G1 X132.047 Y90.479 E0.08260
G1 X144.832 Y77.694 E1.66686
G1 X143.936 Y77.694 E0.08260
G1 X131.151 Y90.479 E1.66686
G1 X130.255 Y90.479 E0.08260
G1 X143.040 Y77.694 E1.66686
G1 X142.144 Y77.694 E0.08260
G1 X129.359 Y90.479 E1.66686
G1 X128.463 Y90.479 E0.08260
G1 X141.248 Y77.694 E1.66686
G1 X140.352 Y77.694 E0.08260
G1 X127.567 Y90.479 E1.66686
G1 X126.671 Y90.479 E0.08260
G1 X139.456 Y77.694 E1.66686
G1 X138.560 Y77.694 E0.08260
G1 X125.775 Y90.479 E1.66686
G1 X124.879 Y90.479 E0.08260
G1 X137.664 Y77.694 E1.66686
G1 X136.768 Y77.694 E0.08260
G1 X123.983 Y90.479 E1.66686
G1 X123.087 Y90.479 E0.08260
G1 X135.872 Y77.694 E1.66686
G1 X134.976 Y77.694 E0.08260
G1 X122.191 Y90.479 E1.66686
G1 X121.295 Y90.479 E0.08260
G1 X134.081 Y77.694 E1.66686
G1 X133.185 Y77.694 E0.08260
G1 X120.399 Y90.479 E1.66686
G1 X119.503 Y90.479 E0.08260
G1 X132.289 Y77.694 E1.66686
G1 X131.393 Y77.694 E0.08260
G1 X118.607 Y90.479 E1.66686
G1 X117.711 Y90.479 E0.08260
G1 X130.497 Y77.694 E1.66686
G1 X129.601 Y77.694 E0.08260
G1 X116.815 Y90.479 E1.66686
G1 X115.919 Y90.479 E0.08260
G1 X128.705 Y77.694 E1.66686
G1 X127.809 Y77.694 E0.08260
G1 X115.023 Y90.479 E1.66686
G1 X114.128 Y90.479 E0.08260
G1 X126.913 Y77.694 E1.66686
G1 X126.017 Y77.694 E0.08260
G1 X113.232 Y90.479 E1.66686
G1 X112.336 Y90.479 E0.08260
G1 X125.121 Y77.694 E1.66686
G1 X124.225 Y77.694 E0.08260
G1 X111.440 Y90.479 E1.66686
G1 X110.544 Y90.479 E0.08260
G1 X123.329 Y77.694 E1.66686
