; generated by PrusaSlicer 2.1.1+win64 on 2020-07-01 at 17:14:59 UTC

; 

; external perimeters extrusion width = 0.45mm
; perimeters extrusion width = 0.45mm
; infill extrusion width = 0.45mm
; solid infill extrusion width = 0.45mm
; top infill extrusion width = 0.40mm
; first layer extrusion width = 0.42mm

M73 P0 R94
M201 X9000 Y9000 Z500 E10000 ; sets maximum accelerations, mm/sec^2
M203 X500 Y500 Z12 E120 ; sets maximum feedrates, mm/sec
M204 P2000 R1500 T2000 ; sets acceleration (P, T) and retract acceleration (R), mm/sec^2
M205 X10.00 Y10.00 Z0.20 E2.50 ; sets the jerk limits, mm/sec
M205 S0 T0 ; sets the minimum extruding and travel feed rate, mm/sec
M107
M862.3 P "MK2S" ; printer model check
M862.1 P0.4 ; nozzle diameter check
M115 U3.2.3 ; tell printer latest fw version
G90 ; use absolute coordinates
M83 ; extruder relative mode
M204 S2000 T1500 ; MK2 firmware only supports the old M204 format
M104 S215 ; set extruder temp
M140 S60 ; set bed temp
M190 S60 ; wait for bed temp
M109 S215 ; wait for extruder temp
G28 W ; home all without mesh bed level
G80 ; mesh bed leveling
G1 Y-3.0 F1000.0 ; go outside print area
G92 E0.0
G1 X60.0 E9.0  F1000.0 ; intro line
M73 P0 R94
G1 X100.0 E12.5 F1000.0 ; intro line
G92 E0.0
G21 ; set units to millimeters
G90 ; use absolute coordinates
M83 ; use relative distances for extrusion
M900 K30 ; Filament gcode
;BEFORE_LAYER_CHANGE
G92 E0.0
;0.2


G1 E-0.80000 F2100.00000
G1 Z0.600 F10800.000
;AFTER_LAYER_CHANGE
;0.2
G1 X81.425 Y58.866
G1 Z0.200
G1 E0.80000 F2100.00000
M204 S1000
G1 F1200
G1 X81.720 Y58.289 E0.02032
G1 X82.064 Y57.911 E0.01601
G1 X82.489 Y57.622 E0.01612
G1 X82.970 Y57.439 E0.01612
G1 X83.476 Y57.374 E0.01601
G1 X166.504 Y57.374 E2.60328
G1 X167.269 Y57.514 E0.02439
G1 X167.940 Y57.914 E0.02451
G1 X168.427 Y58.525 E0.02451
G1 X168.668 Y59.265 E0.02439
G1 X168.662 Y73.181 E0.43633
G1 X152.140 Y150.896 E2.49116
G1 X151.781 Y151.710 E0.02788
G1 X151.435 Y152.090 E0.01612
G1 X151.010 Y152.379 E0.01612
G1 X150.532 Y152.560 E0.01601
G1 X150.022 Y152.626 E0.01612
G1 X99.982 Y152.626 E1.56899
G1 X99.321 Y152.518 E0.02100
G1 X98.726 Y152.217 E0.02089
G1 X98.174 Y151.644 E0.02496
G1 X97.863 Y150.907 E0.02507
G1 X81.347 Y73.233 E2.48986
G1 X81.312 Y59.508 E0.43036
G1 X81.415 Y58.925 E0.01855
G1 E-0.80000 F2100.00000
G1 Z0.800 F10800.000
G1 X157.287 Y66.144
G1 Z0.200
G1 E0.80000 F2100.00000
G1 F1200
G1 X157.334 Y65.667 E0.01503
G1 X157.473 Y65.209 E0.01503
G1 X157.699 Y64.786 E0.01503
G1 X158.003 Y64.416 E0.01503
G1 X158.373 Y64.112 E0.01503
G1 X158.803 Y63.882 E0.01529
G1 X159.323 Y63.740 E0.01689
G1 X159.732 Y63.700 E0.01287
G1 X160.208 Y63.746 E0.01503
G1 X160.667 Y63.886 E0.01503
G1 X161.090 Y64.112 E0.01503
G1 X161.460 Y64.416 E0.01503
G1 X161.764 Y64.786 E0.01503
G1 X161.990 Y65.209 E0.01503
G1 X162.129 Y65.667 E0.01503
G1 X162.176 Y66.144 E0.01503
G1 X162.129 Y66.621 E0.01503
G1 X161.990 Y67.080 E0.01503
G1 X161.764 Y67.502 E0.01503
G1 X161.460 Y67.873 E0.01503
G1 X161.090 Y68.177 E0.01503
G1 X160.667 Y68.403 E0.01503
G1 X160.208 Y68.542 E0.01503
G1 X159.732 Y68.589 E0.01503
G1 X159.255 Y68.542 E0.01503
G1 X158.796 Y68.403 E0.01503
G1 X158.373 Y68.177 E0.01503
G1 X158.003 Y67.873 E0.01503
G1 X157.699 Y67.502 E0.01503
G1 X157.473 Y67.080 E0.01503
G1 X157.334 Y66.621 E0.01503
G1 X157.293 Y66.204 E0.01314
G1 X157.668 Y66.167 F10800.000
G1 F1200
G1 X157.705 Y65.741 E0.01340
G1 X157.823 Y65.354 E0.01270
G1 X158.014 Y64.996 E0.01270
G1 X158.271 Y64.683 E0.01270
G1 X158.584 Y64.427 E0.01270
G1 X158.944 Y64.234 E0.01279
G1 X159.392 Y64.112 E0.01456
G1 X159.732 Y64.078 E0.01071
G1 X160.135 Y64.118 E0.01270
G1 X160.522 Y64.236 E0.01270
G1 X160.879 Y64.427 E0.01270
G1 X161.192 Y64.683 E0.01270
G1 X161.449 Y64.996 E0.01270
G1 X161.640 Y65.354 E0.01270
G1 X161.758 Y65.741 E0.01270
G1 X161.797 Y66.144 E0.01270
G1 X161.758 Y66.547 E0.01270
G1 X161.640 Y66.935 E0.01270
G1 X161.449 Y67.292 E0.01270
G1 X161.192 Y67.605 E0.01270
G1 X160.879 Y67.862 E0.01270
G1 X160.522 Y68.053 E0.01270
G1 X160.135 Y68.170 E0.01270
G1 X159.732 Y68.210 E0.01270
G1 X159.329 Y68.170 E0.01270
G1 X158.941 Y68.053 E0.01270
G1 X158.584 Y67.862 E0.01270
G1 X158.271 Y67.605 E0.01270
G1 X158.014 Y67.292 E0.01270
G1 X157.823 Y66.935 E0.01270
G1 X157.705 Y66.547 E0.01270
G1 X157.674 Y66.227 E0.01010
G1 X157.320 Y65.970 F10800.000
G1 E-0.80000 F2100.00000
G1 Z0.800 F10800.000
G1 X151.942 Y72.256
G1 Z0.200
G1 E0.80000 F2100.00000
G1 F1200
G1 X151.942 Y88.895 E0.52171
G1 X98.116 Y88.895 E1.68767
G1 X98.116 Y72.256 E0.52171
G1 X84.087 Y72.256 E0.43986
G1 X84.087 Y60.150 E0.37957
G1 X165.913 Y60.150 E2.56559
G1 X165.913 Y72.256 E0.37957
G1 X152.002 Y72.256 E0.43618
G1 X152.319 Y72.633 F10800.000
G1 F1200
G1 X152.319 Y89.272 E0.52171
G1 X97.739 Y89.272 E1.71132
G1 X97.739 Y72.633 E0.52171
G1 X83.710 Y72.633 E0.43986
G1 X83.710 Y59.773 E0.40322
G1 X166.290 Y59.773 E2.58924
G1 X166.290 Y72.633 E0.40322
G1 X152.379 Y72.633 E0.43618
G1 X151.931 Y72.731 F10800.000
G1 E-0.80000 F2100.00000
G1 Z0.800 F10800.000
G1 X157.323 Y66.974
G1 Z0.200
G1 E0.80000 F2100.00000
G1 F1200
G1 X150.781 Y60.432 E0.29061
G1 X151.315 Y60.432 E0.01678
G1 X157.005 Y66.122 E0.25275
G1 X157.053 Y65.636 E0.01535
G1 X151.849 Y60.432 E0.23115
G1 X152.384 Y60.432 E0.01678
G1 X157.173 Y65.222 E0.21277
G1 X157.210 Y65.100 E0.00401
G1 X157.341 Y64.855 E0.00871
G1 X152.918 Y60.432 E0.19649
G1 X153.452 Y60.432 E0.01678
G1 X157.546 Y64.526 E0.18187
G1 X157.787 Y64.233 E0.01192
G1 X153.986 Y60.432 E0.16883
G1 X154.521 Y60.432 E0.01678
G1 X158.077 Y63.989 E0.15799
G1 X158.215 Y63.875 E0.00562
G1 X158.399 Y63.777 E0.00655
G1 X155.055 Y60.432 E0.14857
G1 X155.589 Y60.432 E0.01678
G1 X158.758 Y63.601 E0.14076
G1 X159.177 Y63.486 E0.01366
G1 X156.123 Y60.432 E0.13567
G1 X156.658 Y60.432 E0.01678
G1 X159.649 Y63.424 E0.13288
G1 X159.732 Y63.415 E0.00261
G1 X160.223 Y63.464 E0.01553
G1 X157.192 Y60.432 E0.13467
G1 X157.726 Y60.432 E0.01678
G1 X165.630 Y68.336 E0.35112
G1 X165.630 Y67.802 E0.01678
G1 X158.260 Y60.432 E0.32738
G1 X158.795 Y60.432 E0.01678
G1 X165.630 Y67.268 E0.30365
G1 X165.630 Y66.734 E0.01678
G1 X159.329 Y60.432 E0.27992
G1 X159.863 Y60.432 E0.01678
G1 X165.630 Y66.199 E0.25618
G1 X165.630 Y65.665 E0.01678
G1 X160.397 Y60.432 E0.23245
G1 X160.932 Y60.432 E0.01678
G1 X165.630 Y65.131 E0.20872
G1 X165.630 Y64.597 E0.01678
G1 X161.466 Y60.432 E0.18498
G1 X162.000 Y60.432 E0.01678
G1 X165.630 Y64.062 E0.16125
G1 X165.630 Y63.528 E0.01678
G1 X162.535 Y60.432 E0.13752
G1 X163.069 Y60.432 E0.01678
G1 X165.630 Y62.994 E0.11378
G1 X165.630 Y62.460 E0.01678
G1 X163.603 Y60.432 E0.09005
G1 X164.137 Y60.432 E0.01678
G1 X165.630 Y61.925 E0.06632
G1 X165.630 Y61.391 E0.01678
G1 X164.672 Y60.432 E0.04259
G1 X165.206 Y60.432 E0.01678
G1 X165.800 Y61.026 E0.02639
G1 E-0.80000 F2100.00000
G1 Z0.800 F10800.000
G1 X165.800 Y69.040
G1 Z0.200
G1 E0.80000 F2100.00000
G1 F1200
G1 X162.412 Y65.652 E0.15050
G1 X162.460 Y66.144 E0.01553
G1 X162.452 Y66.227 E0.00261
G1 X165.630 Y69.405 E0.14118
G1 X165.630 Y69.939 E0.01678
G1 X162.398 Y66.707 E0.14356
G1 X162.274 Y67.117 E0.01346
G1 X165.630 Y70.473 E0.14908
G1 X165.630 Y71.008 E0.01678
G1 X162.099 Y67.476 E0.15687
G1 X162.000 Y67.660 E0.00655
G1 X161.887 Y67.799 E0.00562
G1 X165.630 Y71.542 E0.16629
G1 X165.630 Y71.973 E0.01354
G1 X165.527 Y71.973 E0.00324
G1 X161.643 Y68.089 E0.17254
G1 X161.349 Y68.330 E0.01192
G1 X164.993 Y71.973 E0.16185
G1 X164.458 Y71.973 E0.01678
G1 X161.020 Y68.535 E0.15274
G1 X160.776 Y68.665 E0.00871
G1 X160.654 Y68.702 E0.00401
G1 X163.924 Y71.973 E0.14529
G1 X163.390 Y71.973 E0.01678
G1 X160.240 Y68.823 E0.13993
G1 X159.754 Y68.871 E0.01535
G1 X162.856 Y71.973 E0.13780
G1 X162.321 Y71.973 E0.01678
G1 X158.901 Y68.553 E0.15192
G1 X161.957 Y72.142 F10800.000
G1 F1200
G1 X150.247 Y60.432 E0.52020
G1 X149.712 Y60.432 E0.01678
G1 X161.253 Y71.973 E0.51266
G1 X160.719 Y71.973 E0.01678
M73 P1 R93
G1 X149.178 Y60.432 E0.51266
G1 X148.644 Y60.432 E0.01678
G1 X160.184 Y71.973 E0.51266
G1 X159.650 Y71.973 E0.01678
G1 X148.110 Y60.432 E0.51266
G1 X147.575 Y60.432 E0.01678
G1 X159.116 Y71.973 E0.51266
G1 X158.582 Y71.973 E0.01678
G1 X147.041 Y60.432 E0.51266
G1 X146.507 Y60.432 E0.01678
G1 X158.047 Y71.973 E0.51266
G1 X157.513 Y71.973 E0.01678
G1 X145.973 Y60.432 E0.51266
G1 X145.438 Y60.432 E0.01678
G1 X156.979 Y71.973 E0.51266
G1 X156.445 Y71.973 E0.01678
G1 X144.904 Y60.432 E0.51266
G1 X144.370 Y60.432 E0.01678
G1 X155.910 Y71.973 E0.51266
G1 X155.376 Y71.973 E0.01678
G1 X143.836 Y60.432 E0.51266
G1 X143.301 Y60.432 E0.01678
G1 X154.842 Y71.973 E0.51266
G1 X154.308 Y71.973 E0.01678
G1 X142.767 Y60.432 E0.51266
G1 X142.233 Y60.432 E0.01678
G1 X153.773 Y71.973 E0.51266
G1 X153.239 Y71.973 E0.01678
G1 X141.699 Y60.432 E0.51266
G1 X141.164 Y60.432 E0.01678
G1 X152.705 Y71.973 E0.51266
G1 X152.171 Y71.973 E0.01678
G1 X140.630 Y60.432 E0.51266
G1 X140.096 Y60.432 E0.01678
G1 X151.659 Y71.995 E0.51366
G1 X151.659 Y72.530 E0.01678
G1 X139.562 Y60.432 E0.53740
G1 X139.027 Y60.432 E0.01678
G1 X151.659 Y73.064 E0.56113
G1 X151.659 Y73.598 E0.01678
G1 X138.493 Y60.432 E0.58486
G1 X137.959 Y60.432 E0.01678
G1 X151.659 Y74.132 E0.60860
G1 X151.659 Y74.667 E0.01678
G1 X137.425 Y60.432 E0.63233
G1 X136.890 Y60.432 E0.01678
G1 X151.659 Y75.201 E0.65606
G1 X151.659 Y75.735 E0.01678
G1 X136.356 Y60.432 E0.67980
G1 X135.822 Y60.432 E0.01678
G1 X151.659 Y76.269 E0.70353
G1 X151.659 Y76.804 E0.01678
G1 X135.288 Y60.432 E0.72726
G1 X134.753 Y60.432 E0.01678
G1 X151.659 Y77.338 E0.75100
G1 X151.659 Y77.872 E0.01678
G1 X134.219 Y60.432 E0.77473
G1 X133.685 Y60.432 E0.01678
G1 X151.659 Y78.406 E0.79846
G1 X151.659 Y78.941 E0.01678
G1 X133.151 Y60.432 E0.82220
G1 X132.616 Y60.432 E0.01678
G1 X151.659 Y79.475 E0.84593
G1 X151.659 Y80.009 E0.01678
G1 X132.082 Y60.432 E0.86966
G1 X131.548 Y60.432 E0.01678
G1 X151.659 Y80.543 E0.89339
G1 X151.659 Y81.078 E0.01678
G1 X131.014 Y60.432 E0.91713
G1 X130.479 Y60.432 E0.01678
G1 X151.659 Y81.612 E0.94086
G1 X151.659 Y82.146 E0.01678
G1 X129.945 Y60.432 E0.96459
G1 X129.411 Y60.432 E0.01678
G1 X151.659 Y82.680 E0.98833
G1 X151.659 Y83.215 E0.01678
G1 X128.877 Y60.432 E1.01206
G1 X128.342 Y60.432 E0.01678
G1 X151.659 Y83.749 E1.03579
G1 X151.659 Y84.283 E0.01678
G1 X127.808 Y60.432 E1.05953
G1 X127.274 Y60.432 E0.01678
G1 X151.659 Y84.817 E1.08326
G1 X151.659 Y85.352 E0.01678
G1 X126.740 Y60.432 E1.10699
G1 X126.205 Y60.432 E0.01678
G1 X151.659 Y85.886 E1.13073
G1 X151.659 Y86.420 E0.01678
G1 X125.671 Y60.432 E1.15446
G1 X125.137 Y60.432 E0.01678
G1 X151.659 Y86.954 E1.17819
G1 X151.659 Y87.489 E0.01678
G1 X124.603 Y60.432 E1.20193
G1 X124.068 Y60.432 E0.01678
G1 X151.659 Y88.023 E1.22566
G1 X151.659 Y88.557 E0.01678
G1 X123.534 Y60.432 E1.24939
M73 P2 R92
G1 X123.000 Y60.432 E0.01678
G1 X151.180 Y88.612 E1.25183
G1 X150.645 Y88.612 E0.01678
G1 X122.466 Y60.432 E1.25183
G1 X121.931 Y60.432 E0.01678
G1 X150.111 Y88.612 E1.25183
G1 X149.577 Y88.612 E0.01678
G1 X121.397 Y60.432 E1.25183
G1 X120.863 Y60.432 E0.01678
G1 X149.042 Y88.612 E1.25183
G1 X148.508 Y88.612 E0.01678
G1 X120.329 Y60.432 E1.25183
G1 X119.794 Y60.432 E0.01678
G1 X147.974 Y88.612 E1.25183
G1 X147.440 Y88.612 E0.01678
G1 X119.260 Y60.432 E1.25183
G1 X118.726 Y60.432 E0.01678
G1 X146.905 Y88.612 E1.25183
G1 X146.371 Y88.612 E0.01678
G1 X118.192 Y60.432 E1.25183
G1 X117.657 Y60.432 E0.01678
G1 X145.837 Y88.612 E1.25183
G1 X145.303 Y88.612 E0.01678
G1 X117.123 Y60.432 E1.25183
G1 X116.589 Y60.432 E0.01678
G1 X144.768 Y88.612 E1.25183
G1 X144.234 Y88.612 E0.01678
G1 X116.055 Y60.432 E1.25183
G1 X115.520 Y60.432 E0.01678
G1 X143.700 Y88.612 E1.25183
G1 X143.166 Y88.612 E0.01678
G1 X114.986 Y60.432 E1.25183
G1 X114.452 Y60.432 E0.01678
G1 X142.631 Y88.612 E1.25183
G1 X142.097 Y88.612 E0.01678
G1 X113.918 Y60.432 E1.25183
G1 X113.383 Y60.432 E0.01678
G1 X141.563 Y88.612 E1.25183
G1 X141.029 Y88.612 E0.01678
G1 X112.849 Y60.432 E1.25183
G1 X112.315 Y60.432 E0.01678
G1 X140.494 Y88.612 E1.25183
G1 X139.960 Y88.612 E0.01678
G1 X111.781 Y60.432 E1.25183
G1 X111.246 Y60.432 E0.01678
G1 X139.426 Y88.612 E1.25183
G1 X138.892 Y88.612 E0.01678
G1 X110.712 Y60.432 E1.25183
G1 X110.178 Y60.432 E0.01678
G1 X138.357 Y88.612 E1.25183
G1 X137.823 Y88.612 E0.01678
G1 X109.644 Y60.432 E1.25183
G1 X109.109 Y60.432 E0.01678
G1 X137.289 Y88.612 E1.25183
G1 X136.755 Y88.612 E0.01678
G1 X108.575 Y60.432 E1.25183
G1 X108.041 Y60.432 E0.01678
G1 X136.220 Y88.612 E1.25183
G1 X135.686 Y88.612 E0.01678
G1 X107.507 Y60.432 E1.25183
M73 P3 R91
G1 X106.972 Y60.432 E0.01678
G1 X135.152 Y88.612 E1.25183
G1 X134.618 Y88.612 E0.01678
G1 X106.438 Y60.432 E1.25183
G1 X105.904 Y60.432 E0.01678
G1 X134.083 Y88.612 E1.25183
G1 X133.549 Y88.612 E0.01678
G1 X105.370 Y60.432 E1.25183
G1 X104.835 Y60.432 E0.01678
G1 X133.015 Y88.612 E1.25183
G1 X132.481 Y88.612 E0.01678
G1 X104.301 Y60.432 E1.25183
G1 X103.767 Y60.432 E0.01678
G1 X131.946 Y88.612 E1.25183
G1 X131.412 Y88.612 E0.01678
G1 X103.233 Y60.432 E1.25183
G1 X102.698 Y60.432 E0.01678
G1 X130.878 Y88.612 E1.25183
G1 X130.344 Y88.612 E0.01678
G1 X102.164 Y60.432 E1.25183
G1 X101.630 Y60.432 E0.01678
G1 X129.809 Y88.612 E1.25183
G1 X129.275 Y88.612 E0.01678
G1 X101.096 Y60.432 E1.25183
G1 X100.561 Y60.432 E0.01678
G1 X128.741 Y88.612 E1.25183
G1 X128.207 Y88.612 E0.01678
G1 X100.027 Y60.432 E1.25183
G1 X99.493 Y60.432 E0.01678
G1 X127.672 Y88.612 E1.25183
G1 X127.138 Y88.612 E0.01678
G1 X98.959 Y60.432 E1.25183
G1 X98.424 Y60.432 E0.01678
G1 X126.604 Y88.612 E1.25183
G1 X126.070 Y88.612 E0.01678
G1 X97.890 Y60.432 E1.25183
G1 X97.356 Y60.432 E0.01678
G1 X125.535 Y88.612 E1.25183
G1 X125.001 Y88.612 E0.01678
G1 X96.822 Y60.432 E1.25183
G1 X96.287 Y60.432 E0.01678
G1 X124.467 Y88.612 E1.25183
G1 X123.933 Y88.612 E0.01678
G1 X95.753 Y60.432 E1.25183
G1 X95.219 Y60.432 E0.01678
G1 X123.398 Y88.612 E1.25183
G1 X122.864 Y88.612 E0.01678
G1 X94.685 Y60.432 E1.25183
G1 X94.150 Y60.432 E0.01678
G1 X122.330 Y88.612 E1.25183
G1 X121.796 Y88.612 E0.01678
G1 X93.616 Y60.432 E1.25183
G1 X93.082 Y60.432 E0.01678
G1 X121.261 Y88.612 E1.25183
G1 X120.727 Y88.612 E0.01678
G1 X92.548 Y60.432 E1.25183
G1 X92.013 Y60.432 E0.01678
G1 X120.193 Y88.612 E1.25183
G1 X119.659 Y88.612 E0.01678
G1 X91.479 Y60.432 E1.25183
M73 P4 R90
G1 X90.945 Y60.432 E0.01678
G1 X119.124 Y88.612 E1.25183
G1 X118.590 Y88.612 E0.01678
G1 X90.411 Y60.432 E1.25183
G1 X89.876 Y60.432 E0.01678
G1 X118.056 Y88.612 E1.25183
G1 X117.522 Y88.612 E0.01678
G1 X89.342 Y60.432 E1.25183
G1 X88.808 Y60.432 E0.01678
G1 X116.987 Y88.612 E1.25183
G1 X116.453 Y88.612 E0.01678
G1 X88.274 Y60.432 E1.25183
G1 X87.739 Y60.432 E0.01678
G1 X115.919 Y88.612 E1.25183
G1 X115.385 Y88.612 E0.01678
G1 X87.205 Y60.432 E1.25183
G1 X86.671 Y60.432 E0.01678
G1 X114.850 Y88.612 E1.25183
G1 X114.316 Y88.612 E0.01678
G1 X98.399 Y72.694 E0.70711
G1 X98.399 Y73.229 E0.01678
G1 X113.782 Y88.612 E0.68337
G1 X113.248 Y88.612 E0.01678
G1 X98.399 Y73.763 E0.65964
G1 X98.399 Y74.297 E0.01678
G1 X112.713 Y88.612 E0.63591
G1 X112.179 Y88.612 E0.01678
G1 X98.399 Y74.831 E0.61218
G1 X98.399 Y75.366 E0.01678
G1 X111.645 Y88.612 E0.58844
G1 X111.111 Y88.612 E0.01678
G1 X98.399 Y75.900 E0.56471
G1 X98.399 Y76.434 E0.01678
G1 X110.576 Y88.612 E0.54098
G1 X110.042 Y88.612 E0.01678
G1 X98.399 Y76.968 E0.51724
G1 X98.399 Y77.503 E0.01678
G1 X109.508 Y88.612 E0.49351
G1 X108.974 Y88.612 E0.01678
G1 X98.399 Y78.037 E0.46978
G1 X98.399 Y78.571 E0.01678
G1 X108.439 Y88.612 E0.44604
G1 X107.905 Y88.612 E0.01678
G1 X98.399 Y79.105 E0.42231
G1 X98.399 Y79.640 E0.01678
G1 X107.371 Y88.612 E0.39858
G1 X106.837 Y88.612 E0.01678
G1 X98.399 Y80.174 E0.37484
G1 X98.399 Y80.708 E0.01678
G1 X106.302 Y88.612 E0.35111
G1 X105.768 Y88.612 E0.01678
G1 X98.399 Y81.243 E0.32738
G1 X98.399 Y81.777 E0.01678
G1 X105.234 Y88.612 E0.30364
G1 X104.700 Y88.612 E0.01678
G1 X98.399 Y82.311 E0.27991
G1 X98.399 Y82.845 E0.01678
G1 X104.165 Y88.612 E0.25618
G1 X103.631 Y88.612 E0.01678
G1 X98.399 Y83.380 E0.23244
G1 X98.399 Y83.914 E0.01678
G1 X103.097 Y88.612 E0.20871
G1 X102.563 Y88.612 E0.01678
G1 X98.399 Y84.448 E0.18498
