; generated by PrusaSlicer 2.0.0+ on 2019-08-20 at 16:11:17

; 

; external perimeters extrusion width = 0.45mm
; perimeters extrusion width = 0.45mm
; infill extrusion width = 0.45mm
; solid infill extrusion width = 0.45mm
; top infill extrusion width = 0.40mm
; support material extrusion width = 0.35mm
; first layer extrusion width = 0.42mm

M73 P0 R180
M201 X9000 Y9000 Z500 E10000 ; sets maximum accelerations, mm/sec^2
M203 X500 Y500 Z12 E120 ; sets maximum feedrates, mm/sec
M204 P2000 R1500 T2000 ; sets acceleration (P, T) and retract acceleration (R), mm/sec^2
M205 X10.00 Y10.00 Z0.20 E2.50 ; sets the jerk limits, mm/sec
M205 S0 T0 ; sets the minimum extruding and travel feed rate, mm/sec
M107
M115 U3.2.3 ; tell printer latest fw version
G90 ; use absolute coordinates
M83 ; extruder relative mode
M204 S2000 T1500 ; MK2 firmware only supports the old M204 format
M104 S215 ; set extruder temp
M140 S60 ; set bed temp
M190 S60 ; wait for bed temp
M109 S215 ; wait for extruder temp
G28 W ; home all without mesh bed level
G80 ; mesh bed leveling
G1 Y-3.0 F1000.0 ; go outside print area
G92 E0.0
G1 X60.0 E9.0  F1000.0 ; intro line
M73 P0 R180
G1 X100.0 E12.5 F1000.0 ; intro line
G92 E0.0
M900 K30 ; Filament gcode
G21 ; set units to millimeters
G90 ; use absolute coordinates
M83 ; use relative distances for extrusion
;BEFORE_LAYER_CHANGE
G92 E0.0
;0.2


G1 E-0.80000 F2100.00000
G1 Z0.600 F10800.000
;AFTER_LAYER_CHANGE
;0.2
G1 X86.310 Y97.615
G1 Z0.200
G1 E0.80000 F2100.00000
M204 S1000
G1 F1200
G1 X86.603 Y96.852 E0.02566
G1 X87.013 Y96.149 E0.02549
G1 X87.533 Y95.517 E0.02566
G1 X88.147 Y94.976 E0.02566
G1 X88.835 Y94.544 E0.02549
G1 X89.589 Y94.224 E0.02566
G1 X90.384 Y94.030 E0.02566
G1 X91.200 Y93.965 E0.02566
G1 X160.598 Y94.135 E2.17594
G1 X161.871 Y94.303 E0.04026
G1 X162.552 Y94.535 E0.02253
G1 X163.187 Y94.857 E0.02235
G1 X163.777 Y95.268 E0.02253
G1 X164.302 Y95.758 E0.02253
G1 X164.750 Y96.313 E0.02235
G1 X165.118 Y96.930 E0.02253
G1 X165.396 Y97.592 E0.02253
G1 X165.577 Y98.282 E0.02235
G1 X165.665 Y99.190 E0.02862
G1 X165.665 Y112.274 E0.41023
G1 X165.498 Y113.542 E0.04009
G1 X165.088 Y114.600 E0.03558
G1 X164.455 Y115.542 E0.03558
G1 X163.628 Y116.319 E0.03558
G1 X162.650 Y116.895 E0.03558
G1 X161.841 Y117.177 E0.02688
G1 X153.189 Y119.326 E0.27950
G1 X152.220 Y119.468 E0.03071
G1 X113.594 Y119.639 E1.21111
G1 X96.292 Y116.999 E0.54877
G1 X89.418 Y114.541 E0.22890
G1 X88.546 Y114.119 E0.03036
G1 X87.730 Y113.501 E0.03210
G1 X87.053 Y112.733 E0.03210
G1 X86.544 Y111.845 E0.03210
G1 X86.221 Y110.867 E0.03228
G1 X86.102 Y109.822 E0.03297
G1 X86.102 Y99.022 E0.33862
G1 X86.301 Y97.675 E0.04271
G1 F8640
G1 X86.603 Y96.852 E-0.20254
G1 X87.013 Y96.149 E-0.18771
G1 X87.533 Y95.517 E-0.18900
G1 X88.120 Y95.000 E-0.18076
G1 E-0.04000 F2100.00000
G1 Z0.800 F10800.000
G1 X156.132 Y116.979
G1 Z0.200
G1 E0.80000 F2100.00000
G1 F1200
G1 X155.990 Y117.217 E0.00871
G1 X155.123 Y118.149 E0.03990
G1 X154.219 Y118.762 E0.03423
G1 X153.099 Y119.174 E0.03743
G1 X151.263 Y119.287 E0.05767
G1 X125.421 Y119.286 E0.81027
G1 X124.861 Y119.161 E0.01800
G1 X124.350 Y119.257 E0.01628
G1 X123.482 Y119.257 E0.02722
G1 X123.214 Y119.286 E0.00847
G1 X114.224 Y119.286 E0.28188
G1 X113.955 Y119.257 E0.00846
G1 X112.970 Y119.244 E0.03088
G1 X111.921 Y118.984 E0.03389
G1 X110.942 Y118.462 E0.03480
G1 X109.796 Y117.340 E0.05029
G1 X109.580 Y116.979 E0.01320
G1 X98.247 Y116.979 E0.35531
G1 X96.476 Y116.871 E0.05565
G1 X95.347 Y116.460 E0.03766
G1 X94.435 Y115.843 E0.03454
G1 X93.567 Y114.910 E0.03993
G1 X93.419 Y114.661 E0.00911
G1 X90.507 Y114.642 E0.09131
G1 X88.844 Y114.097 E0.05486
G1 X87.912 Y113.427 E0.03599
G1 X87.146 Y112.569 E0.03607
G1 X86.632 Y111.618 E0.03390
G1 X86.364 Y110.754 E0.02836
G1 X86.350 Y98.134 E0.39570
G1 X86.742 Y96.963 E0.03872
G1 X87.445 Y95.941 E0.03887
G1 X88.634 Y94.936 E0.04881
G1 X89.308 Y94.620 E0.02334
G1 X90.041 Y94.406 E0.02395
G1 X91.303 Y94.356 E0.03960
G1 X91.599 Y94.323 E0.00933
G1 X145.429 Y94.323 E1.68783
G1 X146.589 Y94.551 E0.03707
G1 X147.666 Y95.055 E0.03726
G1 X148.987 Y96.285 E0.05660
G1 X150.113 Y95.212 E0.04876
G1 X151.704 Y94.457 E0.05521
G1 X152.433 Y94.344 E0.02313
G1 X153.247 Y94.341 E0.02553
G1 X153.440 Y94.323 E0.00608
G1 X161.005 Y94.328 E0.23720
G1 X162.097 Y94.545 E0.03489
G1 X163.117 Y95.008 E0.03513
G1 X164.197 Y95.909 E0.04412
G1 X164.974 Y97.019 E0.04246
G1 X165.410 Y98.315 E0.04288
G1 X165.477 Y112.751 E0.45265
G1 X165.167 Y114.019 E0.04093
G1 X164.423 Y115.249 E0.04507
G1 X163.630 Y116.021 E0.03470
G1 X162.642 Y116.605 E0.03598
G1 X161.516 Y116.927 E0.03673
G1 X160.454 Y116.948 E0.03329
G1 X160.168 Y116.979 E0.00903
G1 X156.192 Y116.979 E0.12465
G1 X155.908 Y116.602 F10800.000
G1 F1200
G1 X155.696 Y116.980 E0.01360
G1 X154.891 Y117.851 E0.03716
G1 X154.067 Y118.417 E0.03136
G1 X152.995 Y118.811 E0.03579
G1 X151.258 Y118.910 E0.05456
G1 X125.443 Y118.909 E0.80941
G1 X124.868 Y118.775 E0.01853
G1 X124.331 Y118.880 E0.01713
G1 X123.461 Y118.880 E0.02730
G1 X123.203 Y118.909 E0.00814
G1 X114.235 Y118.909 E0.28119
G1 X113.978 Y118.880 E0.00811
G1 X113.039 Y118.873 E0.02943
G1 X112.036 Y118.624 E0.03241
G1 X111.146 Y118.144 E0.03172
G1 X110.081 Y117.091 E0.04693
G1 X109.801 Y116.602 E0.01769
G1 X98.252 Y116.602 E0.36209
G1 X96.578 Y116.507 E0.05257
G1 X95.499 Y116.114 E0.03602
G1 X94.666 Y115.544 E0.03164
G1 X93.861 Y114.673 E0.03719
G1 X93.644 Y114.285 E0.01394
G1 X90.538 Y114.265 E0.09737
G1 X89.041 Y113.774 E0.04943
G1 X88.149 Y113.133 E0.03441
G1 X87.443 Y112.336 E0.03339
G1 X86.973 Y111.457 E0.03126
G1 X86.733 Y110.671 E0.02578
G1 X86.718 Y98.222 E0.39031
G1 X87.069 Y97.152 E0.03532
G1 X87.710 Y96.211 E0.03568
G1 X88.817 Y95.266 E0.04564
G1 X89.454 Y94.968 E0.02206
G1 X90.123 Y94.775 E0.02182
G1 X91.331 Y94.732 E0.03791
G1 X91.610 Y94.701 E0.00880
G1 X145.411 Y94.701 E1.68689
G1 X146.492 Y94.916 E0.03459
G1 X147.477 Y95.383 E0.03416
G1 X148.706 Y96.540 E0.05294
G1 X149.010 Y97.048 E0.01856
G1 X149.379 Y96.432 E0.02253
G1 X150.304 Y95.539 E0.04032
G1 X151.789 Y94.825 E0.05165
G1 X152.476 Y94.719 E0.02179
G1 X153.265 Y94.718 E0.02474
G1 X153.449 Y94.701 E0.00580
G1 X160.986 Y94.705 E0.23631
G1 X162.000 Y94.910 E0.03244
G1 X162.935 Y95.340 E0.03228
G1 X163.935 Y96.181 E0.04096
G1 X164.648 Y97.210 E0.03926
G1 X165.043 Y98.404 E0.03943
G1 X165.100 Y112.729 E0.44914
G1 X164.808 Y113.900 E0.03784
G1 X164.143 Y114.995 E0.04018
G1 X163.383 Y115.734 E0.03323
G1 X162.472 Y116.267 E0.03310
G1 X161.484 Y116.550 E0.03224
G1 X160.429 Y116.571 E0.03308
G1 X160.157 Y116.602 E0.00858
G1 X155.968 Y116.602 E0.13134
G1 X155.681 Y116.225 F10800.000
G1 F1200
G1 X155.401 Y116.744 E0.01850
G1 X154.658 Y117.554 E0.03444
G1 X153.913 Y118.071 E0.02844
G1 X152.892 Y118.447 E0.03411
G1 X151.254 Y118.532 E0.05145
G1 X125.467 Y118.532 E0.80854
G1 X124.875 Y118.388 E0.01908
G1 X124.312 Y118.503 E0.01802
G1 X123.438 Y118.503 E0.02738
G1 X123.191 Y118.532 E0.00779
G1 X114.246 Y118.532 E0.28048
G1 X114.000 Y118.503 E0.00777
G1 X113.105 Y118.501 E0.02806
G1 X112.193 Y118.281 E0.02942
G1 X111.349 Y117.825 E0.03006
G1 X110.367 Y116.845 E0.04350
G1 X110.026 Y116.225 E0.02220
G1 X98.257 Y116.225 E0.36900
G1 X96.681 Y116.143 E0.04949
G1 X95.651 Y115.768 E0.03435
G1 X94.899 Y115.247 E0.02869
G1 X94.156 Y114.437 E0.03446
G1 X93.872 Y113.909 E0.01879
G1 X90.570 Y113.888 E0.10352
G1 X89.236 Y113.450 E0.04404
G1 X88.417 Y112.867 E0.03151
G1 X87.741 Y112.103 E0.03198
G1 X87.316 Y111.298 E0.02856
G1 X87.102 Y110.588 E0.02324
G1 X87.085 Y98.311 E0.38493
G1 X87.419 Y97.295 E0.03355
G1 X87.975 Y96.480 E0.03091
G1 X89.001 Y95.596 E0.04249
G1 X89.573 Y95.326 E0.01983
G1 X90.204 Y95.144 E0.02058
G1 X91.359 Y95.109 E0.03622
G1 X91.621 Y95.078 E0.00829
G1 X145.392 Y95.078 E1.68596
G1 X146.352 Y95.267 E0.03068
G1 X147.288 Y95.710 E0.03246
G1 X148.423 Y96.791 E0.04916
G1 X148.761 Y97.393 E0.02163
G1 X148.886 Y97.395 E0.00394
G1 X149.253 Y97.392 E0.01150
G1 X149.662 Y96.684 E0.02562
G1 X150.544 Y95.831 E0.03849
G1 X151.874 Y95.194 E0.04624
G1 X152.519 Y95.094 E0.02046
G1 X153.283 Y95.095 E0.02396
G1 X153.459 Y95.078 E0.00552
G1 X160.967 Y95.082 E0.23542
G1 X161.862 Y95.262 E0.02863
G1 X162.754 Y95.671 E0.03076
G1 X163.671 Y96.451 E0.03774
G1 X164.321 Y97.400 E0.03607
G1 X164.675 Y98.492 E0.03599
G1 X164.723 Y112.706 E0.44566
G1 X164.450 Y113.779 E0.03473
G1 X163.863 Y114.741 E0.03533
G1 X163.137 Y115.448 E0.03177
G1 X162.344 Y115.912 E0.02882
G1 X161.451 Y116.174 E0.02918
G1 X160.403 Y116.194 E0.03286
G1 X160.145 Y116.225 E0.00812
G1 X155.741 Y116.225 E0.13809
G1 X155.451 Y115.848 F10800.000
G1 F1200
G1 X155.105 Y116.509 E0.02342
G1 X154.424 Y117.258 E0.03174
G1 X153.759 Y117.726 E0.02547
G1 X152.790 Y118.083 E0.03240
G1 X151.250 Y118.155 E0.04834
G1 X125.491 Y118.155 E0.80765
G1 X124.883 Y118.001 E0.01966
G1 X124.291 Y118.126 E0.01896
G1 X123.415 Y118.126 E0.02748
G1 X123.179 Y118.155 E0.00743
G1 X114.258 Y118.155 E0.27973
G1 X114.024 Y118.126 E0.00740
G1 X113.129 Y118.124 E0.02805
G1 X112.308 Y117.921 E0.02651
G1 X111.555 Y117.508 E0.02692
G1 X110.656 Y116.600 E0.04008
G1 X110.253 Y115.848 E0.02676
G1 X98.261 Y115.848 E0.37601
G1 X96.782 Y115.778 E0.04642
G1 X95.804 Y115.423 E0.03263
G1 X95.134 Y114.951 E0.02569
G1 X94.452 Y114.202 E0.03175
G1 X94.102 Y113.534 E0.02366
G1 X90.602 Y113.511 E0.10974
G1 X89.430 Y113.126 E0.03870
G1 X88.685 Y112.600 E0.02858
G1 X88.039 Y111.871 E0.03054
G1 X87.659 Y111.141 E0.02582
G1 X87.471 Y110.507 E0.02072
G1 X87.453 Y98.398 E0.37968
G1 X87.748 Y97.482 E0.03016
G1 X88.242 Y96.748 E0.02776
G1 X89.186 Y95.926 E0.03927
G1 X89.720 Y95.674 E0.01850
G1 X90.284 Y95.513 E0.01837
G1 X91.387 Y95.485 E0.03459
G1 X91.633 Y95.455 E0.00779
G1 X145.373 Y95.455 E1.68498
G1 X146.254 Y95.632 E0.02817
G1 X147.097 Y96.037 E0.02931
G1 X148.140 Y97.041 E0.04541
G1 X148.533 Y97.768 E0.02591
G1 X148.886 Y97.772 E0.01107
G1 X149.476 Y97.767 E0.01850
G1 X149.944 Y96.935 E0.02993
G1 X150.784 Y96.123 E0.03664
G1 X151.961 Y95.562 E0.04087
G1 X152.534 Y95.471 E0.01820
G1 X153.303 Y95.472 E0.02413
G1 X153.469 Y95.455 E0.00522
G1 X160.947 Y95.459 E0.23448
G1 X161.764 Y95.626 E0.02614
G1 X162.570 Y96.002 E0.02788
G1 X163.405 Y96.720 E0.03453
G1 X163.993 Y97.588 E0.03287
G1 X164.307 Y98.578 E0.03257
G1 X164.346 Y112.682 E0.44222
G1 X164.093 Y113.657 E0.03158
G1 X163.584 Y114.487 E0.03054
G1 X162.890 Y115.162 E0.03032
G1 X162.213 Y115.558 E0.02461
G1 X161.417 Y115.797 E0.02607
G1 X160.375 Y115.818 E0.03266
G1 X160.133 Y115.848 E0.00765
G1 X155.511 Y115.848 E0.14492
G1 X155.220 Y115.471 F10800.000
G1 F1200
G1 X154.807 Y116.276 E0.02837
G1 X154.187 Y116.964 E0.02906
G1 X153.605 Y117.381 E0.02245
G1 X152.688 Y117.719 E0.03064
G1 X151.246 Y117.778 E0.04523
G1 X125.516 Y117.778 E0.80675
G1 X124.892 Y117.613 E0.02025
G1 X124.270 Y117.749 E0.01994
G1 X123.390 Y117.749 E0.02760
G1 X123.167 Y117.778 E0.00706
G1 X114.271 Y117.778 E0.27893
G1 X114.047 Y117.749 E0.00706
G1 X113.194 Y117.752 E0.02676
G1 X112.464 Y117.577 E0.02355
G1 X111.803 Y117.222 E0.02352
G1 X110.944 Y116.356 E0.03824
G1 X110.585 Y115.666 E0.02438
G1 X110.523 Y115.471 E0.00643
G1 X98.264 Y115.471 E0.38437
G1 X96.883 Y115.414 E0.04334
G1 X95.958 Y115.077 E0.03088
G1 X95.370 Y114.657 E0.02264
G1 X94.750 Y113.969 E0.02906
G1 X94.335 Y113.158 E0.02855
G1 X90.634 Y113.134 E0.11603
G1 X89.622 Y112.800 E0.03341
G1 X88.952 Y112.333 E0.02563
G1 X88.337 Y111.639 E0.02905
G1 X88.003 Y110.986 E0.02301
G1 X87.840 Y110.428 E0.01823
G1 X87.822 Y98.483 E0.37453
G1 X88.077 Y97.667 E0.02679
G1 X88.510 Y97.013 E0.02459
G1 X89.372 Y96.255 E0.03599
G1 X89.866 Y96.021 E0.01715
G1 X90.361 Y95.883 E0.01612
G1 X91.415 Y95.862 E0.03303
G1 X91.646 Y95.832 E0.00731
G1 X145.354 Y95.832 E1.68397
M73 P0 R179
G1 X146.154 Y95.996 E0.02561
G1 X146.903 Y96.362 E0.02614
G1 X147.854 Y97.289 E0.04164
G1 X148.302 Y98.143 E0.03024
G1 X148.886 Y98.149 E0.01829
G1 X149.701 Y98.142 E0.02557
G1 X150.227 Y97.186 E0.03422
G1 X151.024 Y96.416 E0.03475
G1 X152.048 Y95.930 E0.03553
G1 X152.549 Y95.848 E0.01592
G1 X153.325 Y95.849 E0.02432
G1 X153.480 Y95.832 E0.00490
G1 X160.927 Y95.836 E0.23351
G1 X161.664 Y95.991 E0.02361
G1 X162.385 Y96.331 E0.02499
G1 X163.139 Y96.988 E0.03135
G1 X163.642 Y97.728 E0.02806
G1 X163.939 Y98.664 E0.03080
G1 X163.969 Y112.657 E0.43874
G1 X163.736 Y113.533 E0.02840
G1 X163.304 Y114.233 E0.02579
G1 X162.644 Y114.875 E0.02888
G1 X162.080 Y115.204 E0.02047
G1 X161.382 Y115.421 E0.02292
G1 X160.347 Y115.441 E0.03246
G1 X160.121 Y115.471 E0.00715
G1 X155.280 Y115.471 E0.15179
G1 F8640
G1 X154.807 Y116.276 E-0.21559
G1 X154.187 Y116.964 E-0.21398
G1 X153.605 Y117.381 E-0.16531
G1 X152.934 Y117.628 E-0.16512
G1 E-0.04000 F2100.00000
G1 Z0.800 F10800.000
G1 X147.995 Y98.517
G1 Z0.200
G1 E0.80000 F2100.00000
G1 F1200
G1 X150.012 Y98.517 E0.06324
G1 X150.117 Y98.162 E0.01161
G1 X150.510 Y97.437 E0.02586
G1 X151.264 Y96.709 E0.03285
G1 X152.136 Y96.297 E0.03024
G1 X152.565 Y96.225 E0.01363
G1 X153.348 Y96.226 E0.02455
G1 X153.492 Y96.209 E0.00455
G1 X160.907 Y96.213 E0.23249
G1 X161.562 Y96.354 E0.02102
G1 X162.197 Y96.659 E0.02209
G1 X162.872 Y97.255 E0.02821
G1 X163.291 Y97.869 E0.02331
G1 X163.571 Y98.751 E0.02902
G1 X163.591 Y112.632 E0.43523
G1 X163.380 Y113.405 E0.02513
G1 X162.998 Y114.012 E0.02248
G1 X162.400 Y114.586 E0.02600
G1 X161.912 Y114.866 E0.01764
G1 X161.299 Y115.052 E0.02009
G1 X160.319 Y115.064 E0.03075
G1 X160.107 Y115.093 E0.00670
G1 X154.916 Y115.093 E0.16277
G1 X154.820 Y115.425 E0.01081
G1 X154.509 Y116.044 E0.02173
G1 X153.947 Y116.672 E0.02642
G1 X153.449 Y117.037 E0.01935
G1 X152.586 Y117.354 E0.02882
G1 X151.244 Y117.401 E0.04212
G1 X125.543 Y117.401 E0.80584
G1 X124.853 Y117.211 E0.02243
G1 X124.666 Y117.286 E0.00633
G1 X124.252 Y117.371 E0.01324
G1 X123.364 Y117.372 E0.02786
G1 X123.153 Y117.401 E0.00665
G1 X114.284 Y117.401 E0.27808
G1 X114.073 Y117.372 E0.00668
G1 X113.215 Y117.375 E0.02691
G1 X112.617 Y117.231 E0.01930
G1 X112.049 Y116.935 E0.02007
G1 X111.234 Y116.112 E0.03633
G1 X110.933 Y115.519 E0.02085
G1 X110.821 Y115.093 E0.01379
G1 X98.267 Y115.094 E0.39362
G1 X96.984 Y115.049 E0.04026
G1 X96.112 Y114.732 E0.02906
G1 X95.610 Y114.365 E0.01951
G1 X95.048 Y113.737 E0.02642
G1 X94.737 Y113.118 E0.02173
G1 X94.641 Y112.783 E0.01092
G1 X90.666 Y112.757 E0.12461
G1 X89.814 Y112.474 E0.02818
G1 X89.218 Y112.065 E0.02265
G1 X88.636 Y111.408 E0.02751
G1 X88.349 Y110.834 E0.02015
G1 X88.210 Y110.350 E0.01580
G1 X88.191 Y98.565 E0.36951
G1 X88.408 Y97.849 E0.02344
G1 X88.781 Y97.277 E0.02141
G1 X89.558 Y96.584 E0.03265
G1 X90.012 Y96.370 E0.01575
G1 X90.437 Y96.253 E0.01382
G1 X91.443 Y96.239 E0.03155
G1 X91.660 Y96.209 E0.00684
G1 X145.334 Y96.209 E1.68291
G1 X146.052 Y96.360 E0.02301
G1 X146.708 Y96.685 E0.02296
G1 X147.566 Y97.535 E0.03787
G1 X147.897 Y98.181 E0.02276
G1 X147.978 Y98.460 E0.00910
G1 X147.703 Y98.892 F10800.000
G1 F1200
G1 X150.302 Y98.892 E0.08147
G1 X150.461 Y98.318 E0.01868
G1 X150.796 Y97.684 E0.02249
G1 X151.456 Y97.034 E0.02904
G1 X152.227 Y96.664 E0.02682
G1 X152.581 Y96.602 E0.01125
G1 X153.373 Y96.603 E0.02484
G1 X153.505 Y96.586 E0.00417
G1 X160.885 Y96.590 E0.23140
G1 X161.458 Y96.717 E0.01838
G1 X162.007 Y96.986 E0.01918
G1 X162.603 Y97.520 E0.02509
G1 X162.941 Y98.013 E0.01874
G1 X163.193 Y98.782 E0.02539
G1 X163.214 Y112.605 E0.43342
G1 X163.025 Y113.275 E0.02182
G1 X162.721 Y113.756 E0.01783
G1 X162.156 Y114.298 E0.02456
G1 X161.783 Y114.511 E0.01347
G1 X161.217 Y114.683 E0.01855
G1 X160.290 Y114.687 E0.02905
G1 X160.092 Y114.716 E0.00627
G1 X154.625 Y114.716 E0.17143
G1 X154.473 Y115.274 E0.01812
G1 X154.184 Y115.851 E0.02026
G1 X153.681 Y116.405 E0.02346
G1 X153.293 Y116.692 E0.01513
G1 X152.485 Y116.989 E0.02698
G1 X151.242 Y117.024 E0.03901
G1 X125.570 Y117.023 E0.80492
G1 X124.825 Y116.809 E0.02431
G1 X124.568 Y116.921 E0.00878
G1 X124.196 Y116.998 E0.01192
G1 X123.336 Y116.994 E0.02695
G1 X123.139 Y117.023 E0.00627
G1 X114.299 Y117.023 E0.27716
G1 X114.099 Y116.994 E0.00633
G1 X113.277 Y117.002 E0.02578
G1 X112.764 Y116.884 E0.01649
G1 X112.292 Y116.645 E0.01658
G1 X111.556 Y115.914 E0.03254
