; generated by PrusaSlicer 2.0.0+ on 2019-08-20 at 14:33:01

; 

; external perimeters extrusion width = 0.45mm
; perimeters extrusion width = 0.45mm
; infill extrusion width = 0.45mm
; solid infill extrusion width = 0.45mm
; top infill extrusion width = 0.40mm
; first layer extrusion width = 0.42mm

M73 P0 R78
M201 X9000 Y9000 Z500 E10000 ; sets maximum accelerations, mm/sec^2
M203 X500 Y500 Z12 E120 ; sets maximum feedrates, mm/sec
M204 P2000 R1500 T2000 ; sets acceleration (P, T) and retract acceleration (R), mm/sec^2
M205 X10.00 Y10.00 Z0.20 E2.50 ; sets the jerk limits, mm/sec
M205 S0 T0 ; sets the minimum extruding and travel feed rate, mm/sec
M107
M115 U3.2.3 ; tell printer latest fw version
G90 ; use absolute coordinates
M83 ; extruder relative mode
M204 S2000 T1500 ; MK2 firmware only supports the old M204 format
M104 S215 ; set extruder temp
M140 S60 ; set bed temp
M190 S60 ; wait for bed temp
M109 S215 ; wait for extruder temp
G28 W ; home all without mesh bed level
G80 ; mesh bed leveling
G1 Y-3.0 F1000.0 ; go outside print area
G92 E0.0
G1 X60.0 E9.0  F1000.0 ; intro line
M73 P0 R78
G1 X100.0 E12.5 F1000.0 ; intro line
G92 E0.0
M900 K30 ; Filament gcode
G21 ; set units to millimeters
G90 ; use absolute coordinates
M83 ; use relative distances for extrusion
;BEFORE_LAYER_CHANGE
G92 E0.0
;0.2


G1 E-0.80000 F2100.00000
G1 Z0.600 F10800.000
;AFTER_LAYER_CHANGE
;0.2
G1 X125.000 Y127.333
G1 Z0.200
G1 E0.80000 F2100.00000
M204 S1000
G1 F1200
G1 X124.452 Y127.333 E0.01718
G1 X123.357 Y127.280 E0.03438
G1 X122.265 Y127.172 E0.03438
G1 X121.181 Y127.011 E0.03438
G1 X120.105 Y126.797 E0.03438
G1 X119.042 Y126.531 E0.03438
G1 X117.992 Y126.213 E0.03438
G1 X116.960 Y125.843 E0.03438
G1 X115.947 Y125.424 E0.03438
G1 X114.956 Y124.955 E0.03438
G1 X113.989 Y124.438 E0.03438
G1 X113.048 Y123.874 E0.03438
G1 X112.136 Y123.265 E0.03438
G1 X111.256 Y122.612 E0.03438
G1 X110.408 Y121.916 E0.03438
G1 X109.595 Y121.180 E0.03438
G1 X108.820 Y120.404 E0.03438
G1 X108.084 Y119.592 E0.03438
G1 X107.388 Y118.744 E0.03438
G1 X106.735 Y117.864 E0.03438
G1 X106.126 Y116.952 E0.03438
G1 X105.562 Y116.011 E0.03438
G1 X105.045 Y115.044 E0.03438
G1 X104.576 Y114.053 E0.03438
G1 X104.157 Y113.040 E0.03438
G1 X103.787 Y112.008 E0.03438
G1 X103.469 Y110.958 E0.03438
G1 X103.203 Y109.895 E0.03438
G1 X102.989 Y108.819 E0.03438
G1 X102.828 Y107.735 E0.03438
G1 X102.720 Y106.643 E0.03438
G1 X102.667 Y105.548 E0.03438
G1 X102.667 Y104.452 E0.03438
G1 X102.720 Y103.357 E0.03438
G1 X102.828 Y102.265 E0.03438
G1 X102.989 Y101.181 E0.03438
G1 X103.203 Y100.105 E0.03438
G1 X103.469 Y99.042 E0.03438
G1 X103.787 Y97.992 E0.03438
G1 X104.157 Y96.960 E0.03438
G1 X104.576 Y95.947 E0.03438
G1 X105.045 Y94.956 E0.03438
G1 X105.562 Y93.989 E0.03438
G1 X106.126 Y93.048 E0.03438
G1 X106.735 Y92.136 E0.03438
G1 X107.388 Y91.256 E0.03438
G1 X108.084 Y90.408 E0.03438
G1 X108.820 Y89.596 E0.03438
G1 X109.596 Y88.820 E0.03438
G1 X110.408 Y88.084 E0.03438
G1 X111.256 Y87.388 E0.03438
G1 X112.136 Y86.735 E0.03438
G1 X113.048 Y86.126 E0.03438
G1 X113.989 Y85.562 E0.03438
G1 X114.956 Y85.045 E0.03438
G1 X115.947 Y84.576 E0.03438
G1 X116.960 Y84.157 E0.03438
G1 X117.992 Y83.787 E0.03438
G1 X119.042 Y83.469 E0.03438
G1 X120.105 Y83.203 E0.03438
G1 X121.181 Y82.989 E0.03438
G1 X122.265 Y82.828 E0.03438
G1 X123.357 Y82.720 E0.03438
G1 X124.452 Y82.667 E0.03438
G1 X125.436 Y82.665 E0.03084
G1 X126.644 Y82.720 E0.03792
G1 X127.735 Y82.828 E0.03437
G1 X128.819 Y82.989 E0.03438
G1 X129.895 Y83.203 E0.03438
G1 X130.958 Y83.469 E0.03438
G1 X132.008 Y83.787 E0.03438
G1 X133.040 Y84.157 E0.03438
G1 X134.053 Y84.576 E0.03438
G1 X135.044 Y85.045 E0.03438
G1 X136.011 Y85.562 E0.03438
G1 X136.952 Y86.126 E0.03438
G1 X137.864 Y86.735 E0.03438
G1 X138.744 Y87.388 E0.03438
G1 X139.592 Y88.084 E0.03438
G1 X140.404 Y88.820 E0.03438
G1 X141.180 Y89.596 E0.03438
G1 X141.916 Y90.408 E0.03438
G1 X142.612 Y91.256 E0.03438
G1 X143.265 Y92.136 E0.03438
G1 X143.874 Y93.048 E0.03438
G1 X144.438 Y93.989 E0.03438
G1 X144.955 Y94.956 E0.03438
G1 X145.424 Y95.947 E0.03438
G1 X145.843 Y96.960 E0.03438
G1 X146.213 Y97.992 E0.03438
G1 X146.531 Y99.042 E0.03438
G1 X146.797 Y100.105 E0.03438
G1 X147.011 Y101.181 E0.03438
G1 X147.172 Y102.265 E0.03438
G1 X147.280 Y103.357 E0.03438
G1 X147.333 Y104.452 E0.03438
G1 X147.333 Y105.548 E0.03438
G1 X147.280 Y106.643 E0.03438
G1 X147.172 Y107.735 E0.03438
G1 X147.011 Y108.819 E0.03438
G1 X146.797 Y109.895 E0.03438
G1 X146.531 Y110.958 E0.03438
G1 X146.213 Y112.008 E0.03438
G1 X145.843 Y113.040 E0.03438
G1 X145.424 Y114.053 E0.03438
G1 X144.955 Y115.044 E0.03438
G1 X144.438 Y116.011 E0.03438
G1 X143.874 Y116.952 E0.03438
G1 X143.265 Y117.864 E0.03438
G1 X142.612 Y118.744 E0.03438
G1 X141.916 Y119.592 E0.03438
G1 X141.180 Y120.404 E0.03438
G1 X140.404 Y121.180 E0.03438
G1 X139.592 Y121.916 E0.03438
G1 X138.744 Y122.612 E0.03438
G1 X137.864 Y123.265 E0.03438
G1 X136.952 Y123.874 E0.03438
G1 X136.011 Y124.438 E0.03438
G1 X135.044 Y124.955 E0.03438
G1 X134.053 Y125.424 E0.03438
G1 X133.040 Y125.843 E0.03438
G1 X132.008 Y126.213 E0.03438
G1 X130.958 Y126.531 E0.03438
G1 X129.895 Y126.797 E0.03438
G1 X128.819 Y127.011 E0.03438
G1 X127.735 Y127.172 E0.03438
G1 X126.643 Y127.280 E0.03438
G1 X125.548 Y127.333 E0.03438
G1 X125.060 Y127.333 E0.01532
G1 X124.796 Y126.989 F10800.000
G1 X125.000 Y126.956
G1 F1200
G1 X124.461 Y126.956 E0.01689
G1 X123.384 Y126.903 E0.03380
G1 X122.311 Y126.798 E0.03380
G1 X121.245 Y126.640 E0.03380
G1 X120.188 Y126.429 E0.03380
G1 X119.142 Y126.167 E0.03380
G1 X118.111 Y125.854 E0.03380
G1 X117.096 Y125.491 E0.03380
G1 X116.100 Y125.079 E0.03380
G1 X115.125 Y124.618 E0.03380
G1 X114.174 Y124.110 E0.03380
G1 X113.250 Y123.556 E0.03380
G1 X112.354 Y122.957 E0.03380
G1 X111.488 Y122.314 E0.03380
G1 X110.654 Y121.631 E0.03380
G1 X109.856 Y120.907 E0.03380
G1 X109.093 Y120.144 E0.03380
G1 X108.369 Y119.346 E0.03380
G1 X107.686 Y118.512 E0.03380
G1 X107.043 Y117.646 E0.03380
G1 X106.444 Y116.750 E0.03380
G1 X105.890 Y115.825 E0.03380
G1 X105.382 Y114.875 E0.03380
G1 X104.921 Y113.900 E0.03380
G1 X104.509 Y112.904 E0.03380
G1 X104.146 Y111.889 E0.03380
G1 X103.833 Y110.858 E0.03380
G1 X103.571 Y109.812 E0.03380
G1 X103.360 Y108.755 E0.03380
G1 X103.202 Y107.688 E0.03380
G1 X103.097 Y106.616 E0.03380
G1 X103.044 Y105.539 E0.03380
G1 X103.044 Y104.461 E0.03380
G1 X103.097 Y103.384 E0.03380
G1 X103.202 Y102.311 E0.03380
G1 X103.360 Y101.245 E0.03380
G1 X103.571 Y100.188 E0.03380
G1 X103.833 Y99.142 E0.03380
G1 X104.146 Y98.111 E0.03380
G1 X104.509 Y97.096 E0.03380
G1 X104.921 Y96.100 E0.03380
G1 X105.382 Y95.125 E0.03380
G1 X105.890 Y94.174 E0.03380
G1 X106.445 Y93.250 E0.03380
G1 X107.043 Y92.354 E0.03380
G1 X107.686 Y91.488 E0.03380
G1 X108.370 Y90.654 E0.03380
G1 X109.093 Y89.856 E0.03380
G1 X109.856 Y89.093 E0.03380
G1 X110.654 Y88.369 E0.03380
G1 X111.488 Y87.686 E0.03380
G1 X112.354 Y87.043 E0.03380
G1 X113.250 Y86.444 E0.03380
G1 X114.175 Y85.890 E0.03380
G1 X115.125 Y85.382 E0.03380
G1 X116.100 Y84.921 E0.03380
G1 X117.096 Y84.509 E0.03380
G1 X118.111 Y84.146 E0.03380
G1 X119.142 Y83.833 E0.03380
G1 X120.188 Y83.571 E0.03380
G1 X121.245 Y83.360 E0.03380
G1 X122.312 Y83.202 E0.03380
G1 X123.384 Y83.097 E0.03380
G1 X124.461 Y83.044 E0.03381
G1 X125.427 Y83.042 E0.03028
G1 X126.617 Y83.097 E0.03734
G1 X127.689 Y83.202 E0.03377
G1 X128.755 Y83.360 E0.03380
G1 X129.812 Y83.571 E0.03380
G1 X130.858 Y83.833 E0.03380
G1 X131.889 Y84.146 E0.03380
G1 X132.904 Y84.509 E0.03380
G1 X133.900 Y84.921 E0.03380
G1 X134.875 Y85.382 E0.03380
G1 X135.826 Y85.890 E0.03380
G1 X136.750 Y86.444 E0.03380
G1 X137.646 Y87.043 E0.03380
G1 X138.512 Y87.686 E0.03380
G1 X139.346 Y88.369 E0.03380
G1 X140.144 Y89.093 E0.03380
G1 X140.907 Y89.856 E0.03380
G1 X141.631 Y90.654 E0.03380
G1 X142.314 Y91.488 E0.03380
G1 X142.957 Y92.354 E0.03380
G1 X143.556 Y93.250 E0.03380
G1 X144.110 Y94.174 E0.03380
G1 X144.618 Y95.125 E0.03380
G1 X145.079 Y96.100 E0.03380
G1 X145.491 Y97.096 E0.03380
G1 X145.854 Y98.111 E0.03380
G1 X146.167 Y99.142 E0.03380
G1 X146.429 Y100.188 E0.03380
G1 X146.640 Y101.245 E0.03380
G1 X146.798 Y102.311 E0.03380
G1 X146.903 Y103.384 E0.03380
G1 X146.956 Y104.461 E0.03380
G1 X146.956 Y105.539 E0.03380
G1 X146.903 Y106.616 E0.03380
G1 X146.798 Y107.689 E0.03380
G1 X146.640 Y108.755 E0.03380
G1 X146.429 Y109.812 E0.03380
G1 X146.167 Y110.858 E0.03380
G1 X145.854 Y111.889 E0.03380
G1 X145.491 Y112.904 E0.03380
G1 X145.079 Y113.900 E0.03380
G1 X144.618 Y114.875 E0.03380
G1 X144.110 Y115.826 E0.03380
G1 X143.556 Y116.750 E0.03380
G1 X142.957 Y117.646 E0.03380
G1 X142.314 Y118.512 E0.03380
G1 X141.631 Y119.346 E0.03380
G1 X140.907 Y120.144 E0.03380
G1 X140.144 Y120.907 E0.03380
G1 X139.346 Y121.631 E0.03380
G1 X138.512 Y122.314 E0.03380
G1 X137.646 Y122.957 E0.03380
G1 X136.750 Y123.556 E0.03380
G1 X135.826 Y124.110 E0.03380
G1 X134.875 Y124.618 E0.03380
G1 X133.900 Y125.079 E0.03380
G1 X132.904 Y125.491 E0.03380
G1 X131.889 Y125.854 E0.03380
G1 X130.858 Y126.167 E0.03380
G1 X129.812 Y126.429 E0.03380
G1 X128.755 Y126.640 E0.03380
G1 X127.689 Y126.798 E0.03380
G1 X126.616 Y126.903 E0.03380
G1 X125.539 Y126.956 E0.03380
G1 X125.060 Y126.956 E0.01503
G1 F8640
G1 X124.461 Y126.956 E-0.13823
G1 X123.384 Y126.903 E-0.24891
G1 X122.311 Y126.798 E-0.24892
G1 X121.781 Y126.719 E-0.12393
G1 E-0.04000 F2100.00000
G1 Z0.800 F10800.000
G1 X114.676 Y124.249
G1 Z0.200
G1 E0.80000 F2100.00000
G1 F1200
G1 X105.751 Y115.324 E0.39905
G1 F8640
G1 X108.078 Y117.652 E-0.76000
G1 E-0.04000 F2100.00000
G1 Z0.800 F10800.000
G1 X105.210 Y114.245
G1 Z0.200
G1 E0.80000 F2100.00000
G1 F1200
G1 X115.398 Y124.434 E0.45554
G1 X116.398 Y124.896 E0.03482
G1 X105.104 Y113.602 E0.50498
G1 X104.734 Y112.694 E0.03098
G1 X117.306 Y125.266 E0.56209
G1 X118.143 Y125.566 E0.02811
G1 X104.434 Y111.857 E0.61291
G1 X104.196 Y111.081 E0.02567
G1 X118.919 Y125.804 E0.65828
G1 X119.658 Y126.005 E0.02419
G1 X103.995 Y110.342 E0.70027
G1 X103.823 Y109.633 E0.02307
G1 X120.367 Y126.177 E0.73967
G1 X121.038 Y126.310 E0.02164
G1 X103.690 Y108.962 E0.77565
G1 X103.581 Y108.315 E0.02073
G1 X121.685 Y126.419 E0.80941
G1 X122.316 Y126.513 E0.02018
G1 X103.487 Y107.684 E0.84182
G1 X103.427 Y107.086 E0.01901
G1 X122.914 Y126.573 E0.87127
G1 X123.505 Y126.626 E0.01876
G1 X103.374 Y106.495 E0.90007
G1 X103.346 Y105.929 E0.01790
G1 X124.071 Y126.654 E0.92660
G1 X124.628 Y126.674 E0.01763
G1 X103.326 Y105.372 E0.95239
G1 X103.326 Y104.834 E0.01700
G1 X125.166 Y126.674 E0.97643
G1 X125.695 Y126.666 E0.01675
G1 X103.334 Y104.305 E0.99975
G1 X103.360 Y103.792 E0.01622
G1 X126.208 Y126.640 E1.02154
G1 X126.715 Y126.610 E0.01605
G1 X103.390 Y103.285 E1.04282
G1 X103.439 Y102.796 E0.01555
G1 X127.204 Y126.561 E1.06255
G1 X127.692 Y126.511 E0.01550
G1 X103.489 Y102.308 E1.08212
G1 X103.558 Y101.840 E0.01497
G1 X128.160 Y126.442 E1.09996
G1 X128.628 Y126.373 E0.01497
G1 X103.627 Y101.372 E1.11779
G1 X103.713 Y100.920 E0.01454
G1 X129.080 Y126.287 E1.13415
G1 X129.529 Y126.197 E0.01446
G1 X103.803 Y100.471 E1.15021
G1 X103.901 Y100.032 E0.01423
G1 X129.968 Y126.099 E1.16544
G1 X130.398 Y125.991 E0.01401
G1 X104.009 Y99.602 E1.17984
G1 X104.118 Y99.174 E0.01397
G1 X130.826 Y125.882 E1.19409
G1 X131.238 Y125.756 E0.01363
G1 X104.244 Y98.762 E1.20694
M73 P1 R77
G1 X104.369 Y98.349 E0.01363
G1 X131.651 Y125.631 E1.21978
G1 X132.053 Y125.496 E0.01341
G1 X104.504 Y97.947 E1.23169
G1 X104.646 Y97.551 E0.01330
G1 X132.449 Y125.354 E1.24307
G1 X132.843 Y125.211 E0.01327
G1 X104.789 Y97.157 E1.25429
G1 X104.947 Y96.776 E0.01301
G1 X133.224 Y125.053 E1.26424
G1 X133.604 Y124.896 E0.01301
G1 X105.104 Y96.396 E1.27420
G1 X105.270 Y96.024 E0.01288
G1 X133.976 Y124.730 E1.28345
G1 X134.341 Y124.557 E0.01277
G1 X105.443 Y95.659 E1.29205
G1 X105.615 Y95.294 E0.01277
G1 X134.706 Y124.385 E1.30065
G1 X135.058 Y124.199 E0.01258
G1 X105.801 Y94.942 E1.30809
G1 X105.988 Y94.591 E0.01256
G1 X135.409 Y124.012 E1.31539
G1 X135.756 Y123.822 E0.01252
G1 X106.178 Y94.244 E1.32241
G1 X106.380 Y93.908 E0.01239
G1 X136.092 Y123.620 E1.32844
G1 X136.428 Y123.419 E0.01239
G1 X106.581 Y93.572 E1.33446
G1 X106.790 Y93.242 E0.01232
G1 X136.758 Y123.210 E1.33987
G1 X137.080 Y122.995 E0.01226
G1 X107.005 Y92.920 E1.34465
G1 X107.220 Y92.598 E0.01226
G1 X137.402 Y122.780 E1.34944
G1 X137.715 Y122.554 E0.01218
G1 X107.446 Y92.285 E1.35331
G1 X107.675 Y91.977 E0.01215
G1 X138.023 Y122.325 E1.35687
G1 X138.332 Y122.096 E0.01215
G1 X107.904 Y91.668 E1.36044
G1 X108.146 Y91.372 E0.01208
G1 X138.628 Y121.854 E1.36283
G1 X138.923 Y121.612 E0.01208
G1 X108.388 Y91.077 E1.36520
G1 X108.633 Y90.784 E0.01207
G1 X139.216 Y121.367 E1.36733
G1 X139.498 Y121.111 E0.01203
G1 X108.889 Y90.502 E1.36851
G1 X109.145 Y90.220 E0.01203
G1 X139.780 Y120.855 E1.36970
G1 X140.057 Y120.594 E0.01203
G1 X109.406 Y89.943 E1.37041
G1 X109.674 Y89.674 E0.01202
G1 X140.326 Y120.326 E1.37041
G1 X140.594 Y120.057 E0.01202
G1 X109.943 Y89.406 E1.37041
G1 X110.220 Y89.145 E0.01203
G1 X140.855 Y119.780 E1.36970
M73 P2 R76
G1 X141.111 Y119.498 E0.01203
G1 X110.502 Y88.889 E1.36852
G1 X110.784 Y88.633 E0.01203
G1 X141.367 Y119.216 E1.36733
G1 X141.611 Y118.923 E0.01207
G1 X111.077 Y88.389 E1.36520
G1 X111.372 Y88.146 E0.01208
G1 X141.854 Y118.628 E1.36283
G1 X142.096 Y118.332 E0.01208
G1 X111.668 Y87.904 E1.36044
G1 X111.977 Y87.675 E0.01215
G1 X142.325 Y118.023 E1.35687
G1 X142.554 Y117.715 E0.01215
G1 X112.285 Y87.446 E1.35331
G1 X112.597 Y87.220 E0.01218
G1 X142.780 Y117.403 E1.34944
G1 X142.995 Y117.080 E0.01226
G1 X112.920 Y87.005 E1.34466
G1 X113.242 Y86.790 E0.01226
G1 X143.210 Y116.758 E1.33987
G1 X143.419 Y116.429 E0.01232
G1 X113.571 Y86.581 E1.33446
G1 X113.908 Y86.380 E0.01239
G1 X143.620 Y116.092 E1.32844
G1 X143.822 Y115.756 E0.01239
G1 X114.244 Y86.178 E1.32242
G1 X114.591 Y85.988 E0.01252
G1 X144.012 Y115.409 E1.31539
G1 X144.199 Y115.058 E0.01256
G1 X114.942 Y85.801 E1.30809
G1 X115.294 Y85.615 E0.01258
G1 X144.385 Y114.706 E1.30065
G1 X144.557 Y114.341 E0.01277
G1 X115.659 Y85.443 E1.29205
G1 X116.024 Y85.270 E0.01277
G1 X144.730 Y113.976 E1.28345
G1 X144.896 Y113.604 E0.01288
G1 X116.396 Y85.105 E1.27420
G1 X116.776 Y84.947 E0.01301
G1 X145.053 Y113.224 E1.26425
G1 X145.210 Y112.843 E0.01301
G1 X117.157 Y84.790 E1.25429
G1 X117.551 Y84.646 E0.01327
G1 X145.354 Y112.449 E1.24307
G1 X145.496 Y112.053 E0.01330
G1 X117.947 Y84.504 E1.23170
G1 X118.349 Y84.369 E0.01341
G1 X145.631 Y111.651 E1.21979
G1 X145.756 Y111.239 E0.01363
G1 X118.761 Y84.244 E1.20694
G1 X119.174 Y84.119 E0.01363
G1 X145.881 Y110.826 E1.19409
G1 X145.991 Y110.398 E0.01397
G1 X119.602 Y84.009 E1.17985
G1 X120.032 Y83.901 E0.01401
G1 X146.099 Y109.968 E1.16544
G1 X146.197 Y109.529 E0.01423
G1 X120.471 Y83.803 E1.15021
G1 X120.920 Y83.713 E0.01446
G1 X146.287 Y109.080 E1.13415
M73 P4 R74
G1 X146.373 Y108.628 E0.01454
G1 X121.372 Y83.627 E1.11779
G1 X121.840 Y83.558 E0.01497
G1 X146.442 Y108.160 E1.09996
G1 X146.511 Y107.692 E0.01497
G1 X122.308 Y83.489 E1.08213
G1 X122.796 Y83.439 E0.01550
G1 X146.561 Y107.204 E1.06255
G1 X146.610 Y106.715 E0.01555
G1 X123.285 Y83.390 E1.04282
G1 X123.792 Y83.360 E0.01605
G1 X146.640 Y106.208 E1.02154
G1 X146.666 Y105.695 E0.01622
G1 X124.305 Y83.334 E0.99975
G1 X124.834 Y83.326 E0.01673
G1 X146.674 Y105.166 E0.97646
G1 X146.674 Y104.628 E0.01700
G1 X125.371 Y83.325 E0.95245
G1 X125.932 Y83.348 E0.01775
G1 X146.654 Y104.071 E0.92649
G1 X146.626 Y103.505 E0.01790
G1 X126.495 Y83.374 E0.90006
G1 X127.086 Y83.427 E0.01874
G1 X146.573 Y102.914 E0.87127
G1 X146.513 Y102.316 E0.01901
G1 X127.684 Y83.487 E0.84183
G1 X128.315 Y83.581 E0.02018
G1 X146.419 Y101.685 E0.80942
G1 X146.310 Y101.038 E0.02073
G1 X128.962 Y83.690 E0.77565
G1 X129.633 Y83.823 E0.02164
G1 X146.177 Y100.367 E0.73967
G1 X146.005 Y99.658 E0.02307
G1 X130.342 Y83.995 E0.70028
G1 X131.081 Y84.196 E0.02419
G1 X145.804 Y98.919 E0.65829
G1 X145.566 Y98.143 E0.02567
G1 X131.857 Y84.434 E0.61292
G1 X132.694 Y84.734 E0.02811
G1 X145.266 Y97.306 E0.56210
G1 X144.896 Y96.398 E0.03098
G1 X133.602 Y85.104 E0.50499
