; G-Code generated by Simplify3D(R) Version 4.1.1
; Oct 7, 2019 at 12:41:26 PM
; Settings Summary
;   processName,Process1
;   applyToModels,Fitting 2 Flag
;   profileName,Prusa Research Original Prusa i3 MK2 (modified)
;   profileVersion,2019-10-01 10:02:23
;   baseProfile,
;   printMaterial,PLA
;   printQuality,Medium
;   printExtruders,
;   extruderName,Primary Extruder
;   extruderToolheadNumber,0
;   extruderDiameter,0.4
;   extruderAutoWidth,1
;   extruderWidth,0.48
;   extrusionMultiplier,1
;   extruderUseRetract,1
;   extruderRetractionDistance,1.5
;   extruderExtraRestartDistance,0
;   extruderRetractionZLift,0
;   extruderRetractionSpeed,1800
;   extruderUseCoasting,1
;   extruderCoastingDistance,0.2
;   extruderUseWipe,1
;   extruderWipeDistance,2
;   primaryExtruder,0
;   layerHeight,0.2
;   topSolidLayers,3
;   bottomSolidLayers,3
;   perimeterOutlines,2
;   printPerimetersInsideOut,1
;   startPointOption,2
;   startPointOriginX,0
;   startPointOriginY,0
;   sequentialIslands,0
;   spiralVaseMode,0
;   firstLayerHeightPercentage,150
;   firstLayerWidthPercentage,100
;   firstLayerUnderspeed,0.5
;   useRaft,1
;   raftExtruder,0
;   raftTopLayers,2
;   raftBaseLayers,2
;   raftOffset,3
;   raftSeparationDistance,0.14
;   raftTopInfill,100
;   aboveRaftSpeedMultiplier,0.3
;   useSkirt,0
;   skirtExtruder,0
;   skirtLayers,1
;   skirtOutlines,2
;   skirtOffset,4
;   usePrimePillar,0
;   primePillarExtruder,999
;   primePillarWidth,12
;   primePillarLocation,7
;   primePillarSpeedMultiplier,1
;   useOozeShield,0
;   oozeShieldExtruder,999
;   oozeShieldOffset,2
;   oozeShieldOutlines,1
;   oozeShieldSidewallShape,1
;   oozeShieldSidewallAngle,30
;   oozeShieldSpeedMultiplier,1
;   infillExtruder,0
;   internalInfillPattern,Rectilinear
;   externalInfillPattern,Rectilinear
;   infillPercentage,40
;   outlineOverlapPercentage,20
;   infillExtrusionWidthPercentage,100
;   minInfillLength,5
;   infillLayerInterval,1
;   internalInfillAngles,45,-45
;   overlapInternalInfillAngles,0
;   externalInfillAngles,45,-45
;   generateSupport,0
;   supportExtruder,0
;   supportInfillPercentage,50
;   supportExtraInflation,0
;   supportBaseLayers,2
;   denseSupportExtruder,0
;   denseSupportLayers,0
;   denseSupportInfillPercentage,70
;   supportLayerInterval,1
;   supportHorizontalPartOffset,0.3
;   supportUpperSeparationLayers,1
;   supportLowerSeparationLayers,1
;   supportType,0
;   supportGridSpacing,1
;   maxOverhangAngle,45
;   supportAngles,0
;   temperatureName,Primary Extruder,Heated Bed
;   temperatureNumber,0,0
;   temperatureSetpointCount,1,1
;   temperatureSetpointLayers,1,1
;   temperatureSetpointTemperatures,200,60
;   temperatureStabilizeAtStartup,1,1
;   temperatureHeatedBed,0,1
;   fanLayers,1,2
;   fanSpeeds,0,100
;   blipFanToFullPower,0
;   adjustSpeedForCooling,1
;   minSpeedLayerTime,15
;   minCoolingSpeedSlowdown,20
;   increaseFanForCooling,0
;   minFanLayerTime,45
;   maxCoolingFanSpeed,100
;   increaseFanForBridging,0
;   bridgingFanSpeed,100
;   use5D,1
;   relativeEdistances,0
;   allowEaxisZeroing,1
;   independentExtruderAxes,0
;   includeM10123,0
;   stickySupport,1
;   applyToolheadOffsets,0
;   gcodeXoffset,0
;   gcodeYoffset,0
;   gcodeZoffset,0
;   overrideMachineDefinition,1
;   machineTypeOverride,0
;   strokeXoverride,250
;   strokeYoverride,210
;   strokeZoverride,200
;   originOffsetXoverride,0
;   originOffsetYoverride,0
;   originOffsetZoverride,0
;   homeXdirOverride,-1
;   homeYdirOverride,-1
;   homeZdirOverride,-1
;   flipXoverride,1
;   flipYoverride,-1
;   flipZoverride,1
;   toolheadOffsets,0,0|0,0|0,0|0,0|0,0|0,0
;   overrideFirmwareConfiguration,1
;   firmwareTypeOverride,RepRap (Marlin/Repetier/Sprinter)
;   GPXconfigOverride,r2
;   baudRateOverride,250000
;   overridePrinterModels,1
;   printerModelsOverride
;   startingGcode,M115 U3.0.7 ; use the latest firmware version,G28 W ; home all axes without mesh bed leveling,G80 ; run mesh bed leveling routine,G1 Y-3.0 F1000.0 ; prepare to prime,G92 E0 ; reset extrusion distance,G1 X60.0 E9.0  F1000.0 ; priming,G1 X100.0 E12.5  F1000.0 ; priming
;   layerChangeGcode,
;   retractionGcode,
;   toolChangeGcode,
;   endingGcode,M106 S0 ; turn off cooling fan,M104 S0 ; turn off extruder,M140 S0 ; turn off bed,G1 X0 Y200 ; part removal,M84 ; disable motors
;   exportFileFormat,gcode
;   celebration,0
;   celebrationSong,Random Song
;   postProcessing,
;   defaultSpeed,2400
;   outlineUnderspeed,0.8
;   solidInfillUnderspeed,0.8
;   supportUnderspeed,0.8
;   rapidXYspeed,4800
;   rapidZspeed,1002
;   minBridgingArea,50
;   bridgingExtraInflation,0
;   bridgingExtrusionMultiplier,1
;   bridgingSpeedMultiplier,1
;   useFixedBridgingAngle,0
;   fixedBridgingAngle,0
;   applyBridgingToPerimeters,0
;   filamentDiameters,1.75|1.75|1.75|1.75|1.75|1.75
;   filamentPricesPerKg,46|46|46|46|46|46
;   filamentDensities,1.25|1.25|1.25|1.25|1.25|1.25
;   useMinPrintHeight,0
;   minPrintHeight,0
;   useMaxPrintHeight,0
;   maxPrintHeight,0
;   useDiaphragm,0
;   diaphragmLayerInterval,20
;   robustSlicing,1
;   mergeAllIntoSolid,0
;   onlyRetractWhenCrossingOutline,1
;   retractBetweenLayers,1
;   useRetractionMinTravel,0
;   retractionMinTravel,3
;   retractWhileWiping,1
;   onlyWipeOutlines,1
;   avoidCrossingOutline,0
;   maxMovementDetourFactor,3
;   toolChangeRetractionDistance,12
;   toolChangeExtraRestartDistance,-0.5
;   toolChangeRetractionSpeed,600
;   externalThinWallType,0
;   internalThinWallType,2
;   thinWallAllowedOverlapPercentage,25
;   singleExtrusionMinLength,1
;   singleExtrusionMinPrintingWidthPercentage,50
;   singleExtrusionMaxPrintingWidthPercentage,200
;   singleExtrusionEndpointExtension,0.2
;   horizontalSizeCompensation,0
G90
M82
M106 S0
M140 S60
M190 S60
M104 S200 T0
M109 S200 T0
M115 U3.0.7 ; use the latest firmware version
G28 W ; home all axes without mesh bed leveling
G80 ; run mesh bed leveling routine
G1 Y-3.0 F1000.0 ; prepare to prime
G92 E0 ; reset extrusion distance
G1 X60.0 E9.0  F1000.0 ; priming
G1 X100.0 E12.5  F1000.0 ; priming
; process Process1
; layer 1, Z = 0.750
T0
G92 E0.0000
G1 E-1.5000 F1800
; feature raft
; tool H0.750 W0.800
G1 Z0.750 F1002
G1 X116.505 Y102.923 F4800
G1 E0.0000 F1800
G92 E0.0000
G1 X118.028 Y101.400 E0.5373 F300
G1 X131.234 Y101.400 E3.8316
G1 X132.758 Y102.927 E4.3697
G1 X132.749 Y107.081 E5.4059
G1 X131.227 Y108.600 E5.9423
G1 X118.028 Y108.600 E9.2348
G1 X116.505 Y107.077 E9.7720
G1 X116.505 Y103.123 E10.7584
G1 X116.505 Y102.923 F300
G92 E0.0000
G1 E-1.5000 F1800
G1 X117.619 Y102.714 F4800
G1 E0.0000 F1800
G92 E0.0000
G1 X131.641 Y102.714 E3.4980 F300
G1 X132.117 Y103.191 E3.6660
G1 X132.113 Y105.000 E4.1172
G1 X117.145 Y105.000 E7.8511
G1 X117.145 Y106.812 E8.3031
G1 X117.619 Y107.286 E8.4702
G1 X131.438 Y107.286 E11.9173
G1 X131.638 Y107.286 F300
G92 E0.0000
G1 E-1.5000 F1800
; layer 2, Z = 1.250
M106 S255
; tool H0.500 W0.800
G1 Z1.250 F1002
G1 X132.749 Y107.081 F4800
G1 E0.0000 F1800
G92 E0.0000
G1 X131.227 Y108.600 E0.3577 F365
G1 X118.028 Y108.600 E2.5526
G1 X116.505 Y107.077 E2.9108
G1 X116.505 Y102.923 E3.6016
G1 X118.028 Y101.400 E3.9598
G1 X131.234 Y101.400 E6.1560
G1 X132.758 Y102.927 E6.5147
G1 X132.749 Y106.881 E7.1722
G1 X132.749 Y107.081 F365
G92 E0.0000
G1 E-1.5000 F1800
G1 X131.638 Y107.286 F4800
G1 E0.0000 F1800
G92 E0.0000
G1 X117.619 Y107.286 E2.3313 F365
G1 X117.145 Y106.812 E2.4428
G1 X117.145 Y105.000 E2.7441
G1 X132.113 Y105.000 E5.2333
G1 X132.117 Y103.191 E5.5342
G1 X131.641 Y102.714 E5.6462
G1 X117.819 Y102.714 E7.9449
G1 X117.619 Y102.714 F365
G92 E0.0000
G1 E-1.5000 F1800
; layer 3, Z = 1.472
; tool H0.222 W0.400
G1 Z1.472 F1002
G1 X118.052 Y108.800 F4800
G1 E0.0000 F1800
G92 E0.0000
G1 X116.305 Y107.053 E0.0913 F1288
G1 X116.305 Y106.487 E0.1122
G1 X118.618 Y108.800 E0.2331
G1 X119.183 Y108.800 E0.2540
G1 X116.305 Y105.922 E0.4044
G1 X116.305 Y105.356 E0.4253
G1 X119.749 Y108.800 E0.6053
G1 X120.315 Y108.800 E0.6262
G1 X116.305 Y104.790 E0.8358
G1 X116.305 Y104.225 E0.8567
G1 X120.880 Y108.800 E1.0958
G1 X121.446 Y108.800 E1.1167
G1 X116.305 Y103.659 E1.3854
G1 X116.305 Y103.093 E1.4063
G1 X122.012 Y108.800 E1.7046
G1 X122.577 Y108.800 E1.7255
G1 X116.461 Y102.684 E2.0452
G1 X116.744 Y102.401 E2.0599
G1 X123.143 Y108.800 E2.3944
G1 X123.709 Y108.800 E2.4153
G1 X117.027 Y102.118 E2.7645
G1 X117.310 Y101.835 E2.7793
G1 X124.275 Y108.800 E3.1433
G1 X124.840 Y108.800 E3.1642
G1 X117.593 Y101.552 E3.5430
G1 X117.876 Y101.270 E3.5577
G1 X125.406 Y108.800 E3.9513
G1 X125.972 Y108.800 E3.9722
G1 X118.372 Y101.200 E4.3694
G1 X118.937 Y101.200 E4.3903
G1 X126.537 Y108.800 E4.7875
G1 X127.103 Y108.800 E4.8084
G1 X119.503 Y101.200 E5.2056
G1 X120.069 Y101.200 E5.2265
G1 X127.669 Y108.800 E5.6237
G1 X128.234 Y108.800 E5.6446
G1 X120.634 Y101.200 E6.0418
G1 X121.200 Y101.200 E6.0627
G1 X128.800 Y108.800 E6.4599
G1 X129.366 Y108.800 E6.4808
G1 X121.766 Y101.200 E6.8780
G1 X122.331 Y101.200 E6.8989
G1 X129.931 Y108.800 E7.2961
G1 X130.497 Y108.800 E7.3171
G1 X122.897 Y101.200 E7.7143
G1 X123.463 Y101.200 E7.7352
G1 X131.063 Y108.800 E8.1324
G1 X131.309 Y108.800 E8.1415
G1 X131.469 Y108.641 E8.1498
G1 X124.028 Y101.200 E8.5387
G1 X124.594 Y101.200 E8.5596
G1 X131.752 Y108.358 E8.9337
G1 X132.035 Y108.076 E8.9485
G1 X125.160 Y101.200 E9.3078
G1 X125.725 Y101.200 E9.3287
G1 X132.318 Y107.793 E9.6733
G1 X132.602 Y107.510 E9.6881
G1 X126.291 Y101.200 E10.0179
G1 X126.857 Y101.200 E10.0388
G1 X132.885 Y107.228 E10.3538
G1 X132.949 Y107.164 E10.3572
G1 X132.950 Y106.727 E10.3733
G1 X127.423 Y101.200 E10.6622
G1 X127.988 Y101.200 E10.6831
G1 X132.951 Y106.163 E10.9424
G1 X132.952 Y105.598 E10.9633
G1 X128.554 Y101.200 E11.1932
G1 X129.120 Y101.200 E11.2141
G1 X132.953 Y105.034 E11.4144
G1 X132.954 Y104.469 E11.4353
G1 X129.685 Y101.200 E11.6061
G1 X130.251 Y101.200 E11.6271
G1 X132.956 Y103.905 E11.7684
G1 X132.957 Y103.340 E11.7893
G1 X130.958 Y101.341 E11.8937
G1 X130.817 Y101.200 F1288
G92 E0.0000
G1 E-1.5000 F1800
; layer 4, Z = 1.694
G1 Z1.694 F1002
G1 X132.950 Y106.667 F4800
G1 E0.0000 F1800
G92 E0.0000
G1 X130.817 Y108.800 E0.1115 F1288
G1 X130.251 Y108.800 E0.1324
G1 X132.951 Y106.100 E0.2735
G1 X132.952 Y105.533 E0.2945
G1 X129.685 Y108.800 E0.4652
G1 X129.120 Y108.800 E0.4861
G1 X132.953 Y104.966 E0.6865
G1 X132.955 Y104.399 E0.7074
G1 X128.554 Y108.800 E0.9374
G1 X127.988 Y108.800 E0.9583
G1 X132.956 Y103.832 E1.2179
G1 X132.957 Y103.266 E1.2389
G1 X127.423 Y108.800 E1.5281
G1 X126.857 Y108.800 E1.5490
G1 X132.885 Y102.772 E1.8641
G1 X132.603 Y102.488 E1.8789
G1 X126.291 Y108.800 E2.2087
G1 X125.726 Y108.800 E2.2297
G1 X132.320 Y102.205 E2.5743
G1 X132.038 Y101.922 E2.5891
G1 X125.160 Y108.800 E2.9486
G1 X124.594 Y108.800 E2.9695
G1 X131.755 Y101.639 E3.3437
G1 X131.473 Y101.356 E3.3585
G1 X124.028 Y108.800 E3.7475
G1 X123.463 Y108.800 E3.7685
G1 X131.063 Y101.200 E4.1657
G1 X130.497 Y101.200 E4.1866
G1 X122.897 Y108.800 E4.5838
G1 X122.331 Y108.800 E4.6047
G1 X129.931 Y101.200 E5.0019
G1 X129.366 Y101.200 E5.0228
G1 X121.766 Y108.800 E5.4200
G1 X121.200 Y108.800 E5.4409
G1 X128.800 Y101.200 E5.8381
G1 X128.234 Y101.200 E5.8590
G1 X120.634 Y108.800 E6.2562
G1 X120.069 Y108.800 E6.2771
G1 X127.669 Y101.200 E6.6743
G1 X127.103 Y101.200 E6.6952
G1 X119.503 Y108.800 E7.0924
G1 X118.937 Y108.800 E7.1133
G1 X126.537 Y101.200 E7.5105
G1 X125.972 Y101.200 E7.5314
G1 X118.372 Y108.800 E7.9286
G1 X117.945 Y108.800 E7.9444
G1 X117.876 Y108.730 E7.9480
G1 X125.406 Y101.200 E8.3416
G1 X124.840 Y101.200 E8.3625
G1 X117.593 Y108.448 E8.7413
G1 X117.310 Y108.165 E8.7560
G1 X124.275 Y101.200 E9.1200
G1 X123.709 Y101.200 E9.1409
G1 X117.027 Y107.882 E9.4902
G1 X116.744 Y107.599 E9.5049
G1 X123.143 Y101.200 E9.8394
G1 X122.577 Y101.200 E9.8603
G1 X116.461 Y107.316 E10.1799
G1 X116.305 Y107.160 E10.1881
G1 X116.305 Y106.907 E10.1975
G1 X122.012 Y101.200 E10.4957
G1 X121.446 Y101.200 E10.5166
G1 X116.305 Y106.341 E10.7853
G1 X116.305 Y105.775 E10.8062
G1 X120.880 Y101.200 E11.0453
G1 X120.315 Y101.200 E11.0663
G1 X116.305 Y105.210 E11.2758
G1 X116.305 Y104.644 E11.2967
G1 X119.749 Y101.200 E11.4767
G1 X119.183 Y101.200 E11.4976
G1 X116.305 Y104.078 E11.6481
G1 X116.305 Y103.513 E11.6690
G1 X118.618 Y101.200 E11.7898
G1 X118.052 Y101.200 E11.8107
G1 X116.446 Y102.806 E11.8947
G1 X116.305 Y102.947 F1288
G92 E0.0000
G1 E-1.5000 F1800
; layer 5, Z = 2.034
; feature inner perimeter
; tool H0.200 W0.480
G1 Z2.034 F1002
G1 X119.825 Y104.720 F4800
G1 E0.0000 F1800
G92 E0.0000
G1 X129.434 Y104.720 E0.3835 F190
G1 X129.433 Y105.280 E0.4059
G1 X119.825 Y105.280 E0.7893
G1 X119.825 Y104.920 E0.8037
G1 X119.825 Y104.720 F190
; feature outer perimeter
G1 X119.345 Y104.240 F4800
G92 E0.0000
G1 X129.915 Y104.240 E0.4219 F169
G1 X129.912 Y105.760 E0.4825
G1 X119.345 Y105.760 E0.9043
G1 X119.345 Y104.440 E0.9570
G1 X119.345 Y104.240 F169
G92 E0.0000
G1 X119.486 Y104.240 E-1.5000 F169
G1 X121.345 Y104.240 F169
; layer 6, Z = 2.234
; feature inner perimeter
G1 Z2.234 F1002
G1 X119.825 Y104.720 F4800
G1 E0.0000 F1800
G92 E0.0000
G1 X129.435 Y104.720 E0.3836 F432
G1 X129.435 Y105.280 E0.4059
G1 X119.825 Y105.280 E0.7895
G1 X119.825 Y104.920 E0.8039
G1 X119.825 Y104.720 F432
; feature outer perimeter
G1 X119.345 Y104.240 F4800
G92 E0.0000
G1 X129.915 Y104.240 E0.4219 F384
G1 X129.915 Y105.760 E0.4826
G1 X119.345 Y105.760 E0.9045
G1 X119.345 Y104.440 E0.9571
G1 X119.345 Y104.240 F384
G92 E0.0000
G1 X119.665 Y104.240 E-1.5000 F384
G1 X121.345 Y104.240 F384
; layer 7, Z = 2.434
; feature inner perimeter
G1 Z2.434 F1002
G1 X119.825 Y104.720 F4800
G1 E0.0000 F1800
G92 E0.0000
G1 X129.435 Y104.720 E0.3836 F432
G1 X129.435 Y105.280 E0.4059
G1 X119.825 Y105.280 E0.7895
G1 X119.825 Y104.920 E0.8039
G1 X119.825 Y104.720 F432
; feature outer perimeter
G1 X119.345 Y104.240 F4800
G92 E0.0000
G1 X129.915 Y104.240 E0.4219 F384
G1 X129.915 Y105.760 E0.4826
G1 X119.345 Y105.760 E0.9045
G1 X119.345 Y104.440 E0.9571
G1 X119.345 Y104.240 F384
G92 E0.0000
G1 X119.665 Y104.240 E-1.5000 F384
G1 X121.345 Y104.240 F384
; layer 8, Z = 2.634
; feature inner perimeter
G1 Z2.634 F1002
G1 X119.825 Y104.720 F4800
G1 E0.0000 F1800
G92 E0.0000
G1 X129.435 Y104.720 E0.3836 F432
G1 X129.435 Y105.280 E0.4059
G1 X119.825 Y105.280 E0.7895
G1 X119.825 Y104.920 E0.8039
G1 X119.825 Y104.720 F432
; feature outer perimeter
G1 X119.345 Y104.240 F4800
G92 E0.0000
G1 X129.915 Y104.240 E0.4219 F384
G1 X129.915 Y105.760 E0.4826
G1 X119.345 Y105.760 E0.9045
G1 X119.345 Y104.440 E0.9571
G1 X119.345 Y104.240 F384
G92 E0.0000
G1 X119.665 Y104.240 E-1.5000 F384
G1 X121.345 Y104.240 F384
; layer 9, Z = 2.834
; feature inner perimeter
G1 Z2.834 F1002
G1 X119.825 Y104.720 F4800
G1 E0.0000 F1800
G92 E0.0000
G1 X129.435 Y104.720 E0.3836 F432
G1 X129.435 Y105.280 E0.4059
G1 X119.825 Y105.280 E0.7895
G1 X119.825 Y104.920 E0.8039
G1 X119.825 Y104.720 F432
; feature outer perimeter
G1 X119.345 Y104.240 F4800
G92 E0.0000
G1 X129.915 Y104.240 E0.4219 F384
G1 X129.915 Y105.760 E0.4826
G1 X119.345 Y105.760 E0.9045
G1 X119.345 Y104.440 E0.9571
G1 X119.345 Y104.240 F384
G92 E0.0000
G1 X119.665 Y104.240 E-1.5000 F384
G1 X121.345 Y104.240 F384
; layer 10, Z = 3.034
; feature inner perimeter
G1 Z3.034 F1002
G1 X119.825 Y104.720 F4800
G1 E0.0000 F1800
G92 E0.0000
G1 X129.435 Y104.720 E0.3836 F432
G1 X129.435 Y105.280 E0.4059
G1 X119.825 Y105.280 E0.7895
G1 X119.825 Y104.920 E0.8039
G1 X119.825 Y104.720 F432
; feature outer perimeter
G1 X119.345 Y104.240 F4800
G92 E0.0000
G1 X129.915 Y104.240 E0.4219 F384
G1 X129.915 Y105.760 E0.4826
G1 X119.345 Y105.760 E0.9045
G1 X119.345 Y104.440 E0.9571
G1 X119.345 Y104.240 F384
G92 E0.0000
G1 X119.665 Y104.240 E-1.5000 F384
G1 X121.345 Y104.240 F384
; layer 11, Z = 3.234
; feature inner perimeter
G1 Z3.234 F1002
G1 X119.825 Y104.720 F4800
G1 E0.0000 F1800
G92 E0.0000
G1 X129.435 Y104.720 E0.3836 F432
G1 X129.435 Y105.280 E0.4059
G1 X119.825 Y105.280 E0.7895
G1 X119.825 Y104.920 E0.8039
G1 X119.825 Y104.720 F432
; feature outer perimeter
G1 X119.345 Y104.240 F4800
G92 E0.0000
G1 X129.915 Y104.240 E0.4219 F384
