; generated by PrusaSlicer 2.1.0+win64 on 2019-12-10 at 19:33:43 UTC

; 

; external perimeters extrusion width = 0.45mm
; perimeters extrusion width = 0.45mm
; infill extrusion width = 0.45mm
; solid infill extrusion width = 0.45mm
; top infill extrusion width = 0.40mm
; support material extrusion width = 0.35mm
; first layer extrusion width = 0.42mm

M73 P0 R31
M201 X9000 Y9000 Z500 E10000 ; sets maximum accelerations, mm/sec^2
M203 X500 Y500 Z12 E120 ; sets maximum feedrates, mm/sec
M204 P2000 R1500 T2000 ; sets acceleration (P, T) and retract acceleration (R), mm/sec^2
M205 X10.00 Y10.00 Z0.20 E2.50 ; sets the jerk limits, mm/sec
M205 S0 T0 ; sets the minimum extruding and travel feed rate, mm/sec
M107
M862.3 P "MK2S" ; printer model check
M862.1 P0.4 ; nozzle diameter check
M115 U3.2.3 ; tell printer latest fw version
G90 ; use absolute coordinates
M83 ; extruder relative mode
M204 S2000 T1500 ; MK2 firmware only supports the old M204 format
M104 S215 ; set extruder temp
M140 S60 ; set bed temp
M190 S60 ; wait for bed temp
M109 S215 ; wait for extruder temp
G28 W ; home all without mesh bed level
G80 ; mesh bed leveling
G1 Y-3.0 F1000.0 ; go outside print area
G92 E0.0
G1 X60.0 E9.0  F1000.0 ; intro line
M73 P0 R31
G1 X100.0 E12.5 F1000.0 ; intro line
G92 E0.0
G21 ; set units to millimeters
G90 ; use absolute coordinates
M83 ; use relative distances for extrusion
M900 K30 ; Filament gcode
;BEFORE_LAYER_CHANGE
G92 E0.0
;0.2


G1 E-0.80000 F2100.00000
G1 Z0.600 F10800.000
;AFTER_LAYER_CHANGE
;0.2
G1 X139.270 Y130.100
G1 Z0.200
G1 E0.80000 F2100.00000
M204 S1000
G1 F1200
G1 X138.780 Y130.876 E0.02878
G1 X126.260 Y143.396 E0.55516
G1 X125.571 Y143.842 E0.02574
G1 X124.769 Y144.003 E0.02563
G1 X123.944 Y143.851 E0.02631
G1 X123.234 Y143.397 E0.02642
G1 X116.000 Y135.922 E0.32619
G1 X115.542 Y135.176 E0.02743
G1 X104.051 Y87.631 E1.53368
G1 X103.990 Y87.138 E0.01555
G1 X104.443 Y83.787 E0.10605
G1 X104.631 Y83.262 E0.01749
G1 X104.946 Y82.801 E0.01749
G1 X122.436 Y65.307 E0.77563
G1 X123.133 Y64.860 E0.02597
G1 X123.947 Y64.704 E0.02597
G1 X127.394 Y64.819 E0.10815
G1 X128.048 Y65.031 E0.02157
G1 X128.603 Y65.434 E0.02149
G1 X145.284 Y82.130 E0.74001
G1 X145.597 Y82.648 E0.01896
G1 X145.757 Y83.231 E0.01896
G1 X145.864 Y86.602 E0.10575
G1 X139.279 Y130.041 E1.37755
G1 E-0.80000 F2100.00000
G1 Z0.800 F10800.000
G1 X124.746 Y141.815
G1 Z0.200
G1 E0.80000 F2100.00000
G1 F1200
G1 X137.216 Y129.345 E0.55293
G1 X136.683 Y128.812 E0.02365
G1 X124.333 Y141.162 E0.54761
G1 X123.800 Y140.628 E0.02365
G1 X136.150 Y128.279 E0.54761
G1 X135.616 Y127.745 E0.02365
G1 X123.266 Y140.095 E0.54761
G1 X122.733 Y139.562 E0.02365
G1 X135.083 Y127.212 E0.54761
G1 X134.550 Y126.679 E0.02365
G1 X122.200 Y139.029 E0.54761
G1 X121.667 Y138.495 E0.02365
G1 X134.016 Y126.146 E0.54761
G1 X133.483 Y125.612 E0.02365
G1 X121.133 Y137.962 E0.54761
G1 X120.600 Y137.429 E0.02365
G1 X132.950 Y125.079 E0.54761
G1 X132.509 Y124.638 E0.01955
G1 X134.140 Y123.007 E0.07234
G1 X134.048 Y122.914 E0.00410
G1 X120.067 Y136.896 E0.61995
G1 X119.534 Y136.362 E0.02365
G1 X133.515 Y122.381 E0.61995
G1 X132.981 Y121.848 E0.02365
G1 X119.000 Y135.829 E0.61995
G1 X118.467 Y135.296 E0.02365
G1 X132.448 Y121.315 E0.61995
G1 X131.915 Y120.781 E0.02365
G1 X117.934 Y134.762 E0.61995
G1 X117.598 Y134.426 E0.01490
G1 X119.229 Y132.795 E0.07234
G1 X119.032 Y132.598 E0.00874
G1 X131.382 Y120.248 E0.54761
G1 X130.878 Y119.744 E0.02234
G1 X132.509 Y118.113 E0.07234
G1 X132.480 Y118.083 E0.00130
G1 X118.499 Y132.065 E0.61995
G1 X117.965 Y131.531 E0.02365
G1 X131.946 Y117.550 E0.61995
G1 X131.413 Y117.017 E0.02365
G1 X119.063 Y129.367 E0.54761
G1 X118.530 Y128.833 E0.02365
G1 X135.772 Y111.587 E0.76462
G1 X135.241 Y111.056 E0.02355
G1 X117.997 Y128.300 E0.76462
G1 X117.464 Y127.767 E0.02365
G1 X134.707 Y110.523 E0.76462
G1 X134.174 Y109.990 E0.02365
G1 X116.930 Y127.234 E0.76462
G1 X116.397 Y126.700 E0.02365
G1 X136.904 Y106.194 E0.90929
G1 X136.370 Y105.661 E0.02365
G1 X117.495 Y124.536 E0.83696
G1 X116.962 Y124.002 E0.02365
G1 X135.837 Y105.127 E0.83696
G1 X135.304 Y104.594 E0.02365
G1 X116.429 Y123.469 E0.83696
G1 X115.895 Y122.936 E0.02365
G1 X134.770 Y104.061 E0.83696
G1 X134.237 Y103.527 E0.02365
G1 X115.362 Y122.403 E0.83696
G1 X114.829 Y121.869 E0.02365
G1 X135.335 Y101.363 E0.90929
G1 X134.802 Y100.830 E0.02365
G1 X115.927 Y119.705 E0.83696
G1 X115.394 Y119.171 E0.02365
G1 X134.269 Y100.296 E0.83696
G1 X134.140 Y100.168 E0.00569
G1 X140.666 Y93.643 E0.28935
G1 X140.261 Y93.238 E0.01796
G1 X114.860 Y118.638 E1.12631
G1 X114.335 Y118.113 E0.02330
G1 X139.728 Y92.704 E1.12631
G1 X139.194 Y92.171 E0.02365
G1 X115.425 Y115.940 E1.05397
G1 X114.892 Y115.407 E0.02365
G1 X123.272 Y107.027 E0.37158
G1 X122.739 Y106.494 E0.02365
G1 X114.359 Y114.874 E0.37158
G1 X114.335 Y114.850 E0.00105
G1 X117.598 Y111.587 E0.14467
G1 X117.088 Y111.078 E0.02260
G1 X122.205 Y105.960 E0.22691
G1 X121.672 Y105.427 E0.02365
G1 X116.555 Y110.545 E0.22691
G1 X116.021 Y110.011 E0.02365
G1 X121.139 Y104.894 E0.22691
G1 X120.605 Y104.361 E0.02365
G1 X117.119 Y107.847 E0.15457
G1 X116.586 Y107.313 E0.02365
G1 X120.072 Y103.827 E0.15457
G1 X119.675 Y103.431 E0.01759
G1 X121.307 Y101.799 E0.07234
G1 X121.170 Y101.663 E0.00606
G1 X116.053 Y106.780 E0.22691
G1 X115.966 Y106.693 E0.00385
G1 X117.598 Y105.062 E0.07234
G1 X117.151 Y104.615 E0.01980
G1 X120.637 Y101.129 E0.15457
G1 X120.104 Y100.596 E0.02365
G1 X116.618 Y104.082 E0.15457
G1 X116.084 Y103.549 E0.02365
G1 X139.854 Y79.780 E1.05397
M73 P3 R30
G1 X140.387 Y80.313 E0.02365
G1 X122.219 Y98.481 E0.80561
G1 X122.752 Y99.014 E0.02365
G1 X140.920 Y80.846 E0.80561
G1 X141.454 Y81.379 E0.02365
G1 X123.285 Y99.548 E0.80561
G1 X123.422 Y99.684 E0.00606
G1 X125.053 Y98.053 E0.07234
G1 X125.450 Y98.450 E0.01759
G1 X141.987 Y81.913 E0.73327
G1 X142.520 Y82.446 E0.02365
G1 X125.983 Y98.983 E0.73327
G1 X126.517 Y99.516 E0.02365
G1 X143.053 Y82.979 E0.73327
G1 X143.587 Y83.513 E0.02365
G1 X127.050 Y100.049 E0.73327
G1 X127.583 Y100.583 E0.02365
G1 X142.489 Y85.677 E0.66093
G1 X143.022 Y86.210 E0.02365
G1 X128.116 Y101.116 E0.66093
G1 X128.650 Y101.649 E0.02365
G1 X143.675 Y86.624 E0.66625
G1 X126.851 Y91.716 F10800.000
G1 F1200
G1 X139.320 Y79.246 E0.55293
G1 X138.787 Y78.713 E0.02365
G1 X126.437 Y91.063 E0.54761
G1 X125.904 Y90.530 E0.02365
G1 X138.254 Y78.180 E0.54761
G1 X137.721 Y77.647 E0.02365
G1 X130.265 Y85.102 E0.33060
G1 X129.732 Y84.569 E0.02365
G1 X137.187 Y77.113 E0.33060
G1 X136.654 Y76.580 E0.02365
G1 X129.198 Y84.036 E0.33060
G1 X128.665 Y83.503 E0.02365
G1 X136.121 Y76.047 E0.33060
G1 X135.588 Y75.514 E0.02365
G1 X128.132 Y82.969 E0.33060
G1 X127.599 Y82.436 E0.02365
G1 X135.054 Y74.980 E0.33060
G1 X134.521 Y74.447 E0.02365
G1 X127.065 Y81.903 E0.33060
G1 X126.532 Y81.369 E0.02365
G1 X133.988 Y73.914 E0.33060
G1 X133.454 Y73.380 E0.02365
G1 X125.879 Y80.956 E0.33592
G1 X123.944 Y66.893 F10800.000
G1 F1200
G1 X106.580 Y84.257 E0.76994
G1 X107.114 Y84.790 E0.02365
G1 X124.357 Y67.546 E0.76462
G1 X124.891 Y68.079 E0.02365
G1 X107.647 Y85.323 E0.76462
G1 X107.809 Y85.486 E0.00721
G1 X106.178 Y87.117 E0.07234
G1 X106.549 Y87.488 E0.01643
G1 X127.055 Y66.981 E0.90929
G1 X127.589 Y67.514 E0.02365
G1 X107.082 Y88.021 E0.90929
G1 X107.615 Y88.554 E0.02365
G1 X128.122 Y68.048 E0.90929
G1 X128.655 Y68.581 E0.02365
G1 X108.149 Y89.088 E0.90929
G1 X108.682 Y89.621 E0.02365
G1 X129.188 Y69.114 E0.90929
G1 X129.722 Y69.648 E0.02365
G1 X109.215 Y90.154 E0.90929
G1 X109.748 Y90.687 E0.02365
G1 X130.255 Y70.181 E0.90929
G1 X130.788 Y70.714 E0.02365
G1 X110.282 Y91.221 E0.90929
G1 X110.815 Y91.754 E0.02365
G1 X131.321 Y71.247 E0.90929
G1 X131.855 Y71.781 E0.02365
G1 X109.717 Y93.919 E0.98163
G1 X110.250 Y94.452 E0.02365
G1 X132.388 Y72.314 E0.98163
G1 X132.921 Y72.847 E0.02365
G1 X125.465 Y80.303 E0.33060
G1 X125.053 Y79.891 E0.01828
G1 X119.458 Y85.486 E0.24809
G1 X119.870 Y85.898 E0.01828
G1 X110.783 Y94.985 E0.40294
G1 X111.317 Y95.518 E0.02365
G1 X120.404 Y86.431 E0.40294
G1 X120.937 Y86.965 E0.02365
G1 X111.850 Y96.052 E0.40294
G1 X112.383 Y96.585 E0.02365
G1 X121.470 Y87.498 E0.40294
G1 X122.003 Y88.031 E0.02365
G1 X111.285 Y98.749 E0.47527
G1 X111.818 Y99.283 E0.02365
G1 X122.537 Y88.564 E0.47527
G1 X123.070 Y89.098 E0.02365
G1 X112.352 Y99.816 E0.47527
G1 X112.885 Y100.349 E0.02365
G1 X123.603 Y89.631 E0.47527
G1 X124.137 Y90.164 E0.02365
G1 X113.418 Y100.883 E0.47527
G1 X113.951 Y101.416 E0.02365
G1 X123.038 Y92.329 E0.40294
G1 X123.422 Y92.712 E0.01700
G1 X125.053 Y91.081 E0.07234
G1 X125.203 Y91.231 E0.00664
G1 X114.485 Y101.949 E0.47527
G1 X115.018 Y102.482 E0.02365
G1 X125.736 Y91.764 E0.47527
G1 X126.270 Y92.297 E0.02365
G1 X115.431 Y103.136 E0.48059
G1 E-0.80000 F2100.00000
G1 Z0.800 F10800.000
G1 X120.403 Y100.607
G1 Z0.200
G1 E0.80000 F2100.00000
G1 F1200
G1 X122.132 Y98.878 E0.06244
G1 X122.491 Y99.237 E0.01295
G1 X120.859 Y100.868 E0.05891
G1 X121.218 Y101.227 E0.01295
G1 X122.849 Y99.595 E0.05891
G1 X123.208 Y99.954 E0.01295
G1 X121.479 Y101.683 E0.06244
G1 E-0.80000 F2100.00000
G1 Z0.800 F10800.000
G1 X123.075 Y106.541
G1 Z0.200
G1 E0.80000 F2100.00000
G1 F1200
G1 X128.066 Y101.550 E0.18025
G1 X127.708 Y101.191 E0.01295
G1 X122.814 Y106.085 E0.17673
G1 X122.455 Y105.727 E0.01295
G1 X127.349 Y100.832 E0.17673
G1 X126.991 Y100.474 E0.01295
G1 X122.097 Y105.368 E0.17673
G1 X121.738 Y105.009 E0.01295
G1 X124.056 Y102.692 E0.08370
G1 X123.739 Y102.655 E0.00815
G1 X123.473 Y102.557 E0.00722
G1 X121.379 Y104.651 E0.07561
G1 X121.021 Y104.292 E0.01295
G1 X123.011 Y102.302 E0.07186
G1 X122.936 Y102.222 E0.00280
G1 X122.801 Y102.010 E0.00642
G1 X122.754 Y101.842 E0.00445
G1 X120.662 Y103.934 E0.07553
G1 X120.304 Y103.575 E0.01295
G1 X125.198 Y98.681 E0.17673
G1 X125.556 Y99.040 E0.01295
G1 X123.768 Y100.828 E0.06458
G1 X123.874 Y100.818 E0.00272
G1 X124.443 Y100.871 E0.01459
G1 X125.915 Y99.398 E0.05316
G1 X126.274 Y99.757 E0.01295
G1 X124.977 Y101.053 E0.04680
G1 X125.180 Y101.197 E0.00635
G1 X125.354 Y101.394 E0.00670
G1 X126.730 Y100.018 E0.04970
G1 X124.186 Y102.001 F10800.000
G1 F1200
G1 X123.880 Y101.965 E0.00967
G1 X123.712 Y101.897 E0.00568
G1 X123.272 Y101.661 E0.01564
G1 X123.881 Y101.522 E0.01959
G1 X124.269 Y101.550 E0.01219
G1 X124.642 Y101.670 E0.01226
G1 X124.797 Y101.775 E0.00588
G1 X124.682 Y101.892 E0.00516
G1 X124.629 Y101.920 E0.00188
G1 X124.246 Y101.999 E0.01225
G1 X124.034 Y101.733 F10800.000
G1 X124.306 Y101.776
G1 F1200
G1 X123.935 Y101.748 E0.00230
G1 X123.898 Y101.740 E0.00021
G1 X123.866 Y101.737 E0.00015
M106 S255
;BEFORE_LAYER_CHANGE
G92 E0.0
;0.3


G1 E-0.80000 F2100.00000
G1 Z0.800 F10800.000
;AFTER_LAYER_CHANGE
;0.3
M104 S210 ; set temperature
G1 X125.118 Y103.064
G1 Z0.300
G1 E0.80000 F2100.00000
G1 F1569
G1 X126.028 Y102.154 E0.01757
G1 X127.447 Y100.735 F10800.000
G1 F1569
G1 X126.606 Y101.576 E0.01625
G1 X126.475 Y101.299 E0.00419
G1 X126.331 Y101.134 E0.00299
G1 X126.991 Y100.474 E0.01274
G1 X126.632 Y100.115 E0.00693
G1 X125.725 Y101.022 E0.01751
G1 X125.493 Y100.877 E0.00374
G1 X125.250 Y100.781 E0.00358
G1 X126.274 Y99.757 E0.01978
G1 X125.915 Y99.398 E0.00693
G1 X124.686 Y100.627 E0.02373
G1 X124.387 Y100.573 E0.00416
G1 X124.052 Y100.545 E0.00459
G1 X125.556 Y99.040 E0.02907
G1 X125.198 Y98.681 E0.00693
G1 X123.310 Y100.569 E0.03646
G1 X123.083 Y100.614 E0.00317
G1 X122.875 Y100.683 E0.00298
G1 X122.605 Y100.818 E0.00413
G1 X122.415 Y100.978 E0.00339
G1 X122.344 Y101.060 E0.00148
G1 X122.207 Y101.309 E0.00389
G1 X122.154 Y101.529 E0.00308
G1 X122.157 Y101.722 E0.00264
G1 X120.304 Y103.575 E0.03580
G1 X120.662 Y103.934 E0.00693
G1 X122.362 Y102.234 E0.03283
G1 X122.710 Y102.603 E0.00693
G1 X121.021 Y104.292 E0.03263
G1 X121.379 Y104.651 E0.00693
G1 X122.847 Y103.183 E0.02836
G1 X122.990 Y103.316 E0.00267
G1 X123.244 Y103.504 E0.00431
G1 X121.738 Y105.009 E0.02908
G1 X122.097 Y105.368 E0.00693
G1 X123.752 Y103.712 E0.03199
G1 X124.098 Y103.733 E0.00473
G1 X124.388 Y103.683 E0.00403
G1 X124.559 Y103.622 E0.00248
G1 X122.455 Y105.727 E0.04065
G1 X122.814 Y106.085 E0.00693
G1 X127.708 Y101.191 E0.09454
G1 X128.066 Y101.550 E0.00693
G1 X123.075 Y106.541 E0.09643
G1 X120.062 Y106.791 F10800.000
G1 F1569
G1 X121.573 Y105.279 E0.02921
G1 X123.205 Y106.911 E0.03151
G1 X120.159 Y109.956 E0.05883
G1 X121.791 Y111.587 E0.03151
G1 X118.528 Y114.850 E0.06303
M73 P6 R29
G1 X131.579 Y101.799 E0.25210
G1 X129.947 Y103.431 E0.03151
G1 X131.579 Y105.062 E0.03151
G1 X118.528 Y118.113 E0.25210
G1 X120.159 Y119.744 E0.03151
G1 X118.528 Y121.376 E0.03151
G1 X133.210 Y106.693 E0.28361
G1 X129.947 Y109.956 E0.06303
G1 X131.579 Y111.587 E0.03151
G1 X120.159 Y123.007 E0.22059
G1 X121.791 Y124.638 E0.03151
G1 X120.159 Y126.270 E0.03151
G1 X128.316 Y118.113 E0.15756
G1 X126.685 Y119.744 E0.03151
G1 X128.316 Y121.376 E0.03151
G1 X121.791 Y127.901 E0.12605
G1 X123.422 Y129.532 E0.03151
G1 X121.791 Y131.164 E0.03151
G1 X129.947 Y123.007 E0.15756
G1 X128.316 Y124.638 E0.03151
G1 X129.947 Y126.270 E0.03151
G1 X121.791 Y134.426 E0.15756
G1 X123.422 Y136.058 E0.03151
G1 X131.579 Y127.901 E0.15756
G1 X133.210 Y129.532 E0.03151
G1 X124.956 Y137.787 E0.15945
G1 E-0.80000 F2100.00000
G1 Z0.900 F10800.000
G1 X121.479 Y101.683
G1 Z0.300
G1 E0.80000 F2100.00000
G1 F1569
G1 X123.208 Y99.954 E0.03340
G1 X122.849 Y99.595 E0.00693
G1 X121.218 Y101.227 E0.03151
G1 X120.859 Y100.868 E0.00693
G1 X122.491 Y99.237 E0.03151
G1 X122.132 Y98.878 E0.00693
G1 X120.403 Y100.607 E0.03340
G1 X118.430 Y101.897 F10800.000
G1 F1569
G1 X119.942 Y100.385 E0.02921
G1 X119.725 Y100.168 E0.00419
G1 X121.791 Y98.102 E0.03990
G1 X122.008 Y98.319 E0.00419
G1 X125.053 Y95.274 E0.05883
G1 X123.422 Y96.905 E0.03151
G1 X121.791 Y95.274 E0.03151
G1 X116.897 Y100.168 E0.09454
G1 X115.265 Y98.537 E0.03151
G1 X120.159 Y93.643 E0.09454
G1 X118.528 Y92.011 E0.03151
G1 X120.159 Y90.380 E0.03151
G1 X115.265 Y95.274 E0.09454
G1 X113.634 Y93.643 E0.03151
G1 X118.528 Y88.749 E0.09454
G1 X116.897 Y87.117 E0.03151
G1 X113.536 Y90.478 E0.06491
G1 E-0.80000 F2100.00000
G1 Z0.900 F10800.000
G1 X110.273 Y83.952
G1 Z0.300
G1 E0.80000 F2100.00000
G1 F1569
G1 X123.422 Y70.804 E0.25399
G1 X125.053 Y72.435 E0.03151
G1 X126.685 Y70.804 E0.03151
G1 X110.371 Y87.117 E0.31513
G1 X112.003 Y88.749 E0.03151
G1 X128.316 Y72.435 E0.31513
G1 X129.947 Y74.066 E0.03151
G1 X126.685 Y77.329 E0.06303
G1 X128.316 Y78.960 E0.03151
G1 X131.579 Y75.698 E0.06303
G1 X133.210 Y77.329 E0.03151
G1 X129.947 Y80.592 E0.06303
G1 X131.579 Y82.223 E0.03151
G1 X134.841 Y78.960 E0.06303
G1 X136.473 Y80.592 E0.03151
G1 X133.210 Y83.854 E0.06303
G1 X134.841 Y85.486 E0.03151
G1 X129.947 Y90.380 E0.09454
G1 X138.104 Y82.223 E0.15756
G1 X139.736 Y83.854 E0.03151
G1 X125.270 Y98.319 E0.27942
G1 X126.902 Y99.951 E0.03151
G1 X139.736 Y87.117 E0.24791
G1 X134.841 Y92.011 E0.09454
G1 X136.473 Y93.643 E0.03151
G1 X128.435 Y101.680 E0.15526
;BEFORE_LAYER_CHANGE
G92 E0.0
;0.4


G1 E-0.80000 F2100.00000
G1 Z0.900 F10800.000
;AFTER_LAYER_CHANGE
;0.4
G1 X139.270 Y130.100
G1 Z0.400
G1 E0.80000 F2100.00000
G1 F900
G1 X138.780 Y130.876 E0.02878
G1 X126.260 Y143.396 E0.55516
G1 X125.571 Y143.842 E0.02574
G1 X124.769 Y144.003 E0.02563
G1 X123.944 Y143.851 E0.02631
G1 X123.234 Y143.397 E0.02642
G1 X116.000 Y135.922 E0.32619
G1 X115.542 Y135.176 E0.02743
G1 X104.051 Y87.631 E1.53368
G1 X103.990 Y87.138 E0.01555
G1 X104.443 Y83.787 E0.10605
G1 X104.631 Y83.262 E0.01749
G1 X104.946 Y82.801 E0.01749
G1 X122.436 Y65.307 E0.77563
G1 X123.133 Y64.860 E0.02597
G1 X123.947 Y64.704 E0.02597
G1 X127.394 Y64.819 E0.10815
G1 X128.048 Y65.031 E0.02157
G1 X128.603 Y65.434 E0.02149
G1 X145.284 Y82.130 E0.74001
G1 X145.597 Y82.648 E0.01896
G1 X145.757 Y83.231 E0.01896
G1 X145.864 Y86.602 E0.10575
G1 X139.279 Y130.041 E1.37755
G1 E-0.80000 F2100.00000
G1 Z1.000 F10800.000
G1 X124.152 Y102.080
G1 Z0.400
G1 E0.80000 F2100.00000
M204 S800
G1 F900
G1 X123.947 Y102.071 E0.00695
G1 X123.805 Y102.018 E0.00512
G1 X123.673 Y101.936 E0.00525
G1 X123.352 Y101.678 E0.01397
G1 X123.894 Y101.658 E0.01836
G1 X124.209 Y101.685 E0.01071
G1 X124.583 Y101.750 E0.01285
