; generated by PrusaSlicer 2.0.0+ on 2019-05-29 at 16:52:31

; 

; external perimeters extrusion width = 0.45mm
; perimeters extrusion width = 0.45mm
; infill extrusion width = 0.45mm
; solid infill extrusion width = 0.45mm
; top infill extrusion width = 0.40mm
; support material extrusion width = 0.35mm
; first layer extrusion width = 0.42mm

M73 P0 R15
M201 X9000 Y9000 Z500 E10000 ; sets maximum accelerations, mm/sec^2
M203 X500 Y500 Z12 E120 ; sets maximum feedrates, mm/sec
M204 P2000 R1500 T2000 ; sets acceleration (P, T) and retract acceleration (R), mm/sec^2
M205 X10.00 Y10.00 Z0.20 E2.50 ; sets the jerk limits, mm/sec
M205 S0 T0 ; sets the minimum extruding and travel feed rate, mm/sec
M107
M115 U3.1.0 ; tell printer latest fw version
G90 ; use absolute coordinates
M83 ; extruder relative mode
M204 S2000 T1500 ; MK2 firmware only supports the old M204 format
M104 S230 ; set extruder temp
M140 S60 ; set bed temp
M190 S60 ; wait for bed temp
M109 S230 ; wait for extruder temp
G28 W ; home all without mesh bed level
G80 ; mesh bed leveling
G1 Y-3.0 F1000.0 ; go outside print area
G92 E0.0
G1 X60.0 E9.0  F1000.0 ; intro line
M73 P0 R15
G1 X100.0 E12.5 F1000.0 ; intro line
G92 E0.0
M900 K30 ; Filament gcode
G21 ; set units to millimeters
G90 ; use absolute coordinates
M83 ; use relative distances for extrusion
;BEFORE_LAYER_CHANGE
G92 E0.0
;0.2


G1 E-0.80000 F2100.00000
G1 Z0.600 F10800.000
;AFTER_LAYER_CHANGE
;0.2
G1 X155.134 Y81.354
G1 Z0.200
G1 E0.80000 F2100.00000
M204 S1000
G1 F1200
G1 X155.635 Y82.076 E0.02754
G1 X156.260 Y83.714 E0.05497
G1 X156.369 Y84.239 E0.01680
G1 X156.375 Y125.650 E1.29842
G1 X156.269 Y126.260 E0.01942
G1 X155.634 Y127.925 E0.05587
G1 X155.393 Y128.350 E0.01532
G1 X155.066 Y128.708 E0.01521
G1 X152.073 Y130.589 E0.11082
G1 X151.606 Y130.776 E0.01578
G1 X151.113 Y130.852 E0.01567
G1 X98.962 Y130.853 E1.63513
G1 X98.420 Y130.783 E0.01714
G1 X97.909 Y130.579 E0.01726
G1 X95.180 Y128.895 E0.10053
G1 X94.732 Y128.506 E0.01862
G1 X94.335 Y127.849 E0.02405
G1 X93.729 Y126.255 E0.05348
G1 X93.625 Y125.637 E0.01964
G1 X93.624 Y84.405 E1.29281
G1 X93.726 Y83.754 E0.02066
G1 X94.360 Y82.088 E0.05587
G1 X94.603 Y81.656 E0.01555
G1 X94.934 Y81.292 E0.01544
G1 X97.927 Y79.411 E0.11082
G1 X98.394 Y79.224 E0.01578
G1 X98.887 Y79.148 E0.01567
G1 X151.034 Y79.147 E1.63502
G1 X151.569 Y79.214 E0.01692
G1 X152.069 Y79.409 E0.01680
G1 X155.084 Y81.322 E0.11196
G1 F8640
G1 X155.635 Y82.076 E-0.21567
G1 X156.260 Y83.714 E-0.40481
G1 X156.369 Y84.239 E-0.12374
G1 X156.369 Y84.307 E-0.01577
G1 E-0.04000 F2100.00000
G1 Z0.800 F10800.000
G1 X125.000 Y114.398
G1 Z0.200
G1 E0.80000 F2100.00000
G1 F1200
G1 X122.823 Y113.053 E0.08023
G1 X122.368 Y111.861 E0.04000
G1 X122.368 Y111.754 E0.00335
G1 X122.823 Y110.562 E0.04000
G1 X125.000 Y109.217 E0.08023
G1 X127.177 Y110.562 E0.08023
G1 X127.632 Y111.754 E0.04000
G1 X127.632 Y111.861 E0.00335
G1 X127.177 Y113.053 E0.04000
G1 X125.051 Y114.367 E0.07835
G1 X125.002 Y114.840 F10800.000
G1 F1200
G1 X122.517 Y113.307 E0.09157
G1 X121.991 Y111.931 E0.04618
G1 X121.991 Y111.684 E0.00772
G1 X122.517 Y110.308 E0.04618
G1 X124.998 Y108.775 E0.09146
G1 X127.483 Y110.308 E0.09157
G1 X128.009 Y111.684 E0.04618
G1 X128.009 Y111.931 E0.00772
G1 X127.483 Y113.307 E0.04618
G1 X125.053 Y114.808 E0.08957
G1 X124.842 Y114.473 F10800.000
G1 X124.990 Y114.259
G1 F1200
G1 X122.720 Y111.989 E0.10326
G1 X122.651 Y111.806 E0.00627
G1 X122.771 Y111.493 E0.01079
G1 X125.212 Y113.934 E0.11105
G1 X125.550 Y113.725 E0.01278
G1 X122.922 Y111.097 E0.11955
G1 X123.053 Y110.752 E0.01186
G1 X123.097 Y110.725 E0.00166
G1 X125.888 Y113.517 E0.12695
G1 X126.227 Y113.308 E0.01278
G1 X123.435 Y110.516 E0.12695
G1 X123.773 Y110.307 E0.01278
G1 X126.565 Y113.099 E0.12695
G1 X126.903 Y112.890 E0.01278
G1 X124.111 Y110.098 E0.12695
G1 X124.449 Y109.890 E0.01278
G1 X127.078 Y112.518 E0.11956
G1 X127.229 Y112.122 E0.01363
G1 X124.788 Y109.681 E0.11106
G1 X125.000 Y109.549 E0.00803
G1 X125.532 Y109.878 E0.02011
G1 X127.512 Y111.858 E0.09005
G1 F8640
G1 X125.532 Y109.878 E-0.64654
G1 X125.114 Y109.620 E-0.11346
G1 E-0.04000 F2100.00000
G1 Z0.800 F10800.000
G1 X112.016 Y114.398
G1 Z0.200
G1 E0.80000 F2100.00000
G1 F1200
G1 X109.839 Y113.053 E0.08023
G1 X109.384 Y111.861 E0.04000
G1 X109.384 Y111.754 E0.00335
G1 X109.839 Y110.562 E0.04000
G1 X112.016 Y109.217 E0.08023
G1 X114.192 Y110.562 E0.08023
G1 X114.648 Y111.754 E0.04000
G1 X114.648 Y111.861 E0.00335
G1 X114.192 Y113.053 E0.04000
G1 X112.067 Y114.367 E0.07835
G1 X112.018 Y114.840 F10800.000
G1 F1200
G1 X109.532 Y113.307 E0.09157
G1 X109.007 Y111.931 E0.04618
G1 X109.007 Y111.684 E0.00772
G1 X109.532 Y110.308 E0.04618
G1 X112.014 Y108.775 E0.09146
G1 X114.499 Y110.308 E0.09157
G1 X115.025 Y111.684 E0.04618
G1 X115.025 Y111.931 E0.00772
G1 X114.499 Y113.307 E0.04618
G1 X112.069 Y114.808 E0.08957
G1 X111.858 Y114.473 F10800.000
G1 X112.006 Y114.259
G1 F1200
G1 X109.735 Y111.989 E0.10326
G1 X109.667 Y111.806 E0.00627
G1 X109.786 Y111.493 E0.01079
G1 X112.228 Y113.934 E0.11105
G1 X112.566 Y113.725 E0.01278
G1 X109.938 Y111.097 E0.11955
G1 X110.069 Y110.752 E0.01186
G1 X110.113 Y110.725 E0.00166
G1 X112.904 Y113.517 E0.12695
G1 X113.242 Y113.308 E0.01278
G1 X110.451 Y110.516 E0.12695
G1 X110.789 Y110.307 E0.01278
G1 X113.580 Y113.099 E0.12695
G1 X113.918 Y112.890 E0.01278
G1 X111.127 Y110.098 E0.12695
G1 X111.465 Y109.890 E0.01278
G1 X114.094 Y112.518 E0.11956
G1 X114.245 Y112.122 E0.01363
G1 X111.803 Y109.681 E0.11106
G1 X112.016 Y109.549 E0.00803
G1 X112.548 Y109.878 E0.02011
G1 X114.528 Y111.858 E0.09005
G1 F8640
G1 X112.548 Y109.878 E-0.64654
G1 X112.130 Y109.620 E-0.11346
G1 E-0.04000 F2100.00000
G1 Z0.800 F10800.000
G1 X125.000 Y128.013
G1 Z0.200
G1 E0.80000 F2100.00000
G1 F1200
G1 X122.823 Y126.668 E0.08023
G1 X122.368 Y125.476 E0.04000
G1 X122.368 Y125.369 E0.00335
G1 X122.823 Y124.177 E0.04000
G1 X125.000 Y122.832 E0.08023
G1 X127.177 Y124.177 E0.08023
G1 X127.632 Y125.369 E0.04000
G1 X127.632 Y125.476 E0.00335
G1 X127.177 Y126.668 E0.04000
G1 X125.051 Y127.981 E0.07835
G1 X125.002 Y128.455 F10800.000
G1 F1200
G1 X122.517 Y126.921 E0.09157
G1 X121.991 Y125.545 E0.04618
G1 X121.991 Y125.299 E0.00772
G1 X122.517 Y123.923 E0.04618
G1 X124.998 Y122.390 E0.09146
G1 X127.483 Y123.923 E0.09157
G1 X128.009 Y125.299 E0.04618
G1 X128.009 Y125.545 E0.00772
G1 X127.483 Y126.921 E0.04618
G1 X125.053 Y128.423 E0.08957
G1 X124.842 Y128.088 F10800.000
G1 X124.990 Y127.874
G1 F1200
G1 X122.720 Y125.603 E0.10326
G1 X122.651 Y125.421 E0.00627
G1 X122.771 Y125.108 E0.01079
G1 X125.212 Y127.549 E0.11105
G1 X125.550 Y127.340 E0.01278
G1 X122.922 Y124.712 E0.11955
G1 X123.053 Y124.367 E0.01186
G1 X123.097 Y124.340 E0.00166
G1 X125.888 Y127.131 E0.12695
G1 X126.227 Y126.922 E0.01278
G1 X123.435 Y124.131 E0.12695
G1 X123.773 Y123.922 E0.01278
G1 X126.565 Y126.714 E0.12695
G1 X126.903 Y126.505 E0.01278
G1 X124.111 Y123.713 E0.12695
G1 X124.449 Y123.504 E0.01278
G1 X127.078 Y126.133 E0.11956
G1 X127.229 Y125.737 E0.01363
G1 X124.788 Y123.296 E0.11106
G1 X125.000 Y123.164 E0.00803
G1 X125.532 Y123.493 E0.02011
G1 X127.512 Y125.473 E0.09005
G1 F8640
G1 X125.532 Y123.493 E-0.64654
G1 X125.114 Y123.235 E-0.11346
G1 E-0.04000 F2100.00000
G1 Z0.800 F10800.000
G1 X112.016 Y128.013
G1 Z0.200
G1 E0.80000 F2100.00000
G1 F1200
G1 X109.839 Y126.668 E0.08023
G1 X109.384 Y125.476 E0.04000
G1 X109.384 Y125.369 E0.00335
G1 X109.839 Y124.177 E0.04000
G1 X112.016 Y122.832 E0.08023
G1 X114.192 Y124.177 E0.08023
G1 X114.648 Y125.369 E0.04000
G1 X114.648 Y125.476 E0.00335
G1 X114.192 Y126.668 E0.04000
G1 X112.067 Y127.981 E0.07835
G1 X112.018 Y128.455 F10800.000
G1 F1200
G1 X109.532 Y126.921 E0.09157
G1 X109.007 Y125.545 E0.04618
G1 X109.007 Y125.299 E0.00772
G1 X109.532 Y123.923 E0.04618
G1 X112.014 Y122.390 E0.09146
G1 X114.499 Y123.923 E0.09157
G1 X115.025 Y125.299 E0.04618
G1 X115.025 Y125.545 E0.00772
G1 X114.499 Y126.921 E0.04618
G1 X112.069 Y128.423 E0.08957
G1 X111.858 Y128.088 F10800.000
G1 X112.006 Y127.874
G1 F1200
G1 X109.735 Y125.603 E0.10326
G1 X109.667 Y125.421 E0.00627
G1 X109.786 Y125.108 E0.01079
G1 X112.228 Y127.549 E0.11105
G1 X112.566 Y127.340 E0.01278
G1 X109.938 Y124.712 E0.11955
G1 X110.069 Y124.367 E0.01186
G1 X110.113 Y124.340 E0.00166
G1 X112.904 Y127.131 E0.12695
G1 X113.242 Y126.922 E0.01278
G1 X110.451 Y124.131 E0.12695
G1 X110.789 Y123.922 E0.01278
G1 X113.580 Y126.714 E0.12695
G1 X113.918 Y126.505 E0.01278
G1 X111.127 Y123.713 E0.12695
G1 X111.465 Y123.504 E0.01278
G1 X114.094 Y126.133 E0.11956
G1 X114.245 Y125.737 E0.01363
G1 X111.803 Y123.296 E0.11106
G1 X112.016 Y123.164 E0.00803
G1 X112.548 Y123.493 E0.02011
G1 X114.528 Y125.473 E0.09005
G1 F8640
G1 X112.548 Y123.493 E-0.64654
G1 X112.130 Y123.235 E-0.11346
G1 E-0.04000 F2100.00000
G1 Z0.800 F10800.000
G1 X125.000 Y100.783
G1 Z0.200
G1 E0.80000 F2100.00000
G1 F1200
G1 X122.823 Y99.438 E0.08023
G1 X122.368 Y98.246 E0.04000
G1 X122.368 Y98.139 E0.00335
G1 X122.823 Y96.947 E0.04000
G1 X125.000 Y95.602 E0.08023
G1 X127.177 Y96.947 E0.08023
G1 X127.632 Y98.139 E0.04000
G1 X127.632 Y98.246 E0.00335
G1 X127.177 Y99.438 E0.04000
G1 X125.051 Y100.752 E0.07835
G1 X125.002 Y101.225 F10800.000
G1 F1200
G1 X122.517 Y99.692 E0.09157
G1 X121.991 Y98.316 E0.04618
G1 X121.991 Y98.069 E0.00772
G1 X122.517 Y96.693 E0.04618
G1 X124.998 Y95.160 E0.09146
G1 X127.483 Y96.693 E0.09157
G1 X128.009 Y98.069 E0.04618
G1 X128.009 Y98.316 E0.00772
G1 X127.483 Y99.692 E0.04618
G1 X125.053 Y101.194 E0.08957
G1 X124.842 Y100.858 F10800.000
G1 X124.990 Y100.644
G1 F1200
G1 X122.720 Y98.374 E0.10326
G1 X122.651 Y98.191 E0.00627
G1 X122.771 Y97.878 E0.01079
G1 X125.212 Y100.319 E0.11105
G1 X125.550 Y100.111 E0.01278
G1 X122.922 Y97.482 E0.11955
G1 X123.053 Y97.137 E0.01186
G1 X123.097 Y97.110 E0.00166
G1 X125.888 Y99.902 E0.12695
G1 X126.227 Y99.693 E0.01278
G1 X123.435 Y96.901 E0.12695
G1 X123.773 Y96.692 E0.01278
G1 X126.565 Y99.484 E0.12695
G1 X126.903 Y99.275 E0.01278
G1 X124.111 Y96.484 E0.12695
G1 X124.449 Y96.275 E0.01278
G1 X127.078 Y98.903 E0.11956
G1 X127.229 Y98.507 E0.01363
G1 X124.788 Y96.066 E0.11106
G1 X125.000 Y95.934 E0.00803
G1 X125.532 Y96.263 E0.02011
G1 X127.512 Y98.243 E0.09005
G1 F8640
G1 X125.532 Y96.263 E-0.64654
G1 X125.114 Y96.005 E-0.11346
G1 E-0.04000 F2100.00000
G1 Z0.800 F10800.000
G1 X112.016 Y100.783
G1 Z0.200
G1 E0.80000 F2100.00000
G1 F1200
G1 X109.839 Y99.438 E0.08023
G1 X109.384 Y98.246 E0.04000
G1 X109.384 Y98.139 E0.00335
G1 X109.839 Y96.947 E0.04000
G1 X112.016 Y95.602 E0.08023
G1 X114.192 Y96.947 E0.08023
G1 X114.648 Y98.139 E0.04000
G1 X114.648 Y98.246 E0.00335
G1 X114.192 Y99.438 E0.04000
G1 X112.067 Y100.752 E0.07835
G1 X112.018 Y101.225 F10800.000
G1 F1200
G1 X109.532 Y99.692 E0.09157
G1 X109.007 Y98.316 E0.04618
G1 X109.007 Y98.069 E0.00772
G1 X109.532 Y96.693 E0.04618
G1 X112.014 Y95.160 E0.09146
G1 X114.499 Y96.693 E0.09157
G1 X115.025 Y98.069 E0.04618
G1 X115.025 Y98.316 E0.00772
G1 X114.499 Y99.692 E0.04618
G1 X112.069 Y101.194 E0.08957
G1 X111.858 Y100.858 F10800.000
G1 X112.006 Y100.644
G1 F1200
G1 X109.735 Y98.374 E0.10326
G1 X109.667 Y98.191 E0.00627
G1 X109.786 Y97.878 E0.01079
G1 X112.228 Y100.319 E0.11105
G1 X112.566 Y100.111 E0.01278
G1 X109.938 Y97.482 E0.11955
G1 X110.069 Y97.137 E0.01186
G1 X110.113 Y97.110 E0.00166
G1 X112.904 Y99.902 E0.12695
G1 X113.242 Y99.693 E0.01278
G1 X110.451 Y96.901 E0.12695
G1 X110.789 Y96.692 E0.01278
G1 X113.580 Y99.484 E0.12695
G1 X113.918 Y99.275 E0.01278
G1 X111.127 Y96.484 E0.12695
G1 X111.465 Y96.275 E0.01278
G1 X114.094 Y98.903 E0.11956
G1 X114.245 Y98.507 E0.01363
G1 X111.803 Y96.066 E0.11106
G1 X112.016 Y95.934 E0.00803
G1 X112.548 Y96.263 E0.02011
G1 X114.528 Y98.243 E0.09005
G1 F8640
G1 X112.548 Y96.263 E-0.64654
G1 X112.130 Y96.005 E-0.11346
G1 E-0.04000 F2100.00000
G1 Z0.800 F10800.000
G1 X137.984 Y114.398
G1 Z0.200
G1 E0.80000 F2100.00000
G1 F1200
G1 X135.808 Y113.053 E0.08023
G1 X135.352 Y111.861 E0.04000
G1 X135.352 Y111.754 E0.00335
G1 X135.808 Y110.562 E0.04000
G1 X137.984 Y109.217 E0.08023
G1 X140.161 Y110.562 E0.08023
G1 X140.616 Y111.754 E0.04000
G1 X140.616 Y111.861 E0.00335
G1 X140.161 Y113.053 E0.04000
G1 X138.035 Y114.367 E0.07835
G1 X137.986 Y114.840 F10800.000
G1 F1200
G1 X135.501 Y113.307 E0.09157
G1 X134.975 Y111.931 E0.04618
G1 X134.975 Y111.684 E0.00772
G1 X135.501 Y110.308 E0.04618
G1 X137.982 Y108.775 E0.09146
G1 X140.468 Y110.308 E0.09157
G1 X140.993 Y111.684 E0.04618
G1 X140.993 Y111.931 E0.00772
G1 X140.468 Y113.307 E0.04618
G1 X138.037 Y114.808 E0.08957
G1 X137.826 Y114.473 F10800.000
G1 X137.974 Y114.259
G1 F1200
G1 X135.704 Y111.989 E0.10326
G1 X135.635 Y111.806 E0.00627
G1 X135.755 Y111.493 E0.01079
G1 X138.197 Y113.934 E0.11105
G1 X138.535 Y113.725 E0.01278
G1 X135.906 Y111.097 E0.11955
G1 X136.038 Y110.752 E0.01186
G1 X136.082 Y110.725 E0.00166
G1 X138.873 Y113.517 E0.12695
G1 X139.211 Y113.308 E0.01278
G1 X136.420 Y110.516 E0.12695
G1 X136.758 Y110.307 E0.01278
G1 X139.549 Y113.099 E0.12695
G1 X139.887 Y112.890 E0.01278
G1 X137.096 Y110.098 E0.12695
G1 X137.434 Y109.890 E0.01278
G1 X140.062 Y112.518 E0.11956
G1 X140.214 Y112.122 E0.01363
G1 X137.772 Y109.681 E0.11106
G1 X137.984 Y109.549 E0.00803
G1 X138.516 Y109.878 E0.02011
G1 X140.496 Y111.858 E0.09005
G1 F8640
G1 X138.516 Y109.878 E-0.64654
G1 X138.098 Y109.620 E-0.11346
G1 E-0.04000 F2100.00000
G1 Z0.800 F10800.000
G1 X137.984 Y100.783
G1 Z0.200
G1 E0.80000 F2100.00000
G1 F1200
G1 X135.808 Y99.438 E0.08023
G1 X135.352 Y98.246 E0.04000
G1 X135.352 Y98.139 E0.00335
G1 X135.808 Y96.947 E0.04000
G1 X137.984 Y95.602 E0.08023
G1 X140.161 Y96.947 E0.08023
G1 X140.616 Y98.139 E0.04000
G1 X140.616 Y98.246 E0.00335
G1 X140.161 Y99.438 E0.04000
G1 X138.035 Y100.752 E0.07835
G1 X137.986 Y101.225 F10800.000
G1 F1200
G1 X135.501 Y99.692 E0.09157
G1 X134.975 Y98.316 E0.04618
G1 X134.975 Y98.069 E0.00772
G1 X135.501 Y96.693 E0.04618
G1 X137.982 Y95.160 E0.09146
G1 X140.468 Y96.693 E0.09157
G1 X140.993 Y98.069 E0.04618
G1 X140.993 Y98.316 E0.00772
G1 X140.468 Y99.692 E0.04618
G1 X138.037 Y101.194 E0.08957
G1 X137.826 Y100.858 F10800.000
G1 X137.974 Y100.644
G1 F1200
G1 X135.704 Y98.374 E0.10326
G1 X135.635 Y98.191 E0.00627
G1 X135.755 Y97.878 E0.01079
G1 X138.197 Y100.319 E0.11105
G1 X138.535 Y100.111 E0.01278
G1 X135.906 Y97.482 E0.11955
G1 X136.038 Y97.137 E0.01186
G1 X136.082 Y97.110 E0.00166
G1 X138.873 Y99.902 E0.12695
G1 X139.211 Y99.693 E0.01278
G1 X136.420 Y96.901 E0.12695
G1 X136.758 Y96.692 E0.01278
G1 X139.549 Y99.484 E0.12695
G1 X139.887 Y99.275 E0.01278
G1 X137.096 Y96.484 E0.12695
G1 X137.434 Y96.275 E0.01278
G1 X140.062 Y98.903 E0.11956
G1 X140.214 Y98.507 E0.01363
G1 X137.772 Y96.066 E0.11106
G1 X137.984 Y95.934 E0.00803
G1 X138.516 Y96.263 E0.02011
G1 X140.496 Y98.243 E0.09005
G1 F8640
G1 X138.516 Y96.263 E-0.64654
G1 X138.098 Y96.005 E-0.11346
G1 E-0.04000 F2100.00000
G1 Z0.800 F10800.000
G1 X137.984 Y128.013
G1 Z0.200
G1 E0.80000 F2100.00000
G1 F1200
G1 X135.808 Y126.668 E0.08023
G1 X135.352 Y125.476 E0.04000
G1 X135.352 Y125.369 E0.00335
G1 X135.808 Y124.177 E0.04000
G1 X137.984 Y122.832 E0.08023
G1 X140.161 Y124.177 E0.08023
G1 X140.616 Y125.369 E0.04000
G1 X140.616 Y125.476 E0.00335
G1 X140.161 Y126.668 E0.04000
G1 X138.035 Y127.981 E0.07835
G1 X137.986 Y128.455 F10800.000
G1 F1200
G1 X135.501 Y126.921 E0.09157
G1 X134.975 Y125.545 E0.04618
G1 X134.975 Y125.299 E0.00772
G1 X135.501 Y123.923 E0.04618
G1 X137.982 Y122.390 E0.09146
G1 X140.468 Y123.923 E0.09157
G1 X140.993 Y125.299 E0.04618
G1 X140.993 Y125.545 E0.00772
G1 X140.468 Y126.921 E0.04618
G1 X138.037 Y128.423 E0.08957
G1 X137.826 Y128.088 F10800.000
G1 X137.974 Y127.874
G1 F1200
G1 X135.704 Y125.603 E0.10326
G1 X135.635 Y125.421 E0.00627
G1 X135.755 Y125.108 E0.01079
G1 X138.197 Y127.549 E0.11105
G1 X138.535 Y127.340 E0.01278
G1 X135.906 Y124.712 E0.11955
G1 X136.038 Y124.367 E0.01186
G1 X136.082 Y124.340 E0.00166
G1 X138.873 Y127.131 E0.12695
G1 X139.211 Y126.922 E0.01278
G1 X136.420 Y124.131 E0.12695
G1 X136.758 Y123.922 E0.01278
G1 X139.549 Y126.714 E0.12695
