; generated by PrusaSlicer 2.2.0+win64 on 2020-12-28 at 21:28:21 UTC

; 

; external perimeters extrusion width = 0.45mm
; perimeters extrusion width = 0.45mm
; infill extrusion width = 0.45mm
; solid infill extrusion width = 0.45mm
; top infill extrusion width = 0.40mm
; support material extrusion width = 0.35mm
; first layer extrusion width = 0.42mm

M73 P0 R65
M201 X9000 Y9000 Z500 E10000 ; sets maximum accelerations, mm/sec^2
M203 X500 Y500 Z12 E120 ; sets maximum feedrates, mm/sec
M204 P2000 R1500 T2000 ; sets acceleration (P, T) and retract acceleration (R), mm/sec^2
M205 X10.00 Y10.00 Z0.20 E2.50 ; sets the jerk limits, mm/sec
M205 S0 T0 ; sets the minimum extruding and travel feed rate, mm/sec
M107
M862.3 P "MK2S" ; printer model check
M862.1 P0.4 ; nozzle diameter check
M115 U3.2.3 ; tell printer latest fw version
G90 ; use absolute coordinates
M83 ; extruder relative mode
M204 S2000 T1500 ; MK2 firmware only supports the old M204 format
M104 S215 ; set extruder temp
M140 S60 ; set bed temp
M190 S60 ; wait for bed temp
M109 S215 ; wait for extruder temp
G28 W ; home all without mesh bed level
G80 ; mesh bed leveling
G1 Y-3.0 F1000.0 ; go outside print area
G92 E0.0
G1 X60.0 E9.0  F1000.0 ; intro line
M73 P0 R65
G1 X100.0 E12.5 F1000.0 ; intro line
G92 E0.0
G21 ; set units to millimeters
G90 ; use absolute coordinates
M83 ; use relative distances for extrusion
M900 K0.06 ; Filament gcode LA 1.5
M900 K30 ; Filament gcode LA 1.0
;BEFORE_LAYER_CHANGE
G92 E0.0
;0.2


G1 E-0.80000 F2100.00000
G1 Z0.600 F10800.000
;AFTER_LAYER_CHANGE
;0.2
G1 X98.293 Y70.517
G1 Z0.200
G1 E0.80000 F2100.00000
M204 S1000
G1 F1200.000
G1 X104.237 Y64.573 E0.26358
G1 X104.770 Y65.106 E0.02365
G1 X98.946 Y70.930 E0.25826
G1 X99.479 Y71.464 E0.02365
G1 X105.304 Y65.639 E0.25826
G1 X105.810 Y66.146 E0.02247
G1 X107.442 Y64.515 E0.07234
G1 X107.468 Y64.541 E0.00118
G1 X98.381 Y73.628 E0.40294
G1 X98.914 Y74.162 E0.02365
G1 X108.001 Y65.074 E0.40294
G1 X108.535 Y65.608 E0.02365
G1 X99.448 Y74.695 E0.40294
G1 X99.981 Y75.228 E0.02365
G1 X109.068 Y66.141 E0.40294
G1 X109.601 Y66.674 E0.02365
G1 X98.883 Y77.393 E0.47527
G1 X99.416 Y77.926 E0.02365
G1 X110.134 Y67.208 E0.47527
G1 X110.668 Y67.741 E0.02365
G1 X99.829 Y78.579 E0.48059
G1 E-0.80000 F2100.00000
G1 Z0.800 F10800.000
G1 X99.735 Y88.273
G1 Z0.200
G1 E0.80000 F2100.00000
G1 F1200.000
G1 X106.634 Y81.374 E0.30592
G1 X105.567 Y81.374 E0.03344
G1 X99.321 Y87.619 E0.27695
G1 X98.788 Y87.086 E0.02365
G1 X104.501 Y81.374 E0.25331
G1 X104.199 Y81.374 E0.00945
G1 X103.997 Y81.284 E0.00694
G1 X103.771 Y81.037 E0.01050
G1 X98.255 Y86.553 E0.24458
G1 X97.722 Y86.020 E0.02365
G1 X103.261 Y80.480 E0.24563
G1 X102.856 Y80.037 E0.01884
G1 X102.795 Y79.880 E0.00528
G1 X97.188 Y85.486 E0.24859
G1 X96.723 Y85.021 E0.02063
G1 X101.617 Y80.127 E0.21701
G1 X101.549 Y80.059 E0.00302
G1 X102.784 Y78.824 E0.05476
G1 X102.784 Y77.757 E0.03344
G1 X101.016 Y79.526 E0.07841
G1 X100.483 Y78.993 E0.02365
G1 X111.201 Y68.274 E0.47527
G1 X111.734 Y68.807 E0.02365
G1 X105.266 Y75.276 E0.28684
G1 X106.332 Y75.276 E0.03344
G1 X112.268 Y69.341 E0.26319
G1 X112.801 Y69.874 E0.02365
G1 X107.399 Y75.276 E0.23955
G1 X107.608 Y75.356 E0.00704
G1 X107.997 Y75.745 E0.01722
G1 X111.703 Y72.039 E0.16434
G1 X112.236 Y72.572 E0.02365
G1 X108.530 Y76.278 E0.16435
G1 X108.756 Y76.505 E0.01005
G1 X108.836 Y76.698 E0.00656
G1 X108.836 Y77.038 E0.01066
G1 X112.769 Y73.105 E0.17440
G1 X113.266 Y73.602 E0.02202
G1 X111.635 Y75.233 E0.07234
G1 X111.671 Y75.270 E0.00162
G1 X108.836 Y78.105 E0.12571
G1 X108.836 Y79.171 E0.03344
G1 X112.205 Y75.803 E0.14935
G1 X112.738 Y76.336 E0.02365
G1 X100.388 Y88.686 E0.54761
G1 X100.921 Y89.219 E0.02365
G1 X110.008 Y80.132 E0.40294
G1 X110.542 Y80.665 E0.02365
G1 X101.455 Y89.753 E0.40294
G1 X101.988 Y90.286 E0.02365
G1 X111.075 Y81.199 E0.40294
G1 X111.608 Y81.732 E0.02365
G1 X102.521 Y90.819 E0.40294
G1 X103.054 Y91.352 E0.02365
G1 X112.141 Y82.265 E0.40294
G1 X112.675 Y82.799 E0.02365
G1 X103.588 Y91.886 E0.40294
G1 X104.121 Y92.419 E0.02365
G1 X113.208 Y83.332 E0.40294
G1 X113.741 Y83.865 E0.02365
G1 X106.285 Y91.321 E0.33060
G1 X106.819 Y91.854 E0.02365
G1 X114.275 Y84.398 E0.33060
G1 X114.808 Y84.932 E0.02365
G1 X107.232 Y92.507 E0.33592
G1 E-0.80000 F2100.00000
G1 Z0.800 F10800.000
G1 X105.811 Y80.260
G1 Z0.200
G1 E0.80000 F2100.00000
G1 F1200.000
G1 X104.569 Y80.260 E0.03894
G1 X103.897 Y79.527 E0.03119
G1 X103.897 Y77.046 E0.07778
G1 X104.554 Y76.389 E0.02910
G1 X107.067 Y76.389 E0.07881
G1 X107.723 Y77.046 E0.02910
G1 X107.723 Y79.527 E0.07778
G1 X107.052 Y80.260 E0.03119
G1 X105.871 Y80.260 E0.03703
G1 X105.811 Y80.638 F10800.000
G1 F1200.000
G1 X104.403 Y80.638 E0.04414
G1 X103.520 Y79.673 E0.04099
G1 X103.520 Y76.890 E0.08727
G1 X104.397 Y76.012 E0.03890
G1 X107.223 Y76.012 E0.08861
G1 X108.100 Y76.890 E0.03890
G1 X108.100 Y79.673 E0.08727
G1 X107.218 Y80.638 E0.04099
G1 X105.871 Y80.638 E0.04224
G1 X105.566 Y80.321 F10800.000
G1 X107.610 Y77.343
G1 F1200.000
G1 X106.939 Y76.672 E0.03094
G1 X106.385 Y76.672 E0.01808
G1 X107.440 Y77.728 E0.04869
G1 X107.440 Y78.282 E0.01808
G1 X105.830 Y76.672 E0.07426
G1 X105.275 Y76.672 E0.01808
G1 X107.440 Y78.837 E0.09983
G1 X107.440 Y79.392 E0.01808
G1 X104.721 Y76.672 E0.12540
G1 X104.671 Y76.672 E0.00163
G1 X104.419 Y76.924 E0.01163
G1 X107.187 Y79.693 E0.12768
G1 X106.927 Y79.978 E0.01257
G1 X104.180 Y77.241 E0.12644
G1 X104.180 Y77.795 E0.01808
G1 X106.363 Y79.978 E0.10064
G1 X105.808 Y79.978 E0.01808
G1 X104.180 Y78.350 E0.07507
G1 X104.180 Y78.904 E0.01808
G1 X105.254 Y79.978 E0.04950
G1 X104.699 Y79.978 E0.01808
G1 X104.010 Y79.289 E0.03175
G1 E-0.80000 F2100.00000
G1 Z0.800 F10800.000
G1 X110.829 Y78.579
G1 Z0.200
G1 E0.80000 F2100.00000
G1 F1200.000
G1 X121.668 Y67.741 E0.48059
G1 X121.135 Y67.208 E0.02365
G1 X110.416 Y77.926 E0.47527
G1 X109.883 Y77.393 E0.02365
G1 X120.601 Y66.674 E0.47527
G1 X120.068 Y66.141 E0.02365
G1 X110.981 Y75.228 E0.40294
G1 X110.448 Y74.695 E0.02365
G1 X119.535 Y65.608 E0.40294
G1 X119.001 Y65.074 E0.02365
G1 X109.914 Y74.162 E0.40294
G1 X109.381 Y73.628 E0.02365
G1 X118.468 Y64.541 E0.40294
G1 X118.442 Y64.515 E0.00118
G1 X116.810 Y66.146 E0.07234
G1 X116.304 Y65.639 E0.02247
G1 X110.479 Y71.464 E0.25826
G1 X109.946 Y70.930 E0.02365
G1 X115.770 Y65.106 E0.25826
G1 X115.237 Y64.573 E0.02365
G1 X109.293 Y70.517 E0.26358
G1 E-0.80000 F2100.00000
G1 Z0.800 F10800.000
G1 X110.735 Y88.273
G1 Z0.200
G1 E0.80000 F2100.00000
G1 F1200.000
G1 X117.634 Y81.374 E0.30592
G1 X116.567 Y81.374 E0.03344
G1 X110.321 Y87.619 E0.27695
G1 X109.788 Y87.086 E0.02365
G1 X115.501 Y81.374 E0.25331
G1 X115.200 Y81.374 E0.00945
G1 X114.997 Y81.284 E0.00694
G1 X114.771 Y81.037 E0.01050
G1 X109.255 Y86.553 E0.24458
G1 X108.722 Y86.020 E0.02365
G1 X114.261 Y80.480 E0.24563
G1 X113.856 Y80.037 E0.01884
G1 X113.795 Y79.880 E0.00528
G1 X108.188 Y85.486 E0.24859
G1 X107.723 Y85.021 E0.02063
G1 X112.617 Y80.127 E0.21701
G1 X112.549 Y80.059 E0.00302
G1 X113.784 Y78.824 E0.05476
G1 X113.784 Y77.757 E0.03344
G1 X112.016 Y79.526 E0.07841
G1 X111.483 Y78.993 E0.02365
G1 X122.201 Y68.274 E0.47527
G1 X122.734 Y68.807 E0.02365
G1 X116.266 Y75.276 E0.28684
G1 X117.332 Y75.276 E0.03344
G1 X123.268 Y69.341 E0.26319
G1 X123.801 Y69.874 E0.02365
G1 X118.399 Y75.276 E0.23955
G1 X118.608 Y75.356 E0.00704
G1 X118.997 Y75.745 E0.01722
G1 X122.703 Y72.039 E0.16434
G1 X123.236 Y72.572 E0.02365
G1 X119.530 Y76.278 E0.16435
G1 X119.756 Y76.505 E0.01005
G1 X119.836 Y76.698 E0.00656
G1 X119.836 Y77.038 E0.01066
G1 X123.769 Y73.105 E0.17440
G1 X124.266 Y73.602 E0.02202
G1 X122.635 Y75.233 E0.07234
G1 X122.671 Y75.270 E0.00162
G1 X119.836 Y78.105 E0.12571
G1 X119.836 Y79.171 E0.03344
G1 X123.205 Y75.803 E0.14935
G1 X123.738 Y76.336 E0.02365
G1 X111.388 Y88.686 E0.54761
G1 X111.921 Y89.219 E0.02365
G1 X121.008 Y80.132 E0.40294
G1 X121.542 Y80.665 E0.02365
G1 X112.455 Y89.753 E0.40294
G1 X112.988 Y90.286 E0.02365
G1 X122.075 Y81.199 E0.40294
G1 X122.608 Y81.732 E0.02365
G1 X113.521 Y90.819 E0.40294
G1 X114.054 Y91.352 E0.02365
G1 X123.141 Y82.265 E0.40294
G1 X123.675 Y82.799 E0.02365
G1 X114.588 Y91.886 E0.40294
G1 X115.121 Y92.419 E0.02365
G1 X124.208 Y83.332 E0.40294
G1 X124.741 Y83.865 E0.02365
G1 X117.286 Y91.321 E0.33060
G1 X117.819 Y91.854 E0.02365
G1 X125.275 Y84.398 E0.33060
G1 X125.808 Y84.932 E0.02365
G1 X118.232 Y92.507 E0.33592
G1 E-0.80000 F2100.00000
G1 Z0.800 F10800.000
G1 X116.811 Y80.260
G1 Z0.200
G1 E0.80000 F2100.00000
G1 F1200.000
G1 X115.569 Y80.260 E0.03894
G1 X114.897 Y79.527 E0.03119
G1 X114.897 Y77.046 E0.07778
G1 X115.554 Y76.389 E0.02910
G1 X118.067 Y76.389 E0.07881
G1 X118.723 Y77.046 E0.02910
G1 X118.723 Y79.527 E0.07778
G1 X118.052 Y80.260 E0.03119
G1 X116.871 Y80.260 E0.03703
G1 X116.811 Y80.638 F10800.000
G1 F1200.000
G1 X115.403 Y80.638 E0.04414
G1 X114.520 Y79.673 E0.04099
G1 X114.520 Y76.890 E0.08727
G1 X115.397 Y76.012 E0.03890
G1 X118.223 Y76.012 E0.08861
G1 X119.100 Y76.890 E0.03890
G1 X119.100 Y79.673 E0.08727
G1 X118.218 Y80.638 E0.04099
G1 X116.871 Y80.638 E0.04224
G1 X116.566 Y80.321 F10800.000
G1 X118.610 Y77.343
G1 F1200.000
G1 X117.939 Y76.672 E0.03094
G1 X117.385 Y76.672 E0.01808
G1 X118.440 Y77.728 E0.04869
G1 X118.440 Y78.282 E0.01808
G1 X116.830 Y76.672 E0.07426
G1 X116.275 Y76.672 E0.01808
G1 X118.440 Y78.837 E0.09983
G1 X118.440 Y79.392 E0.01808
G1 X115.721 Y76.672 E0.12540
G1 X115.671 Y76.672 E0.00163
G1 X115.419 Y76.924 E0.01163
G1 X118.187 Y79.693 E0.12768
G1 X117.927 Y79.978 E0.01257
G1 X115.180 Y77.241 E0.12644
G1 X115.180 Y77.795 E0.01808
G1 X117.363 Y79.978 E0.10064
G1 X116.808 Y79.978 E0.01808
G1 X115.180 Y78.350 E0.07507
G1 X115.180 Y78.904 E0.01808
G1 X116.254 Y79.978 E0.04950
G1 X115.699 Y79.978 E0.01808
G1 X115.010 Y79.289 E0.03175
G1 E-0.80000 F2100.00000
G1 Z0.800 F10800.000
G1 X121.829 Y78.579
G1 Z0.200
G1 E0.80000 F2100.00000
G1 F1200.000
G1 X132.668 Y67.741 E0.48059
G1 X132.135 Y67.208 E0.02365
G1 X121.416 Y77.926 E0.47527
G1 X120.883 Y77.393 E0.02365
G1 X131.601 Y66.674 E0.47527
G1 X131.068 Y66.141 E0.02365
G1 X121.981 Y75.228 E0.40294
G1 X121.448 Y74.695 E0.02365
G1 X130.535 Y65.608 E0.40294
G1 X130.001 Y65.074 E0.02365
G1 X120.914 Y74.162 E0.40294
G1 X120.381 Y73.628 E0.02365
G1 X129.468 Y64.541 E0.40294
M73 P1 R64
G1 X129.442 Y64.515 E0.00118
G1 X127.810 Y66.146 E0.07234
G1 X127.304 Y65.639 E0.02247
G1 X121.479 Y71.464 E0.25826
G1 X120.946 Y70.930 E0.02365
G1 X126.770 Y65.106 E0.25826
G1 X126.237 Y64.573 E0.02365
G1 X120.293 Y70.517 E0.26358
G1 E-0.80000 F2100.00000
G1 Z0.800 F10800.000
G1 X121.735 Y88.273
G1 Z0.200
G1 E0.80000 F2100.00000
G1 F1200.000
G1 X128.634 Y81.374 E0.30592
G1 X127.567 Y81.374 E0.03344
G1 X121.322 Y87.619 E0.27695
G1 X120.788 Y87.086 E0.02365
G1 X126.501 Y81.374 E0.25331
G1 X126.200 Y81.374 E0.00945
G1 X125.997 Y81.284 E0.00694
G1 X125.771 Y81.037 E0.01050
G1 X120.255 Y86.553 E0.24458
G1 X119.722 Y86.020 E0.02365
G1 X125.261 Y80.480 E0.24563
G1 X124.856 Y80.037 E0.01884
G1 X124.795 Y79.880 E0.00528
G1 X119.188 Y85.486 E0.24859
G1 X118.723 Y85.021 E0.02063
G1 X123.617 Y80.127 E0.21701
G1 X123.549 Y80.059 E0.00302
G1 X124.784 Y78.824 E0.05476
G1 X124.784 Y77.757 E0.03344
G1 X123.016 Y79.526 E0.07841
G1 X122.483 Y78.993 E0.02365
G1 X133.201 Y68.274 E0.47527
G1 X133.734 Y68.807 E0.02365
G1 X127.266 Y75.276 E0.28684
G1 X128.332 Y75.276 E0.03344
G1 X134.268 Y69.341 E0.26319
G1 X134.801 Y69.874 E0.02365
G1 X129.399 Y75.276 E0.23955
G1 X129.608 Y75.356 E0.00704
G1 X129.997 Y75.745 E0.01722
G1 X133.703 Y72.039 E0.16434
G1 X134.236 Y72.572 E0.02365
G1 X130.530 Y76.278 E0.16435
G1 X130.756 Y76.505 E0.01005
G1 X130.836 Y76.698 E0.00656
G1 X130.836 Y77.038 E0.01066
G1 X134.769 Y73.105 E0.17440
G1 X135.266 Y73.602 E0.02202
G1 X133.635 Y75.233 E0.07234
G1 X133.671 Y75.270 E0.00162
G1 X130.836 Y78.105 E0.12571
G1 X130.836 Y79.171 E0.03344
G1 X134.205 Y75.803 E0.14935
G1 X134.738 Y76.336 E0.02365
G1 X122.388 Y88.686 E0.54761
G1 X122.921 Y89.219 E0.02365
G1 X132.008 Y80.132 E0.40294
G1 X132.542 Y80.665 E0.02365
G1 X123.455 Y89.753 E0.40294
G1 X123.988 Y90.286 E0.02365
G1 X133.075 Y81.199 E0.40294
G1 X133.608 Y81.732 E0.02365
G1 X124.521 Y90.819 E0.40294
G1 X125.054 Y91.352 E0.02365
G1 X134.142 Y82.265 E0.40294
G1 X134.675 Y82.799 E0.02365
G1 X125.588 Y91.886 E0.40294
G1 X126.121 Y92.419 E0.02365
G1 X135.208 Y83.332 E0.40294
G1 X135.741 Y83.865 E0.02365
G1 X128.286 Y91.321 E0.33060
G1 X128.819 Y91.854 E0.02365
G1 X136.275 Y84.398 E0.33060
G1 X136.808 Y84.932 E0.02365
G1 X129.232 Y92.507 E0.33592
G1 E-0.80000 F2100.00000
G1 Z0.800 F10800.000
G1 X127.811 Y80.260
G1 Z0.200
G1 E0.80000 F2100.00000
G1 F1200.000
G1 X126.569 Y80.260 E0.03894
G1 X125.897 Y79.527 E0.03119
G1 X125.897 Y77.046 E0.07778
G1 X126.554 Y76.389 E0.02910
G1 X129.067 Y76.389 E0.07881
G1 X129.723 Y77.046 E0.02910
G1 X129.723 Y79.527 E0.07778
G1 X129.052 Y80.260 E0.03119
G1 X127.871 Y80.260 E0.03703
G1 X127.811 Y80.638 F10800.000
G1 F1200.000
G1 X126.403 Y80.638 E0.04414
G1 X125.520 Y79.673 E0.04099
G1 X125.520 Y76.890 E0.08727
G1 X126.397 Y76.012 E0.03890
G1 X129.223 Y76.012 E0.08861
G1 X130.100 Y76.890 E0.03890
G1 X130.100 Y79.673 E0.08727
G1 X129.218 Y80.638 E0.04099
G1 X127.871 Y80.638 E0.04224
G1 X127.566 Y80.321 F10800.000
G1 X129.610 Y77.343
G1 F1200.000
G1 X128.939 Y76.672 E0.03094
G1 X128.385 Y76.672 E0.01808
G1 X129.440 Y77.728 E0.04869
G1 X129.440 Y78.282 E0.01808
G1 X127.830 Y76.672 E0.07426
G1 X127.275 Y76.672 E0.01808
G1 X129.440 Y78.837 E0.09983
G1 X129.440 Y79.392 E0.01808
G1 X126.721 Y76.672 E0.12540
G1 X126.671 Y76.672 E0.00163
G1 X126.419 Y76.924 E0.01163
G1 X129.187 Y79.693 E0.12768
G1 X128.927 Y79.978 E0.01257
G1 X126.180 Y77.241 E0.12644
G1 X126.180 Y77.795 E0.01808
G1 X128.363 Y79.978 E0.10064
G1 X127.808 Y79.978 E0.01808
G1 X126.180 Y78.350 E0.07507
G1 X126.180 Y78.904 E0.01808
G1 X127.254 Y79.978 E0.04950
G1 X126.699 Y79.978 E0.01808
G1 X126.010 Y79.289 E0.03175
G1 E-0.80000 F2100.00000
G1 Z0.800 F10800.000
G1 X132.829 Y80.643
G1 Z0.200
G1 E0.80000 F2100.00000
G1 F1200.000
G1 X143.668 Y69.805 E0.48059
G1 X143.135 Y69.272 E0.02365
G1 X132.416 Y79.990 E0.47527
G1 X131.883 Y79.457 E0.02365
G1 X142.601 Y68.738 E0.47527
G1 X142.068 Y68.205 E0.02365
G1 X132.981 Y77.292 E0.40294
G1 X132.448 Y76.759 E0.02365
G1 X141.535 Y67.672 E0.40294
G1 X141.002 Y67.138 E0.02365
G1 X131.914 Y76.226 E0.40294
G1 X131.381 Y75.692 E0.02365
G1 X140.468 Y66.605 E0.40294
G1 X140.442 Y66.579 E0.00118
G1 X138.810 Y68.210 E0.07234
G1 X138.304 Y67.703 E0.02247
G1 X132.479 Y73.528 E0.25826
G1 X131.946 Y72.994 E0.02365
G1 X137.770 Y67.170 E0.25826
G1 X137.237 Y66.637 E0.02365
G1 X131.293 Y72.581 E0.26358
G1 E-0.80000 F2100.00000
G1 Z0.800 F10800.000
G1 X132.735 Y90.337
G1 Z0.200
G1 E0.80000 F2100.00000
G1 F1200.000
G1 X139.634 Y83.438 E0.30592
G1 X138.567 Y83.438 E0.03344
G1 X132.322 Y89.683 E0.27695
G1 X131.788 Y89.150 E0.02365
G1 X137.501 Y83.438 E0.25331
G1 X137.200 Y83.438 E0.00945
G1 X136.997 Y83.348 E0.00694
G1 X136.771 Y83.101 E0.01050
G1 X131.255 Y88.617 E0.24458
G1 X130.722 Y88.084 E0.02365
G1 X136.261 Y82.544 E0.24563
G1 X135.856 Y82.101 E0.01884
G1 X135.795 Y81.944 E0.00528
G1 X130.188 Y87.550 E0.24859
G1 X129.723 Y87.085 E0.02063
G1 X134.617 Y82.191 E0.21701
G1 X134.549 Y82.123 E0.00302
G1 X135.784 Y80.888 E0.05476
G1 X135.784 Y79.821 E0.03344
G1 X134.016 Y81.590 E0.07841
G1 X133.483 Y81.057 E0.02365
G1 X144.201 Y70.338 E0.47527
G1 X144.734 Y70.871 E0.02365
G1 X138.266 Y77.340 E0.28684
G1 X139.332 Y77.340 E0.03344
G1 X145.268 Y71.405 E0.26319
G1 X145.801 Y71.938 E0.02365
G1 X140.399 Y77.340 E0.23955
G1 X140.608 Y77.420 E0.00704
G1 X140.997 Y77.809 E0.01722
G1 X144.703 Y74.102 E0.16434
G1 X145.236 Y74.636 E0.02365
G1 X141.530 Y78.342 E0.16435
G1 X141.756 Y78.569 E0.01005
G1 X141.836 Y78.762 E0.00656
G1 X141.836 Y79.102 E0.01066
G1 X145.769 Y75.169 E0.17440
G1 X146.266 Y75.666 E0.02202
G1 X144.635 Y77.297 E0.07234
G1 X144.671 Y77.334 E0.00162
G1 X141.836 Y80.169 E0.12571
G1 X141.836 Y81.235 E0.03344
G1 X145.205 Y77.867 E0.14935
G1 X145.738 Y78.400 E0.02365
G1 X133.388 Y90.750 E0.54761
G1 X133.921 Y91.283 E0.02365
