; generated by PrusaSlicer 2.2.0+win64 on 2020-12-28 at 21:25:15 UTC

; 

; external perimeters extrusion width = 0.60mm
; perimeters extrusion width = 0.43mm
; infill extrusion width = 0.45mm
; solid infill extrusion width = 0.70mm
; top infill extrusion width = 0.43mm
; first layer extrusion width = 0.42mm

M73 P0 R61
M201 X9000 Y9000 Z500 E10000 ; sets maximum accelerations, mm/sec^2
M203 X500 Y500 Z12 E120 ; sets maximum feedrates, mm/sec
M204 P2000 R1500 T2000 ; sets acceleration (P, T) and retract acceleration (R), mm/sec^2
M205 X10.00 Y10.00 Z0.20 E2.50 ; sets the jerk limits, mm/sec
M205 S0 T0 ; sets the minimum extruding and travel feed rate, mm/sec
M107
M862.3 P "MK2S" ; printer model check
M862.1 P0.4 ; nozzle diameter check
M115 U3.2.3 ; tell printer latest fw version
G90 ; use absolute coordinates
M83 ; extruder relative mode
M204 S2000 T1500 ; MK2 firmware only supports the old M204 format
M104 S215 ; set extruder temp
M140 S60 ; set bed temp
M190 S60 ; wait for bed temp
M109 S215 ; wait for extruder temp
G28 W ; home all without mesh bed level
G80 ; mesh bed leveling
G1 Y-3.0 F1000.0 ; go outside print area
G92 E0.0
G1 X60.0 E9.0  F1000.0 ; intro line
M73 P0 R61
G1 X100.0 E12.5 F1000.0 ; intro line
G92 E0.0
G21 ; set units to millimeters
G90 ; use absolute coordinates
M83 ; use relative distances for extrusion
M900 K0.06 ; Filament gcode LA 1.5
M900 K30 ; Filament gcode LA 1.0
;BEFORE_LAYER_CHANGE
G92 E0.0
;0.2


G1 E-0.80000 F2100.00000
G1 Z0.600 F10800.000
;AFTER_LAYER_CHANGE
;0.2
G1 X11.102 Y69.725
G1 Z0.200
G1 E0.80000 F2100.00000
M204 S1000
G1 F1200.000
G1 X11.790 Y69.623 E0.02181
G1 X238.245 Y69.623 E7.10034
G1 X239.147 Y69.802 E0.02884
G1 X239.916 Y70.313 E0.02896
G1 X240.431 Y71.076 E0.02884
G1 X240.618 Y71.976 E0.02884
G1 X240.618 Y138.057 E2.07193
G1 X240.485 Y138.785 E0.02319
G1 X240.133 Y139.440 E0.02331
G1 X239.599 Y139.951 E0.02319
G1 X238.929 Y140.275 E0.02331
G1 X238.241 Y140.377 E0.02181
G1 X11.775 Y140.377 E7.10069
G1 X11.034 Y140.254 E0.02355
G1 X10.369 Y139.905 E0.02355
G1 X9.845 Y139.367 E0.02355
G1 X9.515 Y138.688 E0.02367
G1 X9.413 Y138.005 E0.02166
G1 X9.414 Y71.947 E2.07121
G1 X9.546 Y71.215 E0.02331
G1 X9.898 Y70.560 E0.02331
G1 X10.433 Y70.049 E0.02319
G1 X11.048 Y69.751 E0.02143
G1 X12.577 Y72.787 F10800.000
G1 F1200.000
G1 X237.454 Y72.787 E7.05086
G1 X237.454 Y83.213 E0.32689
G1 X12.577 Y83.213 E7.05086
G1 X12.577 Y72.847 E0.32501
G1 X12.200 Y72.410 F10800.000
G1 F1200.000
G1 X237.831 Y72.410 E7.07451
M73 P1 R60
G1 X237.831 Y83.590 E0.35054
G1 X12.200 Y83.590 E7.07451
G1 X12.200 Y72.470 E0.34866
G1 X12.600 Y72.417 F10800.000
G1 E-0.80000 F2100.00000
G1 Z0.800 F10800.000
G1 X237.341 Y73.663
G1 Z0.200
G1 E0.80000 F2100.00000
G1 F1200.000
G1 X236.747 Y73.070 E0.02635
G1 X236.213 Y73.070 E0.01676
G1 X237.171 Y74.028 E0.04252
G1 X237.171 Y74.562 E0.01676
G1 X235.680 Y73.070 E0.06623
G1 X235.146 Y73.070 E0.01676
G1 X237.171 Y75.096 E0.08993
G1 X237.171 Y75.629 E0.01676
G1 X234.612 Y73.070 E0.11363
G1 X234.078 Y73.070 E0.01676
G1 X237.171 Y76.163 E0.13734
G1 X237.171 Y76.697 E0.01676
G1 X233.544 Y73.070 E0.16104
G1 X233.010 Y73.070 E0.01676
G1 X237.171 Y77.231 E0.18475
G1 X237.171 Y77.765 E0.01676
G1 X232.476 Y73.070 E0.20845
G1 X231.942 Y73.070 E0.01676
G1 X237.171 Y78.299 E0.23215
G1 X237.171 Y78.833 E0.01676
G1 X231.408 Y73.070 E0.25586
G1 X230.874 Y73.070 E0.01676
G1 X237.171 Y79.367 E0.27956
G1 X237.171 Y79.901 E0.01676
G1 X230.340 Y73.070 E0.30327
G1 X229.806 Y73.070 E0.01676
G1 X237.171 Y80.435 E0.32697
G1 X237.171 Y80.969 E0.01676
G1 X229.272 Y73.070 E0.35067
G1 X228.739 Y73.070 E0.01676
G1 X237.171 Y81.503 E0.37438
G1 X237.171 Y82.037 E0.01676
G1 X228.205 Y73.070 E0.39808
G1 X227.671 Y73.070 E0.01676
G1 X237.171 Y82.570 E0.42178
G1 X237.171 Y82.930 E0.01129
G1 X236.997 Y82.930 E0.00547
G1 X227.137 Y73.070 E0.43775
G1 X226.603 Y73.070 E0.01676
G1 X236.463 Y82.930 E0.43775
G1 X235.929 Y82.930 E0.01676
G1 X226.069 Y73.070 E0.43775
G1 X225.535 Y73.070 E0.01676
G1 X235.395 Y82.930 E0.43775
G1 X234.861 Y82.930 E0.01676
G1 X225.001 Y73.070 E0.43775
G1 X224.467 Y73.070 E0.01676
G1 X234.327 Y82.930 E0.43775
G1 X233.794 Y82.930 E0.01676
G1 X223.933 Y73.070 E0.43775
G1 X223.399 Y73.070 E0.01676
G1 X233.260 Y82.930 E0.43775
G1 X232.726 Y82.930 E0.01676
G1 X222.865 Y73.070 E0.43775
G1 X222.332 Y73.070 E0.01676
G1 X232.192 Y82.930 E0.43775
G1 X231.658 Y82.930 E0.01676
G1 X221.798 Y73.070 E0.43775
G1 X221.264 Y73.070 E0.01676
G1 X231.124 Y82.930 E0.43775
G1 X230.590 Y82.930 E0.01676
G1 X220.730 Y73.070 E0.43775
G1 X220.196 Y73.070 E0.01676
G1 X230.056 Y82.930 E0.43775
G1 X229.522 Y82.930 E0.01676
G1 X219.662 Y73.070 E0.43775
G1 X219.128 Y73.070 E0.01676
G1 X228.988 Y82.930 E0.43775
G1 X228.454 Y82.930 E0.01676
G1 X218.594 Y73.070 E0.43775
G1 X218.060 Y73.070 E0.01676
G1 X227.920 Y82.930 E0.43775
G1 X227.386 Y82.930 E0.01676
G1 X217.526 Y73.070 E0.43775
G1 X216.992 Y73.070 E0.01676
G1 X226.853 Y82.930 E0.43775
G1 X226.319 Y82.930 E0.01676
G1 X216.458 Y73.070 E0.43775
G1 X215.924 Y73.070 E0.01676
G1 X225.785 Y82.930 E0.43775
G1 X225.251 Y82.930 E0.01676
G1 X215.391 Y73.070 E0.43775
G1 X214.857 Y73.070 E0.01676
G1 X224.717 Y82.930 E0.43775
G1 X224.183 Y82.930 E0.01676
G1 X214.323 Y73.070 E0.43775
G1 X213.789 Y73.070 E0.01676
G1 X223.649 Y82.930 E0.43775
G1 X223.115 Y82.930 E0.01676
G1 X213.255 Y73.070 E0.43775
G1 X212.721 Y73.070 E0.01676
G1 X222.581 Y82.930 E0.43775
G1 X222.047 Y82.930 E0.01676
G1 X212.187 Y73.070 E0.43775
G1 X211.653 Y73.070 E0.01676
G1 X221.513 Y82.930 E0.43775
G1 X220.979 Y82.930 E0.01676
G1 X211.119 Y73.070 E0.43775
G1 X210.585 Y73.070 E0.01676
G1 X220.445 Y82.930 E0.43775
G1 X219.912 Y82.930 E0.01676
G1 X210.051 Y73.070 E0.43775
G1 X209.517 Y73.070 E0.01676
G1 X219.378 Y82.930 E0.43775
G1 X218.844 Y82.930 E0.01676
G1 X208.983 Y73.070 E0.43775
G1 X208.450 Y73.070 E0.01676
G1 X218.310 Y82.930 E0.43775
G1 X217.776 Y82.930 E0.01676
G1 X207.916 Y73.070 E0.43775
G1 X207.382 Y73.070 E0.01676
G1 X217.242 Y82.930 E0.43775
G1 X216.708 Y82.930 E0.01676
G1 X206.848 Y73.070 E0.43775
G1 X206.314 Y73.070 E0.01676
G1 X216.174 Y82.930 E0.43775
G1 X215.640 Y82.930 E0.01676
G1 X205.780 Y73.070 E0.43775
G1 X205.246 Y73.070 E0.01676
G1 X215.106 Y82.930 E0.43775
G1 X214.572 Y82.930 E0.01676
G1 X204.712 Y73.070 E0.43775
G1 X204.178 Y73.070 E0.01676
G1 X214.038 Y82.930 E0.43775
G1 X213.504 Y82.930 E0.01676
G1 X203.644 Y73.070 E0.43775
G1 X203.110 Y73.070 E0.01676
G1 X212.971 Y82.930 E0.43775
G1 X212.437 Y82.930 E0.01676
G1 X202.576 Y73.070 E0.43775
G1 X202.042 Y73.070 E0.01676
G1 X211.903 Y82.930 E0.43775
G1 X211.369 Y82.930 E0.01676
G1 X201.509 Y73.070 E0.43775
G1 X200.975 Y73.070 E0.01676
G1 X210.835 Y82.930 E0.43775
G1 X210.301 Y82.930 E0.01676
G1 X200.441 Y73.070 E0.43775
G1 X199.907 Y73.070 E0.01676
G1 X209.767 Y82.930 E0.43775
G1 X209.233 Y82.930 E0.01676
G1 X199.373 Y73.070 E0.43775
G1 X198.839 Y73.070 E0.01676
G1 X208.699 Y82.930 E0.43775
M73 P3 R59
G1 X208.165 Y82.930 E0.01676
G1 X198.305 Y73.070 E0.43775
G1 X197.771 Y73.070 E0.01676
G1 X207.631 Y82.930 E0.43775
G1 X207.097 Y82.930 E0.01676
G1 X197.237 Y73.070 E0.43775
G1 X196.703 Y73.070 E0.01676
G1 X206.563 Y82.930 E0.43775
G1 X206.030 Y82.930 E0.01676
G1 X196.169 Y73.070 E0.43775
G1 X195.635 Y73.070 E0.01676
G1 X205.496 Y82.930 E0.43775
G1 X204.962 Y82.930 E0.01676
G1 X195.101 Y73.070 E0.43775
G1 X194.568 Y73.070 E0.01676
G1 X204.428 Y82.930 E0.43775
G1 X203.894 Y82.930 E0.01676
G1 X194.034 Y73.070 E0.43775
G1 X193.500 Y73.070 E0.01676
G1 X203.360 Y82.930 E0.43775
G1 X202.826 Y82.930 E0.01676
G1 X192.966 Y73.070 E0.43775
G1 X192.432 Y73.070 E0.01676
G1 X202.292 Y82.930 E0.43775
G1 X201.758 Y82.930 E0.01676
G1 X191.898 Y73.070 E0.43775
G1 X191.364 Y73.070 E0.01676
G1 X201.224 Y82.930 E0.43775
G1 X200.690 Y82.930 E0.01676
G1 X190.830 Y73.070 E0.43775
G1 X190.296 Y73.070 E0.01676
G1 X200.156 Y82.930 E0.43775
G1 X199.622 Y82.930 E0.01676
G1 X189.762 Y73.070 E0.43775
G1 X189.228 Y73.070 E0.01676
G1 X199.089 Y82.930 E0.43775
G1 X198.555 Y82.930 E0.01676
G1 X188.694 Y73.070 E0.43775
G1 X188.160 Y73.070 E0.01676
G1 X198.021 Y82.930 E0.43775
G1 X197.487 Y82.930 E0.01676
G1 X187.627 Y73.070 E0.43775
G1 X187.093 Y73.070 E0.01676
G1 X196.953 Y82.930 E0.43775
G1 X196.419 Y82.930 E0.01676
G1 X186.559 Y73.070 E0.43775
G1 X186.025 Y73.070 E0.01676
G1 X195.885 Y82.930 E0.43775
G1 X195.351 Y82.930 E0.01676
G1 X185.491 Y73.070 E0.43775
G1 X184.957 Y73.070 E0.01676
G1 X194.817 Y82.930 E0.43775
G1 X194.283 Y82.930 E0.01676
G1 X184.423 Y73.070 E0.43775
G1 X183.889 Y73.070 E0.01676
G1 X193.749 Y82.930 E0.43775
G1 X193.215 Y82.930 E0.01676
G1 X183.355 Y73.070 E0.43775
G1 X182.821 Y73.070 E0.01676
G1 X192.682 Y82.930 E0.43775
G1 X192.148 Y82.930 E0.01676
G1 X182.287 Y73.070 E0.43775
G1 X181.753 Y73.070 E0.01676
G1 X191.614 Y82.930 E0.43775
G1 X191.080 Y82.930 E0.01676
G1 X181.219 Y73.070 E0.43775
G1 X180.686 Y73.070 E0.01676
G1 X190.546 Y82.930 E0.43775
G1 X190.012 Y82.930 E0.01676
G1 X180.152 Y73.070 E0.43775
G1 X179.618 Y73.070 E0.01676
G1 X189.478 Y82.930 E0.43775
G1 X188.944 Y82.930 E0.01676
G1 X179.084 Y73.070 E0.43775
G1 X178.550 Y73.070 E0.01676
G1 X188.410 Y82.930 E0.43775
G1 X187.876 Y82.930 E0.01676
G1 X178.016 Y73.070 E0.43775
G1 X177.482 Y73.070 E0.01676
G1 X187.342 Y82.930 E0.43775
G1 X186.808 Y82.930 E0.01676
G1 X176.948 Y73.070 E0.43775
G1 X176.414 Y73.070 E0.01676
G1 X186.274 Y82.930 E0.43775
G1 X185.741 Y82.930 E0.01676
G1 X175.880 Y73.070 E0.43775
G1 X175.346 Y73.070 E0.01676
G1 X185.207 Y82.930 E0.43775
G1 X184.673 Y82.930 E0.01676
G1 X174.812 Y73.070 E0.43775
G1 X174.279 Y73.070 E0.01676
G1 X184.139 Y82.930 E0.43775
G1 X183.605 Y82.930 E0.01676
G1 X173.745 Y73.070 E0.43775
G1 X173.211 Y73.070 E0.01676
G1 X183.071 Y82.930 E0.43775
G1 X182.537 Y82.930 E0.01676
G1 X172.677 Y73.070 E0.43775
G1 X172.143 Y73.070 E0.01676
G1 X182.003 Y82.930 E0.43775
G1 X181.469 Y82.930 E0.01676
G1 X171.609 Y73.070 E0.43775
G1 X171.075 Y73.070 E0.01676
G1 X180.935 Y82.930 E0.43775
G1 X180.401 Y82.930 E0.01676
G1 X170.541 Y73.070 E0.43775
G1 X170.007 Y73.070 E0.01676
G1 X179.867 Y82.930 E0.43775
G1 X179.333 Y82.930 E0.01676
G1 X169.473 Y73.070 E0.43775
G1 X168.939 Y73.070 E0.01676
G1 X178.800 Y82.930 E0.43775
G1 X178.266 Y82.930 E0.01676
G1 X168.405 Y73.070 E0.43775
G1 X167.871 Y73.070 E0.01676
G1 X177.732 Y82.930 E0.43775
G1 X177.198 Y82.930 E0.01676
G1 X167.338 Y73.070 E0.43775
G1 X166.804 Y73.070 E0.01676
G1 X176.664 Y82.930 E0.43775
G1 X176.130 Y82.930 E0.01676
G1 X166.270 Y73.070 E0.43775
G1 X165.736 Y73.070 E0.01676
G1 X175.596 Y82.930 E0.43775
G1 X175.062 Y82.930 E0.01676
G1 X165.202 Y73.070 E0.43775
G1 X164.668 Y73.070 E0.01676
G1 X174.528 Y82.930 E0.43775
G1 X173.994 Y82.930 E0.01676
G1 X164.134 Y73.070 E0.43775
G1 X163.600 Y73.070 E0.01676
G1 X173.460 Y82.930 E0.43775
G1 X172.926 Y82.930 E0.01676
G1 X163.066 Y73.070 E0.43775
G1 X162.532 Y73.070 E0.01676
G1 X172.392 Y82.930 E0.43775
G1 X171.859 Y82.930 E0.01676
G1 X161.998 Y73.070 E0.43775
G1 X161.464 Y73.070 E0.01676
G1 X171.325 Y82.930 E0.43775
G1 X170.791 Y82.930 E0.01676
G1 X160.930 Y73.070 E0.43775
G1 X160.397 Y73.070 E0.01676
G1 X170.257 Y82.930 E0.43775
G1 X169.723 Y82.930 E0.01676
G1 X159.863 Y73.070 E0.43775
G1 X159.329 Y73.070 E0.01676
G1 X169.189 Y82.930 E0.43775
G1 X168.655 Y82.930 E0.01676
G1 X158.795 Y73.070 E0.43775
G1 X158.261 Y73.070 E0.01676
G1 X168.121 Y82.930 E0.43775
G1 X167.587 Y82.930 E0.01676
G1 X157.727 Y73.070 E0.43775
G1 X157.193 Y73.070 E0.01676
G1 X167.053 Y82.930 E0.43775
G1 X166.519 Y82.930 E0.01676
G1 X156.659 Y73.070 E0.43775
G1 X156.125 Y73.070 E0.01676
G1 X165.985 Y82.930 E0.43775
G1 X165.451 Y82.930 E0.01676
G1 X155.591 Y73.070 E0.43775
G1 X155.057 Y73.070 E0.01676
G1 X164.918 Y82.930 E0.43775
G1 X164.384 Y82.930 E0.01676
G1 X154.523 Y73.070 E0.43775
M73 P5 R58
G1 X153.989 Y73.070 E0.01676
G1 X163.850 Y82.930 E0.43775
G1 X163.316 Y82.930 E0.01676
G1 X153.456 Y73.070 E0.43775
G1 X152.922 Y73.070 E0.01676
G1 X162.782 Y82.930 E0.43775
G1 X162.248 Y82.930 E0.01676
G1 X152.388 Y73.070 E0.43775
G1 X151.854 Y73.070 E0.01676
G1 X161.714 Y82.930 E0.43775
G1 X161.180 Y82.930 E0.01676
G1 X151.320 Y73.070 E0.43775
G1 X150.786 Y73.070 E0.01676
G1 X160.646 Y82.930 E0.43775
G1 X160.112 Y82.930 E0.01676
G1 X150.252 Y73.070 E0.43775
G1 X149.718 Y73.070 E0.01676
G1 X159.578 Y82.930 E0.43775
G1 X159.044 Y82.930 E0.01676
G1 X149.184 Y73.070 E0.43775
G1 X148.650 Y73.070 E0.01676
G1 X158.510 Y82.930 E0.43775
G1 X157.977 Y82.930 E0.01676
G1 X148.116 Y73.070 E0.43775
G1 X147.582 Y73.070 E0.01676
G1 X157.443 Y82.930 E0.43775
G1 X156.909 Y82.930 E0.01676
G1 X147.048 Y73.070 E0.43775
G1 X146.515 Y73.070 E0.01676
G1 X156.375 Y82.930 E0.43775
G1 X155.841 Y82.930 E0.01676
G1 X145.981 Y73.070 E0.43775
G1 X145.447 Y73.070 E0.01676
G1 X155.307 Y82.930 E0.43775
G1 X154.773 Y82.930 E0.01676
G1 X144.913 Y73.070 E0.43775
G1 X144.379 Y73.070 E0.01676
G1 X154.239 Y82.930 E0.43775
G1 X153.705 Y82.930 E0.01676
G1 X143.845 Y73.070 E0.43775
G1 X143.311 Y73.070 E0.01676
G1 X153.171 Y82.930 E0.43775
G1 X152.637 Y82.930 E0.01676
G1 X142.777 Y73.070 E0.43775
G1 X142.243 Y73.070 E0.01676
G1 X152.103 Y82.930 E0.43775
G1 X151.570 Y82.930 E0.01676
G1 X141.709 Y73.070 E0.43775
G1 X141.175 Y73.070 E0.01676
G1 X151.036 Y82.930 E0.43775
G1 X150.502 Y82.930 E0.01676
G1 X140.641 Y73.070 E0.43775
G1 X140.107 Y73.070 E0.01676
G1 X149.968 Y82.930 E0.43775
G1 X149.434 Y82.930 E0.01676
G1 X139.574 Y73.070 E0.43775
G1 X139.040 Y73.070 E0.01676
G1 X148.900 Y82.930 E0.43775
G1 X148.366 Y82.930 E0.01676
G1 X138.506 Y73.070 E0.43775
G1 X137.972 Y73.070 E0.01676
G1 X147.832 Y82.930 E0.43775
G1 X147.298 Y82.930 E0.01676
G1 X137.438 Y73.070 E0.43775
G1 X136.904 Y73.070 E0.01676
G1 X146.764 Y82.930 E0.43775
G1 X146.230 Y82.930 E0.01676
G1 X136.370 Y73.070 E0.43775
G1 X135.836 Y73.070 E0.01676
G1 X145.696 Y82.930 E0.43775
G1 X145.162 Y82.930 E0.01676
G1 X135.302 Y73.070 E0.43775
G1 X134.768 Y73.070 E0.01676
G1 X144.629 Y82.930 E0.43775
G1 X144.095 Y82.930 E0.01676
G1 X134.234 Y73.070 E0.43775
G1 X133.700 Y73.070 E0.01676
G1 X143.561 Y82.930 E0.43775
G1 X143.027 Y82.930 E0.01676
G1 X133.167 Y73.070 E0.43775
G1 X132.633 Y73.070 E0.01676
G1 X142.493 Y82.930 E0.43775
G1 X141.959 Y82.930 E0.01676
G1 X132.099 Y73.070 E0.43775
G1 X131.565 Y73.070 E0.01676
G1 X141.425 Y82.930 E0.43775
G1 X140.891 Y82.930 E0.01676
G1 X131.031 Y73.070 E0.43775
G1 X130.497 Y73.070 E0.01676
G1 X140.357 Y82.930 E0.43775
G1 X139.823 Y82.930 E0.01676
G1 X129.963 Y73.070 E0.43775
G1 X129.429 Y73.070 E0.01676
G1 X139.289 Y82.930 E0.43775
G1 X138.755 Y82.930 E0.01676
G1 X128.895 Y73.070 E0.43775
G1 X128.361 Y73.070 E0.01676
G1 X138.221 Y82.930 E0.43775
G1 X137.688 Y82.930 E0.01676
G1 X127.827 Y73.070 E0.43775
G1 X127.293 Y73.070 E0.01676
G1 X137.154 Y82.930 E0.43775
G1 X136.620 Y82.930 E0.01676
G1 X126.759 Y73.070 E0.43775
G1 X126.226 Y73.070 E0.01676
G1 X136.086 Y82.930 E0.43775
G1 X135.552 Y82.930 E0.01676
G1 X125.692 Y73.070 E0.43775
G1 X125.158 Y73.070 E0.01676
G1 X135.018 Y82.930 E0.43775
G1 X134.484 Y82.930 E0.01676
G1 X124.624 Y73.070 E0.43775
G1 X124.090 Y73.070 E0.01676
G1 X133.950 Y82.930 E0.43775
G1 X133.416 Y82.930 E0.01676
G1 X123.556 Y73.070 E0.43775
G1 X123.022 Y73.070 E0.01676
G1 X132.882 Y82.930 E0.43775
G1 X132.348 Y82.930 E0.01676
G1 X122.488 Y73.070 E0.43775
G1 X121.954 Y73.070 E0.01676
G1 X131.814 Y82.930 E0.43775
G1 X131.280 Y82.930 E0.01676
G1 X121.420 Y73.070 E0.43775
G1 X120.886 Y73.070 E0.01676
G1 X130.747 Y82.930 E0.43775
G1 X130.213 Y82.930 E0.01676
G1 X120.352 Y73.070 E0.43775
G1 X119.818 Y73.070 E0.01676
G1 X129.679 Y82.930 E0.43775
G1 X129.145 Y82.930 E0.01676
G1 X119.285 Y73.070 E0.43775
G1 X118.751 Y73.070 E0.01676
G1 X128.611 Y82.930 E0.43775
G1 X128.077 Y82.930 E0.01676
G1 X118.217 Y73.070 E0.43775
G1 X117.683 Y73.070 E0.01676
G1 X127.543 Y82.930 E0.43775
G1 X127.009 Y82.930 E0.01676
G1 X117.149 Y73.070 E0.43775
G1 X116.615 Y73.070 E0.01676
G1 X126.475 Y82.930 E0.43775
G1 X125.941 Y82.930 E0.01676
G1 X116.081 Y73.070 E0.43775
G1 X115.547 Y73.070 E0.01676
G1 X125.407 Y82.930 E0.43775
