; generated by PrusaSlicer 2.2.0+win64 on 2020-12-28 at 21:25:27 UTC

; 

; external perimeters extrusion width = 0.60mm
; perimeters extrusion width = 0.43mm
; infill extrusion width = 0.45mm
; solid infill extrusion width = 0.70mm
; top infill extrusion width = 0.43mm
; first layer extrusion width = 0.42mm

M73 P0 R122
M201 X9000 Y9000 Z500 E10000 ; sets maximum accelerations, mm/sec^2
M203 X500 Y500 Z12 E120 ; sets maximum feedrates, mm/sec
M204 P2000 R1500 T2000 ; sets acceleration (P, T) and retract acceleration (R), mm/sec^2
M205 X10.00 Y10.00 Z0.20 E2.50 ; sets the jerk limits, mm/sec
M205 S0 T0 ; sets the minimum extruding and travel feed rate, mm/sec
M107
M862.3 P "MK2S" ; printer model check
M862.1 P0.4 ; nozzle diameter check
M115 U3.2.3 ; tell printer latest fw version
G90 ; use absolute coordinates
M83 ; extruder relative mode
M204 S2000 T1500 ; MK2 firmware only supports the old M204 format
M104 S215 ; set extruder temp
M140 S60 ; set bed temp
M190 S60 ; wait for bed temp
M109 S215 ; wait for extruder temp
G28 W ; home all without mesh bed level
G80 ; mesh bed leveling
G1 Y-3.0 F1000.0 ; go outside print area
G92 E0.0
G1 X60.0 E9.0  F1000.0 ; intro line
M73 P0 R122
G1 X100.0 E12.5 F1000.0 ; intro line
G92 E0.0
G21 ; set units to millimeters
G90 ; use absolute coordinates
M83 ; use relative distances for extrusion
M900 K0.06 ; Filament gcode LA 1.5
M900 K30 ; Filament gcode LA 1.0
;BEFORE_LAYER_CHANGE
G92 E0.0
;0.2


G1 E-0.80000 F2100.00000
G1 Z0.600 F10800.000
;AFTER_LAYER_CHANGE
;0.2
G1 X11.138 Y33.714
G1 Z0.200
G1 E0.80000 F2100.00000
M204 S1000
G1 F1200.000
G1 X11.785 Y33.623 E0.02048
G1 X238.245 Y33.623 E7.10049
G1 X239.147 Y33.802 E0.02884
G1 X239.916 Y34.313 E0.02896
G1 X240.433 Y35.079 E0.02896
G1 X240.618 Y35.980 E0.02884
G1 X240.618 Y174.019 E4.32812
G1 X240.539 Y174.610 E0.01870
G1 X240.314 Y175.163 E0.01870
G1 X239.960 Y175.642 E0.01870
G1 X239.494 Y176.020 E0.01882
G1 X238.893 Y176.286 E0.02060
G1 X238.246 Y176.377 E0.02048
G1 X11.782 Y176.377 E7.10061
G1 X11.187 Y176.299 E0.01882
G1 X10.630 Y176.075 E0.01882
G1 X10.148 Y175.719 E0.01882
G1 X9.770 Y175.252 E0.01882
G1 X9.504 Y174.652 E0.02060
G1 X9.413 Y174.005 E0.02048
G1 X9.413 Y35.989 E4.32740
G1 X9.492 Y35.394 E0.01882
G1 X9.717 Y34.837 E0.01882
G1 X10.072 Y34.358 E0.01870
G1 X10.538 Y33.980 E0.01882
G1 X11.084 Y33.738 E0.01871
G1 E-0.80000 F2100.00000
G1 Z0.800 F10800.000
G1 X12.577 Y162.787
G1 Z0.200
G1 E0.80000 F2100.00000
G1 F1200.000
G1 X237.454 Y162.787 E7.05086
G1 X237.454 Y173.213 E0.32689
G1 X12.577 Y173.213 E7.05086
M73 P0 R121
G1 X12.577 Y162.847 E0.32501
G1 X12.200 Y162.410 F10800.000
G1 F1200.000
G1 X237.831 Y162.410 E7.07451
G1 X237.831 Y173.590 E0.35054
G1 X12.200 Y173.590 E7.07451
G1 X12.200 Y162.470 E0.34866
G1 X12.600 Y162.417 F10800.000
G1 E-0.80000 F2100.00000
G1 Z0.800 F10800.000
G1 X237.341 Y163.663
G1 Z0.200
G1 E0.80000 F2100.00000
G1 F1200.000
G1 X236.747 Y163.070 E0.02635
G1 X236.213 Y163.070 E0.01676
G1 X237.171 Y164.028 E0.04252
G1 X237.171 Y164.562 E0.01676
G1 X235.680 Y163.070 E0.06623
G1 X235.146 Y163.070 E0.01676
G1 X237.171 Y165.096 E0.08993
G1 X237.171 Y165.629 E0.01676
G1 X234.612 Y163.070 E0.11363
G1 X234.078 Y163.070 E0.01676
G1 X237.171 Y166.163 E0.13734
G1 X237.171 Y166.697 E0.01676
G1 X233.544 Y163.070 E0.16104
G1 X233.010 Y163.070 E0.01676
G1 X237.171 Y167.231 E0.18475
G1 X237.171 Y167.765 E0.01676
G1 X232.476 Y163.070 E0.20845
G1 X231.942 Y163.070 E0.01676
G1 X237.171 Y168.299 E0.23215
G1 X237.171 Y168.833 E0.01676
G1 X231.408 Y163.070 E0.25586
G1 X230.874 Y163.070 E0.01676
G1 X237.171 Y169.367 E0.27956
G1 X237.171 Y169.901 E0.01676
G1 X230.340 Y163.070 E0.30327
G1 X229.806 Y163.070 E0.01676
G1 X237.171 Y170.435 E0.32697
G1 X237.171 Y170.969 E0.01676
G1 X229.272 Y163.070 E0.35067
G1 X228.739 Y163.070 E0.01676
G1 X237.171 Y171.503 E0.37438
G1 X237.171 Y172.037 E0.01676
G1 X228.205 Y163.070 E0.39808
G1 X227.671 Y163.070 E0.01676
G1 X237.171 Y172.570 E0.42178
G1 X237.171 Y172.930 E0.01129
G1 X236.997 Y172.930 E0.00547
G1 X227.137 Y163.070 E0.43775
G1 X226.603 Y163.070 E0.01676
G1 X236.463 Y172.930 E0.43775
G1 X235.929 Y172.930 E0.01676
G1 X226.069 Y163.070 E0.43775
G1 X225.535 Y163.070 E0.01676
G1 X235.395 Y172.930 E0.43775
G1 X234.861 Y172.930 E0.01676
G1 X225.001 Y163.070 E0.43775
G1 X224.467 Y163.070 E0.01676
G1 X234.327 Y172.930 E0.43775
G1 X233.794 Y172.930 E0.01676
G1 X223.933 Y163.070 E0.43775
G1 X223.399 Y163.070 E0.01676
G1 X233.260 Y172.930 E0.43775
G1 X232.726 Y172.930 E0.01676
G1 X222.865 Y163.070 E0.43775
G1 X222.332 Y163.070 E0.01676
G1 X232.192 Y172.930 E0.43775
G1 X231.658 Y172.930 E0.01676
G1 X221.798 Y163.070 E0.43775
G1 X221.264 Y163.070 E0.01676
G1 X231.124 Y172.930 E0.43775
G1 X230.590 Y172.930 E0.01676
G1 X220.730 Y163.070 E0.43775
G1 X220.196 Y163.070 E0.01676
G1 X230.056 Y172.930 E0.43775
G1 X229.522 Y172.930 E0.01676
G1 X219.662 Y163.070 E0.43775
G1 X219.128 Y163.070 E0.01676
G1 X228.988 Y172.930 E0.43775
G1 X228.454 Y172.930 E0.01676
G1 X218.594 Y163.070 E0.43775
G1 X218.060 Y163.070 E0.01676
G1 X227.920 Y172.930 E0.43775
G1 X227.386 Y172.930 E0.01676
G1 X217.526 Y163.070 E0.43775
G1 X216.992 Y163.070 E0.01676
G1 X226.853 Y172.930 E0.43775
G1 X226.319 Y172.930 E0.01676
G1 X216.458 Y163.070 E0.43775
G1 X215.924 Y163.070 E0.01676
G1 X225.785 Y172.930 E0.43775
G1 X225.251 Y172.930 E0.01676
G1 X215.391 Y163.070 E0.43775
G1 X214.857 Y163.070 E0.01676
G1 X224.717 Y172.930 E0.43775
G1 X224.183 Y172.930 E0.01676
G1 X214.323 Y163.070 E0.43775
G1 X213.789 Y163.070 E0.01676
G1 X223.649 Y172.930 E0.43775
G1 X223.115 Y172.930 E0.01676
G1 X213.255 Y163.070 E0.43775
G1 X212.721 Y163.070 E0.01676
G1 X222.581 Y172.930 E0.43775
G1 X222.047 Y172.930 E0.01676
G1 X212.187 Y163.070 E0.43775
G1 X211.653 Y163.070 E0.01676
G1 X221.513 Y172.930 E0.43775
G1 X220.979 Y172.930 E0.01676
G1 X211.119 Y163.070 E0.43775
G1 X210.585 Y163.070 E0.01676
G1 X220.445 Y172.930 E0.43775
G1 X219.912 Y172.930 E0.01676
G1 X210.051 Y163.070 E0.43775
G1 X209.517 Y163.070 E0.01676
G1 X219.378 Y172.930 E0.43775
G1 X218.844 Y172.930 E0.01676
G1 X208.983 Y163.070 E0.43775
G1 X208.450 Y163.070 E0.01676
G1 X218.310 Y172.930 E0.43775
G1 X217.776 Y172.930 E0.01676
G1 X207.916 Y163.070 E0.43775
G1 X207.382 Y163.070 E0.01676
G1 X217.242 Y172.930 E0.43775
M73 P1 R120
G1 X216.708 Y172.930 E0.01676
G1 X206.848 Y163.070 E0.43775
G1 X206.314 Y163.070 E0.01676
G1 X216.174 Y172.930 E0.43775
G1 X215.640 Y172.930 E0.01676
G1 X205.780 Y163.070 E0.43775
G1 X205.246 Y163.070 E0.01676
G1 X215.106 Y172.930 E0.43775
G1 X214.572 Y172.930 E0.01676
G1 X204.712 Y163.070 E0.43775
G1 X204.178 Y163.070 E0.01676
G1 X214.038 Y172.930 E0.43775
G1 X213.504 Y172.930 E0.01676
G1 X203.644 Y163.070 E0.43775
G1 X203.110 Y163.070 E0.01676
G1 X212.971 Y172.930 E0.43775
G1 X212.437 Y172.930 E0.01676
G1 X202.576 Y163.070 E0.43775
G1 X202.042 Y163.070 E0.01676
G1 X211.903 Y172.930 E0.43775
G1 X211.369 Y172.930 E0.01676
G1 X201.509 Y163.070 E0.43775
G1 X200.975 Y163.070 E0.01676
G1 X210.835 Y172.930 E0.43775
G1 X210.301 Y172.930 E0.01676
G1 X200.441 Y163.070 E0.43775
G1 X199.907 Y163.070 E0.01676
G1 X209.767 Y172.930 E0.43775
G1 X209.233 Y172.930 E0.01676
G1 X199.373 Y163.070 E0.43775
G1 X198.839 Y163.070 E0.01676
G1 X208.699 Y172.930 E0.43775
G1 X208.165 Y172.930 E0.01676
G1 X198.305 Y163.070 E0.43775
G1 X197.771 Y163.070 E0.01676
G1 X207.631 Y172.930 E0.43775
G1 X207.097 Y172.930 E0.01676
G1 X197.237 Y163.070 E0.43775
G1 X196.703 Y163.070 E0.01676
G1 X206.563 Y172.930 E0.43775
G1 X206.030 Y172.930 E0.01676
G1 X196.169 Y163.070 E0.43775
G1 X195.635 Y163.070 E0.01676
G1 X205.496 Y172.930 E0.43775
G1 X204.962 Y172.930 E0.01676
G1 X195.101 Y163.070 E0.43775
G1 X194.568 Y163.070 E0.01676
G1 X204.428 Y172.930 E0.43775
G1 X203.894 Y172.930 E0.01676
G1 X194.034 Y163.070 E0.43775
G1 X193.500 Y163.070 E0.01676
G1 X203.360 Y172.930 E0.43775
G1 X202.826 Y172.930 E0.01676
G1 X192.966 Y163.070 E0.43775
G1 X192.432 Y163.070 E0.01676
G1 X202.292 Y172.930 E0.43775
G1 X201.758 Y172.930 E0.01676
G1 X191.898 Y163.070 E0.43775
G1 X191.364 Y163.070 E0.01676
G1 X201.224 Y172.930 E0.43775
G1 X200.690 Y172.930 E0.01676
G1 X190.830 Y163.070 E0.43775
G1 X190.296 Y163.070 E0.01676
G1 X200.156 Y172.930 E0.43775
G1 X199.622 Y172.930 E0.01676
G1 X189.762 Y163.070 E0.43775
G1 X189.228 Y163.070 E0.01676
G1 X199.089 Y172.930 E0.43775
G1 X198.555 Y172.930 E0.01676
G1 X188.694 Y163.070 E0.43775
G1 X188.160 Y163.070 E0.01676
G1 X198.021 Y172.930 E0.43775
G1 X197.487 Y172.930 E0.01676
G1 X187.627 Y163.070 E0.43775
G1 X187.093 Y163.070 E0.01676
G1 X196.953 Y172.930 E0.43775
G1 X196.419 Y172.930 E0.01676
G1 X186.559 Y163.070 E0.43775
G1 X186.025 Y163.070 E0.01676
G1 X195.885 Y172.930 E0.43775
G1 X195.351 Y172.930 E0.01676
G1 X185.491 Y163.070 E0.43775
G1 X184.957 Y163.070 E0.01676
G1 X194.817 Y172.930 E0.43775
G1 X194.283 Y172.930 E0.01676
G1 X184.423 Y163.070 E0.43775
G1 X183.889 Y163.070 E0.01676
G1 X193.749 Y172.930 E0.43775
G1 X193.215 Y172.930 E0.01676
G1 X183.355 Y163.070 E0.43775
G1 X182.821 Y163.070 E0.01676
G1 X192.682 Y172.930 E0.43775
G1 X192.148 Y172.930 E0.01676
G1 X182.287 Y163.070 E0.43775
G1 X181.753 Y163.070 E0.01676
G1 X191.614 Y172.930 E0.43775
G1 X191.080 Y172.930 E0.01676
G1 X181.219 Y163.070 E0.43775
G1 X180.686 Y163.070 E0.01676
G1 X190.546 Y172.930 E0.43775
G1 X190.012 Y172.930 E0.01676
G1 X180.152 Y163.070 E0.43775
G1 X179.618 Y163.070 E0.01676
G1 X189.478 Y172.930 E0.43775
G1 X188.944 Y172.930 E0.01676
G1 X179.084 Y163.070 E0.43775
G1 X178.550 Y163.070 E0.01676
G1 X188.410 Y172.930 E0.43775
G1 X187.876 Y172.930 E0.01676
G1 X178.016 Y163.070 E0.43775
G1 X177.482 Y163.070 E0.01676
G1 X187.342 Y172.930 E0.43775
G1 X186.808 Y172.930 E0.01676
G1 X176.948 Y163.070 E0.43775
G1 X176.414 Y163.070 E0.01676
G1 X186.274 Y172.930 E0.43775
G1 X185.741 Y172.930 E0.01676
G1 X175.880 Y163.070 E0.43775
G1 X175.346 Y163.070 E0.01676
G1 X185.207 Y172.930 E0.43775
G1 X184.673 Y172.930 E0.01676
G1 X174.812 Y163.070 E0.43775
G1 X174.279 Y163.070 E0.01676
G1 X184.139 Y172.930 E0.43775
G1 X183.605 Y172.930 E0.01676
G1 X173.745 Y163.070 E0.43775
G1 X173.211 Y163.070 E0.01676
G1 X183.071 Y172.930 E0.43775
G1 X182.537 Y172.930 E0.01676
G1 X172.677 Y163.070 E0.43775
G1 X172.143 Y163.070 E0.01676
G1 X182.003 Y172.930 E0.43775
G1 X181.469 Y172.930 E0.01676
G1 X171.609 Y163.070 E0.43775
G1 X171.075 Y163.070 E0.01676
G1 X180.935 Y172.930 E0.43775
G1 X180.401 Y172.930 E0.01676
G1 X170.541 Y163.070 E0.43775
G1 X170.007 Y163.070 E0.01676
G1 X179.867 Y172.930 E0.43775
G1 X179.333 Y172.930 E0.01676
G1 X169.473 Y163.070 E0.43775
G1 X168.939 Y163.070 E0.01676
G1 X178.800 Y172.930 E0.43775
G1 X178.266 Y172.930 E0.01676
G1 X168.405 Y163.070 E0.43775
G1 X167.871 Y163.070 E0.01676
G1 X177.732 Y172.930 E0.43775
G1 X177.198 Y172.930 E0.01676
G1 X167.338 Y163.070 E0.43775
G1 X166.804 Y163.070 E0.01676
G1 X176.664 Y172.930 E0.43775
G1 X176.130 Y172.930 E0.01676
G1 X166.270 Y163.070 E0.43775
G1 X165.736 Y163.070 E0.01676
G1 X175.596 Y172.930 E0.43775
G1 X175.062 Y172.930 E0.01676
G1 X165.202 Y163.070 E0.43775
G1 X164.668 Y163.070 E0.01676
G1 X174.528 Y172.930 E0.43775
G1 X173.994 Y172.930 E0.01676
G1 X164.134 Y163.070 E0.43775
G1 X163.600 Y163.070 E0.01676
G1 X173.460 Y172.930 E0.43775
G1 X172.926 Y172.930 E0.01676
G1 X163.066 Y163.070 E0.43775
M73 P2 R119
G1 X162.532 Y163.070 E0.01676
G1 X172.392 Y172.930 E0.43775
G1 X171.859 Y172.930 E0.01676
G1 X161.998 Y163.070 E0.43775
G1 X161.464 Y163.070 E0.01676
G1 X171.325 Y172.930 E0.43775
G1 X170.791 Y172.930 E0.01676
G1 X160.930 Y163.070 E0.43775
G1 X160.397 Y163.070 E0.01676
G1 X170.257 Y172.930 E0.43775
G1 X169.723 Y172.930 E0.01676
G1 X159.863 Y163.070 E0.43775
G1 X159.329 Y163.070 E0.01676
G1 X169.189 Y172.930 E0.43775
G1 X168.655 Y172.930 E0.01676
G1 X158.795 Y163.070 E0.43775
G1 X158.261 Y163.070 E0.01676
G1 X168.121 Y172.930 E0.43775
G1 X167.587 Y172.930 E0.01676
G1 X157.727 Y163.070 E0.43775
G1 X157.193 Y163.070 E0.01676
G1 X167.053 Y172.930 E0.43775
G1 X166.519 Y172.930 E0.01676
G1 X156.659 Y163.070 E0.43775
G1 X156.125 Y163.070 E0.01676
G1 X165.985 Y172.930 E0.43775
G1 X165.451 Y172.930 E0.01676
G1 X155.591 Y163.070 E0.43775
G1 X155.057 Y163.070 E0.01676
G1 X164.918 Y172.930 E0.43775
G1 X164.384 Y172.930 E0.01676
G1 X154.523 Y163.070 E0.43775
G1 X153.989 Y163.070 E0.01676
G1 X163.850 Y172.930 E0.43775
G1 X163.316 Y172.930 E0.01676
G1 X153.456 Y163.070 E0.43775
G1 X152.922 Y163.070 E0.01676
G1 X162.782 Y172.930 E0.43775
G1 X162.248 Y172.930 E0.01676
G1 X152.388 Y163.070 E0.43775
G1 X151.854 Y163.070 E0.01676
G1 X161.714 Y172.930 E0.43775
G1 X161.180 Y172.930 E0.01676
G1 X151.320 Y163.070 E0.43775
G1 X150.786 Y163.070 E0.01676
G1 X160.646 Y172.930 E0.43775
G1 X160.112 Y172.930 E0.01676
G1 X150.252 Y163.070 E0.43775
G1 X149.718 Y163.070 E0.01676
G1 X159.578 Y172.930 E0.43775
G1 X159.044 Y172.930 E0.01676
G1 X149.184 Y163.070 E0.43775
G1 X148.650 Y163.070 E0.01676
G1 X158.510 Y172.930 E0.43775
G1 X157.977 Y172.930 E0.01676
G1 X148.116 Y163.070 E0.43775
G1 X147.582 Y163.070 E0.01676
G1 X157.443 Y172.930 E0.43775
G1 X156.909 Y172.930 E0.01676
G1 X147.048 Y163.070 E0.43775
G1 X146.515 Y163.070 E0.01676
G1 X156.375 Y172.930 E0.43775
G1 X155.841 Y172.930 E0.01676
G1 X145.981 Y163.070 E0.43775
G1 X145.447 Y163.070 E0.01676
G1 X155.307 Y172.930 E0.43775
G1 X154.773 Y172.930 E0.01676
G1 X144.913 Y163.070 E0.43775
G1 X144.379 Y163.070 E0.01676
G1 X154.239 Y172.930 E0.43775
G1 X153.705 Y172.930 E0.01676
G1 X143.845 Y163.070 E0.43775
G1 X143.311 Y163.070 E0.01676
G1 X153.171 Y172.930 E0.43775
G1 X152.637 Y172.930 E0.01676
G1 X142.777 Y163.070 E0.43775
G1 X142.243 Y163.070 E0.01676
G1 X152.103 Y172.930 E0.43775
G1 X151.570 Y172.930 E0.01676
G1 X141.709 Y163.070 E0.43775
G1 X141.175 Y163.070 E0.01676
G1 X151.036 Y172.930 E0.43775
G1 X150.502 Y172.930 E0.01676
G1 X140.641 Y163.070 E0.43775
G1 X140.107 Y163.070 E0.01676
G1 X149.968 Y172.930 E0.43775
G1 X149.434 Y172.930 E0.01676
G1 X139.574 Y163.070 E0.43775
G1 X139.040 Y163.070 E0.01676
G1 X148.900 Y172.930 E0.43775
G1 X148.366 Y172.930 E0.01676
G1 X138.506 Y163.070 E0.43775
G1 X137.972 Y163.070 E0.01676
G1 X147.832 Y172.930 E0.43775
G1 X147.298 Y172.930 E0.01676
G1 X137.438 Y163.070 E0.43775
G1 X136.904 Y163.070 E0.01676
G1 X146.764 Y172.930 E0.43775
G1 X146.230 Y172.930 E0.01676
G1 X136.370 Y163.070 E0.43775
G1 X135.836 Y163.070 E0.01676
G1 X145.696 Y172.930 E0.43775
G1 X145.162 Y172.930 E0.01676
G1 X135.302 Y163.070 E0.43775
G1 X134.768 Y163.070 E0.01676
G1 X144.629 Y172.930 E0.43775
G1 X144.095 Y172.930 E0.01676
G1 X134.234 Y163.070 E0.43775
G1 X133.700 Y163.070 E0.01676
G1 X143.561 Y172.930 E0.43775
G1 X143.027 Y172.930 E0.01676
G1 X133.167 Y163.070 E0.43775
G1 X132.633 Y163.070 E0.01676
G1 X142.493 Y172.930 E0.43775
G1 X141.959 Y172.930 E0.01676
G1 X132.099 Y163.070 E0.43775
G1 X131.565 Y163.070 E0.01676
G1 X141.425 Y172.930 E0.43775
G1 X140.891 Y172.930 E0.01676
G1 X131.031 Y163.070 E0.43775
G1 X130.497 Y163.070 E0.01676
G1 X140.357 Y172.930 E0.43775
G1 X139.823 Y172.930 E0.01676
G1 X129.963 Y163.070 E0.43775
G1 X129.429 Y163.070 E0.01676
G1 X139.289 Y172.930 E0.43775
G1 X138.755 Y172.930 E0.01676
G1 X128.895 Y163.070 E0.43775
G1 X128.361 Y163.070 E0.01676
G1 X138.221 Y172.930 E0.43775
G1 X137.688 Y172.930 E0.01676
G1 X127.827 Y163.070 E0.43775
G1 X127.293 Y163.070 E0.01676
G1 X137.154 Y172.930 E0.43775
G1 X136.620 Y172.930 E0.01676
G1 X126.759 Y163.070 E0.43775
G1 X126.226 Y163.070 E0.01676
G1 X136.086 Y172.930 E0.43775
G1 X135.552 Y172.930 E0.01676
G1 X125.692 Y163.070 E0.43775
G1 X125.158 Y163.070 E0.01676
G1 X135.018 Y172.930 E0.43775
G1 X134.484 Y172.930 E0.01676
G1 X124.624 Y163.070 E0.43775
G1 X124.090 Y163.070 E0.01676
G1 X133.950 Y172.930 E0.43775
G1 X133.416 Y172.930 E0.01676
G1 X123.556 Y163.070 E0.43775
G1 X123.022 Y163.070 E0.01676
G1 X132.882 Y172.930 E0.43775
G1 X132.348 Y172.930 E0.01676
G1 X122.488 Y163.070 E0.43775
G1 X121.954 Y163.070 E0.01676
G1 X131.814 Y172.930 E0.43775
G1 X131.280 Y172.930 E0.01676
G1 X121.420 Y163.070 E0.43775
G1 X120.886 Y163.070 E0.01676
