; generated by PrusaSlicer 2.1.1+win64 on 2020-01-08 at 22:27:52 UTC

; 

; external perimeters extrusion width = 0.45mm
; perimeters extrusion width = 0.45mm
; infill extrusion width = 0.45mm
; solid infill extrusion width = 0.45mm
; top infill extrusion width = 0.45mm
; first layer extrusion width = 0.42mm

M73 P0 R50
M201 X9000 Y9000 Z500 E10000 ; sets maximum accelerations, mm/sec^2
M203 X500 Y500 Z12 E120 ; sets maximum feedrates, mm/sec
M204 P2000 R1500 T2000 ; sets acceleration (P, T) and retract acceleration (R), mm/sec^2
M205 X10.00 Y10.00 Z0.20 E2.50 ; sets the jerk limits, mm/sec
M205 S0 T0 ; sets the minimum extruding and travel feed rate, mm/sec
M107
M862.3 P "MK2S" ; printer model check
M862.1 P0.4 ; nozzle diameter check
M115 U3.2.3 ; tell printer latest fw version
G90 ; use absolute coordinates
M83 ; extruder relative mode
M204 S2000 T1500 ; MK2 firmware only supports the old M204 format
M104 S215 ; set extruder temp
M140 S60 ; set bed temp
M190 S60 ; wait for bed temp
M109 S215 ; wait for extruder temp
G28 W ; home all without mesh bed level
G80 ; mesh bed leveling
G1 Y-3.0 F1000.0 ; go outside print area
G92 E0.0
G1 X60.0 E9.0  F1000.0 ; intro line
M73 P0 R50
G1 X100.0 E12.5 F1000.0 ; intro line
G92 E0.0
G21 ; set units to millimeters
G90 ; use absolute coordinates
M83 ; use relative distances for extrusion
M900 K30 ; Filament gcode
;BEFORE_LAYER_CHANGE
G92 E0.0
;0.2


G1 E-0.80000 F2100.00000
G1 Z0.600 F10800.000
;AFTER_LAYER_CHANGE
;0.2
G1 X110.641 Y84.845
G1 Z0.200
G1 E0.80000 F2100.00000
M204 S1000
G1 F1200
G1 X110.975 Y84.430 E0.01669
G1 X111.399 Y84.108 E0.01669
G1 X111.892 Y83.898 E0.01680
G1 X112.417 Y83.813 E0.01669
G1 X137.504 Y83.811 E0.78656
G1 X138.320 Y83.971 E0.02608
G1 X139.015 Y84.421 E0.02597
G1 X139.494 Y85.097 E0.02597
G1 X139.686 Y85.903 E0.02597
G1 X139.688 Y124.018 E1.19508
G1 X139.602 Y124.609 E0.01873
G1 X139.359 Y125.155 E0.01873
G1 X139.020 Y125.575 E0.01692
G1 X138.588 Y125.899 E0.01692
G1 X138.091 Y126.107 E0.01692
G1 X137.553 Y126.188 E0.01703
G1 X112.474 Y126.188 E0.78633
G1 X111.887 Y126.101 E0.01862
G1 X111.345 Y125.859 E0.01862
G1 X110.923 Y125.517 E0.01703
G1 X110.596 Y125.079 E0.01714
G1 X110.389 Y124.576 E0.01703
G1 X110.312 Y124.039 E0.01703
G1 X110.312 Y85.982 E1.19325
G1 X110.398 Y85.391 E0.01873
G1 X110.617 Y84.900 E0.01685
G1 F8640
G1 X110.975 Y84.430 E-0.13634
G1 X111.399 Y84.108 E-0.12291
G1 X111.892 Y83.898 E-0.12374
G1 X112.417 Y83.813 E-0.12291
G1 X113.518 Y83.813 E-0.25410
G1 E-0.04000 F2100.00000
G1 Z0.800 F10800.000
G1 X126.220 Y95.535
G1 Z0.200
G1 E0.80000 F2100.00000
G1 F1200
G1 X126.464 Y95.265 E0.01142
G1 X126.741 Y95.049 E0.01101
G1 X127.052 Y94.880 E0.01109
G1 X127.389 Y94.758 E0.01125
G1 X127.755 Y94.685 E0.01170
G1 X128.099 Y94.662 E0.01081
G1 X128.459 Y94.686 E0.01131
G1 X128.811 Y94.759 E0.01126
G1 X129.146 Y94.880 E0.01119
G1 X129.457 Y95.049 E0.01109
G1 X129.733 Y95.264 E0.01097
G1 X129.968 Y95.524 E0.01099
G1 X130.148 Y95.823 E0.01094
G1 X130.262 Y96.153 E0.01094
G1 X130.301 Y96.500 E0.01096
G1 X130.262 Y96.847 E0.01096
G1 X130.148 Y97.177 E0.01094
G1 X129.968 Y97.476 E0.01093
G1 X129.734 Y97.735 E0.01095
G1 X129.457 Y97.951 E0.01101
G1 X129.146 Y98.120 E0.01109
G1 X128.811 Y98.241 E0.01119
G1 X128.459 Y98.314 E0.01126
G1 X128.099 Y98.338 E0.01131
G1 X127.739 Y98.314 E0.01131
G1 X127.387 Y98.241 E0.01126
G1 X127.052 Y98.120 E0.01119
G1 X126.730 Y97.945 E0.01149
G1 X126.337 Y97.612 E0.01614
G1 X126.046 Y97.178 E0.01640
G1 X125.907 Y96.691 E0.01587
G1 X125.907 Y96.325 E0.01148
G1 X125.988 Y95.969 E0.01145
G1 X126.191 Y95.588 E0.01354
G1 X126.344 Y96.102 F10800.000
G1 F1200
G1 X126.530 Y95.753 E0.01239
G1 X126.721 Y95.542 E0.00893
G1 X126.948 Y95.366 E0.00900
G1 X127.207 Y95.225 E0.00924
G1 X127.491 Y95.123 E0.00947
G1 X127.805 Y95.059 E0.01005
G1 X128.099 Y95.040 E0.00923
G1 X128.407 Y95.060 E0.00969
G1 X128.707 Y95.123 E0.00961
G1 X128.991 Y95.225 E0.00945
G1 X129.250 Y95.366 E0.00924
G1 X129.476 Y95.541 E0.00896
G1 X129.664 Y95.749 E0.00880
G1 X129.805 Y95.983 E0.00855
G1 X129.892 Y96.236 E0.00840
G1 X129.922 Y96.500 E0.00832
G1 X129.892 Y96.764 E0.00832
G1 X129.805 Y97.017 E0.00840
G1 X129.664 Y97.251 E0.00855
G1 X129.477 Y97.458 E0.00876
G1 X129.250 Y97.634 E0.00900
G1 X128.991 Y97.775 E0.00924
G1 X128.707 Y97.877 E0.00945
G1 X128.407 Y97.940 E0.00961
G1 X128.099 Y97.960 E0.00969
G1 X127.791 Y97.940 E0.00969
G1 X127.490 Y97.877 E0.00961
G1 X127.207 Y97.775 E0.00945
G1 X126.944 Y97.632 E0.00938
G1 X126.621 Y97.358 E0.01327
G1 X126.392 Y97.017 E0.01289
G1 X126.284 Y96.638 E0.01235
G1 X126.284 Y96.367 E0.00849
G1 X126.331 Y96.160 E0.00666
G1 X126.095 Y95.795 F10800.000
G1 F8640
G1 X126.530 Y95.753 E-0.10468
G1 X126.721 Y95.542 E-0.06575
G1 X126.948 Y95.366 E-0.06628
G1 X127.207 Y95.225 E-0.06806
G1 X127.491 Y95.123 E-0.06978
G1 X127.805 Y95.059 E-0.07398
G1 X128.099 Y95.040 E-0.06798
G1 X128.407 Y95.060 E-0.07138
G1 X128.707 Y95.123 E-0.07077
G1 X128.991 Y95.225 E-0.06962
G1 X129.112 Y95.291 E-0.03173
G1 E-0.04000 F2100.00000
G1 Z0.800 F10800.000
G1 X126.046 Y92.178
G1 Z0.200
G1 E0.80000 F2100.00000
G1 F1200
G1 X125.907 Y91.691 E0.01587
G1 X125.907 Y91.325 E0.01148
G1 X125.988 Y90.969 E0.01145
G1 X126.221 Y90.533 E0.01551
G1 X126.476 Y90.255 E0.01181
G1 X126.741 Y90.049 E0.01053
G1 X127.052 Y89.880 E0.01109
G1 X127.389 Y89.758 E0.01125
G1 X127.755 Y89.685 E0.01170
G1 X128.099 Y89.662 E0.01081
G1 X128.459 Y89.686 E0.01131
G1 X128.811 Y89.759 E0.01126
G1 X129.146 Y89.880 E0.01119
G1 X129.457 Y90.049 E0.01109
G1 X129.733 Y90.264 E0.01097
G1 X129.968 Y90.524 E0.01100
G1 X130.148 Y90.823 E0.01094
G1 X130.262 Y91.153 E0.01094
G1 X130.301 Y91.500 E0.01096
G1 X130.262 Y91.847 E0.01096
G1 X130.148 Y92.177 E0.01094
G1 X129.968 Y92.476 E0.01093
G1 X129.734 Y92.735 E0.01095
G1 X129.457 Y92.951 E0.01101
G1 X129.146 Y93.120 E0.01109
G1 X128.811 Y93.241 E0.01119
G1 X128.459 Y93.314 E0.01126
G1 X128.099 Y93.338 E0.01131
G1 X127.739 Y93.314 E0.01131
G1 X127.387 Y93.241 E0.01126
G1 X127.052 Y93.120 E0.01119
G1 X126.730 Y92.945 E0.01149
G1 X126.337 Y92.612 E0.01614
G1 X126.079 Y92.228 E0.01452
G1 X126.392 Y92.018 F10800.000
G1 F1200
G1 X126.284 Y91.638 E0.01237
G1 X126.284 Y91.367 E0.00849
G1 X126.344 Y91.102 E0.00854
G1 X126.531 Y90.753 E0.01242
G1 X126.732 Y90.534 E0.00932
G1 X126.948 Y90.366 E0.00858
G1 X127.207 Y90.225 E0.00924
G1 X127.491 Y90.123 E0.00947
G1 X127.805 Y90.059 E0.01005
G1 X128.099 Y90.040 E0.00923
G1 X128.407 Y90.060 E0.00969
G1 X128.707 Y90.123 E0.00961
G1 X128.991 Y90.225 E0.00945
G1 X129.250 Y90.366 E0.00924
G1 X129.476 Y90.541 E0.00896
G1 X129.664 Y90.749 E0.00880
G1 X129.805 Y90.983 E0.00855
G1 X129.892 Y91.236 E0.00840
G1 X129.922 Y91.500 E0.00832
G1 X129.892 Y91.764 E0.00832
G1 X129.805 Y92.017 E0.00840
G1 X129.664 Y92.251 E0.00855
G1 X129.477 Y92.458 E0.00876
G1 X129.250 Y92.634 E0.00900
G1 X128.991 Y92.775 E0.00924
G1 X128.707 Y92.877 E0.00945
G1 X128.407 Y92.940 E0.00961
G1 X128.099 Y92.960 E0.00969
G1 X127.791 Y92.940 E0.00969
G1 X127.490 Y92.877 E0.00961
G1 X127.207 Y92.775 E0.00945
G1 X126.944 Y92.632 E0.00938
G1 X126.621 Y92.358 E0.01327
G1 X126.426 Y92.067 E0.01099
G1 X126.000 Y91.981 F10800.000
G1 F8640
G1 X126.284 Y91.638 E-0.10434
G1 X126.284 Y91.367 E-0.06255
G1 X126.344 Y91.102 E-0.06288
G1 X126.531 Y90.753 E-0.09146
G1 X126.732 Y90.534 E-0.06861
G1 X126.948 Y90.366 E-0.06316
G1 X127.207 Y90.225 E-0.06806
G1 X127.491 Y90.123 E-0.06978
G1 X127.805 Y90.059 E-0.07398
G1 X128.099 Y90.040 E-0.06798
G1 X128.217 Y90.048 E-0.02720
G1 E-0.04000 F2100.00000
G1 Z0.800 F10800.000
G1 X119.704 Y91.325
G1 Z0.200
G1 E0.80000 F2100.00000
G1 F1200
G1 X119.844 Y90.837 E0.01591
G1 X120.033 Y90.522 E0.01152
G1 X120.278 Y90.255 E0.01134
G1 X120.543 Y90.049 E0.01053
G1 X120.854 Y89.880 E0.01109
G1 X121.191 Y89.758 E0.01125
G1 X121.557 Y89.685 E0.01170
G1 X121.901 Y89.662 E0.01081
G1 X122.261 Y89.686 E0.01131
G1 X122.613 Y89.759 E0.01126
G1 X122.948 Y89.880 E0.01119
G1 X123.259 Y90.049 E0.01109
G1 X123.536 Y90.265 E0.01101
G1 X123.770 Y90.524 E0.01095
G1 X123.950 Y90.823 E0.01093
G1 X124.064 Y91.153 E0.01094
G1 X124.103 Y91.500 E0.01096
G1 X124.064 Y91.847 E0.01096
G1 X123.950 Y92.177 E0.01094
G1 X123.770 Y92.476 E0.01093
G1 X123.536 Y92.735 E0.01095
G1 X123.259 Y92.951 E0.01101
G1 X122.948 Y93.120 E0.01109
G1 X122.613 Y93.241 E0.01119
G1 X122.261 Y93.314 E0.01126
G1 X121.901 Y93.338 E0.01131
G1 X121.541 Y93.314 E0.01131
G1 X121.189 Y93.241 E0.01126
G1 X120.854 Y93.120 E0.01119
G1 X120.532 Y92.945 E0.01149
G1 X120.139 Y92.612 E0.01614
G1 X119.856 Y92.190 E0.01593
G1 X119.731 Y91.824 E0.01212
G1 X119.707 Y91.384 E0.01382
G1 X120.084 Y91.367 F10800.000
G1 F1200
G1 X120.193 Y90.988 E0.01236
G1 X120.336 Y90.749 E0.00876
G1 X120.534 Y90.534 E0.00915
G1 X120.750 Y90.366 E0.00858
G1 X121.009 Y90.225 E0.00924
G1 X121.293 Y90.123 E0.00947
G1 X121.607 Y90.059 E0.01005
G1 X121.901 Y90.040 E0.00923
G1 X122.209 Y90.060 E0.00969
G1 X122.510 Y90.123 E0.00961
G1 X122.793 Y90.225 E0.00945
G1 X123.052 Y90.366 E0.00924
G1 X123.279 Y90.542 E0.00900
G1 X123.466 Y90.749 E0.00876
G1 X123.607 Y90.983 E0.00855
G1 X123.694 Y91.236 E0.00840
G1 X123.724 Y91.500 E0.00832
G1 X123.694 Y91.764 E0.00832
G1 X123.607 Y92.017 E0.00840
G1 X123.466 Y92.251 E0.00855
G1 X123.279 Y92.458 E0.00876
G1 X123.052 Y92.634 E0.00900
G1 X122.793 Y92.775 E0.00924
G1 X122.510 Y92.877 E0.00945
G1 X122.209 Y92.940 E0.00961
G1 X121.901 Y92.960 E0.00969
G1 X121.593 Y92.940 E0.00969
G1 X121.293 Y92.877 E0.00961
G1 X121.009 Y92.775 E0.00945
G1 X120.746 Y92.632 E0.00938
G1 X120.423 Y92.358 E0.01327
G1 X120.197 Y92.022 E0.01272
G1 X120.105 Y91.752 E0.00893
G1 X120.087 Y91.427 E0.01020
G1 X119.771 Y91.128 F10800.000
G1 F8640
G1 X120.193 Y90.988 E-0.10425
G1 X120.336 Y90.749 E-0.06452
G1 X120.534 Y90.534 E-0.06737
G1 X120.750 Y90.366 E-0.06316
G1 X121.009 Y90.225 E-0.06806
G1 X121.293 Y90.123 E-0.06978
G1 X121.607 Y90.059 E-0.07398
G1 X121.901 Y90.040 E-0.06798
G1 X122.209 Y90.060 E-0.07138
G1 X122.510 Y90.123 E-0.07077
G1 X122.667 Y90.180 E-0.03875
G1 E-0.04000 F2100.00000
G1 Z0.800 F10800.000
G1 X119.705 Y96.341
G1 Z0.200
G1 E0.80000 F2100.00000
G1 F1200
G1 X119.790 Y95.969 E0.01194
G1 X120.022 Y95.535 E0.01544
G1 X120.266 Y95.265 E0.01143
G1 X120.543 Y95.049 E0.01101
G1 X120.854 Y94.880 E0.01109
G1 X121.191 Y94.758 E0.01125
G1 X121.557 Y94.685 E0.01170
G1 X121.901 Y94.662 E0.01081
G1 X122.261 Y94.686 E0.01131
G1 X122.613 Y94.759 E0.01126
G1 X122.948 Y94.880 E0.01119
G1 X123.259 Y95.049 E0.01109
G1 X123.536 Y95.265 E0.01101
G1 X123.770 Y95.524 E0.01095
G1 X123.950 Y95.823 E0.01093
G1 X124.064 Y96.153 E0.01094
G1 X124.103 Y96.500 E0.01096
G1 X124.064 Y96.847 E0.01096
G1 X123.950 Y97.177 E0.01094
G1 X123.770 Y97.476 E0.01093
G1 X123.536 Y97.735 E0.01095
G1 X123.259 Y97.951 E0.01101
G1 X122.948 Y98.120 E0.01109
G1 X122.613 Y98.241 E0.01119
G1 X122.261 Y98.314 E0.01126
G1 X121.901 Y98.338 E0.01131
G1 X121.541 Y98.314 E0.01131
G1 X121.189 Y98.241 E0.01126
G1 X120.854 Y98.120 E0.01119
G1 X120.532 Y97.945 E0.01149
G1 X120.139 Y97.612 E0.01614
G1 X119.856 Y97.190 E0.01593
G1 X119.731 Y96.824 E0.01212
G1 X119.708 Y96.401 E0.01330
G1 X120.085 Y96.380 F10800.000
G1 F1200
G1 X120.146 Y96.102 E0.00892
G1 X120.332 Y95.753 E0.01241
G1 X120.523 Y95.542 E0.00893
G1 X120.750 Y95.366 E0.00900
G1 X121.009 Y95.225 E0.00924
G1 X121.293 Y95.123 E0.00947
G1 X121.607 Y95.059 E0.01005
G1 X121.901 Y95.040 E0.00923
G1 X122.209 Y95.060 E0.00969
G1 X122.510 Y95.123 E0.00961
G1 X122.793 Y95.225 E0.00945
G1 X123.052 Y95.366 E0.00924
G1 X123.279 Y95.542 E0.00900
G1 X123.466 Y95.749 E0.00876
G1 X123.607 Y95.983 E0.00855
G1 X123.694 Y96.236 E0.00840
G1 X123.724 Y96.500 E0.00832
G1 X123.694 Y96.764 E0.00832
G1 X123.607 Y97.017 E0.00840
G1 X123.466 Y97.251 E0.00855
G1 X123.279 Y97.458 E0.00876
G1 X123.052 Y97.634 E0.00900
G1 X122.793 Y97.775 E0.00924
G1 X122.510 Y97.877 E0.00945
G1 X122.209 Y97.940 E0.00961
G1 X121.901 Y97.960 E0.00969
G1 X121.593 Y97.940 E0.00969
G1 X121.293 Y97.877 E0.00961
G1 X121.009 Y97.775 E0.00945
G1 X120.746 Y97.632 E0.00938
G1 X120.423 Y97.358 E0.01327
G1 X120.197 Y97.022 E0.01272
G1 X120.105 Y96.752 E0.00893
G1 X120.088 Y96.440 E0.00979
G1 X119.852 Y96.217 F10800.000
G1 F8640
G1 X120.146 Y96.102 E-0.07916
G1 X120.332 Y95.753 E-0.09137
G1 X120.523 Y95.542 E-0.06576
G1 X120.750 Y95.366 E-0.06628
G1 X121.009 Y95.225 E-0.06806
G1 X121.293 Y95.123 E-0.06978
G1 X121.607 Y95.059 E-0.07398
G1 X121.901 Y95.040 E-0.06798
G1 X122.209 Y95.060 E-0.07138
G1 X122.510 Y95.123 E-0.07077
G1 X122.654 Y95.175 E-0.03550
G1 E-0.04000 F2100.00000
G1 Z0.800 F10800.000
G1 X113.087 Y101.413
G1 Z0.200
G1 E0.80000 F2100.00000
G1 F1200
G1 X113.087 Y86.587 E0.46485
G1 X136.913 Y86.587 E0.74704
G1 X136.913 Y101.413 E0.46485
G1 X113.147 Y101.413 E0.74516
G1 X112.710 Y101.790 F10800.000
G1 F1200
G1 X112.710 Y86.210 E0.48850
G1 X137.290 Y86.210 E0.77069
G1 X137.290 Y101.790 E0.48850
G1 X112.770 Y101.790 E0.76881
G1 X112.842 Y101.412 F10800.000
G1 F8640
G1 X112.757 Y98.499 E-0.76000
G1 E-0.04000 F2100.00000
G1 Z0.800 F10800.000
G1 X113.200 Y100.529
G1 Z0.200
G1 E0.80000 F2100.00000
G1 F1200
G1 X113.801 Y101.130 E0.02695
G1 X114.340 Y101.130 E0.01709
G1 X113.370 Y100.160 E0.04351
G1 X113.370 Y99.620 E0.01709
G1 X114.880 Y101.130 E0.06767
G1 X115.419 Y101.130 E0.01709
G1 X113.370 Y99.081 E0.09183
G1 X113.370 Y98.542 E0.01709
G1 X115.958 Y101.130 E0.11600
G1 X116.497 Y101.130 E0.01709
G1 X113.370 Y98.003 E0.14016
G1 X113.370 Y97.464 E0.01709
G1 X117.036 Y101.130 E0.16433
G1 X117.575 Y101.130 E0.01709
G1 X113.370 Y96.925 E0.18849
G1 X113.370 Y96.386 E0.01709
G1 X118.114 Y101.130 E0.21265
G1 X118.653 Y101.130 E0.01709
G1 X113.370 Y95.847 E0.23682
G1 X113.370 Y95.308 E0.01709
G1 X119.192 Y101.130 E0.26098
G1 X119.731 Y101.130 E0.01709
G1 X113.370 Y94.769 E0.28515
G1 X113.370 Y94.230 E0.01709
G1 X120.270 Y101.130 E0.30931
G1 X120.809 Y101.130 E0.01709
G1 X113.370 Y93.691 E0.33347
G1 X113.370 Y93.152 E0.01709
G1 X121.348 Y101.130 E0.35764
G1 X121.888 Y101.130 E0.01709
G1 X113.370 Y92.612 E0.38180
G1 X113.370 Y92.073 E0.01709
G1 X122.596 Y101.300 E0.41357
G1 F8640
G1 X120.269 Y98.972 E-0.76000
G1 E-0.04000 F2100.00000
G1 Z0.800 F10800.000
G1 X125.644 Y96.800
G1 Z0.200
G1 E0.80000 F2100.00000
G1 F1200
G1 X122.415 Y93.571 E0.14474
G1 X122.690 Y93.514 E0.00891
G1 X122.841 Y93.459 E0.00511
G1 X125.634 Y96.251 E0.12515
G1 X125.745 Y95.823 E0.01401
G1 X123.217 Y93.295 E0.11331
G1 X123.414 Y93.188 E0.00711
G1 X123.546 Y93.086 E0.00531
G1 X125.933 Y95.472 E0.10696
G1 X125.986 Y95.371 E0.00362
G1 X126.169 Y95.169 E0.00863
G1 X123.831 Y92.831 E0.10480
G1 X123.999 Y92.645 E0.00793
G1 X124.068 Y92.529 E0.00429
G1 X126.454 Y94.914 E0.10691
G1 X126.586 Y94.812 E0.00531
G1 X126.783 Y94.705 E0.00711
G1 X124.251 Y92.173 E0.11350
G1 X124.342 Y91.910 E0.00881
G1 X124.360 Y91.743 E0.00533
G1 X127.158 Y94.541 E0.12542
G1 X127.313 Y94.485 E0.00521
G1 X127.587 Y94.430 E0.00885
G1 X124.354 Y91.197 E0.14491
G1 F8640
G1 X126.681 Y93.525 E-0.76000
G1 E-0.04000 F2100.00000
G1 Z0.800 F10800.000
G1 X122.630 Y89.474
G1 Z0.200
G1 E0.80000 F2100.00000
G1 F1200
G1 X120.026 Y86.870 E0.11673
G1 X120.565 Y86.870 E0.01709
G1 X125.703 Y92.008 E0.23030
G1 X125.624 Y91.731 E0.00913
G1 X125.624 Y91.389 E0.01082
G1 X121.104 Y86.870 E0.20259
G1 X121.643 Y86.870 E0.01709
G1 X125.706 Y90.932 E0.18210
G1 X125.720 Y90.869 E0.00206
G1 X125.881 Y90.568 E0.01081
G1 X122.182 Y86.870 E0.16579
G1 X122.722 Y86.870 E0.01709
G1 X126.099 Y90.247 E0.15139
G1 X126.283 Y90.046 E0.00865
G1 X126.370 Y89.979 E0.00347
G1 X123.261 Y86.870 E0.13938
G1 X123.800 Y86.870 E0.01709
G1 X126.687 Y89.757 E0.12941
G1 X126.936 Y89.622 E0.00898
G1 X127.050 Y89.581 E0.00384
G1 X124.339 Y86.870 E0.12151
G1 X124.878 Y86.870 E0.01709
G1 X127.463 Y89.455 E0.11588
G1 X127.718 Y89.404 E0.00822
G1 X127.936 Y89.389 E0.00695
G1 X125.417 Y86.870 E0.11293
G1 X125.956 Y86.870 E0.01709
G1 X128.491 Y89.405 E0.11362
G1 X128.888 Y89.486 E0.01284
G1 X129.238 Y89.613 E0.01182
G1 X126.325 Y86.700 E0.13057
G1 F8640
G1 X128.653 Y89.028 E-0.76000
G1 E-0.04000 F2100.00000
G1 Z0.800 F10800.000
G1 X122.185 Y89.567
G1 Z0.200
