; generated by PrusaSlicer 2.1.1+win64 on 2020-03-02 at 21:39:07 UTC

; 

; external perimeters extrusion width = 0.45mm
; perimeters extrusion width = 0.45mm
; infill extrusion width = 0.45mm
; solid infill extrusion width = 0.45mm
; top infill extrusion width = 0.40mm
; support material extrusion width = 0.35mm
; first layer extrusion width = 0.42mm

M73 P0 R48
M201 X9000 Y9000 Z500 E10000 ; sets maximum accelerations, mm/sec^2
M203 X500 Y500 Z12 E120 ; sets maximum feedrates, mm/sec
M204 P2000 R1500 T2000 ; sets acceleration (P, T) and retract acceleration (R), mm/sec^2
M205 X10.00 Y10.00 Z0.20 E2.50 ; sets the jerk limits, mm/sec
M205 S0 T0 ; sets the minimum extruding and travel feed rate, mm/sec
M107
M862.3 P "MK2S" ; printer model check
M862.1 P0.4 ; nozzle diameter check
M115 U3.2.3 ; tell printer latest fw version
G90 ; use absolute coordinates
M83 ; extruder relative mode
M204 S2000 T1500 ; MK2 firmware only supports the old M204 format
M104 S215 ; set extruder temp
M140 S60 ; set bed temp
M190 S60 ; wait for bed temp
M109 S215 ; wait for extruder temp
G28 W ; home all without mesh bed level
G80 ; mesh bed leveling
G1 Y-3.0 F1000.0 ; go outside print area
G92 E0.0
G1 X60.0 E9.0  F1000.0 ; intro line
M73 P0 R48
G1 X100.0 E12.5 F1000.0 ; intro line
G92 E0.0
G21 ; set units to millimeters
G90 ; use absolute coordinates
M83 ; use relative distances for extrusion
M900 K30 ; Filament gcode
;BEFORE_LAYER_CHANGE
G92 E0.0
;0.2


G1 E-0.80000 F2100.00000
G1 Z0.600 F10800.000
;AFTER_LAYER_CHANGE
;0.2
G1 X85.992 Y127.243
G1 Z0.200
G1 E0.80000 F2100.00000
M204 S1000
G1 F1200
G1 X83.318 Y127.243 E0.08385
G1 X83.318 Y122.568 E0.14655
G1 X85.992 Y122.568 E0.08385
G1 X85.992 Y127.183 E0.14467
G1 X85.615 Y126.865 F10800.000
G1 F1200
G1 X83.695 Y126.865 E0.06020
G1 X83.695 Y122.945 E0.12291
G1 X85.615 Y122.945 E0.06020
G1 X85.615 Y126.805 E0.12103
G1 X85.675 Y127.261 F10800.000
G1 E-0.80000 F2100.00000
G1 Z0.800 F10800.000
G1 X92.992 Y127.243
G1 Z0.200
G1 E0.80000 F2100.00000
G1 F1200
G1 X90.318 Y127.243 E0.08385
G1 X90.318 Y122.568 E0.14655
G1 X92.992 Y122.568 E0.08385
G1 X92.992 Y127.183 E0.14467
G1 X92.615 Y126.865 F10800.000
G1 F1200
G1 X90.695 Y126.865 E0.06020
G1 X90.695 Y122.945 E0.12291
G1 X92.615 Y122.945 E0.06020
G1 X92.615 Y126.805 E0.12103
G1 X92.675 Y127.261 F10800.000
G1 E-0.80000 F2100.00000
G1 Z0.800 F10800.000
G1 X114.689 Y86.214
G1 Z0.200
G1 E0.80000 F2100.00000
G1 F1200
G1 X113.979 Y86.152 E0.02235
G1 X113.290 Y85.968 E0.02235
G1 X112.644 Y85.666 E0.02235
G1 X112.061 Y85.258 E0.02235
G1 X111.556 Y84.754 E0.02235
G1 X111.148 Y84.170 E0.02235
G1 X110.846 Y83.524 E0.02235
G1 X110.662 Y82.835 E0.02235
G1 X110.600 Y82.125 E0.02235
G1 X110.662 Y81.415 E0.02235
G1 X110.846 Y80.726 E0.02235
G1 X111.148 Y80.080 E0.02235
G1 X111.556 Y79.496 E0.02235
G1 X112.061 Y78.992 E0.02235
G1 X112.644 Y78.584 E0.02235
G1 X113.290 Y78.282 E0.02235
G1 X113.979 Y78.098 E0.02235
G1 X114.656 Y78.039 E0.02132
G1 X115.397 Y78.097 E0.02329
G1 X116.088 Y78.282 E0.02243
G1 X116.734 Y78.584 E0.02235
G1 X117.318 Y78.992 E0.02235
G1 X117.822 Y79.496 E0.02235
G1 X118.231 Y80.080 E0.02235
G1 X118.532 Y80.726 E0.02235
G1 X118.716 Y81.415 E0.02235
G1 X118.778 Y82.125 E0.02235
G1 X118.716 Y82.835 E0.02235
G1 X118.532 Y83.524 E0.02235
G1 X118.231 Y84.170 E0.02235
G1 X117.841 Y84.727 E0.02132
G1 X117.320 Y85.256 E0.02329
G1 X116.734 Y85.666 E0.02243
G1 X116.088 Y85.968 E0.02235
G1 X115.399 Y86.152 E0.02235
G1 X114.749 Y86.209 E0.02047
G1 X114.689 Y85.836 F10800.000
G1 F1200
G1 X114.045 Y85.779 E0.02028
G1 X113.420 Y85.612 E0.02028
G1 X112.834 Y85.339 E0.02028
G1 X112.304 Y84.968 E0.02028
G1 X111.846 Y84.510 E0.02028
G1 X111.475 Y83.980 E0.02028
G1 X111.202 Y83.394 E0.02028
G1 X111.035 Y82.769 E0.02028
G1 X110.978 Y82.125 E0.02028
G1 X111.035 Y81.481 E0.02028
G1 X111.202 Y80.856 E0.02028
G1 X111.475 Y80.270 E0.02028
G1 X111.846 Y79.740 E0.02028
G1 X112.304 Y79.282 E0.02028
G1 X112.834 Y78.911 E0.02028
G1 X113.420 Y78.638 E0.02028
G1 X114.045 Y78.471 E0.02028
G1 X114.658 Y78.417 E0.01930
G1 X115.333 Y78.470 E0.02122
G1 X115.958 Y78.638 E0.02031
G1 X116.544 Y78.911 E0.02028
G1 X117.074 Y79.282 E0.02028
G1 X117.532 Y79.740 E0.02028
G1 X117.903 Y80.270 E0.02028
G1 X118.176 Y80.856 E0.02028
G1 X118.344 Y81.481 E0.02028
G1 X118.400 Y82.125 E0.02028
G1 X118.344 Y82.769 E0.02028
G1 X118.176 Y83.394 E0.02028
G1 X117.903 Y83.980 E0.02028
G1 X117.550 Y84.485 E0.01930
G1 X117.075 Y84.967 E0.02122
G1 X116.544 Y85.339 E0.02031
G1 X115.958 Y85.612 E0.02028
G1 X115.333 Y85.779 E0.02028
G1 X114.749 Y85.831 E0.01840
G1 X114.489 Y86.182 F10800.000
G1 E-0.80000 F2100.00000
G1 Z0.800 F10800.000
G1 X156.813 Y96.962
G1 Z0.200
G1 E0.80000 F2100.00000
G1 F1200
G1 X156.813 Y92.288 E0.14655
G1 X159.487 Y92.288 E0.08385
G1 X159.487 Y96.962 E0.14655
G1 X156.873 Y96.962 E0.08197
G1 X157.190 Y96.585 F10800.000
G1 F1200
G1 X157.190 Y92.665 E0.12291
G1 X159.110 Y92.665 E0.06020
G1 X159.110 Y96.585 E0.12291
G1 X157.250 Y96.585 E0.05832
G1 X156.817 Y96.730 F10800.000
G1 E-0.80000 F2100.00000
G1 Z0.800 F10800.000
G1 X163.813 Y96.962
G1 Z0.200
G1 E0.80000 F2100.00000
G1 F1200
G1 X163.813 Y92.288 E0.14655
G1 X166.487 Y92.288 E0.08385
G1 X166.487 Y96.962 E0.14655
G1 X163.873 Y96.962 E0.08197
G1 X164.190 Y96.585 F10800.000
G1 F1200
G1 X164.190 Y92.665 E0.12291
G1 X166.110 Y92.665 E0.06020
G1 X166.110 Y96.585 E0.12291
G1 X164.250 Y96.585 E0.05832
G1 X163.817 Y96.730 F10800.000
G1 E-0.80000 F2100.00000
G1 Z0.800 F10800.000
G1 X125.000 Y133.488
G1 Z0.200
G1 E0.80000 F2100.00000
G1 F1200
G1 X78.737 Y133.488 E1.45054
G1 X78.737 Y85.962 E1.49014
G1 X97.528 Y85.962 E0.58918
G1 X105.276 Y78.957 E0.32749
G1 X106.383 Y78.095 E0.04402
G1 X107.587 Y77.414 E0.04334
G1 X108.877 Y76.918 E0.04334
G1 X110.156 Y76.631 E0.04111
G1 X111.628 Y76.512 E0.04630
G1 X117.752 Y76.512 E0.19201
G1 X119.081 Y76.610 E0.04178
G1 X120.503 Y76.918 E0.04562
G1 X121.791 Y77.414 E0.04328
G1 X122.995 Y78.095 E0.04334
G1 X124.102 Y78.957 E0.04402
G1 X131.850 Y85.962 E0.32749
G1 X171.263 Y85.962 E1.23576
G1 X171.263 Y133.488 E1.49014
G1 X125.060 Y133.488 E1.44866
G1 X125.000 Y133.865 F10800.000
G1 F1200
G1 X78.360 Y133.865 E1.46236
G1 X78.360 Y85.585 E1.51379
G1 X97.383 Y85.585 E0.59645
G1 X105.033 Y78.668 E0.32337
G1 X106.174 Y77.780 E0.04533
G1 X107.425 Y77.072 E0.04509
G1 X108.767 Y76.556 E0.04509
G1 X110.100 Y76.257 E0.04281
G1 X111.613 Y76.135 E0.04761
G1 X117.766 Y76.135 E0.19292
G1 X119.135 Y76.236 E0.04305
G1 X120.612 Y76.556 E0.04736
G1 X121.953 Y77.072 E0.04506
G1 X123.204 Y77.780 E0.04509
G1 X124.345 Y78.668 E0.04533
G1 X131.995 Y85.585 E0.32337
G1 X171.640 Y85.585 E1.24303
G1 X171.640 Y133.865 E1.51379
G1 X125.060 Y133.865 E1.46048
G1 X124.716 Y133.584 F10800.000
G1 E-0.80000 F2100.00000
G1 Z0.800 F10800.000
G1 X159.353 Y133.375
G1 Z0.200
G1 E0.80000 F2100.00000
G1 F1200
G1 X105.297 Y79.319 E2.40537
G1 X105.016 Y79.573 E0.01192
G1 X158.648 Y133.205 E2.38652
G1 X158.113 Y133.205 E0.01684
G1 X104.735 Y79.827 E2.37521
G1 X104.454 Y80.081 E0.01192
G1 X157.578 Y133.205 E2.36390
G1 X157.043 Y133.205 E0.01684
G1 X104.173 Y80.335 E2.35259
M73 P2 R47
G1 X103.892 Y80.590 E0.01192
G1 X156.507 Y133.205 E2.34129
G1 X155.972 Y133.205 E0.01684
G1 X103.611 Y80.844 E2.32998
G1 X103.330 Y81.098 E0.01192
G1 X155.437 Y133.205 E2.31867
G1 X154.902 Y133.205 E0.01684
G1 X103.049 Y81.352 E2.30737
G1 X102.768 Y81.606 E0.01192
G1 X154.367 Y133.205 E2.29606
G1 X153.832 Y133.205 E0.01684
G1 X102.487 Y81.860 E2.28475
G1 X102.206 Y82.114 E0.01192
G1 X153.297 Y133.205 E2.27344
G1 X152.761 Y133.205 E0.01684
G1 X101.925 Y82.368 E2.26214
G1 X101.644 Y82.622 E0.01192
G1 X152.226 Y133.205 E2.25083
G1 X151.691 Y133.205 E0.01684
G1 X101.362 Y82.877 E2.23952
G1 X101.081 Y83.131 E0.01192
G1 X151.156 Y133.205 E2.22822
G1 X150.621 Y133.205 E0.01684
G1 X100.800 Y83.385 E2.21691
G1 X100.519 Y83.639 E0.01192
G1 X150.086 Y133.205 E2.20560
G1 X149.550 Y133.205 E0.01684
G1 X100.238 Y83.893 E2.19430
G1 X99.957 Y84.147 E0.01192
G1 X149.015 Y133.205 E2.18299
G1 X148.480 Y133.205 E0.01684
G1 X99.676 Y84.401 E2.17168
G1 X99.395 Y84.655 E0.01192
G1 X147.945 Y133.205 E2.16037
M73 P4 R46
G1 X147.410 Y133.205 E0.01684
G1 X99.114 Y84.909 E2.14907
G1 X98.833 Y85.163 E0.01192
G1 X146.875 Y133.205 E2.13776
G1 X146.340 Y133.205 E0.01684
G1 X98.552 Y85.418 E2.12645
G1 X98.271 Y85.672 E0.01192
G1 X145.804 Y133.205 E2.11515
G1 X145.269 Y133.205 E0.01684
G1 X97.990 Y85.926 E2.10384
G1 X97.709 Y86.180 E0.01192
G1 X144.734 Y133.205 E2.09253
G1 X144.199 Y133.205 E0.01684
G1 X97.239 Y86.245 E2.08964
G1 X96.704 Y86.245 E0.01684
G1 X143.664 Y133.205 E2.08964
G1 X143.129 Y133.205 E0.01684
G1 X96.168 Y86.245 E2.08964
G1 X95.633 Y86.245 E0.01684
G1 X142.594 Y133.205 E2.08964
G1 X142.058 Y133.205 E0.01684
G1 X95.098 Y86.245 E2.08964
G1 X94.563 Y86.245 E0.01684
G1 X141.523 Y133.205 E2.08964
G1 X140.988 Y133.205 E0.01684
G1 X94.028 Y86.245 E2.08964
G1 X93.493 Y86.245 E0.01684
G1 X140.453 Y133.205 E2.08964
G1 X139.918 Y133.205 E0.01684
G1 X92.958 Y86.245 E2.08964
G1 X92.422 Y86.245 E0.01684
G1 X139.383 Y133.205 E2.08964
G1 X138.847 Y133.205 E0.01684
G1 X91.887 Y86.245 E2.08964
G1 X91.352 Y86.245 E0.01684
G1 X138.312 Y133.205 E2.08964
M73 P6 R45
G1 X137.777 Y133.205 E0.01684
G1 X90.817 Y86.245 E2.08964
G1 X90.282 Y86.245 E0.01684
G1 X137.242 Y133.205 E2.08964
G1 X136.707 Y133.205 E0.01684
G1 X89.747 Y86.245 E2.08964
G1 X89.211 Y86.245 E0.01684
G1 X136.172 Y133.205 E2.08964
G1 X135.637 Y133.205 E0.01684
G1 X88.676 Y86.245 E2.08964
G1 X88.141 Y86.245 E0.01684
G1 X135.101 Y133.205 E2.08964
G1 X134.566 Y133.205 E0.01684
G1 X87.606 Y86.245 E2.08964
G1 X87.071 Y86.245 E0.01684
G1 X134.031 Y133.205 E2.08964
G1 X133.496 Y133.205 E0.01684
G1 X86.536 Y86.245 E2.08964
G1 X86.001 Y86.245 E0.01684
G1 X132.961 Y133.205 E2.08964
G1 X132.426 Y133.205 E0.01684
G1 X85.465 Y86.245 E2.08964
G1 X84.930 Y86.245 E0.01684
G1 X131.891 Y133.205 E2.08964
G1 X131.355 Y133.205 E0.01684
G1 X84.395 Y86.245 E2.08964
G1 X83.860 Y86.245 E0.01684
G1 X130.820 Y133.205 E2.08964
G1 X130.285 Y133.205 E0.01684
G1 X83.325 Y86.245 E2.08964
G1 X82.790 Y86.245 E0.01684
G1 X129.750 Y133.205 E2.08964
G1 X129.215 Y133.205 E0.01684
G1 X82.254 Y86.245 E2.08964
G1 X81.719 Y86.245 E0.01684
G1 X128.680 Y133.205 E2.08964
M73 P8 R44
G1 X128.144 Y133.205 E0.01684
G1 X81.184 Y86.245 E2.08964
G1 X80.649 Y86.245 E0.01684
G1 X127.609 Y133.205 E2.08964
G1 X127.074 Y133.205 E0.01684
G1 X80.114 Y86.245 E2.08964
G1 X79.579 Y86.245 E0.01684
G1 X126.539 Y133.205 E2.08964
G1 X126.004 Y133.205 E0.01684
G1 X79.044 Y86.245 E2.08964
G1 X79.020 Y86.245 E0.00075
G1 X79.020 Y86.756 E0.01609
G1 X125.469 Y133.205 E2.06688
G1 X124.934 Y133.205 E0.01684
G1 X79.020 Y87.291 E2.04307
G1 X79.020 Y87.827 E0.01684
G1 X124.398 Y133.205 E2.01925
G1 X123.863 Y133.205 E0.01684
G1 X79.020 Y88.362 E1.99544
G1 X79.020 Y88.897 E0.01684
G1 X123.328 Y133.205 E1.97163
G1 X122.793 Y133.205 E0.01684
G1 X79.020 Y89.432 E1.94781
G1 X79.020 Y89.967 E0.01684
G1 X122.258 Y133.205 E1.92400
G1 X121.723 Y133.205 E0.01684
G1 X79.020 Y90.502 E1.90019
G1 X79.020 Y91.038 E0.01684
G1 X121.187 Y133.205 E1.87637
G1 X120.652 Y133.205 E0.01684
G1 X79.020 Y91.573 E1.85256
G1 X79.020 Y92.108 E0.01684
G1 X120.117 Y133.205 E1.82875
G1 X119.582 Y133.205 E0.01684
G1 X79.020 Y92.643 E1.80493
G1 X79.020 Y93.178 E0.01684
G1 X119.047 Y133.205 E1.78112
G1 X118.512 Y133.205 E0.01684
G1 X79.020 Y93.713 E1.75731
G1 X79.020 Y94.248 E0.01684
G1 X117.977 Y133.205 E1.73350
M73 P10 R43
G1 X117.441 Y133.205 E0.01684
G1 X79.020 Y94.784 E1.70968
G1 X79.020 Y95.319 E0.01684
G1 X116.906 Y133.205 E1.68587
G1 X116.371 Y133.205 E0.01684
G1 X79.020 Y95.854 E1.66206
G1 X79.020 Y96.389 E0.01684
G1 X115.836 Y133.205 E1.63824
G1 X115.301 Y133.205 E0.01684
G1 X79.020 Y96.924 E1.61443
G1 X79.020 Y97.459 E0.01684
G1 X114.766 Y133.205 E1.59062
G1 X114.231 Y133.205 E0.01684
G1 X79.020 Y97.994 E1.56680
G1 X79.020 Y98.530 E0.01684
G1 X113.695 Y133.205 E1.54299
G1 X113.160 Y133.205 E0.01684
G1 X79.020 Y99.065 E1.51918
G1 X79.020 Y99.600 E0.01684
G1 X112.625 Y133.205 E1.49536
G1 X112.090 Y133.205 E0.01684
G1 X79.020 Y100.135 E1.47155
G1 X79.020 Y100.670 E0.01684
G1 X111.555 Y133.205 E1.44774
G1 X111.020 Y133.205 E0.01684
G1 X79.020 Y101.205 E1.42392
G1 X79.020 Y101.741 E0.01684
G1 X110.484 Y133.205 E1.40011
G1 X109.949 Y133.205 E0.01684
G1 X79.020 Y102.276 E1.37630
G1 X79.020 Y102.811 E0.01684
G1 X109.414 Y133.205 E1.35248
G1 X108.879 Y133.205 E0.01684
G1 X79.020 Y103.346 E1.32867
G1 X79.020 Y103.881 E0.01684
G1 X108.344 Y133.205 E1.30486
G1 X107.809 Y133.205 E0.01684
G1 X79.020 Y104.416 E1.28105
G1 X79.020 Y104.951 E0.01684
G1 X107.274 Y133.205 E1.25723
G1 X106.738 Y133.205 E0.01684
G1 X79.020 Y105.487 E1.23342
G1 X79.020 Y106.022 E0.01684
G1 X106.203 Y133.205 E1.20961
G1 X105.668 Y133.205 E0.01684
G1 X79.020 Y106.557 E1.18579
G1 X79.020 Y107.092 E0.01684
G1 X105.133 Y133.205 E1.16198
G1 X104.598 Y133.205 E0.01684
G1 X79.020 Y107.627 E1.13817
G1 X79.020 Y108.162 E0.01684
G1 X104.063 Y133.205 E1.11435
G1 X103.527 Y133.205 E0.01684
G1 X93.275 Y122.952 E0.45623
G1 X93.275 Y123.487 E0.01684
G1 X102.992 Y133.205 E0.43242
M73 P12 R42
G1 X102.457 Y133.205 E0.01684
G1 X93.275 Y124.023 E0.40861
G1 X93.275 Y124.558 E0.01684
G1 X101.922 Y133.205 E0.38480
G1 X101.387 Y133.205 E0.01684
G1 X93.275 Y125.093 E0.36098
G1 X93.275 Y125.628 E0.01684
G1 X100.852 Y133.205 E0.33717
G1 X100.317 Y133.205 E0.01684
G1 X93.275 Y126.163 E0.31336
G1 X93.275 Y126.698 E0.01684
G1 X99.781 Y133.205 E0.28954
G1 X99.246 Y133.205 E0.01684
G1 X93.275 Y127.233 E0.26573
G1 X93.275 Y127.525 E0.00919
G1 X93.031 Y127.525 E0.00765
G1 X98.711 Y133.205 E0.25274
G1 X98.176 Y133.205 E0.01684
G1 X92.496 Y127.525 E0.25274
G1 X91.961 Y127.525 E0.01684
G1 X97.641 Y133.205 E0.25274
G1 X97.106 Y133.205 E0.01684
G1 X91.426 Y127.525 E0.25274
G1 X90.891 Y127.525 E0.01684
G1 X96.571 Y133.205 E0.25274
G1 X96.035 Y133.205 E0.01684
G1 X86.275 Y123.444 E0.43434
G1 X86.275 Y122.909 E0.01684
G1 X90.035 Y126.669 E0.16732
G1 X90.035 Y126.134 E0.01684
G1 X79.020 Y115.119 E0.49014
G1 X79.020 Y114.584 E0.01684
G1 X90.035 Y125.599 E0.49014
G1 X90.035 Y125.064 E0.01684
G1 X79.020 Y114.049 E0.49014
G1 X79.020 Y113.514 E0.01684
G1 X90.035 Y124.529 E0.49014
G1 X90.035 Y123.994 E0.01684
G1 X79.020 Y112.979 E0.49014
G1 X79.020 Y112.444 E0.01684
G1 X90.035 Y123.459 E0.49014
G1 X90.035 Y122.923 E0.01684
G1 X79.020 Y111.908 E0.49014
G1 X79.020 Y111.373 E0.01684
G1 X90.035 Y122.388 E0.49014
G1 X90.035 Y122.286 E0.00323
G1 X90.467 Y122.286 E0.01361
G1 X79.020 Y110.838 E0.50939
G1 X79.020 Y110.303 E0.01684
G1 X91.003 Y122.286 E0.53320
G1 X91.538 Y122.286 E0.01684
G1 X79.020 Y109.768 E0.55702
G1 X79.020 Y109.233 E0.01684
G1 X92.073 Y122.286 E0.58083
G1 X92.608 Y122.286 E0.01684
G1 X78.850 Y108.528 E0.61219
G1 E-0.80000 F2100.00000
G1 Z0.800 F10800.000
G1 X85.821 Y122.455
G1 Z0.200
G1 E0.80000 F2100.00000
G1 F1200
G1 X79.020 Y115.654 E0.30262
G1 X79.020 Y116.190 E0.01684
G1 X85.116 Y122.286 E0.27126
G1 X84.581 Y122.286 E0.01684
G1 X79.020 Y116.725 E0.24745
G1 X79.020 Y117.260 E0.01684
G1 X84.046 Y122.286 E0.22363
G1 X83.510 Y122.286 E0.01684
G1 X79.020 Y117.795 E0.19982
G1 X79.020 Y118.330 E0.01684
G1 X83.035 Y122.345 E0.17866
G1 X83.035 Y122.880 E0.01684
G1 X79.020 Y118.865 E0.17866
G1 X79.020 Y119.401 E0.01684
G1 X83.035 Y123.415 E0.17866
G1 X83.035 Y123.951 E0.01684
G1 X79.020 Y119.936 E0.17866
G1 X79.020 Y120.471 E0.01684
G1 X83.035 Y124.486 E0.17866
G1 X83.035 Y125.021 E0.01684
G1 X79.020 Y121.006 E0.17866
G1 X79.020 Y121.541 E0.01684
G1 X83.035 Y125.556 E0.17866
G1 X83.035 Y126.091 E0.01684
G1 X79.020 Y122.076 E0.17866
G1 X79.020 Y122.611 E0.01684
G1 X83.035 Y126.626 E0.17866
G1 X83.035 Y127.162 E0.01684
G1 X79.020 Y123.147 E0.17866
G1 X79.020 Y123.682 E0.01684
G1 X88.543 Y133.205 E0.42377
G1 X89.078 Y133.205 E0.01684
G1 X83.399 Y127.525 E0.25274
G1 X83.934 Y127.525 E0.01684
G1 X89.614 Y133.205 E0.25274
G1 X90.149 Y133.205 E0.01684
G1 X84.469 Y127.525 E0.25274
G1 X85.004 Y127.525 E0.01684
G1 X90.684 Y133.205 E0.25274
G1 X91.219 Y133.205 E0.01684
G1 X85.539 Y127.525 E0.25274
