; generated by PrusaSlicer 2.1.1+win64 on 2020-02-21 at 16:10:24 UTC

; 

; external perimeters extrusion width = 0.45mm
; perimeters extrusion width = 0.45mm
; infill extrusion width = 0.45mm
; solid infill extrusion width = 0.45mm
; top infill extrusion width = 0.40mm
; support material extrusion width = 0.35mm
; first layer extrusion width = 0.42mm

M73 P0 R112
M201 X9000 Y9000 Z500 E10000 ; sets maximum accelerations, mm/sec^2
M203 X500 Y500 Z12 E120 ; sets maximum feedrates, mm/sec
M204 P2000 R1500 T2000 ; sets acceleration (P, T) and retract acceleration (R), mm/sec^2
M205 X10.00 Y10.00 Z0.20 E2.50 ; sets the jerk limits, mm/sec
M205 S0 T0 ; sets the minimum extruding and travel feed rate, mm/sec
M107
M862.3 P "MK2S" ; printer model check
M862.1 P0.4 ; nozzle diameter check
M115 U3.2.3 ; tell printer latest fw version
G90 ; use absolute coordinates
M83 ; extruder relative mode
M204 S2000 T1500 ; MK2 firmware only supports the old M204 format
M104 S215 ; set extruder temp
M140 S60 ; set bed temp
M190 S60 ; wait for bed temp
M109 S215 ; wait for extruder temp
G28 W ; home all without mesh bed level
G80 ; mesh bed leveling
G1 Y-3.0 F1000.0 ; go outside print area
G92 E0.0
G1 X60.0 E9.0  F1000.0 ; intro line
M73 P0 R112
G1 X100.0 E12.5 F1000.0 ; intro line
G92 E0.0
G21 ; set units to millimeters
G90 ; use absolute coordinates
M83 ; use relative distances for extrusion
M900 K30 ; Filament gcode
;BEFORE_LAYER_CHANGE
G92 E0.0
;0.2


G1 E-0.80000 F2100.00000
G1 Z0.600 F10800.000
;AFTER_LAYER_CHANGE
;0.2
G1 X74.510 Y58.014
G1 Z0.200
G1 E0.80000 F2100.00000
M204 S1000
G1 F1200
G1 X76.361 Y56.008 E0.08558
G1 X78.400 Y54.193 E0.08558
G1 X80.610 Y52.585 E0.08569
G1 X82.960 Y51.205 E0.08546
G1 X85.441 Y50.059 E0.08569
G1 X88.023 Y49.162 E0.08569
G1 X90.756 Y48.510 E0.08809
G1 X93.376 Y48.148 E0.08294
G1 X96.063 Y48.039 E0.08432
G1 X154.385 Y48.039 E1.82864
G1 X157.121 Y48.197 E0.08593
G1 X159.720 Y48.604 E0.08248
G1 X162.565 Y49.344 E0.09218
G1 X165.027 Y50.253 E0.08228
G1 X167.484 Y51.442 E0.08558
G1 X169.809 Y52.865 E0.08546
G1 X171.984 Y54.508 E0.08546
G1 X173.990 Y56.359 E0.08558
G1 X175.741 Y58.322 E0.08248
G1 X177.469 Y60.697 E0.09209
G1 X178.797 Y62.964 E0.08237
G1 X179.941 Y65.441 E0.08558
G1 X180.836 Y68.016 E0.08546
G1 X181.461 Y70.601 E0.08340
G1 X181.851 Y73.369 E0.08764
G1 X181.961 Y76.063 E0.08455
G1 X181.958 Y134.502 E1.83231
G1 X181.803 Y137.125 E0.08237
G1 X181.396 Y139.720 E0.08237
G1 X180.690 Y142.466 E0.08889
G1 X179.749 Y145.024 E0.08546
G1 X178.608 Y147.386 E0.08226
G1 X177.135 Y149.809 E0.08889
G1 X175.485 Y151.992 E0.08581
G1 X173.561 Y154.064 E0.08866
G1 X171.514 Y155.873 E0.08566
G1 X169.393 Y157.413 E0.08217
G1 X167.132 Y158.744 E0.08226
G1 X164.565 Y159.938 E0.08878
G1 X161.984 Y160.836 E0.08569
G1 X159.327 Y161.476 E0.08569
G1 X156.595 Y161.854 E0.08649
G1 X153.922 Y161.961 E0.08386
G1 X95.619 Y161.961 E1.82807
G1 X92.974 Y161.811 E0.08306
G1 X90.179 Y161.378 E0.08866
G1 X87.437 Y160.657 E0.08889
G1 X84.976 Y159.749 E0.08226
G1 X82.611 Y158.606 E0.08237
G1 X80.191 Y157.135 E0.08878
G1 X78.008 Y155.485 E0.08581
G1 X75.935 Y153.561 E0.08866
G1 X74.127 Y151.514 E0.08566
G1 X72.585 Y149.390 E0.08228
G1 X71.256 Y147.132 E0.08214
G1 X70.062 Y144.565 E0.08878
G1 X69.164 Y141.984 E0.08569
G1 X68.524 Y139.327 E0.08569
G1 X68.146 Y136.595 E0.08649
G1 X68.039 Y133.922 E0.08386
G1 X68.039 Y75.619 E1.82807
G1 X68.189 Y72.974 E0.08306
G1 X68.622 Y70.179 E0.08866
G1 X69.343 Y67.437 E0.08889
G1 X70.251 Y64.976 E0.08226
G1 X71.394 Y62.611 E0.08237
G1 X72.865 Y60.191 E0.08878
G1 X74.474 Y58.062 E0.08370
G1 F8640
G1 X76.361 Y56.008 E-0.64401
G1 X76.736 Y55.674 E-0.11599
G1 E-0.04000 F2100.00000
G1 Z0.800 F10800.000
G1 X135.283 Y83.998
G1 Z0.200
G1 E0.80000 F2100.00000
G1 F1200
G1 X162.180 Y57.101 E1.19267
G1 X161.405 Y56.809 E0.02596
G1 X135.103 Y83.111 E1.16628
G1 X134.828 Y82.320 E0.02627
G1 X160.626 Y56.522 E1.14391
G1 X160.248 Y56.383 E0.01262
G1 X159.812 Y56.270 E0.01413
G1 X134.559 Y81.523 E1.11976
G1 X134.352 Y80.663 E0.02772
G1 X158.965 Y56.050 E1.09141
G1 X158.310 Y55.879 E0.02122
G1 X158.102 Y55.846 E0.00662
G1 X134.145 Y79.804 E1.06231
G1 X134.107 Y79.649 E0.00499
G1 X134.000 Y78.881 E0.02430
G1 X157.181 Y55.701 E1.02784
G1 X156.252 Y55.563 E0.02943
G1 X133.870 Y77.945 E0.99246
G1 X133.831 Y77.666 E0.00883
G1 X133.803 Y76.946 E0.02259
G1 X155.244 Y55.504 E0.95077
G1 X154.227 Y55.456 E0.03195
G1 X133.761 Y75.921 E0.90745
G1 X133.751 Y75.666 E0.00800
G1 X133.801 Y74.815 E0.02673
G1 X153.115 Y55.500 E0.85644
G1 X152.334 Y55.531 E0.02452
G1 X151.966 Y55.583 E0.01163
G1 X133.867 Y73.682 E0.80258
G1 X134.064 Y72.418 E0.04012
G1 X150.728 Y55.755 E0.73887
G1 X150.351 Y55.807 E0.01192
G1 X149.373 Y56.043 E0.03154
G1 X134.338 Y71.078 E0.66666
G1 X134.683 Y69.752 E0.04294
G1 X134.733 Y69.616 E0.00454
G1 X147.897 Y56.453 E0.58369
G1 X146.514 Y56.934 E0.04589
G1 X146.208 Y57.075 E0.01057
G1 X135.354 Y67.929 E0.48127
G1 X136.247 Y66.072 E0.06460
G1 X136.408 Y65.809 E0.00966
G1 X144.560 Y57.657 E0.36147
G1 F8640
G1 X142.232 Y59.984 E-0.76000
G1 E-0.04000 F2100.00000
G1 Z0.800 F10800.000
G1 X151.236 Y69.477
G1 Z0.200
G1 E0.80000 F2100.00000
G1 F1200
G1 X147.875 Y72.838 E0.12135
G1 X148.234 Y73.196 E0.01295
G1 X151.496 Y69.934 E0.11782
G1 X151.855 Y70.292 E0.01295
G1 X148.592 Y73.555 E0.11782
G1 X148.951 Y73.914 E0.01295
G1 X152.214 Y70.651 E0.11782
G1 X152.463 Y70.900 E0.00902
G1 X154.095 Y69.269 E0.05891
G1 X154.203 Y69.378 E0.00393
G1 X147.678 Y75.903 E0.23564
G1 X148.037 Y76.262 E0.01295
G1 X154.562 Y69.737 E0.23564
G1 X154.921 Y70.095 E0.01295
G1 X148.395 Y76.621 E0.23563
G1 X148.754 Y76.979 E0.01295
G1 X155.279 Y70.454 E0.23563
G1 X155.638 Y70.812 E0.01295
G1 X149.112 Y77.338 E0.23563
G1 X149.200 Y77.426 E0.00319
G1 X147.569 Y79.057 E0.05891
G1 X147.839 Y79.328 E0.00976
G1 X157.628 Y69.539 E0.35345
G1 X157.986 Y69.898 E0.01295
G1 X148.198 Y79.686 E0.35345
G1 X148.557 Y80.045 E0.01295
G1 X158.345 Y70.257 E0.35345
G1 X158.703 Y70.615 E0.01295
G1 X148.915 Y80.403 E0.35345
G1 X149.274 Y80.762 E0.01295
G1 X159.062 Y70.974 E0.35345
G1 X159.420 Y71.332 E0.01295
G1 X149.632 Y81.120 E0.35345
G1 X149.991 Y81.479 E0.01295
G1 X159.779 Y71.691 E0.35345
G1 X160.138 Y72.049 E0.01295
G1 X150.349 Y81.837 E0.35345
G1 X150.708 Y82.196 E0.01295
G1 X160.496 Y72.408 E0.35345
M73 P0 R111
G1 X160.620 Y72.532 E0.00448
G1 X158.989 Y74.163 E0.05891
G1 X159.223 Y74.398 E0.00847
G1 X152.698 Y80.923 E0.23564
G1 X153.056 Y81.282 E0.01295
G1 X159.582 Y74.756 E0.23564
G1 X159.940 Y75.115 E0.01295
G1 X153.415 Y81.640 E0.23564
G1 X153.774 Y81.999 E0.01295
G1 X160.299 Y75.473 E0.23564
G1 X160.620 Y75.795 E0.01159
G1 X158.989 Y77.426 E0.05891
G1 X159.026 Y77.463 E0.00135
G1 X155.763 Y80.726 E0.11782
G1 X156.122 Y81.085 E0.01295
G1 X159.385 Y77.822 E0.11782
G1 X159.743 Y78.181 E0.01295
G1 X156.481 Y81.443 E0.11782
G1 X156.839 Y81.802 E0.01295
G1 X160.102 Y78.539 E0.11782
G1 X160.460 Y78.898 E0.01295
G1 X157.100 Y82.258 E0.12135
G1 X166.396 Y92.347 F10800.000
G1 F1200
G1 X169.802 Y88.933 E0.15120
G1 X171.009 Y87.336 E0.06277
G1 X172.058 Y85.619 E0.06311
G1 X163.958 Y93.719 E0.35918
G1 X163.603 Y93.927 E0.01288
G1 X161.893 Y94.717 E0.05908
G1 X173.008 Y83.602 E0.49287
G1 X173.624 Y81.919 E0.05619
G1 X160.239 Y95.304 E0.59352
G1 X159.895 Y95.424 E0.01142
G1 X158.786 Y95.691 E0.03578
G1 X173.999 Y80.478 E0.67459
G1 X174.121 Y80.010 E0.01514
G1 X174.256 Y79.155 E0.02716
G1 X157.448 Y95.962 E0.74528
G1 X156.209 Y96.135 E0.03922
G1 X174.440 Y77.904 E0.80839
G1 X174.506 Y76.771 E0.03557
G1 X155.073 Y96.204 E0.86169
G1 X153.962 Y96.249 E0.03485
G1 X174.534 Y75.676 E0.91220
G1 X174.493 Y74.651 E0.03218
G1 X152.954 Y96.190 E0.95507
G1 X151.948 Y96.129 E0.03160
G1 X174.417 Y73.661 E0.99629
G1 X174.286 Y72.725 E0.02964
G1 X151.027 Y95.984 E1.03137
G1 X150.105 Y95.839 E0.02924
G1 X174.135 Y71.810 E1.06549
G1 X173.928 Y70.950 E0.02772
G1 X149.250 Y95.628 E1.09426
G1 X148.403 Y95.408 E0.02742
G1 X173.719 Y70.092 E1.12256
G1 X173.444 Y69.301 E0.02627
G1 X147.596 Y95.149 E1.14616
G1 X146.816 Y94.862 E0.02605
G1 X173.169 Y68.509 E1.16852
G1 X173.066 Y68.214 E0.00980
G1 X172.855 Y67.757 E0.01580
G1 X146.047 Y94.564 E1.18870
G1 X145.329 Y94.217 E0.02503
G1 X157.049 Y82.496 E0.51971
G1 X156.516 Y81.963 E0.02365
G1 X144.610 Y93.869 E0.52793
G1 X144.372 Y93.753 E0.00831
G1 X143.929 Y93.483 E0.01625
G1 X155.983 Y81.429 E0.53447
G1 X155.726 Y81.172 E0.01139
G1 X154.095 Y82.804 E0.07234
G1 X153.818 Y82.527 E0.01225
G1 X143.268 Y93.078 E0.46783
G1 X142.611 Y92.668 E0.02427
G1 X153.285 Y81.994 E0.47331
G1 X152.752 Y81.461 E0.02365
G1 X142.003 Y92.209 E0.47660
G1 X141.396 Y91.750 E0.02387
G1 X150.587 Y82.559 E0.40756
G1 X150.054 Y82.026 E0.02365
G1 X140.813 Y91.267 E0.40977
G1 X140.258 Y90.755 E0.02367
G1 X149.521 Y81.492 E0.41072
G1 X148.987 Y80.959 E0.02365
G1 X139.703 Y90.243 E0.41167
G1 X139.191 Y89.689 E0.02366
G1 X148.454 Y80.426 E0.41074
G1 X147.921 Y79.893 E0.02365
G1 X138.689 Y89.125 E0.40937
G1 X138.195 Y88.552 E0.02371
G1 X147.387 Y79.359 E0.40762
G1 X147.085 Y79.057 E0.01340
G1 X148.717 Y77.426 E0.07234
G1 X148.486 Y77.195 E0.01025
G1 X137.745 Y87.935 E0.47624
G1 X137.296 Y87.318 E0.02394
G1 X147.952 Y76.661 E0.47251
G1 X147.419 Y76.128 E0.02365
G1 X136.876 Y86.671 E0.46749
G1 X136.482 Y85.999 E0.02443
G1 X148.517 Y73.964 E0.53368
G1 X147.984 Y73.430 E0.02365
G1 X136.087 Y85.327 E0.52752
G1 X135.748 Y84.600 E0.02517
G1 X147.451 Y72.897 E0.51891
G1 X147.085 Y72.532 E0.01619
G1 X150.832 Y68.785 E0.16613
G1 X151.197 Y69.151 E0.01619
G1 X162.899 Y57.449 E0.51889
G1 X163.618 Y57.796 E0.02503
G1 X151.730 Y69.684 E0.52711
G1 X152.264 Y70.217 E0.02365
G1 X164.304 Y58.177 E0.53389
G1 X164.966 Y58.581 E0.02432
G1 X154.428 Y69.119 E0.46725
G1 X154.961 Y69.652 E0.02365
G1 X165.628 Y58.986 E0.47295
G1 X166.236 Y59.445 E0.02388
G1 X155.495 Y70.186 E0.47627
G1 X155.726 Y70.417 E0.01025
G1 X157.357 Y68.785 E0.07234
G1 X157.659 Y69.087 E0.01340
G1 X166.843 Y59.904 E0.40722
G1 X167.233 Y60.199 E0.01533
G1 X167.432 Y60.382 E0.00847
G1 X158.193 Y69.621 E0.40968
G1 X158.726 Y70.154 E0.02365
G1 X167.986 Y60.894 E0.41062
G1 X168.541 Y61.405 E0.02367
G1 X159.259 Y70.687 E0.41157
G1 X159.792 Y71.221 E0.02365
G1 X169.059 Y61.954 E0.41088
G1 X169.561 Y62.519 E0.02369
G1 X160.326 Y71.754 E0.40950
G1 X160.859 Y72.287 E0.02365
G1 X170.060 Y63.086 E0.40800
G1 X170.509 Y63.703 E0.02394
G1 X159.761 Y74.452 E0.47661
G1 X160.294 Y74.985 E0.02365
G1 X170.959 Y64.320 E0.47288
G1 X171.213 Y64.670 E0.01357
G1 X171.384 Y64.961 E0.01058
G1 X160.827 Y75.518 E0.46811
G1 X161.104 Y75.795 E0.01225
G1 X159.472 Y77.426 E0.07234
G1 X159.729 Y77.683 E0.01139
G1 X171.779 Y65.633 E0.53429
G1 X172.173 Y66.305 E0.02443
G1 X160.263 Y78.216 E0.52814
G1 X160.796 Y78.749 E0.02365
G1 X172.646 Y66.899 E0.52545
M73 P1 R110
G1 F8640
G1 X170.319 Y69.227 E-0.76000
G1 E-0.04000 F2100.00000
G1 Z0.800 F10800.000
G1 X153.956 Y97.363
G1 Z0.200
G1 E0.80000 F2100.00000
G1 F1200
G1 X151.848 Y97.240 E0.06620
G1 X149.762 Y96.912 E0.06620
G1 X147.719 Y96.380 E0.06620
G1 X145.738 Y95.651 E0.06620
G1 X143.837 Y94.731 E0.06620
G1 X142.036 Y93.630 E0.06620
G1 X140.352 Y92.357 E0.06620
G1 X138.800 Y90.925 E0.06620
G1 X137.397 Y89.348 E0.06620
G1 X136.155 Y87.640 E0.06620
G1 X135.085 Y85.820 E0.06620
G1 X134.200 Y83.903 E0.06620
G1 X133.507 Y81.909 E0.06620
G1 X133.012 Y79.856 E0.06620
G1 X132.721 Y77.765 E0.06620
G1 X132.637 Y75.656 E0.06620
G1 X132.760 Y73.548 E0.06620
G1 X133.088 Y71.462 E0.06620
G1 X133.620 Y69.419 E0.06620
G1 X134.349 Y67.438 E0.06620
G1 X135.269 Y65.537 E0.06620
G1 X136.370 Y63.736 E0.06620
G1 X137.643 Y62.052 E0.06620
G1 X139.075 Y60.500 E0.06620
G1 X140.652 Y59.097 E0.06620
G1 X142.360 Y57.855 E0.06620
G1 X144.180 Y56.786 E0.06620
G1 X146.097 Y55.900 E0.06620
G1 X148.091 Y55.207 E0.06620
G1 X150.144 Y54.712 E0.06620
G1 X152.235 Y54.421 E0.06620
G1 X154.344 Y54.337 E0.06620
G1 X156.452 Y54.460 E0.06620
G1 X158.538 Y54.788 E0.06620
G1 X160.581 Y55.320 E0.06620
G1 X162.562 Y56.049 E0.06620
G1 X164.463 Y56.969 E0.06620
G1 X166.264 Y58.071 E0.06620
G1 X167.948 Y59.343 E0.06620
G1 X169.500 Y60.775 E0.06620
G1 X170.903 Y62.352 E0.06620
G1 X172.145 Y64.060 E0.06620
G1 X173.214 Y65.880 E0.06620
G1 X174.100 Y67.797 E0.06620
G1 X174.793 Y69.791 E0.06620
G1 X175.288 Y71.844 E0.06620
G1 X175.579 Y73.935 E0.06620
G1 X175.663 Y76.044 E0.06620
G1 X175.540 Y78.152 E0.06620
G1 X175.212 Y80.238 E0.06620
G1 X174.680 Y82.281 E0.06620
G1 X173.951 Y84.262 E0.06620
G1 X173.031 Y86.163 E0.06620
G1 X171.930 Y87.964 E0.06620
G1 X170.657 Y89.648 E0.06620
G1 X169.225 Y91.199 E0.06620
G1 X167.648 Y92.603 E0.06620
G1 X165.940 Y93.845 E0.06620
G1 X164.120 Y94.914 E0.06620
G1 X162.203 Y95.800 E0.06620
G1 X160.209 Y96.493 E0.06620
G1 X158.156 Y96.988 E0.06620
G1 X156.065 Y97.279 E0.06620
G1 X154.016 Y97.361 E0.06432
G1 X153.959 Y96.986 F10800.000
G1 F1200
G1 X151.888 Y96.865 E0.06504
G1 X149.839 Y96.542 E0.06504
G1 X147.832 Y96.020 E0.06504
G1 X145.885 Y95.304 E0.06504
G1 X144.018 Y94.400 E0.06504
G1 X142.249 Y93.318 E0.06504
G1 X140.594 Y92.067 E0.06504
G1 X139.070 Y90.660 E0.06504
G1 X137.691 Y89.111 E0.06504
G1 X136.470 Y87.434 E0.06504
G1 X135.420 Y85.645 E0.06504
G1 X134.550 Y83.762 E0.06504
G1 X133.869 Y81.803 E0.06504
G1 X133.383 Y79.786 E0.06504
G1 X133.097 Y77.732 E0.06504
G1 X133.014 Y75.659 E0.06504
G1 X133.135 Y73.588 E0.06504
G1 X133.458 Y71.539 E0.06504
G1 X133.980 Y69.532 E0.06504
G1 X134.696 Y67.585 E0.06504
G1 X135.600 Y65.718 E0.06504
G1 X136.682 Y63.949 E0.06504
G1 X137.933 Y62.294 E0.06504
G1 X139.340 Y60.770 E0.06504
G1 X140.889 Y59.391 E0.06504
G1 X142.566 Y58.170 E0.06504
G1 X144.355 Y57.120 E0.06504
G1 X146.238 Y56.250 E0.06504
G1 X148.197 Y55.569 E0.06504
G1 X150.214 Y55.083 E0.06504
G1 X152.268 Y54.797 E0.06504
G1 X154.341 Y54.714 E0.06504
G1 X156.412 Y54.835 E0.06504
G1 X158.461 Y55.158 E0.06504
G1 X160.468 Y55.680 E0.06504
G1 X162.415 Y56.396 E0.06504
G1 X164.282 Y57.300 E0.06504
G1 X166.051 Y58.383 E0.06504
G1 X167.706 Y59.633 E0.06504
G1 X169.230 Y61.040 E0.06504
G1 X170.609 Y62.589 E0.06504
G1 X171.830 Y64.266 E0.06504
G1 X172.880 Y66.055 E0.06504
G1 X173.750 Y67.938 E0.06504
G1 X174.431 Y69.897 E0.06504
G1 X174.917 Y71.914 E0.06504
G1 X175.203 Y73.968 E0.06504
G1 X175.286 Y76.041 E0.06504
G1 X175.165 Y78.112 E0.06504
G1 X174.842 Y80.161 E0.06504
G1 X174.320 Y82.168 E0.06504
G1 X173.604 Y84.115 E0.06504
G1 X172.700 Y85.982 E0.06504
G1 X171.618 Y87.751 E0.06504
G1 X170.367 Y89.406 E0.06504
G1 X168.960 Y90.930 E0.06504
G1 X167.411 Y92.309 E0.06504
G1 X165.734 Y93.530 E0.06504
G1 X163.945 Y94.580 E0.06504
G1 X162.062 Y95.450 E0.06504
G1 X160.103 Y96.131 E0.06504
G1 X158.086 Y96.617 E0.06504
G1 X156.032 Y96.903 E0.06504
G1 X154.019 Y96.983 E0.06315
G1 X153.756 Y97.330 F10800.000
G1 F8640
G1 X151.888 Y96.865 E-0.49274
G1 X150.745 Y96.685 E-0.26726
G1 E-0.04000 F2100.00000
G1 Z0.800 F10800.000
G1 X153.925 Y100.721
G1 Z0.200
G1 E0.80000 F2100.00000
G1 F1200
G1 X151.489 Y100.580 E0.07653
G1 X149.077 Y100.200 E0.07653
G1 X146.715 Y99.585 E0.07653
G1 X144.424 Y98.742 E0.07653
G1 X142.227 Y97.679 E0.07653
G1 X140.145 Y96.405 E0.07653
G1 X138.198 Y94.933 E0.07653
G1 X136.404 Y93.278 E0.07653
G1 X134.782 Y91.455 E0.07653
G1 X133.345 Y89.481 E0.07653
G1 X132.109 Y87.376 E0.07653
G1 X131.086 Y85.160 E0.07653
G1 X130.284 Y82.855 E0.07653
G1 X129.713 Y80.482 E0.07653
G1 X129.376 Y78.064 E0.07653
G1 X129.278 Y75.625 E0.07653
G1 X129.420 Y73.189 E0.07653
G1 X129.800 Y70.777 E0.07653
G1 X130.415 Y68.415 E0.07653
G1 X131.258 Y66.125 E0.07653
G1 X132.321 Y63.928 E0.07653
G1 X133.595 Y61.845 E0.07653
G1 X135.067 Y59.898 E0.07653
G1 X136.722 Y58.104 E0.07653
G1 X138.545 Y56.482 E0.07653
G1 X140.519 Y55.045 E0.07653
G1 X142.624 Y53.809 E0.07653
G1 X144.840 Y52.786 E0.07653
G1 X147.145 Y51.984 E0.07653
G1 X149.518 Y51.413 E0.07653
G1 X151.936 Y51.076 E0.07653
G1 X154.375 Y50.979 E0.07653
G1 X156.812 Y51.120 E0.07653
G1 X159.223 Y51.500 E0.07653
G1 X161.585 Y52.115 E0.07653
G1 X163.876 Y52.958 E0.07653
G1 X166.073 Y54.021 E0.07653
G1 X168.155 Y55.295 E0.07653
G1 X170.102 Y56.767 E0.07653
G1 X171.896 Y58.422 E0.07653
