; generated by PrusaSlicer 2.1.1+win64 on 2020-02-24 at 20:30:09 UTC

; 

; external perimeters extrusion width = 0.60mm
; perimeters extrusion width = 0.43mm
; infill extrusion width = 0.45mm
; solid infill extrusion width = 0.70mm
; top infill extrusion width = 0.43mm
; first layer extrusion width = 0.42mm

M73 P0 R71
M201 X9000 Y9000 Z500 E10000 ; sets maximum accelerations, mm/sec^2
M203 X500 Y500 Z12 E120 ; sets maximum feedrates, mm/sec
M204 P2000 R1500 T2000 ; sets acceleration (P, T) and retract acceleration (R), mm/sec^2
M205 X10.00 Y10.00 Z0.20 E2.50 ; sets the jerk limits, mm/sec
M205 S0 T0 ; sets the minimum extruding and travel feed rate, mm/sec
M107
M862.3 P "MK2S" ; printer model check
M862.1 P0.4 ; nozzle diameter check
M115 U3.2.3 ; tell printer latest fw version
G90 ; use absolute coordinates
M83 ; extruder relative mode
M204 S2000 T1500 ; MK2 firmware only supports the old M204 format
M104 S215 ; set extruder temp
M140 S60 ; set bed temp
M190 S60 ; wait for bed temp
M109 S215 ; wait for extruder temp
G28 W ; home all without mesh bed level
G80 ; mesh bed leveling
G1 Y-3.0 F1000.0 ; go outside print area
G92 E0.0
G1 X60.0 E9.0  F1000.0 ; intro line
M73 P0 R71
G1 X100.0 E12.5 F1000.0 ; intro line
G92 E0.0
G21 ; set units to millimeters
G90 ; use absolute coordinates
M83 ; use relative distances for extrusion
M900 K30 ; Filament gcode
;BEFORE_LAYER_CHANGE
G92 E0.0
;0.2


G1 E-0.80000 F2100.00000
G1 Z0.600 F10800.000
;AFTER_LAYER_CHANGE
;0.2
G1 X78.720 Y32.599
G1 Z0.200
G1 E0.80000 F2100.00000
M204 S1000
G1 F1200
G1 X79.509 Y32.245 E0.02709
G1 X154.683 Y27.860 E2.36104
G1 X155.327 Y27.959 E0.02044
G1 X155.926 Y28.245 E0.02081
G1 X156.401 Y28.670 E0.01998
G1 X156.733 Y29.210 E0.01987
G1 X159.028 Y35.669 E0.21495
G1 X160.701 Y41.904 E0.20241
G1 X179.789 Y130.185 E2.83194
G1 X179.824 Y130.887 E0.02202
G1 X179.546 Y131.735 E0.02799
G1 X151.363 Y180.480 E1.76543
G1 X150.726 Y181.004 E0.02586
G1 X149.941 Y181.256 E0.02586
G1 X137.363 Y182.164 E0.39541
G1 X136.518 Y181.887 E0.02788
G1 X127.825 Y176.868 E0.31474
G1 X127.220 Y176.333 E0.02529
G1 X111.014 Y149.626 E0.97949
G1 X108.693 Y145.320 E0.15337
G1 X106.774 Y140.760 E0.15512
G1 X70.456 Y48.165 E3.11860
G1 X70.324 Y47.653 E0.01658
G1 X70.320 Y47.124 E0.01658
G1 X70.588 Y46.295 E0.02732
G1 X78.133 Y33.228 E0.47311
G1 X78.679 Y32.643 E0.02510
G1 F8640
G1 X79.509 Y32.245 E-0.21238
G1 X81.876 Y32.107 E-0.54762
G1 E-0.04000 F2100.00000
G1 Z0.800 F10800.000
G1 X121.875 Y53.538
G1 Z0.200
G1 E0.80000 F2100.00000
G1 F1200
G1 X141.449 Y53.538 E0.61373
G1 X141.449 Y130.918 E2.42619
G1 X121.875 Y130.918 E0.61373
G1 X121.875 Y53.598 E2.42431
G1 X122.252 Y53.915 F10800.000
G1 F1200
G1 X141.072 Y53.915 E0.59009
G1 X141.072 Y130.540 E2.40254
G1 X122.252 Y130.540 E0.59009
G1 X122.252 Y53.975 E2.40066
G1 X122.220 Y53.516 F10800.000
G1 F8640
G1 X125.544 Y53.964 E-0.76000
G1 E-0.04000 F2100.00000
G1 Z0.800 F10800.000
G1 X140.870 Y173.166
G1 Z0.200
G1 E0.80000 F2100.00000
G1 F1200
G1 X137.393 Y179.188 E0.21804
G1 X129.749 Y174.774 E0.27673
G1 X133.469 Y168.332 E0.23324
G1 X130.725 Y166.358 E0.10599
G1 X126.276 Y162.861 E0.17743
G1 X122.373 Y159.348 E0.16464
G1 X118.978 Y155.790 E0.15421
G1 X116.019 Y152.124 E0.14771
G1 X113.397 Y148.201 E0.14796
G1 X111.183 Y144.093 E0.14632
G1 X109.362 Y139.756 E0.14749
G1 X107.920 Y135.093 E0.15303
G1 X106.966 Y130.569 E0.14495
G1 X106.357 Y125.735 E0.15279
G1 X106.091 Y120.394 E0.16766
G1 X106.206 Y114.432 E0.18697
G1 X106.725 Y107.918 E0.20489
G1 X107.711 Y100.396 E0.23788
G1 X109.333 Y91.077 E0.29658
G1 X111.847 Y77.961 E0.41872
G1 X73.256 Y47.225 E1.54689
G1 X80.234 Y35.139 E0.43758
G1 X107.916 Y48.079 E0.95811
G1 X154.462 Y31.597 E1.54823
G1 X154.597 Y31.364 E0.00843
G1 X156.378 Y36.494 E0.17026
G1 X157.957 Y42.385 E0.19125
G1 X157.307 Y44.016 E0.05505
G1 X157.897 Y47.002 E0.09544
G1 X158.860 Y53.477 E0.20524
G1 X159.497 Y60.916 E0.23412
M73 P1 R70
G1 X159.689 Y67.399 E0.20334
G1 X159.551 Y73.104 E0.17895
G1 X159.079 Y78.321 E0.16424
G1 X158.255 Y83.211 E0.15548
G1 X154.551 Y100.547 E0.55583
G1 X154.162 Y103.231 E0.08501
G1 X154.153 Y106.469 E0.10154
G1 X154.631 Y109.726 E0.10321
G1 X155.578 Y112.899 E0.10384
G1 X156.890 Y115.775 E0.09910
G1 X158.623 Y118.509 E0.10151
G1 X160.673 Y120.920 E0.09923
G1 X162.981 Y122.964 E0.09667
G1 X165.548 Y124.642 E0.09613
G1 X176.841 Y130.869 E0.40436
G1 X149.465 Y178.279 E1.71652
G1 X145.659 Y176.056 E0.13820
G1 X140.921 Y173.197 E0.17349
G1 X141.004 Y173.687 F10800.000
G1 F1200
G1 X137.530 Y179.703 E0.21781
G1 X129.234 Y174.912 E0.30037
G1 X132.972 Y168.439 E0.23437
G1 X130.499 Y166.659 E0.09555
G1 X126.033 Y163.150 E0.17807
G1 X122.110 Y159.619 E0.16548
G1 X118.694 Y156.039 E0.15515
G1 X115.715 Y152.348 E0.14873
G1 X113.073 Y148.396 E0.14905
G1 X110.842 Y144.256 E0.14745
G1 X109.007 Y139.885 E0.14864
G1 X107.555 Y135.187 E0.15416
G1 X106.594 Y130.632 E0.14598
G1 X105.981 Y125.767 E0.15373
G1 X105.714 Y120.400 E0.16852
G1 X105.829 Y114.413 E0.18773
G1 X106.350 Y107.878 E0.20554
G1 X107.338 Y100.339 E0.23842
G1 X108.962 Y91.009 E0.29693
G1 X111.434 Y78.114 E0.41167
G1 X72.767 Y47.318 E1.54993
G1 X80.080 Y34.651 E0.45861
G1 X107.936 Y47.672 E0.96411
G1 X154.205 Y31.288 E1.53902
G1 X154.664 Y30.494 E0.02875
G1 X154.906 Y31.105 E0.02060
G1 X156.738 Y36.383 E0.17519
G1 X158.354 Y42.409 E0.19561
G1 X157.698 Y44.052 E0.05548
G1 X158.268 Y46.938 E0.09222
G1 X159.235 Y53.433 E0.20589
G1 X159.873 Y60.895 E0.23482
G1 X160.066 Y67.398 E0.20399
G1 X159.928 Y73.126 E0.17966
G1 X159.454 Y78.370 E0.16509
G1 X158.625 Y83.282 E0.15619
G1 X154.922 Y100.614 E0.55569
G1 X154.539 Y103.258 E0.08378
G1 X154.531 Y106.442 E0.09982
G1 X155.000 Y109.644 E0.10147
G1 X155.932 Y112.766 E0.10217
G1 X157.223 Y115.595 E0.09748
G1 X158.928 Y118.285 E0.09987
G1 X160.943 Y120.656 E0.09756
G1 X163.211 Y122.664 E0.09497
G1 X165.742 Y124.319 E0.09482
G1 X177.360 Y130.725 E0.41598
G1 X149.602 Y178.795 E1.74046
G1 X145.466 Y176.380 E0.15017
G1 X141.056 Y173.718 E0.16152
G1 X140.659 Y173.486 F10800.000
G1 X140.393 Y173.765
G1 F1200
G1 X112.000 Y145.372 E1.26170
G1 F8640
G1 X114.328 Y147.699 E-0.76000
G1 E-0.04000 F2100.00000
G1 Z0.800 F10800.000
G1 X111.376 Y144.213
G1 Z0.200
G1 E0.80000 F2100.00000
G1 F1200
G1 X140.465 Y173.302 E1.29262
G1 X140.660 Y172.963 E0.01229
G1 X111.272 Y143.574 E1.30594
G1 X110.885 Y142.653 E0.03140
G1 X141.867 Y173.635 E1.37677
G1 F8640
G1 X139.540 Y171.308 E-0.76000
G1 E-0.04000 F2100.00000
G1 Z0.800 F10800.000
G1 X143.215 Y174.449
G1 Z0.200
G1 E0.80000 F2100.00000
G1 F1200
G1 X110.498 Y141.732 E1.45386
G1 X110.111 Y140.811 E0.03140
G1 X144.563 Y175.262 E1.53094
G1 F8640
G1 X142.236 Y172.935 E-0.76000
G1 E-0.04000 F2100.00000
G1 Z0.800 F10800.000
G1 X145.902 Y176.067
G1 Z0.200
G1 E0.80000 F2100.00000
G1 F1200
G1 X109.725 Y139.889 E1.60762
G1 X109.628 Y139.659 E0.00785
G1 X109.448 Y139.079 E0.01908
G1 X147.187 Y176.817 E1.67698
G1 F8640
G1 X144.859 Y174.490 E-0.76000
G1 E-0.04000 F2100.00000
G1 Z0.800 F10800.000
G1 X148.471 Y177.567
G1 Z0.200
G1 E0.80000 F2100.00000
G1 F1200
G1 X109.209 Y138.305 E1.74469
G1 X108.970 Y137.532 E0.02544
G1 X149.284 Y177.845 E1.79141
G1 X149.362 Y177.891 E0.00286
G1 X149.546 Y177.573 E0.01154
G1 X108.731 Y136.758 E1.81369
G1 X108.492 Y135.985 E0.02544
G1 X149.741 Y177.234 E1.83301
M73 P2 R69
G1 X149.937 Y176.895 E0.01229
G1 X108.253 Y135.211 E1.85233
G1 X108.194 Y135.022 E0.00624
G1 X108.086 Y134.510 E0.01642
G1 X150.133 Y176.557 E1.86842
G1 X150.328 Y176.218 E0.01229
G1 X107.944 Y133.833 E1.88346
G1 X107.801 Y133.156 E0.02175
G1 X150.524 Y175.879 E1.89850
G1 X150.720 Y175.540 E0.01229
G1 X107.658 Y132.478 E1.91355
G1 X107.515 Y131.801 E0.02175
G1 X150.915 Y175.201 E1.92859
G1 X151.111 Y174.863 E0.01229
G1 X107.372 Y131.124 E1.94363
G1 X107.237 Y130.454 E0.02148
G1 X151.306 Y174.524 E1.95834
G1 X151.502 Y174.185 E0.01229
G1 X107.160 Y129.842 E1.97046
G1 X107.083 Y129.231 E0.01936
G1 X151.698 Y173.846 E1.98258
G1 X151.893 Y173.507 E0.01229
G1 X107.005 Y128.620 E1.99469
G1 X106.928 Y128.008 E0.01936
G1 X152.089 Y173.169 E2.00681
G1 X152.285 Y172.830 E0.01229
G1 X106.851 Y127.397 E2.01893
G1 X106.774 Y126.785 E0.01936
G1 X152.480 Y172.491 E2.03104
G1 X152.676 Y172.152 E0.01229
G1 X106.697 Y126.174 E2.04316
G1 X106.632 Y125.574 E0.01895
G1 X152.872 Y171.814 E2.05475
G1 X153.067 Y171.475 E0.01229
G1 X106.604 Y125.012 E2.06469
G1 X106.576 Y124.449 E0.01769
G1 X153.263 Y171.136 E2.07462
G1 X153.458 Y170.797 E0.01229
G1 X106.548 Y123.887 E2.08456
M73 P4 R68
G1 X106.520 Y123.325 E0.01769
G1 X153.654 Y170.458 E2.09449
G1 X153.850 Y170.120 E0.01229
G1 X106.492 Y122.762 E2.10443
G1 X106.464 Y122.200 E0.01769
G1 X154.045 Y169.781 E2.11437
G1 X154.241 Y169.442 E0.01229
G1 X106.436 Y121.637 E2.12430
G1 X106.408 Y121.075 E0.01769
G1 X154.437 Y169.103 E2.13424
G1 X154.632 Y168.764 E0.01229
G1 X106.380 Y120.513 E2.14418
G1 X106.382 Y119.980 E0.01674
G1 X154.828 Y168.426 E2.15279
G1 X155.023 Y168.087 E0.01229
G1 X106.392 Y119.456 E2.16104
G1 X106.402 Y118.931 E0.01648
G1 X155.219 Y167.748 E2.16928
G1 X155.415 Y167.409 E0.01229
G1 X106.412 Y118.407 E2.17752
G1 X106.423 Y117.883 E0.01648
G1 X155.610 Y167.070 E2.18577
G1 X155.806 Y166.732 E0.01229
G1 X106.433 Y117.358 E2.19401
G1 X106.443 Y116.834 E0.01648
G1 X156.002 Y166.393 E2.20226
G1 X156.197 Y166.054 E0.01229
G1 X106.453 Y116.310 E2.21050
G1 X106.463 Y115.785 E0.01648
G1 X156.393 Y165.715 E2.21875
G1 X156.589 Y165.377 E0.01229
G1 X122.412 Y131.200 E1.51869
G1 X122.947 Y131.200 E0.01679
G1 X156.784 Y165.038 E1.50364
G1 X156.980 Y164.699 E0.01229
G1 X123.481 Y131.200 E1.48858
G1 X124.016 Y131.200 E0.01679
G1 X157.175 Y164.360 E1.47353
M73 P5 R67
G1 X157.371 Y164.021 E0.01229
G1 X124.550 Y131.200 E1.45848
G1 X125.084 Y131.200 E0.01679
G1 X157.567 Y163.683 E1.44342
G1 X157.762 Y163.344 E0.01229
G1 X125.619 Y131.200 E1.42837
G1 X126.153 Y131.200 E0.01679
G1 X157.958 Y163.005 E1.41331
G1 X158.154 Y162.666 E0.01229
G1 X126.688 Y131.200 E1.39826
G1 X127.222 Y131.200 E0.01679
G1 X158.349 Y162.327 E1.38320
G1 X158.545 Y161.989 E0.01229
G1 X127.757 Y131.200 E1.36815
G1 X128.291 Y131.200 E0.01679
G1 X158.740 Y161.650 E1.35309
G1 X158.936 Y161.311 E0.01229
G1 X128.825 Y131.200 E1.33804
G1 X129.360 Y131.200 E0.01679
G1 X159.132 Y160.972 E1.32298
G1 X159.327 Y160.633 E0.01229
G1 X129.894 Y131.200 E1.30793
G1 X130.429 Y131.200 E0.01679
G1 X159.523 Y160.295 E1.29287
G1 X159.719 Y159.956 E0.01229
G1 X130.963 Y131.200 E1.27782
G1 X131.497 Y131.200 E0.01679
G1 X159.914 Y159.617 E1.26276
G1 X160.110 Y159.278 E0.01229
G1 X132.032 Y131.200 E1.24771
G1 X132.566 Y131.200 E0.01679
G1 X160.306 Y158.940 E1.23265
G1 X160.501 Y158.601 E0.01229
G1 X133.101 Y131.200 E1.21760
G1 X133.635 Y131.200 E0.01679
G1 X160.697 Y158.262 E1.20254
G1 X160.892 Y157.923 E0.01229
G1 X134.170 Y131.200 E1.18749
G1 X134.704 Y131.200 E0.01679
G1 X161.088 Y157.584 E1.17243
G1 X161.284 Y157.246 E0.01229
G1 X135.238 Y131.200 E1.15738
G1 X135.773 Y131.200 E0.01679
G1 X161.479 Y156.907 E1.14232
G1 X161.675 Y156.568 E0.01229
G1 X136.307 Y131.200 E1.12727
G1 X136.842 Y131.200 E0.01679
G1 X161.871 Y156.229 E1.11221
G1 X162.066 Y155.890 E0.01229
G1 X137.376 Y131.200 E1.09716
G1 X137.911 Y131.200 E0.01679
G1 X162.262 Y155.552 E1.08210
G1 X162.457 Y155.213 E0.01229
G1 X138.445 Y131.200 E1.06705
G1 X138.979 Y131.200 E0.01679
G1 X162.653 Y154.874 E1.05200
G1 X162.849 Y154.535 E0.01229
G1 X139.514 Y131.200 E1.03694
G1 X140.048 Y131.200 E0.01679
G1 X163.044 Y154.197 E1.02189
M73 P7 R66
G1 X163.240 Y153.858 E0.01229
G1 X140.583 Y131.200 E1.00683
G1 X141.117 Y131.200 E0.01679
G1 X163.436 Y153.519 E0.99178
G1 X163.631 Y153.180 E0.01229
G1 X141.651 Y131.200 E0.97672
G1 X141.732 Y131.200 E0.00253
G1 X141.732 Y130.746 E0.01426
G1 X163.827 Y152.841 E0.98184
G1 X164.023 Y152.503 E0.01229
G1 X141.732 Y130.212 E0.99053
G1 X141.732 Y129.678 E0.01679
G1 X164.218 Y152.164 E0.99922
G1 X164.414 Y151.825 E0.01229
G1 X141.732 Y129.143 E1.00792
G1 X141.732 Y128.609 E0.01679
G1 X164.609 Y151.486 E1.01661
G1 X164.805 Y151.147 E0.01229
G1 X141.732 Y128.074 E1.02530
G1 X141.732 Y127.540 E0.01679
G1 X165.001 Y150.809 E1.03400
G1 X165.196 Y150.470 E0.01229
G1 X141.732 Y127.005 E1.04269
G1 X141.732 Y126.471 E0.01679
G1 X165.392 Y150.131 E1.05138
G1 X165.588 Y149.792 E0.01229
G1 X141.732 Y125.937 E1.06008
G1 X141.732 Y125.402 E0.01679
G1 X165.783 Y149.453 E1.06877
G1 X165.979 Y149.115 E0.01229
G1 X141.732 Y124.868 E1.07746
G1 X141.732 Y124.333 E0.01679
G1 X166.174 Y148.776 E1.08616
G1 X166.370 Y148.437 E0.01229
G1 X141.732 Y123.799 E1.09485
G1 X141.732 Y123.265 E0.01679
G1 X166.566 Y148.098 E1.10354
G1 X166.761 Y147.760 E0.01229
G1 X141.732 Y122.730 E1.11224
G1 X141.732 Y122.196 E0.01679
G1 X166.957 Y147.421 E1.12093
G1 X167.153 Y147.082 E0.01229
G1 X141.732 Y121.661 E1.12962
G1 X141.732 Y121.127 E0.01679
G1 X167.348 Y146.743 E1.13832
G1 X167.544 Y146.404 E0.01229
G1 X141.732 Y120.592 E1.14701
G1 X141.732 Y120.058 E0.01679
G1 X167.740 Y146.066 E1.15570
G1 X167.935 Y145.727 E0.01229
G1 X141.732 Y119.524 E1.16440
G1 X141.732 Y118.989 E0.01679
G1 X168.131 Y145.388 E1.17309
G1 X168.326 Y145.049 E0.01229
G1 X141.732 Y118.455 E1.18178
G1 X141.732 Y117.920 E0.01679
G1 X168.522 Y144.710 E1.19048
G1 X168.718 Y144.372 E0.01229
G1 X141.732 Y117.386 E1.19917
G1 X141.732 Y116.851 E0.01679
G1 X168.913 Y144.033 E1.20786
G1 X169.109 Y143.694 E0.01229
G1 X141.732 Y116.317 E1.21656
G1 X141.732 Y115.783 E0.01679
G1 X169.305 Y143.355 E1.22525
G1 X169.500 Y143.016 E0.01229
G1 X141.732 Y115.248 E1.23394
G1 X141.732 Y114.714 E0.01679
G1 X169.696 Y142.678 E1.24264
M73 P8 R65
G1 X169.891 Y142.339 E0.01229
G1 X141.732 Y114.179 E1.25133
G1 X141.732 Y113.645 E0.01679
G1 X170.087 Y142.000 E1.26002
G1 X170.283 Y141.661 E0.01229
G1 X141.732 Y113.111 E1.26872
G1 X141.732 Y112.576 E0.01679
G1 X170.478 Y141.323 E1.27741
G1 X170.674 Y140.984 E0.01229
G1 X141.732 Y112.042 E1.28610
G1 X141.732 Y111.507 E0.01679
G1 X170.870 Y140.645 E1.29480
G1 X171.065 Y140.306 E0.01229
G1 X141.732 Y110.973 E1.30349
G1 X141.732 Y110.438 E0.01679
G1 X171.261 Y139.967 E1.31218
G1 X171.457 Y139.629 E0.01229
G1 X141.732 Y109.904 E1.32088
G1 X141.732 Y109.370 E0.01679
G1 X171.652 Y139.290 E1.32957
G1 X171.848 Y138.951 E0.01229
G1 X141.732 Y108.835 E1.33826
G1 X141.732 Y108.301 E0.01679
G1 X172.043 Y138.612 E1.34696
G1 X172.239 Y138.273 E0.01229
G1 X141.732 Y107.766 E1.35565
G1 X141.732 Y107.232 E0.01679
G1 X172.435 Y137.935 E1.36434
G1 X172.630 Y137.596 E0.01229
G1 X141.732 Y106.697 E1.37304
G1 X141.732 Y106.163 E0.01679
G1 X172.826 Y137.257 E1.38173
G1 X173.022 Y136.918 E0.01229
G1 X141.732 Y105.629 E1.39042
G1 X141.732 Y105.094 E0.01679
G1 X173.217 Y136.580 E1.39912
G1 X173.413 Y136.241 E0.01229
G1 X141.732 Y104.560 E1.40781
G1 X141.732 Y104.025 E0.01679
G1 X173.608 Y135.902 E1.41650
G1 X173.804 Y135.563 E0.01229
G1 X141.732 Y103.491 E1.42520
G1 X141.732 Y102.957 E0.01679
G1 X174.000 Y135.224 E1.43389
G1 X174.195 Y134.886 E0.01229
G1 X141.732 Y102.422 E1.44258
G1 X141.732 Y101.888 E0.01679
G1 X158.177 Y118.332 E0.73076
G1 X157.800 Y117.422 F10800.000
G1 F1200
G1 X141.732 Y101.353 E0.71404
G1 X141.732 Y100.819 E0.01679
G1 X156.489 Y115.576 E0.65575
G1 X156.040 Y114.592 E0.03396
G1 X141.732 Y100.284 E0.63581
G1 X141.732 Y99.750 E0.01679
G1 X155.591 Y113.609 E0.61586
G1 X155.313 Y112.999 E0.02108
G1 X155.226 Y112.710 E0.00947
G1 X141.732 Y99.216 E0.59966
G1 X141.732 Y98.681 E0.01679
G1 X154.999 Y111.948 E0.58956
G1 X154.772 Y111.187 E0.02497
G1 X141.732 Y98.147 E0.57946
G1 X141.732 Y97.612 E0.01679
G1 X154.545 Y110.425 E0.56936
G1 X154.354 Y109.787 E0.02093
G1 X154.339 Y109.685 E0.00322
G1 X141.732 Y97.078 E0.56024
M73 P10 R64
G1 X141.732 Y96.544 E0.01679
G1 X154.248 Y109.059 E0.55616
G1 X154.156 Y108.433 E0.01989
G1 X141.732 Y96.009 E0.55208
G1 X141.732 Y95.475 E0.01679
G1 X154.064 Y107.807 E0.54799
G1 X153.972 Y107.180 E0.01989
G1 X141.732 Y94.940 E0.54391
G1 X141.732 Y94.406 E0.01679
G1 X153.880 Y106.554 E0.53983
G1 X153.872 Y106.011 E0.01705
G1 X141.732 Y93.871 E0.53946
G1 X141.732 Y93.337 E0.01679
G1 X153.873 Y105.478 E0.53952
G1 X153.875 Y104.945 E0.01675
