; generated by PrusaSlicer 2.1.1+win64 on 2020-01-08 at 22:22:59 UTC

; 

; external perimeters extrusion width = 0.45mm
; perimeters extrusion width = 0.45mm
; infill extrusion width = 0.45mm
; solid infill extrusion width = 0.45mm
; top infill extrusion width = 0.45mm
; first layer extrusion width = 0.42mm

M73 P0 R15
M201 X9000 Y9000 Z500 E10000 ; sets maximum accelerations, mm/sec^2
M203 X500 Y500 Z12 E120 ; sets maximum feedrates, mm/sec
M204 P2000 R1500 T2000 ; sets acceleration (P, T) and retract acceleration (R), mm/sec^2
M205 X10.00 Y10.00 Z0.20 E2.50 ; sets the jerk limits, mm/sec
M205 S0 T0 ; sets the minimum extruding and travel feed rate, mm/sec
M107
M862.3 P "MK2S" ; printer model check
M862.1 P0.4 ; nozzle diameter check
M115 U3.2.3 ; tell printer latest fw version
G90 ; use absolute coordinates
M83 ; extruder relative mode
M204 S2000 T1500 ; MK2 firmware only supports the old M204 format
M104 S215 ; set extruder temp
M140 S60 ; set bed temp
M190 S60 ; wait for bed temp
M109 S215 ; wait for extruder temp
G28 W ; home all without mesh bed level
G80 ; mesh bed leveling
G1 Y-3.0 F1000.0 ; go outside print area
G92 E0.0
G1 X60.0 E9.0  F1000.0 ; intro line
M73 P0 R14
G1 X100.0 E12.5 F1000.0 ; intro line
G92 E0.0
G21 ; set units to millimeters
G90 ; use absolute coordinates
M83 ; use relative distances for extrusion
M900 K30 ; Filament gcode
;BEFORE_LAYER_CHANGE
G92 E0.0
;0.2


G1 E-0.80000 F2100.00000
G1 Z0.600 F10800.000
;AFTER_LAYER_CHANGE
;0.2
G1 X115.585 Y88.756
G1 Z0.200
G1 E0.80000 F2100.00000
M204 S1000
G1 F1200
G1 X116.420 Y87.818 E0.03937
G1 X117.079 Y87.273 E0.02683
G1 X118.163 Y86.639 E0.03936
G1 X118.943 Y86.329 E0.02633
G1 X120.184 Y86.055 E0.03986
G1 X121.026 Y86.000 E0.02645
G1 X122.319 Y86.127 E0.04072
G1 X123.232 Y86.375 E0.02965
G1 X124.413 Y86.915 E0.04073
G1 X125.527 Y87.726 E0.04320
G1 X136.309 Y98.407 E0.47586
G1 X137.165 Y99.657 E0.04751
G1 X137.672 Y100.909 E0.04233
G1 X137.867 Y101.770 E0.02769
G1 X137.947 Y102.784 E0.03190
G1 X137.947 Y117.278 E0.45444
G1 X137.851 Y118.399 E0.03527
G1 X137.673 Y119.159 E0.02447
G1 X137.241 Y120.262 E0.03714
G1 X136.380 Y121.584 E0.04948
G1 X135.821 Y122.174 E0.02547
G1 X134.880 Y122.912 E0.03751
G1 X134.164 Y123.320 E0.02584
G1 X133.424 Y123.627 E0.02510
G1 X131.974 Y123.957 E0.04665
G1 X130.805 Y123.989 E0.03665
G1 X130.077 Y123.906 E0.02299
G1 X128.606 Y123.481 E0.04801
G1 X127.318 Y122.768 E0.04616
G1 X114.043 Y111.217 E0.55175
G1 X113.557 Y110.714 E0.02190
G1 X112.952 Y109.881 E0.03229
G1 X112.374 Y108.628 E0.04326
G1 X112.102 Y107.363 E0.04057
G1 X112.106 Y106.026 E0.04194
G1 X114.407 Y91.456 E0.46249
G1 X114.655 Y90.534 E0.02992
G1 X115.133 Y89.464 E0.03676
G1 X115.553 Y88.807 E0.02445
G1 X115.870 Y89.009 F10800.000
G1 F1200
G1 X116.686 Y88.085 E0.03865
G1 X117.295 Y87.583 E0.02477
G1 X118.334 Y86.975 E0.03771
G1 X119.058 Y86.688 E0.02443
G1 X120.243 Y86.427 E0.03806
G1 X121.024 Y86.377 E0.02454
G1 X122.254 Y86.499 E0.03874
G1 X123.094 Y86.726 E0.02728
G1 X124.215 Y87.236 E0.03863
G1 X125.263 Y87.996 E0.04057
G1 X135.709 Y98.313 E0.46035
G1 X136.530 Y99.322 E0.04079
G1 X137.172 Y100.599 E0.04480
G1 X137.481 Y101.751 E0.03739
G1 X137.570 Y102.769 E0.03206
G1 X137.570 Y117.273 E0.45476
G1 X137.486 Y118.293 E0.03208
G1 X137.317 Y119.035 E0.02387
G1 X136.903 Y120.095 E0.03568
G1 X136.098 Y121.332 E0.04628
G1 X135.571 Y121.891 E0.02410
G1 X134.670 Y122.599 E0.03591
G1 X133.317 Y123.265 E0.04730
G1 X131.942 Y123.581 E0.04423
G1 X130.816 Y123.612 E0.03534
G1 X130.128 Y123.532 E0.02169
G1 X128.746 Y123.131 E0.04514
G1 X127.531 Y122.457 E0.04356
G1 X114.305 Y110.945 E0.54977
G1 X113.849 Y110.476 E0.02050
G1 X113.268 Y109.676 E0.03099
G1 X112.729 Y108.504 E0.04045
G1 X112.475 Y107.310 E0.03829
G1 X112.481 Y106.067 E0.03897
G1 X114.778 Y91.519 E0.46177
G1 X115.002 Y90.682 E0.02717
G1 X115.465 Y89.643 E0.03566
G1 X115.837 Y89.059 E0.02172
G1 F8640
G1 X116.686 Y88.085 E-0.29832
G1 X117.295 Y87.583 E-0.18242
G1 X118.334 Y86.975 E-0.27774
G1 X118.340 Y86.973 E-0.00152
G1 E-0.04000 F2100.00000
G1 Z0.800 F10800.000
G1 X118.006 Y104.384
G1 Z0.200
G1 E0.80000 F2100.00000
G1 F1200
G1 X118.356 Y104.384 E0.01099
G1 X118.702 Y104.436 E0.01096
G1 X119.029 Y104.537 E0.01072
G1 X119.350 Y104.690 E0.01116
G1 X119.640 Y104.888 E0.01099
G1 X119.896 Y105.125 E0.01096
G1 X120.109 Y105.393 E0.01072
G1 X120.288 Y105.700 E0.01116
G1 X120.416 Y106.027 E0.01099
G1 X120.494 Y106.367 E0.01096
G1 X120.520 Y106.716 E0.01096
G1 X120.494 Y107.065 E0.01096
G1 X120.416 Y107.405 E0.01096
G1 X120.288 Y107.731 E0.01096
G1 X120.114 Y108.033 E0.01096
G1 X119.896 Y108.307 E0.01096
G1 X119.640 Y108.544 E0.01096
G1 X119.351 Y108.741 E0.01096
G1 X119.036 Y108.893 E0.01096
G1 X118.702 Y108.996 E0.01096
G1 X118.356 Y109.048 E0.01096
G1 X118.007 Y109.048 E0.01096
G1 X117.661 Y108.996 E0.01096
G1 X117.327 Y108.893 E0.01096
G1 X117.012 Y108.741 E0.01096
G1 X116.723 Y108.544 E0.01096
G1 X116.467 Y108.307 E0.01096
G1 X116.249 Y108.033 E0.01096
G1 X116.074 Y107.731 E0.01096
G1 X115.947 Y107.405 E0.01096
G1 X115.869 Y107.065 E0.01096
G1 X115.843 Y106.716 E0.01096
G1 X115.869 Y106.367 E0.01096
G1 X115.947 Y106.027 E0.01096
G1 X116.074 Y105.701 E0.01096
G1 X116.249 Y105.399 E0.01096
G1 X116.467 Y105.125 E0.01096
G1 X116.723 Y104.888 E0.01096
G1 X117.012 Y104.691 E0.01096
G1 X117.327 Y104.539 E0.01096
G1 X117.654 Y104.438 E0.01072
G1 X117.946 Y104.393 E0.00928
G1 X118.004 Y104.766 F10800.000
G1 F1200
G1 X118.328 Y104.761 E0.01016
G1 X118.618 Y104.805 E0.00919
G1 X118.891 Y104.889 E0.00897
G1 X119.161 Y105.018 E0.00939
G1 X119.404 Y105.183 E0.00920
G1 X119.619 Y105.382 E0.00919
G1 X119.797 Y105.606 E0.00897
G1 X119.948 Y105.865 E0.00939
G1 X120.055 Y106.138 E0.00920
G1 X120.120 Y106.424 E0.00919
G1 X120.142 Y106.716 E0.00919
G1 X120.120 Y107.008 E0.00919
G1 X120.055 Y107.294 E0.00919
G1 X119.948 Y107.567 E0.00919
G1 X119.801 Y107.820 E0.00919
G1 X119.619 Y108.050 E0.00919
G1 X119.404 Y108.249 E0.00919
G1 X119.162 Y108.414 E0.00919
G1 X118.898 Y108.541 E0.00919
G1 X118.618 Y108.627 E0.00919
G1 X118.328 Y108.671 E0.00919
G1 X118.035 Y108.671 E0.00919
G1 X117.745 Y108.627 E0.00919
G1 X117.465 Y108.541 E0.00919
G1 X117.201 Y108.414 E0.00919
G1 X116.959 Y108.249 E0.00919
G1 X116.744 Y108.050 E0.00919
G1 X116.561 Y107.820 E0.00919
G1 X116.415 Y107.567 E0.00919
G1 X116.308 Y107.294 E0.00919
G1 X116.243 Y107.008 E0.00919
G1 X116.221 Y106.716 E0.00919
G1 X116.243 Y106.424 E0.00919
G1 X116.308 Y106.138 E0.00919
G1 X116.415 Y105.865 E0.00919
G1 X116.561 Y105.612 E0.00919
G1 X116.744 Y105.382 E0.00919
G1 X116.959 Y105.183 E0.00919
G1 X117.201 Y105.018 E0.00919
G1 X117.465 Y104.891 E0.00919
G1 X117.738 Y104.807 E0.00897
G1 X117.944 Y104.775 E0.00654
G1 X118.141 Y104.472 F10800.000
G1 F8640
G1 X118.328 Y104.761 E-0.08859
G1 X118.618 Y104.805 E-0.06766
G1 X118.891 Y104.889 E-0.06606
G1 X119.161 Y105.018 E-0.06916
G1 X119.404 Y105.183 E-0.06775
G1 X119.619 Y105.382 E-0.06766
G1 X119.797 Y105.606 E-0.06606
G1 X119.948 Y105.865 E-0.06915
G1 X120.055 Y106.138 E-0.06775
G1 X120.120 Y106.424 E-0.06766
G1 X120.140 Y106.694 E-0.06249
G1 E-0.04000 F2100.00000
G1 Z0.800 F10800.000
G1 X117.788 Y103.784
G1 Z0.200
G1 E0.80000 F2100.00000
G1 F1200
G1 X118.181 Y103.755 E0.01238
G1 X118.480 Y103.770 E0.00936
G1 X118.798 Y103.820 E0.01010
G1 X119.096 Y103.900 E0.00969
G1 X119.386 Y104.011 E0.00972
G1 X119.662 Y104.152 E0.00972
G1 X119.922 Y104.320 E0.00972
G1 X120.163 Y104.515 E0.00972
G1 X120.382 Y104.735 E0.00972
G1 X120.577 Y104.975 E0.00972
G1 X120.746 Y105.235 E0.00972
G1 X120.887 Y105.512 E0.00972
G1 X120.998 Y105.801 E0.00972
G1 X121.078 Y106.100 E0.00972
G1 X121.126 Y106.406 E0.00972
G1 X121.143 Y106.716 E0.00972
G1 X121.126 Y107.026 E0.00972
G1 X121.078 Y107.332 E0.00972
G1 X120.998 Y107.631 E0.00972
G1 X120.887 Y107.920 E0.00972
G1 X120.746 Y108.197 E0.00972
G1 X120.577 Y108.457 E0.00972
G1 X120.382 Y108.697 E0.00972
G1 X120.163 Y108.917 E0.00972
G1 X119.922 Y109.112 E0.00972
G1 X119.662 Y109.280 E0.00972
G1 X119.386 Y109.421 E0.00972
G1 X119.096 Y109.532 E0.00972
G1 X118.797 Y109.613 E0.00972
G1 X118.491 Y109.661 E0.00972
G1 X118.181 Y109.677 E0.00972
G1 X117.872 Y109.661 E0.00972
G1 X117.566 Y109.613 E0.00972
G1 X117.266 Y109.532 E0.00972
G1 X116.977 Y109.421 E0.00972
G1 X116.701 Y109.280 E0.00972
G1 X116.441 Y109.112 E0.00972
G1 X116.200 Y108.917 E0.00972
G1 X115.981 Y108.697 E0.00972
G1 X115.786 Y108.457 E0.00972
G1 X115.617 Y108.197 E0.00972
G1 X115.476 Y107.920 E0.00972
G1 X115.365 Y107.631 E0.00972
G1 X115.285 Y107.332 E0.00972
G1 X115.236 Y107.026 E0.00972
G1 X115.221 Y106.727 E0.00936
G1 X115.237 Y106.405 E0.01010
G1 X115.285 Y106.100 E0.00969
G1 X115.365 Y105.801 E0.00972
G1 X115.476 Y105.512 E0.00972
G1 X115.617 Y105.235 E0.00972
G1 X115.786 Y104.975 E0.00972
G1 X115.981 Y104.735 E0.00972
G1 X116.200 Y104.515 E0.00972
G1 X116.441 Y104.320 E0.00972
G1 X116.701 Y104.152 E0.00972
G1 X116.977 Y104.011 E0.00972
G1 X117.266 Y103.900 E0.00972
G1 X117.728 Y103.794 E0.01486
G1 X117.669 Y103.421 F10800.000
G1 F1200
G1 X118.181 Y103.377 E0.01611
G1 X118.518 Y103.395 E0.01058
G1 X118.876 Y103.450 E0.01134
G1 X119.213 Y103.541 E0.01095
G1 X119.539 Y103.666 E0.01096
G1 X119.851 Y103.825 E0.01096
G1 X120.144 Y104.015 E0.01096
G1 X120.415 Y104.235 E0.01096
G1 X120.663 Y104.482 E0.01096
G1 X120.883 Y104.754 E0.01096
G1 X121.073 Y105.047 E0.01096
G1 X121.232 Y105.358 E0.01096
G1 X121.357 Y105.684 E0.01096
G1 X121.447 Y106.022 E0.01096
G1 X121.502 Y106.367 E0.01096
G1 X121.520 Y106.716 E0.01096
G1 X121.502 Y107.065 E0.01096
G1 X121.447 Y107.410 E0.01096
G1 X121.357 Y107.748 E0.01096
G1 X121.232 Y108.074 E0.01096
G1 X121.073 Y108.385 E0.01096
G1 X120.883 Y108.679 E0.01096
G1 X120.663 Y108.950 E0.01096
G1 X120.415 Y109.197 E0.01096
G1 X120.144 Y109.417 E0.01096
G1 X119.851 Y109.607 E0.01096
G1 X119.539 Y109.766 E0.01096
G1 X119.213 Y109.891 E0.01096
G1 X118.876 Y109.982 E0.01096
G1 X118.530 Y110.037 E0.01096
G1 X118.181 Y110.055 E0.01096
G1 X117.832 Y110.037 E0.01096
G1 X117.487 Y109.982 E0.01096
G1 X117.150 Y109.891 E0.01096
G1 X116.823 Y109.766 E0.01096
G1 X116.512 Y109.607 E0.01096
G1 X116.219 Y109.417 E0.01096
G1 X115.947 Y109.197 E0.01096
G1 X115.700 Y108.950 E0.01096
G1 X115.480 Y108.679 E0.01096
G1 X115.290 Y108.385 E0.01096
G1 X115.131 Y108.074 E0.01096
G1 X115.006 Y107.748 E0.01096
G1 X114.916 Y107.410 E0.01096
G1 X114.861 Y107.065 E0.01096
G1 X114.843 Y106.728 E0.01058
G1 X114.861 Y106.367 E0.01134
G1 X114.916 Y106.022 E0.01095
G1 X115.006 Y105.684 E0.01096
G1 X115.131 Y105.358 E0.01096
G1 X115.290 Y105.047 E0.01096
G1 X115.480 Y104.754 E0.01096
G1 X115.700 Y104.482 E0.01096
G1 X115.947 Y104.235 E0.01096
G1 X116.219 Y104.015 E0.01096
G1 X116.512 Y103.825 E0.01096
G1 X116.823 Y103.666 E0.01096
G1 X117.150 Y103.541 E0.01096
G1 X117.610 Y103.431 E0.01484
G1 X117.919 Y103.734 F10800.000
G1 X117.991 Y104.075
G1 F1200
G1 X118.447 Y104.082 E0.00926
G1 X118.762 Y104.131 E0.00647
G1 X118.999 Y104.199 E0.00501
G1 X119.258 Y104.298 E0.00562
G1 X119.506 Y104.421 E0.00563
G1 X119.839 Y104.651 E0.00822
G1 X120.129 Y104.921 E0.00804
G1 X120.323 Y105.160 E0.00625
G1 X120.563 Y105.557 E0.00942
G1 X120.715 Y105.944 E0.00844
G1 X120.814 Y106.439 E0.01025
G1 X120.831 Y106.716 E0.00563
G1 X120.814 Y106.993 E0.00563
G1 X120.710 Y107.506 E0.01062
G1 X120.600 Y107.793 E0.00625
G1 X120.473 Y108.039 E0.00562
G1 X120.365 Y108.215 E0.00420
G1 X120.150 Y108.488 E0.00705
G1 X119.952 Y108.683 E0.00563
G1 X119.737 Y108.858 E0.00562
G1 X119.506 Y109.011 E0.00563
G1 X119.258 Y109.134 E0.00563
G1 X118.780 Y109.296 E0.01025
G1 X118.388 Y109.356 E0.00804
G1 X117.905 Y109.349 E0.00982
G1 X117.601 Y109.301 E0.00625
G1 X117.364 Y109.233 E0.00501
G1 X117.105 Y109.134 E0.00562
G1 X116.856 Y109.011 E0.00563
G1 X116.523 Y108.781 E0.00822
G1 X116.213 Y108.488 E0.00866
G1 X115.998 Y108.215 E0.00705
G1 X115.889 Y108.039 E0.00420
G1 X115.762 Y107.793 E0.00562
G1 X115.653 Y107.506 E0.00625
G1 X115.549 Y106.993 E0.01062
G1 X115.532 Y106.725 E0.00544
G1 X115.549 Y106.438 E0.00584
G1 X115.653 Y105.926 E0.01059
G1 X115.762 Y105.639 E0.00625
G1 X115.889 Y105.393 E0.00562
G1 X115.998 Y105.217 E0.00420
G1 X116.213 Y104.944 E0.00705
G1 X116.523 Y104.651 E0.00866
G1 X116.864 Y104.417 E0.00840
G1 X117.105 Y104.298 E0.00544
G1 X117.364 Y104.199 E0.00562
G1 X117.631 Y104.126 E0.00563
G1 X117.931 Y104.080 E0.00617
G1 F8640
G1 X118.447 Y104.082 E-0.11916
G1 X118.762 Y104.131 E-0.07355
G1 X118.999 Y104.199 E-0.05696
G1 X119.258 Y104.298 E-0.06397
G1 X119.506 Y104.421 E-0.06401
G1 X119.839 Y104.651 E-0.09350
G1 X120.129 Y104.921 E-0.09142
G1 X120.323 Y105.160 E-0.07105
G1 X120.563 Y105.557 E-0.10712
G1 X120.593 Y105.635 E-0.01926
G1 E-0.04000 F2100.00000
G1 Z0.800 F10800.000
G1 X120.098 Y95.730
G1 Z0.200
G1 E0.80000 F2100.00000
G1 F1200
G1 X119.705 Y95.578 E0.01321
G1 X119.339 Y95.378 E0.01310
G1 X119.002 Y95.130 E0.01310
G1 X118.702 Y94.839 E0.01310
G1 X118.443 Y94.511 E0.01310
G1 X118.230 Y94.152 E0.01310
G1 X118.067 Y93.767 E0.01310
G1 X117.956 Y93.364 E0.01310
G1 X117.901 Y92.950 E0.01310
G1 X117.901 Y92.532 E0.01310
G1 X117.956 Y92.118 E0.01310
G1 X118.067 Y91.715 E0.01310
G1 X118.230 Y91.330 E0.01310
G1 X118.425 Y91.000 E0.01203
G1 X118.699 Y90.645 E0.01406
G1 X119.002 Y90.352 E0.01321
G1 X119.339 Y90.104 E0.01310
G1 X119.705 Y89.903 E0.01310
G1 X120.095 Y89.753 E0.01310
G1 X120.502 Y89.656 E0.01310
G1 X120.884 Y89.618 E0.01203
G1 X121.332 Y89.628 E0.01406
G1 X121.747 Y89.698 E0.01321
G1 X122.146 Y89.821 E0.01310
G1 X122.525 Y89.997 E0.01310
G1 X122.878 Y90.222 E0.01310
G1 X123.197 Y90.492 E0.01310
G1 X123.477 Y90.802 E0.01310
G1 X123.714 Y91.146 E0.01310
G1 X123.902 Y91.519 E0.01310
G1 X124.039 Y91.914 E0.01310
G1 X124.122 Y92.324 E0.01310
G1 X124.150 Y92.741 E0.01310
G1 X124.122 Y93.158 E0.01310
G1 X124.039 Y93.567 E0.01310
G1 X123.902 Y93.962 E0.01310
G1 X123.714 Y94.335 E0.01310
G1 X123.477 Y94.680 E0.01310
G1 X123.197 Y94.990 E0.01310
G1 X122.878 Y95.259 E0.01310
G1 X122.525 Y95.484 E0.01310
G1 X122.146 Y95.660 E0.01310
G1 X121.747 Y95.784 E0.01310
G1 X121.335 Y95.853 E0.01310
G1 X120.917 Y95.867 E0.01310
G1 X120.536 Y95.829 E0.01203
G1 X120.157 Y95.743 E0.01218
G1 X120.240 Y95.375 F10800.000
G1 F1200
G1 X119.864 Y95.236 E0.01257
G1 X119.542 Y95.059 E0.01152
G1 X119.246 Y94.841 E0.01152
G1 X118.982 Y94.586 E0.01152
G1 X118.754 Y94.297 E0.01152
G1 X118.567 Y93.981 E0.01152
G1 X118.424 Y93.643 E0.01152
G1 X118.327 Y93.289 E0.01152
G1 X118.278 Y92.924 E0.01152
G1 X118.278 Y92.557 E0.01152
G1 X118.327 Y92.193 E0.01152
G1 X118.424 Y91.839 E0.01152
G1 X118.567 Y91.500 E0.01152
G1 X118.738 Y91.212 E0.01052
G1 X118.981 Y90.897 E0.01248
G1 X119.246 Y90.640 E0.01156
G1 X119.542 Y90.422 E0.01152
G1 X119.864 Y90.246 E0.01152
G1 X120.207 Y90.114 E0.01152
G1 X120.565 Y90.029 E0.01152
G1 X120.898 Y89.995 E0.01052
G1 X121.296 Y90.004 E0.01248
G1 X121.660 Y90.065 E0.01156
G1 X122.011 Y90.174 E0.01152
G1 X122.344 Y90.329 E0.01152
G1 X122.654 Y90.526 E0.01152
G1 X122.934 Y90.764 E0.01152
G1 X123.181 Y91.036 E0.01152
G1 X123.388 Y91.339 E0.01152
G1 X123.554 Y91.667 E0.01152
G1 X123.675 Y92.014 E0.01152
G1 X123.748 Y92.374 E0.01152
G1 X123.772 Y92.741 E0.01152
G1 X123.748 Y93.107 E0.01152
G1 X123.675 Y93.467 E0.01152
G1 X123.554 Y93.814 E0.01152
G1 X123.388 Y94.142 E0.01152
G1 X123.181 Y94.445 E0.01152
G1 X122.934 Y94.718 E0.01152
G1 X122.654 Y94.955 E0.01152
G1 X122.344 Y95.153 E0.01152
G1 X122.011 Y95.307 E0.01152
G1 X121.660 Y95.416 E0.01152
G1 X121.297 Y95.477 E0.01152
G1 X120.930 Y95.490 E0.01152
G1 X120.596 Y95.456 E0.01052
G1 X120.299 Y95.389 E0.00957
G1 X119.949 Y95.650 F10800.000
G1 X120.082 Y96.197
G1 F1200
G1 X119.563 Y96.018 E0.01722
G1 X119.228 Y95.847 E0.01177
G1 X118.914 Y95.643 E0.01177
G1 X118.622 Y95.406 E0.01177
G1 X118.356 Y95.141 E0.01177
G1 X118.120 Y94.849 E0.01177
G1 X117.915 Y94.534 E0.01177
G1 X117.745 Y94.200 E0.01177
G1 X117.610 Y93.849 E0.01177
G1 X117.519 Y93.506 E0.01113
G1 X117.454 Y93.114 E0.01245
G1 X117.435 Y92.741 E0.01173
G1 X117.455 Y92.366 E0.01177
G1 X117.513 Y91.995 E0.01177
G1 X117.610 Y91.632 E0.01177
G1 X117.745 Y91.282 E0.01177
