; generated by PrusaSlicer 2.1.1+win64 on 2020-02-24 at 21:40:56 UTC

; 

; external perimeters extrusion width = 0.60mm
; perimeters extrusion width = 0.43mm
; infill extrusion width = 0.45mm
; solid infill extrusion width = 0.70mm
; top infill extrusion width = 0.43mm
; first layer extrusion width = 0.42mm

M73 P0 R9
M201 X9000 Y9000 Z500 E10000 ; sets maximum accelerations, mm/sec^2
M203 X500 Y500 Z12 E120 ; sets maximum feedrates, mm/sec
M204 P2000 R1500 T2000 ; sets acceleration (P, T) and retract acceleration (R), mm/sec^2
M205 X10.00 Y10.00 Z0.20 E2.50 ; sets the jerk limits, mm/sec
M205 S0 T0 ; sets the minimum extruding and travel feed rate, mm/sec
M107
M862.3 P "MK2S" ; printer model check
M862.1 P0.4 ; nozzle diameter check
M115 U3.2.3 ; tell printer latest fw version
G90 ; use absolute coordinates
M83 ; extruder relative mode
M204 S2000 T1500 ; MK2 firmware only supports the old M204 format
M104 S215 ; set extruder temp
M140 S60 ; set bed temp
M190 S60 ; wait for bed temp
M109 S215 ; wait for extruder temp
G28 W ; home all without mesh bed level
G80 ; mesh bed leveling
G1 Y-3.0 F1000.0 ; go outside print area
G92 E0.0
G1 X60.0 E9.0  F1000.0 ; intro line
M73 P0 R9
G1 X100.0 E12.5 F1000.0 ; intro line
G92 E0.0
G21 ; set units to millimeters
G90 ; use absolute coordinates
M83 ; use relative distances for extrusion
M900 K30 ; Filament gcode
;BEFORE_LAYER_CHANGE
G92 E0.0
;0.2


G1 E-0.80000 F2100.00000
G1 Z0.600 F10800.000
;AFTER_LAYER_CHANGE
;0.2
G1 X105.789 Y96.286
G1 Z0.200
G1 E0.80000 F2100.00000
M204 S1000
G1 F1200
G1 X106.422 Y94.826 E0.04989
G1 X107.332 Y93.511 E0.05012
G1 X119.663 Y79.286 E0.59027
G1 X120.986 Y78.259 E0.05252
G1 X122.463 Y77.532 E0.05161
G1 X124.066 Y77.114 E0.05195
G1 X125.629 Y77.024 E0.04909
G1 X126.661 Y77.129 E0.03252
G1 X128.205 Y77.542 E0.05012
G1 X145.908 Y84.512 E0.59653
G1 X146.476 Y84.860 E0.02089
G1 X146.915 Y85.366 E0.02100
G1 X147.164 Y85.921 E0.01908
G1 X147.251 Y86.523 E0.01908
G1 X147.251 Y109.552 E0.72207
G1 X147.192 Y110.269 E0.02256
G1 X147.012 Y111.004 E0.02372
G1 X146.686 Y111.755 E0.02567
G1 X146.030 Y112.681 E0.03559
G1 X145.409 Y113.255 E0.02650
G1 X144.763 Y113.670 E0.02408
G1 X109.387 Y132.479 E1.25623
G1 X108.692 Y132.757 E0.02345
G1 X107.684 Y132.932 E0.03211
G1 X106.911 Y132.901 E0.02426
G1 X106.177 Y132.730 E0.02361
G1 X105.038 Y132.154 E0.04003
G1 X104.541 Y131.736 E0.02038
G1 X104.074 Y131.188 E0.02255
G1 X103.056 Y129.249 E0.06867
G1 X102.870 Y128.505 E0.02404
G1 X102.822 Y127.821 E0.02151
G1 X105.433 Y97.989 E0.93895
G1 X105.777 Y96.345 E0.05267
G1 F8640
G1 X106.422 Y94.826 E-0.38102
G1 X107.332 Y93.511 E-0.36911
G1 X107.360 Y93.479 E-0.00987
G1 E-0.04000 F2100.00000
G1 Z0.800 F10800.000
G1 X112.087 Y98.258
G1 Z0.200
G1 E0.80000 F2100.00000
G1 F1200
G1 X112.204 Y98.007 E0.00869
G1 X112.363 Y97.780 E0.00869
G1 X112.559 Y97.584 E0.00869
G1 X112.786 Y97.426 E0.00869
G1 X113.037 Y97.308 E0.00869
G1 X113.305 Y97.237 E0.00869
G1 X113.570 Y97.214 E0.00834
G1 X113.854 Y97.236 E0.00896
G1 X114.124 Y97.308 E0.00876
G1 X114.375 Y97.426 E0.00869
G1 X114.602 Y97.584 E0.00869
G1 X114.798 Y97.780 E0.00869
G1 X114.957 Y98.007 E0.00869
G1 X115.074 Y98.258 E0.00869
G1 X115.146 Y98.526 E0.00869
G1 X115.170 Y98.802 E0.00869
G1 X115.146 Y99.078 E0.00869
G1 X115.074 Y99.346 E0.00869
G1 X114.957 Y99.597 E0.00869
G1 X114.798 Y99.824 E0.00869
G1 X114.602 Y100.019 E0.00869
G1 X114.375 Y100.178 E0.00869
G1 X114.124 Y100.295 E0.00869
G1 X113.857 Y100.367 E0.00869
G1 X113.581 Y100.391 E0.00869
G1 X113.305 Y100.367 E0.00869
G1 X113.037 Y100.295 E0.00869
G1 X112.786 Y100.178 E0.00869
G1 X112.559 Y100.019 E0.00869
G1 X112.363 Y99.824 E0.00869
G1 X112.204 Y99.597 E0.00869
G1 X112.087 Y99.346 E0.00869
G1 X112.016 Y99.078 E0.00869
G1 X111.991 Y98.802 E0.00869
G1 X112.016 Y98.526 E0.00869
G1 X112.072 Y98.316 E0.00680
G1 X112.436 Y98.414 F10800.000
G1 F1200
G1 X112.532 Y98.197 E0.00745
G1 X112.653 Y98.024 E0.00662
G1 X112.802 Y97.874 E0.00662
G1 X112.975 Y97.753 E0.00662
G1 X113.167 Y97.664 E0.00662
G1 X113.370 Y97.610 E0.00662
G1 X113.571 Y97.592 E0.00632
G1 X113.790 Y97.609 E0.00689
G1 X113.995 Y97.664 E0.00664
G1 X114.186 Y97.753 E0.00662
G1 X114.359 Y97.874 E0.00662
G1 X114.508 Y98.024 E0.00662
G1 X114.629 Y98.197 E0.00662
G1 X114.719 Y98.388 E0.00662
G1 X114.773 Y98.592 E0.00662
G1 X114.792 Y98.802 E0.00662
G1 X114.773 Y99.012 E0.00662
G1 X114.719 Y99.216 E0.00662
G1 X114.629 Y99.407 E0.00662
G1 X114.508 Y99.580 E0.00662
G1 X114.359 Y99.729 E0.00662
G1 X114.186 Y99.851 E0.00662
G1 X113.995 Y99.940 E0.00662
G1 X113.791 Y99.994 E0.00662
G1 X113.581 Y100.013 E0.00662
G1 X113.370 Y99.994 E0.00662
G1 X113.167 Y99.940 E0.00662
G1 X112.975 Y99.851 E0.00662
G1 X112.802 Y99.729 E0.00662
G1 X112.653 Y99.580 E0.00662
G1 X112.532 Y99.407 E0.00662
G1 X112.443 Y99.216 E0.00662
G1 X112.388 Y99.012 E0.00662
G1 X112.370 Y98.802 E0.00662
G1 X112.388 Y98.592 E0.00662
G1 X112.420 Y98.472 E0.00389
G1 X112.280 Y98.234 F10800.000
G1 F8640
G1 X112.532 Y98.197 E-0.06861
G1 X112.653 Y98.024 E-0.04873
G1 X112.802 Y97.874 E-0.04873
G1 X112.975 Y97.753 E-0.04873
G1 X113.167 Y97.664 E-0.04873
G1 X113.370 Y97.610 E-0.04873
G1 X113.571 Y97.592 E-0.04652
G1 X113.790 Y97.609 E-0.05072
G1 X113.995 Y97.664 E-0.04894
G1 X114.186 Y97.753 E-0.04873
G1 X114.359 Y97.874 E-0.04873
G1 X114.508 Y98.024 E-0.04873
G1 X114.629 Y98.197 E-0.04873
G1 X114.719 Y98.388 E-0.04873
G1 X114.773 Y98.592 E-0.04873
G1 X114.777 Y98.631 E-0.00915
G1 E-0.04000 F2100.00000
G1 Z0.800 F10800.000
G1 X108.417 Y97.182
G1 Z0.200
G1 E0.80000 F2100.00000
G1 F1200
G1 X108.607 Y96.668 E0.01719
G1 X108.849 Y96.175 E0.01719
G1 X109.139 Y95.710 E0.01719
G1 X109.474 Y95.277 E0.01719
G1 X109.852 Y94.879 E0.01719
G1 X110.268 Y94.522 E0.01719
G1 X110.718 Y94.209 E0.01719
G1 X111.197 Y93.943 E0.01719
G1 X111.701 Y93.727 E0.01719
G1 X112.224 Y93.563 E0.01719
G1 X112.761 Y93.452 E0.01719
G1 X113.307 Y93.397 E0.01719
G1 X113.855 Y93.397 E0.01719
G1 X114.371 Y93.449 E0.01628
G1 X114.939 Y93.563 E0.01814
G1 X115.460 Y93.727 E0.01715
G1 X115.964 Y93.943 E0.01719
G1 X116.444 Y94.209 E0.01719
G1 X116.894 Y94.522 E0.01719
G1 X117.310 Y94.879 E0.01719
G1 X117.687 Y95.277 E0.01719
G1 X118.023 Y95.710 E0.01719
G1 X118.313 Y96.175 E0.01719
G1 X118.554 Y96.668 E0.01719
G1 X118.745 Y97.182 E0.01719
G1 X118.882 Y97.712 E0.01719
G1 X118.965 Y98.254 E0.01719
G1 X118.993 Y98.802 E0.01719
G1 X118.965 Y99.349 E0.01719
G1 X118.882 Y99.891 E0.01719
G1 X118.745 Y100.422 E0.01719
G1 X118.554 Y100.936 E0.01719
G1 X118.313 Y101.428 E0.01719
G1 X118.023 Y101.894 E0.01719
G1 X117.687 Y102.327 E0.01719
G1 X117.310 Y102.725 E0.01719
G1 X116.894 Y103.082 E0.01719
G1 X116.444 Y103.395 E0.01719
G1 X115.964 Y103.661 E0.01719
G1 X115.460 Y103.877 E0.01719
G1 X114.937 Y104.041 E0.01719
G1 X114.400 Y104.152 E0.01719
G1 X113.855 Y104.207 E0.01719
G1 X113.307 Y104.207 E0.01719
G1 X112.761 Y104.152 E0.01719
G1 X112.224 Y104.041 E0.01719
G1 X111.701 Y103.877 E0.01719
G1 X111.197 Y103.661 E0.01719
G1 X110.718 Y103.395 E0.01719
G1 X110.268 Y103.082 E0.01719
G1 X109.852 Y102.725 E0.01719
G1 X109.474 Y102.327 E0.01719
G1 X109.139 Y101.894 E0.01719
G1 X108.849 Y101.428 E0.01719
G1 X108.607 Y100.936 E0.01719
G1 X108.417 Y100.422 E0.01719
G1 X108.279 Y99.891 E0.01719
G1 X108.196 Y99.349 E0.01719
G1 X108.170 Y98.831 E0.01628
G1 X108.197 Y98.253 E0.01814
G1 X108.279 Y97.712 E0.01715
G1 X108.402 Y97.240 E0.01531
G1 X108.037 Y97.145 F10800.000
G1 F1200
G1 X108.260 Y96.519 E0.02086
G1 X108.518 Y95.992 E0.01839
G1 X108.829 Y95.494 E0.01839
G1 X109.188 Y95.031 E0.01839
G1 X109.592 Y94.606 E0.01839
G1 X110.037 Y94.224 E0.01839
G1 X110.518 Y93.889 E0.01839
G1 X111.031 Y93.604 E0.01839
G1 X111.570 Y93.373 E0.01839
G1 X112.130 Y93.197 E0.01839
G1 X112.704 Y93.079 E0.01839
G1 X113.287 Y93.020 E0.01839
G1 X113.874 Y93.020 E0.01839
G1 X114.428 Y93.076 E0.01745
G1 X115.032 Y93.197 E0.01934
G1 X115.592 Y93.373 E0.01837
G1 X116.130 Y93.604 E0.01839
G1 X116.643 Y93.889 E0.01839
G1 X117.125 Y94.224 E0.01839
G1 X117.570 Y94.606 E0.01839
G1 X117.974 Y95.031 E0.01839
G1 X118.333 Y95.494 E0.01839
G1 X118.643 Y95.992 E0.01839
G1 X118.901 Y96.519 E0.01839
G1 X119.105 Y97.069 E0.01839
G1 X119.252 Y97.636 E0.01839
G1 X119.341 Y98.216 E0.01839
G1 X119.370 Y98.802 E0.01839
G1 X119.341 Y99.388 E0.01839
G1 X119.252 Y99.967 E0.01839
G1 X119.105 Y100.535 E0.01839
G1 X118.901 Y101.085 E0.01839
G1 X118.643 Y101.612 E0.01839
G1 X118.333 Y102.109 E0.01839
G1 X117.974 Y102.573 E0.01839
G1 X117.570 Y102.998 E0.01839
G1 X117.125 Y103.380 E0.01839
G1 X116.643 Y103.715 E0.01839
G1 X116.130 Y104.000 E0.01839
G1 X115.592 Y104.231 E0.01839
G1 X115.032 Y104.407 E0.01839
G1 X114.457 Y104.525 E0.01839
G1 X113.874 Y104.584 E0.01839
G1 X113.287 Y104.584 E0.01839
G1 X112.704 Y104.525 E0.01839
G1 X112.130 Y104.407 E0.01839
G1 X111.570 Y104.231 E0.01839
G1 X111.031 Y104.000 E0.01839
G1 X110.518 Y103.715 E0.01839
G1 X110.037 Y103.380 E0.01839
G1 X109.592 Y102.998 E0.01839
G1 X109.188 Y102.573 E0.01839
G1 X108.829 Y102.109 E0.01839
G1 X108.518 Y101.612 E0.01839
G1 X108.260 Y101.085 E0.01839
G1 X108.057 Y100.535 E0.01839
G1 X107.910 Y99.967 E0.01839
G1 X107.821 Y99.388 E0.01839
G1 X107.793 Y98.832 E0.01745
G1 X107.821 Y98.216 E0.01934
G1 X107.910 Y97.636 E0.01837
G1 X108.022 Y97.203 E0.01403
G1 X108.426 Y97.055 F10800.000
G1 F8640
G1 X108.260 Y96.519 E-0.16741
G1 X108.518 Y95.992 E-0.13542
G1 X108.829 Y95.494 E-0.13542
G1 X109.188 Y95.031 E-0.13542
G1 X109.592 Y94.606 E-0.13542
G1 X109.759 Y94.462 E-0.05090
G1 E-0.04000 F2100.00000
G1 Z0.800 F10800.000
G1 X109.022 Y101.493
G1 Z0.200
G1 E0.80000 F2100.00000
G1 F1200
G1 X110.891 Y103.361 E0.08344
G1 F8640
G1 X109.022 Y101.493 E-0.61019
G1 E-0.18981 F2100.00000
G1 Z0.800 F10800.000
G1 X111.881 Y103.815
G1 Z0.200
G1 E0.80000 F2100.00000
G1 F1200
G1 X108.854 Y100.787 E0.13520
G1 X108.687 Y100.337 E0.01515
G1 X108.598 Y99.995 E0.01116
G1 X112.390 Y103.787 E0.16930
G1 X112.804 Y103.872 E0.01335
G1 X113.036 Y103.895 E0.00735
G1 X108.481 Y99.341 E0.20336
G1 X108.456 Y98.778 E0.01778
G1 X113.602 Y103.924 E0.22978
G1 X113.841 Y103.924 E0.00754
G1 X114.111 Y103.897 E0.00859
G1 X108.481 Y98.266 E0.25141
G1 X108.552 Y97.801 E0.01487
G1 X114.578 Y103.827 E0.26907
G1 X115.010 Y103.722 E0.01405
G1 X108.660 Y97.372 E0.28356
G1 X108.796 Y96.971 E0.01336
G1 X115.544 Y103.718 E0.30128
G1 F8640
G1 X113.216 Y101.391 E-0.76000
G1 E-0.04000 F2100.00000
G1 Z0.800 F10800.000
G1 X118.144 Y101.486
G1 Z0.200
G1 E0.80000 F2100.00000
G1 F1200
G1 X115.453 Y98.795 E0.12014
G1 X115.425 Y99.127 E0.01052
G1 X115.388 Y99.267 E0.00456
G1 X117.815 Y101.693 E0.10835
G1 X117.584 Y101.999 E0.01211
G1 X115.241 Y99.657 E0.10460
G1 X115.031 Y99.984 E0.01227
G1 X117.335 Y102.288 E0.10286
G1 X117.069 Y102.559 E0.01199
G1 X114.763 Y100.252 E0.10298
G1 X114.436 Y100.462 E0.01227
G1 X116.780 Y102.807 E0.10468
G1 X116.469 Y103.033 E0.01214
G1 X114.046 Y100.609 E0.10821
G1 X113.906 Y100.647 E0.00456
G1 X113.574 Y100.675 E0.01053
G1 X116.140 Y103.240 E0.11457
G1 X115.790 Y103.428 E0.01252
G1 X108.958 Y96.595 E0.30509
G1 X109.141 Y96.241 E0.01258
G1 X111.708 Y98.809 E0.11464
G1 X111.736 Y98.477 E0.01053
G1 X111.773 Y98.337 E0.00456
G1 X109.347 Y95.911 E0.10835
G1 X109.578 Y95.605 E0.01211
G1 X111.920 Y97.947 E0.10460
G1 X112.130 Y97.620 E0.01227
G1 X109.827 Y95.316 E0.10286
G1 X110.093 Y95.045 E0.01199
G1 X112.399 Y97.352 E0.10298
G1 X112.726 Y97.142 E0.01227
G1 X110.382 Y94.797 E0.10468
G1 X110.692 Y94.571 E0.01214
G1 X113.116 Y96.995 E0.10821
G1 X113.255 Y96.957 E0.00456
G1 X113.590 Y96.932 E0.01059
G1 X111.022 Y94.364 E0.11466
G1 X111.371 Y94.176 E0.01252
G1 X118.204 Y101.009 E0.30509
G1 X118.365 Y100.633 E0.01291
G1 X111.747 Y94.015 E0.29551
G1 X112.151 Y93.882 E0.01343
G1 X118.502 Y100.232 E0.28357
G1 X118.610 Y99.803 E0.01397
G1 X112.584 Y93.777 E0.26907
G1 X113.050 Y93.707 E0.01490
G1 X118.681 Y99.338 E0.25142
G1 X118.708 Y98.828 E0.01611
G1 X113.560 Y93.680 E0.22990
G1 X113.841 Y93.680 E0.00886
G1 X114.126 Y93.709 E0.00905
G1 X118.680 Y98.263 E0.20337
G1 X118.605 Y97.769 E0.01577
G1 X118.563 Y97.609 E0.00524
G1 X114.772 Y93.818 E0.16927
G1 X115.362 Y93.992 E0.01942
G1 X115.575 Y94.083 E0.00731
G1 X118.595 Y97.104 E0.13487
G1 F8640
G1 X116.268 Y94.777 E-0.76000
G1 E-0.04000 F2100.00000
G1 Z0.800 F10800.000
G1 X118.140 Y96.111
G1 Z0.200
G1 E0.80000 F2100.00000
G1 F1200
G1 X116.271 Y94.242 E0.08346
G1 F8640
G1 X118.140 Y96.111 E-0.61033
G1 E-0.18967 F2100.00000
G1 Z0.800 F10800.000
G1 X107.962 Y126.509
G1 Z0.200
G1 E0.80000 F2100.00000
G1 F1200
G1 X108.229 Y126.581 E0.00869
G1 X108.480 Y126.698 E0.00869
G1 X108.707 Y126.857 E0.00869
G1 X108.903 Y127.053 E0.00869
G1 X109.062 Y127.280 E0.00869
G1 X109.179 Y127.531 E0.00869
G1 X109.251 Y127.799 E0.00869
G1 X109.275 Y128.075 E0.00869
G1 X109.251 Y128.351 E0.00869
G1 X109.179 Y128.618 E0.00869
G1 X109.062 Y128.869 E0.00869
G1 X108.903 Y129.096 E0.00869
G1 X108.707 Y129.292 E0.00869
G1 X108.480 Y129.451 E0.00869
G1 X108.229 Y129.568 E0.00869
G1 X107.962 Y129.640 E0.00869
G1 X107.686 Y129.664 E0.00869
G1 X107.410 Y129.640 E0.00869
G1 X107.142 Y129.568 E0.00869
G1 X106.891 Y129.451 E0.00869
G1 X106.664 Y129.292 E0.00869
G1 X106.468 Y129.096 E0.00869
G1 X106.309 Y128.869 E0.00869
G1 X106.192 Y128.618 E0.00869
G1 X106.120 Y128.351 E0.00869
G1 X106.096 Y128.075 E0.00869
G1 X106.120 Y127.799 E0.00869
G1 X106.192 Y127.531 E0.00869
G1 X106.309 Y127.280 E0.00869
G1 X106.468 Y127.053 E0.00869
G1 X106.664 Y126.857 E0.00869
G1 X106.891 Y126.698 E0.00869
G1 X107.142 Y126.581 E0.00869
G1 X107.410 Y126.509 E0.00869
G1 X107.686 Y126.485 E0.00869
G1 X107.902 Y126.504 E0.00681
G1 X107.869 Y126.880 F10800.000
G1 F1200
G1 X108.100 Y126.937 E0.00745
G1 X108.291 Y127.026 E0.00662
G1 X108.464 Y127.147 E0.00662
G1 X108.613 Y127.296 E0.00662
G1 X108.734 Y127.469 E0.00662
G1 X108.823 Y127.660 E0.00662
G1 X108.878 Y127.864 E0.00662
G1 X108.896 Y128.075 E0.00662
G1 X108.878 Y128.285 E0.00662
G1 X108.823 Y128.489 E0.00662
G1 X108.734 Y128.680 E0.00662
G1 X108.613 Y128.853 E0.00662
G1 X108.464 Y129.002 E0.00662
G1 X108.291 Y129.123 E0.00662
G1 X108.100 Y129.212 E0.00662
G1 X107.896 Y129.267 E0.00662
G1 X107.686 Y129.285 E0.00662
G1 X107.475 Y129.267 E0.00662
G1 X107.272 Y129.212 E0.00662
G1 X107.080 Y129.123 E0.00662
G1 X106.907 Y129.002 E0.00662
G1 X106.758 Y128.853 E0.00662
G1 X106.637 Y128.680 E0.00662
G1 X106.548 Y128.489 E0.00662
G1 X106.493 Y128.285 E0.00662
G1 X106.475 Y128.075 E0.00662
G1 X106.493 Y127.864 E0.00662
G1 X106.548 Y127.660 E0.00662
G1 X106.637 Y127.469 E0.00662
G1 X106.758 Y127.296 E0.00662
G1 X106.907 Y127.147 E0.00662
G1 X107.080 Y127.026 E0.00662
G1 X107.272 Y126.937 E0.00662
G1 X107.475 Y126.882 E0.00662
G1 X107.686 Y126.864 E0.00662
G1 X107.809 Y126.875 E0.00389
G1 X108.019 Y126.695 F10800.000
G1 F8640
G1 X108.100 Y126.937 E-0.06861
G1 X108.291 Y127.026 E-0.04873
G1 X108.464 Y127.147 E-0.04873
G1 X108.613 Y127.296 E-0.04873
G1 X108.734 Y127.469 E-0.04873
G1 X108.823 Y127.660 E-0.04873
G1 X108.878 Y127.864 E-0.04873
G1 X108.896 Y128.075 E-0.04873
G1 X108.878 Y128.285 E-0.04873
G1 X108.823 Y128.489 E-0.04873
G1 X108.734 Y128.680 E-0.04873
G1 X108.613 Y128.853 E-0.04873
G1 X108.464 Y129.002 E-0.04873
G1 X108.291 Y129.123 E-0.04873
G1 X108.100 Y129.212 E-0.04873
G1 X108.062 Y129.223 E-0.00912
G1 E-0.04000 F2100.00000
G1 Z0.800 F10800.000
G1 X141.186 Y110.325
G1 Z0.200
G1 E0.80000 F2100.00000
G1 F1200
G1 X141.069 Y110.074 E0.00869
G1 X140.997 Y109.806 E0.00869
G1 X140.973 Y109.530 E0.00869
G1 X140.997 Y109.255 E0.00869
G1 X141.069 Y108.987 E0.00869
G1 X141.186 Y108.736 E0.00869
G1 X141.345 Y108.509 E0.00869
G1 X141.540 Y108.313 E0.00869
G1 X141.767 Y108.154 E0.00869
G1 X142.018 Y108.037 E0.00869
G1 X142.286 Y107.965 E0.00869
G1 X142.562 Y107.941 E0.00869
G1 X142.838 Y107.965 E0.00869
G1 X143.106 Y108.037 E0.00869
G1 X143.357 Y108.154 E0.00869
G1 X143.584 Y108.313 E0.00869
G1 X143.780 Y108.509 E0.00869
G1 X143.938 Y108.736 E0.00869
G1 X144.056 Y108.987 E0.00869
G1 X144.127 Y109.254 E0.00869
G1 X144.151 Y109.530 E0.00869
G1 X144.127 Y109.806 E0.00869
G1 X144.056 Y110.074 E0.00869
