; generated by PrusaSlicer 2.1.1+win64 on 2020-01-29 at 20:02:40 UTC

; 

; external perimeters extrusion width = 0.45mm
; perimeters extrusion width = 0.45mm
; infill extrusion width = 0.45mm
; solid infill extrusion width = 0.45mm
; top infill extrusion width = 0.40mm
; support material extrusion width = 0.35mm
; first layer extrusion width = 0.42mm

M73 P0 R137
M201 X9000 Y9000 Z500 E10000 ; sets maximum accelerations, mm/sec^2
M203 X500 Y500 Z12 E120 ; sets maximum feedrates, mm/sec
M204 P2000 R1500 T2000 ; sets acceleration (P, T) and retract acceleration (R), mm/sec^2
M205 X10.00 Y10.00 Z0.20 E2.50 ; sets the jerk limits, mm/sec
M205 S0 T0 ; sets the minimum extruding and travel feed rate, mm/sec
M107
M862.3 P "MK2S" ; printer model check
M862.1 P0.4 ; nozzle diameter check
M115 U3.2.3 ; tell printer latest fw version
G90 ; use absolute coordinates
M83 ; extruder relative mode
M204 S2000 T1500 ; MK2 firmware only supports the old M204 format
M104 S215 ; set extruder temp
M140 S60 ; set bed temp
M190 S60 ; wait for bed temp
M109 S215 ; wait for extruder temp
G28 W ; home all without mesh bed level
G80 ; mesh bed leveling
G1 Y-3.0 F1000.0 ; go outside print area
G92 E0.0
G1 X60.0 E9.0  F1000.0 ; intro line
M73 P0 R137
G1 X100.0 E12.5 F1000.0 ; intro line
G92 E0.0
G21 ; set units to millimeters
G90 ; use absolute coordinates
M83 ; use relative distances for extrusion
M900 K30 ; Filament gcode
;BEFORE_LAYER_CHANGE
G92 E0.0
;0.2


G1 E-0.80000 F2100.00000
G1 Z0.600 F10800.000
;AFTER_LAYER_CHANGE
;0.2
G1 X103.230 Y57.345
G1 Z0.200
G1 E0.80000 F2100.00000
M204 S1000
G1 F1200
G1 X103.553 Y56.821 E0.01930
G1 X104.009 Y56.407 E0.01930
G1 X104.562 Y56.137 E0.01930
G1 X105.169 Y56.032 E0.01930
G1 X146.716 Y56.031 E1.30267
G1 X147.542 Y56.193 E0.02642
G1 X148.247 Y56.656 E0.02642
G1 X148.724 Y57.350 E0.02642
G1 X148.904 Y58.173 E0.02642
G1 X148.904 Y151.342 E2.92124
G1 X148.722 Y152.212 E0.02788
G1 X148.397 Y152.739 E0.01942
G1 X147.937 Y153.154 E0.01942
G1 X147.383 Y153.422 E0.01930
G1 X146.773 Y153.526 E0.01942
G1 X105.229 Y153.527 E1.30255
G1 X104.363 Y153.345 E0.02777
G1 X103.830 Y153.015 E0.01964
G1 X103.413 Y152.548 E0.01964
G1 X103.145 Y151.981 E0.01964
G1 X103.048 Y151.362 E0.01964
G1 X103.048 Y58.216 E2.92055
G1 X103.218 Y57.404 E0.02600
G1 E-0.80000 F2100.00000
G1 Z0.800 F10800.000
G1 X107.499 Y66.937
G1 Z0.200
G1 E0.80000 F2100.00000
G1 F1200
G1 X107.499 Y61.184 E0.14688
G1 X108.006 Y61.184 E0.01295
G1 X108.006 Y66.798 E0.14335
G1 X108.513 Y66.798 E0.01295
G1 X108.513 Y61.184 E0.14335
G1 X109.021 Y61.184 E0.01295
G1 X109.021 Y66.798 E0.14335
G1 X109.528 Y66.798 E0.01295
G1 X109.528 Y61.184 E0.14335
G1 X110.035 Y61.184 E0.01295
G1 X110.035 Y66.798 E0.14335
G1 X110.542 Y66.798 E0.01295
G1 X110.542 Y61.184 E0.14335
G1 X111.049 Y61.184 E0.01295
G1 X111.049 Y66.798 E0.14335
G1 X111.556 Y66.798 E0.01295
G1 X111.556 Y61.184 E0.14335
G1 X112.063 Y61.184 E0.01295
G1 X112.063 Y66.798 E0.14335
G1 X112.570 Y66.798 E0.01295
G1 X112.570 Y61.184 E0.14335
G1 X113.077 Y61.184 E0.01295
G1 X113.077 Y66.798 E0.14335
G1 X113.584 Y66.798 E0.01295
G1 X113.584 Y61.184 E0.14335
G1 X114.091 Y61.184 E0.01295
G1 X114.091 Y66.798 E0.14335
G1 X114.598 Y66.798 E0.01295
G1 X114.598 Y61.184 E0.14335
G1 X115.105 Y61.184 E0.01295
G1 X115.105 Y66.798 E0.14335
G1 X115.613 Y66.798 E0.01295
G1 X115.613 Y61.184 E0.14335
G1 X116.120 Y61.184 E0.01295
G1 X116.120 Y66.798 E0.14335
G1 X116.627 Y66.798 E0.01295
G1 X116.627 Y61.184 E0.14335
G1 X117.134 Y61.184 E0.01295
G1 X117.134 Y66.798 E0.14335
G1 X117.641 Y66.798 E0.01295
G1 X117.641 Y61.184 E0.14335
G1 X118.148 Y61.184 E0.01295
G1 X118.148 Y66.798 E0.14335
G1 X118.655 Y66.798 E0.01295
G1 X118.655 Y61.184 E0.14335
G1 X119.162 Y61.184 E0.01295
G1 X119.162 Y66.798 E0.14335
G1 X119.669 Y66.798 E0.01295
G1 X119.669 Y61.184 E0.14335
G1 X120.176 Y61.184 E0.01295
G1 X120.176 Y66.798 E0.14335
G1 X120.683 Y66.798 E0.01295
G1 X120.683 Y61.184 E0.14335
G1 X121.190 Y61.184 E0.01295
G1 X121.190 Y66.798 E0.14335
G1 X121.697 Y66.798 E0.01295
G1 X121.697 Y61.184 E0.14335
G1 X122.205 Y61.184 E0.01295
G1 X122.205 Y66.798 E0.14335
G1 X122.712 Y66.798 E0.01295
G1 X122.712 Y61.184 E0.14335
G1 X123.219 Y61.184 E0.01295
G1 X123.219 Y66.798 E0.14335
G1 X123.726 Y66.798 E0.01295
G1 X123.726 Y61.184 E0.14335
G1 X124.233 Y61.184 E0.01295
G1 X124.233 Y66.798 E0.14335
G1 X124.740 Y66.798 E0.01295
G1 X124.740 Y61.184 E0.14335
G1 X125.247 Y61.184 E0.01295
G1 X125.247 Y66.798 E0.14335
G1 X125.754 Y66.798 E0.01295
G1 X125.754 Y61.184 E0.14335
G1 X126.261 Y61.184 E0.01295
G1 X126.261 Y66.798 E0.14335
G1 X126.768 Y66.798 E0.01295
G1 X126.768 Y61.184 E0.14335
G1 X127.275 Y61.184 E0.01295
G1 X127.275 Y66.798 E0.14335
G1 X127.782 Y66.798 E0.01295
G1 X127.782 Y61.184 E0.14335
G1 X128.290 Y61.184 E0.01295
G1 X128.290 Y66.798 E0.14335
G1 X128.797 Y66.798 E0.01295
G1 X128.797 Y61.184 E0.14335
G1 X129.304 Y61.184 E0.01295
G1 X129.304 Y66.798 E0.14335
G1 X129.811 Y66.798 E0.01295
G1 X129.811 Y61.184 E0.14335
G1 X130.318 Y61.184 E0.01295
G1 X130.318 Y66.798 E0.14335
G1 X130.825 Y66.798 E0.01295
G1 X130.825 Y61.184 E0.14335
G1 X131.332 Y61.184 E0.01295
G1 X131.332 Y66.798 E0.14335
G1 X131.839 Y66.798 E0.01295
G1 X131.839 Y61.184 E0.14335
G1 X132.346 Y61.184 E0.01295
G1 X132.346 Y66.798 E0.14335
G1 X132.853 Y66.798 E0.01295
G1 X132.853 Y61.184 E0.14335
G1 X133.360 Y61.184 E0.01295
G1 X133.360 Y66.798 E0.14335
G1 X133.867 Y66.798 E0.01295
G1 X133.867 Y61.184 E0.14335
G1 X134.374 Y61.184 E0.01295
G1 X134.374 Y66.798 E0.14335
G1 X134.882 Y66.798 E0.01295
G1 X134.882 Y61.184 E0.14335
G1 X135.389 Y61.184 E0.01295
G1 X135.389 Y66.798 E0.14335
G1 X135.896 Y66.798 E0.01295
G1 X135.896 Y61.184 E0.14335
G1 X136.403 Y61.184 E0.01295
G1 X136.403 Y66.798 E0.14335
G1 X136.910 Y66.798 E0.01295
G1 X136.910 Y61.184 E0.14335
G1 X137.417 Y61.184 E0.01295
G1 X137.417 Y66.798 E0.14335
G1 X137.924 Y66.798 E0.01295
G1 X137.924 Y61.184 E0.14335
G1 X138.431 Y61.184 E0.01295
G1 X138.431 Y66.798 E0.14335
G1 X138.938 Y66.798 E0.01295
G1 X138.938 Y61.184 E0.14335
G1 X139.445 Y61.184 E0.01295
G1 X139.445 Y66.798 E0.14335
G1 X139.952 Y66.798 E0.01295
G1 X139.952 Y61.184 E0.14335
G1 X140.459 Y61.184 E0.01295
G1 X140.459 Y66.798 E0.14335
G1 X140.966 Y66.798 E0.01295
G1 X140.966 Y61.184 E0.14335
G1 X141.474 Y61.184 E0.01295
G1 X141.474 Y66.798 E0.14335
G1 X141.981 Y66.798 E0.01295
G1 X141.981 Y61.184 E0.14335
G1 X142.488 Y61.184 E0.01295
G1 X142.488 Y66.798 E0.14335
G1 X142.995 Y66.798 E0.01295
G1 X142.995 Y61.184 E0.14335
G1 X143.502 Y61.184 E0.01295
G1 X143.502 Y66.937 E0.14688
G1 X143.699 Y61.012 F10800.000
G1 F1200
G1 X143.699 Y58.219 E0.08756
G1 X142.945 Y58.219 E0.02365
G1 X142.945 Y60.842 E0.08224
G1 X142.191 Y60.842 E0.02365
G1 X142.191 Y58.219 E0.08224
G1 X141.436 Y58.219 E0.02365
G1 X141.436 Y60.842 E0.08224
G1 X140.682 Y60.842 E0.02365
G1 X140.682 Y58.219 E0.08224
G1 X139.928 Y58.219 E0.02365
G1 X139.928 Y60.842 E0.08224
G1 X139.174 Y60.842 E0.02365
G1 X139.174 Y58.219 E0.08224
G1 X138.420 Y58.219 E0.02365
G1 X138.420 Y60.842 E0.08224
G1 X137.666 Y60.842 E0.02365
G1 X137.666 Y58.219 E0.08224
G1 X136.911 Y58.219 E0.02365
G1 X136.911 Y60.842 E0.08224
G1 X136.157 Y60.842 E0.02365
G1 X136.157 Y58.219 E0.08224
G1 X135.403 Y58.219 E0.02365
G1 X135.403 Y60.842 E0.08224
G1 X134.649 Y60.842 E0.02365
G1 X134.649 Y58.219 E0.08224
G1 X133.895 Y58.219 E0.02365
G1 X133.895 Y60.842 E0.08224
G1 X133.141 Y60.842 E0.02365
G1 X133.141 Y58.219 E0.08224
G1 X132.387 Y58.219 E0.02365
G1 X132.387 Y60.842 E0.08224
G1 X131.632 Y60.842 E0.02365
G1 X131.632 Y58.219 E0.08224
G1 X130.878 Y58.219 E0.02365
G1 X130.878 Y60.842 E0.08224
G1 X130.124 Y60.842 E0.02365
G1 X130.124 Y58.219 E0.08224
G1 X129.370 Y58.219 E0.02365
G1 X129.370 Y60.842 E0.08224
G1 X128.616 Y60.842 E0.02365
G1 X128.616 Y58.219 E0.08224
G1 X127.862 Y58.219 E0.02365
G1 X127.862 Y60.842 E0.08224
G1 X127.107 Y60.842 E0.02365
G1 X127.107 Y58.219 E0.08224
G1 X126.353 Y58.219 E0.02365
G1 X126.353 Y60.842 E0.08224
G1 X125.599 Y60.842 E0.02365
G1 X125.599 Y58.219 E0.08224
G1 X124.845 Y58.219 E0.02365
G1 X124.845 Y60.842 E0.08224
G1 X124.091 Y60.842 E0.02365
G1 X124.091 Y58.219 E0.08224
G1 X123.337 Y58.219 E0.02365
G1 X123.337 Y60.842 E0.08224
G1 X122.582 Y60.842 E0.02365
G1 X122.582 Y58.219 E0.08224
G1 X121.828 Y58.219 E0.02365
G1 X121.828 Y60.842 E0.08224
G1 X121.074 Y60.842 E0.02365
G1 X121.074 Y58.219 E0.08224
G1 X120.320 Y58.219 E0.02365
G1 X120.320 Y60.842 E0.08224
G1 X119.566 Y60.842 E0.02365
G1 X119.566 Y58.219 E0.08224
G1 X118.812 Y58.219 E0.02365
G1 X118.812 Y60.842 E0.08224
G1 X118.058 Y60.842 E0.02365
G1 X118.058 Y58.219 E0.08224
G1 X117.303 Y58.219 E0.02365
G1 X117.303 Y60.842 E0.08224
G1 X116.549 Y60.842 E0.02365
G1 X116.549 Y58.219 E0.08224
G1 X115.795 Y58.219 E0.02365
G1 X115.795 Y60.842 E0.08224
G1 X115.041 Y60.842 E0.02365
G1 X115.041 Y58.219 E0.08224
G1 X114.287 Y58.219 E0.02365
G1 X114.287 Y60.842 E0.08224
G1 X113.533 Y60.842 E0.02365
G1 X113.533 Y58.219 E0.08224
G1 X112.778 Y58.219 E0.02365
G1 X112.778 Y60.842 E0.08224
G1 X112.024 Y60.842 E0.02365
G1 X112.024 Y58.219 E0.08224
G1 X111.270 Y58.219 E0.02365
G1 X111.270 Y60.842 E0.08224
G1 X110.516 Y60.842 E0.02365
G1 X110.516 Y58.219 E0.08224
G1 X109.762 Y58.219 E0.02365
G1 X109.762 Y60.842 E0.08224
G1 X109.008 Y60.842 E0.02365
G1 X109.008 Y58.219 E0.08224
G1 X108.253 Y58.219 E0.02365
G1 X108.253 Y60.842 E0.08224
G1 X107.499 Y60.842 E0.02365
G1 X107.499 Y58.219 E0.08224
G1 X106.745 Y58.219 E0.02365
G1 X106.745 Y86.606 E0.89004
G1 X107.499 Y86.606 E0.02365
G1 X107.499 Y83.983 E0.08224
G1 X108.253 Y83.983 E0.02365
G1 X108.253 Y86.606 E0.08224
G1 X109.008 Y86.606 E0.02365
G1 X109.008 Y83.813 E0.08756
G1 X108.006 Y83.779 F10800.000
G1 F1200
G1 X108.006 Y80.834 E0.07521
G1 X107.499 Y80.834 E0.01295
G1 X107.499 Y83.779 E0.07521
G1 X109.021 Y82.078 F10800.000
G1 F1200
G1 X109.021 Y83.641 E0.03991
G1 X108.513 Y83.641 E0.01295
G1 X108.513 Y80.834 E0.07168
G1 X109.021 Y80.834 E0.01295
G1 X109.021 Y80.937 E0.00263
G1 X109.528 Y80.935 E0.01295
G1 X109.528 Y80.834 E0.00259
G1 X110.035 Y80.834 E0.01295
G1 X110.035 Y81.064 E0.00589
G1 X107.499 Y80.661 F10800.000
G1 F1200
G1 X107.499 Y67.140 E0.42394
G1 X108.253 Y67.140 E0.02365
G1 X108.253 Y80.492 E0.41862
G1 X109.008 Y80.492 E0.02365
G1 X109.008 Y67.140 E0.41862
G1 X109.762 Y67.140 E0.02365
G1 X109.762 Y80.492 E0.41862
G1 X110.516 Y80.492 E0.02365
G1 X110.516 Y67.140 E0.41862
G1 X111.270 Y67.140 E0.02365
G1 X111.270 Y81.193 E0.44062
G1 X112.024 Y81.195 E0.02365
G1 X112.024 Y67.140 E0.44068
G1 X112.778 Y67.140 E0.02365
G1 X112.778 Y81.365 E0.44600
G1 X113.533 Y81.363 F10800.000
G1 F1200
G1 X113.533 Y81.188 E0.00550
G1 X113.669 Y81.184 E0.00429
G1 X113.669 Y81.038 E0.00460
G1 X113.996 Y80.711 E0.01449
G1 X113.699 Y80.711 E0.00930
G1 X113.699 Y79.784 E0.02906
G1 X113.901 Y79.583 E0.00893
G1 X114.287 Y79.583 E0.01210
G1 X114.287 Y81.818 E0.07009
G1 X114.598 Y83.779 F10800.000
G1 F1200
G1 X114.598 Y81.906 E0.04783
G1 X115.105 Y81.756 E0.01350
G1 X115.105 Y83.779 E0.05166
G1 X115.613 Y83.779 F10800.000
G1 F1200
G1 X115.613 Y75.220 E0.21856
G1 X115.306 Y75.220 E0.00783
G1 X115.306 Y76.666 E0.03692
G1 X115.105 Y76.866 E0.00723
G1 X115.105 Y79.472 E0.06656
G1 X114.874 Y79.241 E0.00837
G1 X114.598 Y79.241 E0.00703
G1 X114.598 Y76.953 E0.05841
G1 X114.091 Y76.953 E0.01295
G1 X114.091 Y79.241 E0.05841
G1 X113.759 Y79.241 E0.00848
G1 X113.584 Y79.416 E0.00632
G1 X113.584 Y76.727 E0.06865
G1 E-0.80000 F2100.00000
G1 Z0.800 F10800.000
G1 X115.041 Y66.971
G1 Z0.200
G1 E0.80000 F2100.00000
M73 P0 R136
G1 F1200
G1 X115.041 Y70.635 E0.11488
G1 X114.287 Y70.626 E0.02365
G1 X114.287 Y67.140 E0.10930
G1 X113.533 Y67.140 E0.02365
G1 X113.533 Y70.694 E0.11143
G1 X113.292 Y70.934 E0.01065
G1 X113.292 Y72.821 E0.05916
G1 X113.533 Y73.061 E0.01065
G1 X113.533 Y74.145 E0.03398
G1 X113.601 Y74.077 E0.00301
G1 X114.287 Y74.077 E0.02151
G1 X114.287 Y73.129 E0.02972
G1 X115.041 Y73.121 E0.02365
G1 X115.041 Y74.086 E0.03024
G1 X115.341 Y74.385 E0.01330
G1 X115.341 Y74.877 E0.01543
G1 X115.795 Y74.877 E0.01424
G1 X115.795 Y67.140 E0.24259
G1 X116.549 Y67.140 E0.02365
G1 X116.549 Y86.606 E0.61032
G1 X117.303 Y86.606 E0.02365
G1 X117.303 Y67.140 E0.61032
G1 X118.058 Y67.140 E0.02365
G1 X118.058 Y86.606 E0.61032
G1 X118.812 Y86.606 E0.02365
G1 X118.812 Y67.140 E0.61032
G1 X119.566 Y67.140 E0.02365
G1 X119.566 Y80.992 E0.43429
G1 X120.320 Y80.992 E0.02365
G1 X120.320 Y67.140 E0.43429
G1 X121.074 Y67.140 E0.02365
G1 X121.074 Y80.992 E0.43429
G1 X121.828 Y80.992 E0.02365
G1 X121.828 Y67.140 E0.43429
G1 X122.582 Y67.140 E0.02365
G1 X122.582 Y80.992 E0.43429
G1 X123.337 Y80.992 E0.02365
G1 X123.337 Y67.140 E0.43429
G1 X124.091 Y67.140 E0.02365
G1 X124.091 Y80.992 E0.43429
G1 X124.845 Y80.992 E0.02365
G1 X124.845 Y67.140 E0.43429
G1 X125.599 Y67.140 E0.02365
G1 X125.599 Y80.992 E0.43429
G1 X126.353 Y80.992 E0.02365
G1 X126.353 Y67.140 E0.43429
G1 X127.107 Y67.140 E0.02365
G1 X127.107 Y80.992 E0.43429
G1 X127.862 Y80.992 E0.02365
G1 X127.862 Y67.140 E0.43429
G1 X128.616 Y67.140 E0.02365
G1 X128.616 Y80.992 E0.43429
G1 X129.370 Y80.992 E0.02365
G1 X129.370 Y67.140 E0.43429
G1 X130.124 Y67.140 E0.02365
G1 X130.124 Y86.606 E0.61032
G1 X130.878 Y86.606 E0.02365
G1 X130.878 Y67.140 E0.61032
G1 X131.632 Y67.140 E0.02365
G1 X131.632 Y86.775 E0.61564
G1 X132.853 Y83.779 F10800.000
G1 F1200
G1 X132.853 Y75.220 E0.21856
G1 X133.360 Y75.220 E0.01295
G1 X133.360 Y83.641 E0.21503
G1 X133.867 Y83.641 E0.01295
G1 X133.867 Y75.220 E0.21503
G1 X134.374 Y75.220 E0.01295
G1 X134.374 Y83.779 E0.21856
G1 X135.389 Y81.758 F10800.000
G1 F1200
G1 X135.389 Y83.641 E0.04808
G1 X134.882 Y83.641 E0.01295
G1 X134.882 Y81.744 E0.04845
G1 X134.694 Y81.493 E0.00798
G1 X134.694 Y80.896 E0.01525
G1 X134.724 Y80.866 E0.00109
G1 X134.724 Y79.642 E0.03124
G1 X134.882 Y79.485 E0.00567
G1 X134.882 Y76.853 E0.06722
G1 X134.982 Y76.953 E0.00363
G1 X135.389 Y76.953 E0.01038
G1 X135.389 Y79.241 E0.05841
G1 X135.896 Y79.241 E0.01295
G1 X135.896 Y76.953 E0.05841
G1 X136.385 Y76.953 E0.01249
G1 X136.403 Y76.935 E0.00064
G1 X136.403 Y79.403 E0.06300
G1 X136.643 Y79.642 E0.00866
G1 X136.643 Y80.849 E0.03082
G1 X136.910 Y80.856 E0.00682
G1 X136.910 Y75.220 E0.14391
G1 X137.417 Y75.220 E0.01295
G1 X137.417 Y80.868 E0.14421
G1 X137.924 Y80.879 E0.01295
G1 X137.924 Y75.220 E0.14451
G1 X138.377 Y75.220 E0.01157
G1 X138.377 Y80.834 E0.14335
G1 X138.431 Y80.834 E0.00138
G1 X138.431 Y80.891 E0.00146
G1 X138.938 Y80.903 E0.01295
G1 X138.938 Y80.834 E0.00176
G1 X139.445 Y80.834 E0.01295
G1 X139.445 Y80.914 E0.00206
G1 X139.952 Y80.926 E0.01295
G1 X139.952 Y80.834 E0.00235
G1 X140.459 Y80.834 E0.01295
G1 X140.459 Y80.935 E0.00259
G1 X140.946 Y80.937 E0.01241
G1 X140.966 Y80.937 E0.00053
G1 X140.966 Y80.834 E0.00263
G1 X141.474 Y80.834 E0.01295
G1 X141.474 Y83.641 E0.07168
G1 X141.981 Y83.641 E0.01295
G1 X141.981 Y80.834 E0.07168
G1 X142.488 Y80.834 E0.01295
G1 X142.488 Y83.641 E0.07168
G1 X142.995 Y83.641 E0.01295
G1 X142.995 Y80.834 E0.07168
G1 X143.502 Y80.834 E0.01295
G1 X143.502 Y83.779 E0.07521
G1 X140.966 Y83.779 F10800.000
G1 F1200
G1 X140.966 Y82.086 E0.04323
G1 X143.699 Y80.661 F10800.000
G1 F1200
G1 X143.699 Y67.140 E0.42394
G1 X142.945 Y67.140 E0.02365
G1 X142.945 Y80.492 E0.41862
G1 X142.191 Y80.492 E0.02365
G1 X142.191 Y67.140 E0.41862
G1 X141.436 Y67.140 E0.02365
G1 X141.436 Y80.492 E0.41862
G1 X140.682 Y80.492 E0.02365
G1 X140.682 Y67.140 E0.41862
G1 X139.928 Y67.140 E0.02365
G1 X139.928 Y80.492 E0.41862
G1 X139.174 Y80.492 E0.02365
G1 X139.174 Y67.140 E0.41862
G1 X138.420 Y67.140 E0.02365
G1 X138.420 Y74.877 E0.24259
G1 X137.666 Y74.877 E0.02365
G1 X137.666 Y67.140 E0.24259
G1 X136.911 Y67.140 E0.02365
G1 X136.911 Y74.877 E0.24259
G1 X136.708 Y74.877 E0.00639
G1 X136.708 Y74.385 E0.01543
G1 X136.399 Y74.077 E0.01366
G1 X136.157 Y74.077 E0.00759
G1 X136.157 Y73.129 E0.02972
G1 X136.040 Y73.129 E0.00369
G1 X135.403 Y73.129 E0.01995
G1 X135.403 Y74.077 E0.02972
G1 X134.967 Y74.077 E0.01366
G1 X134.659 Y74.385 E0.01366
G1 X134.649 Y74.877 E0.01543
G1 X134.649 Y67.140 E0.24259
G1 X135.403 Y67.140 E0.02365
