; generated by PrusaSlicer 2.2.0+win64 on 2020-12-30 at 21:14:06 UTC

; 

; external perimeters extrusion width = 0.60mm
; perimeters extrusion width = 0.43mm
; infill extrusion width = 0.45mm
; solid infill extrusion width = 0.70mm
; top infill extrusion width = 0.43mm
; first layer extrusion width = 0.42mm

M73 P0 R21
M201 X9000 Y9000 Z500 E10000 ; sets maximum accelerations, mm/sec^2
M203 X500 Y500 Z12 E120 ; sets maximum feedrates, mm/sec
M204 P2000 R1500 T2000 ; sets acceleration (P, T) and retract acceleration (R), mm/sec^2
M205 X10.00 Y10.00 Z0.20 E2.50 ; sets the jerk limits, mm/sec
M205 S0 T0 ; sets the minimum extruding and travel feed rate, mm/sec
M107
M862.3 P "MK2S" ; printer model check
M862.1 P0.4 ; nozzle diameter check
M115 U3.2.3 ; tell printer latest fw version
G90 ; use absolute coordinates
M83 ; extruder relative mode
M204 S2000 T1500 ; MK2 firmware only supports the old M204 format
M104 S215 ; set extruder temp
M140 S60 ; set bed temp
M190 S60 ; wait for bed temp
M109 S215 ; wait for extruder temp
G28 W ; home all without mesh bed level
G80 ; mesh bed leveling
G1 Y-3.0 F1000.0 ; go outside print area
G92 E0.0
G1 X60.0 E9.0  F1000.0 ; intro line
M73 P0 R21
G1 X100.0 E12.5 F1000.0 ; intro line
G92 E0.0
G21 ; set units to millimeters
G90 ; use absolute coordinates
M83 ; use relative distances for extrusion
M900 K0.05 ; Filament gcode LA 1.5
M900 K30 ; Filament gcode LA 1.0
;BEFORE_LAYER_CHANGE
G92 E0.0
;0.2


G1 E-0.80000 F2100.00000
G1 Z0.600 F10800.000
;AFTER_LAYER_CHANGE
;0.2
G1 X78.431 Y93.099
G1 Z0.200
G1 E0.80000 F2100.00000
M204 S1000
G1 F1200.000
G1 X79.041 Y92.647 E0.02378
G1 X79.757 Y92.410 E0.02367
G1 X169.870 Y92.380 E2.82541
G1 X170.765 Y92.557 E0.02860
G1 X171.528 Y93.057 E0.02860
G1 X172.045 Y93.808 E0.02860
G1 X172.242 Y94.703 E0.02872
G1 X172.221 Y107.084 E0.38820
G1 X172.001 Y107.802 E0.02355
G1 X171.566 Y108.419 E0.02367
G1 X170.959 Y108.868 E0.02367
G1 X170.243 Y109.104 E0.02367
G1 X80.084 Y109.134 E2.82685
G1 X79.278 Y108.975 E0.02579
G1 X78.573 Y108.550 E0.02579
G1 X78.056 Y107.911 E0.02579
G1 X77.787 Y107.134 E0.02579
G1 X77.778 Y94.442 E0.39794
G1 X77.995 Y93.719 E0.02367
G1 X78.397 Y93.148 E0.02190
G1 X80.921 Y95.544 F10800.000
G1 F1200.000
G1 X169.079 Y95.544 E2.76413
G1 X169.079 Y105.970 E0.32690
G1 X80.921 Y105.970 E2.76413
G1 X80.921 Y95.604 E0.32501
G1 X80.544 Y95.167 F10800.000
G1 F1200.000
G1 X169.456 Y95.167 E2.78778
G1 X169.456 Y106.347 E0.35054
G1 X80.544 Y106.347 E2.78778
G1 X80.544 Y95.227 E0.34866
G1 X80.944 Y95.184 F10800.000
G1 E-0.80000 F2100.00000
G1 Z0.800 F10800.000
G1 X168.966 Y96.421
G1 Z0.200
G1 E0.80000 F2100.00000
G1 F1200.000
G1 X168.373 Y95.827 E0.02633
G1 X167.839 Y95.827 E0.01675
G1 X168.796 Y96.785 E0.04249
G1 X168.796 Y97.318 E0.01675
G1 X167.305 Y95.827 E0.06617
G1 X166.771 Y95.827 E0.01675
G1 X168.796 Y97.852 E0.08986
G1 X168.796 Y98.386 E0.01675
G1 X166.238 Y95.827 E0.11355
G1 X165.704 Y95.827 E0.01675
G1 X168.796 Y98.919 E0.13723
G1 X168.796 Y99.453 E0.01675
G1 X165.170 Y95.827 E0.16092
G1 X164.636 Y95.827 E0.01675
G1 X168.796 Y99.987 E0.18461
G1 X168.796 Y100.521 E0.01675
G1 X164.103 Y95.827 E0.20829
G1 X163.569 Y95.827 E0.01675
G1 X168.796 Y101.054 E0.23198
G1 X168.796 Y101.588 E0.01675
G1 X163.035 Y95.827 E0.25567
G1 X162.502 Y95.827 E0.01675
G1 X168.796 Y102.122 E0.27936
G1 X168.796 Y102.656 E0.01675
G1 X161.968 Y95.827 E0.30304
G1 X161.434 Y95.827 E0.01675
G1 X168.796 Y103.189 E0.32673
G1 X168.796 Y103.723 E0.01675
G1 X160.900 Y95.827 E0.35042
G1 X160.367 Y95.827 E0.01675
G1 X168.796 Y104.257 E0.37410
G1 X168.796 Y104.791 E0.01675
G1 X159.833 Y95.827 E0.39779
G1 X159.299 Y95.827 E0.01675
G1 X168.796 Y105.324 E0.42148
G1 X168.796 Y105.687 E0.01140
G1 X168.626 Y105.687 E0.00535
G1 X158.765 Y95.827 E0.43760
G1 X158.232 Y95.827 E0.01675
G1 X168.092 Y105.687 E0.43760
G1 X167.558 Y105.687 E0.01675
G1 X157.698 Y95.827 E0.43760
G1 X157.164 Y95.827 E0.01675
G1 X167.024 Y105.687 E0.43760
G1 X166.491 Y105.687 E0.01675
G1 X156.630 Y95.827 E0.43760
G1 X156.097 Y95.827 E0.01675
G1 X165.957 Y105.687 E0.43760
G1 X165.423 Y105.687 E0.01675
G1 X155.563 Y95.827 E0.43760
G1 X155.029 Y95.827 E0.01675
G1 X164.890 Y105.687 E0.43760
G1 X164.356 Y105.687 E0.01675
G1 X154.496 Y95.827 E0.43760
G1 X153.962 Y95.827 E0.01675
G1 X163.822 Y105.687 E0.43760
G1 X163.288 Y105.687 E0.01675
G1 X153.428 Y95.827 E0.43760
G1 X152.894 Y95.827 E0.01675
G1 X162.755 Y105.687 E0.43760
G1 X162.221 Y105.687 E0.01675
G1 X152.361 Y95.827 E0.43760
G1 X151.827 Y95.827 E0.01675
G1 X161.687 Y105.687 E0.43760
G1 X161.153 Y105.687 E0.01675
G1 X151.293 Y95.827 E0.43760
G1 X150.759 Y95.827 E0.01675
G1 X160.620 Y105.687 E0.43760
G1 X160.086 Y105.687 E0.01675
G1 X150.226 Y95.827 E0.43760
G1 X149.692 Y95.827 E0.01675
G1 X159.552 Y105.687 E0.43760
G1 X159.018 Y105.687 E0.01675
G1 X149.158 Y95.827 E0.43760
G1 X148.625 Y95.827 E0.01675
G1 X158.485 Y105.687 E0.43760
G1 X157.951 Y105.687 E0.01675
G1 X148.091 Y95.827 E0.43760
G1 X147.557 Y95.827 E0.01675
G1 X157.417 Y105.687 E0.43760
G1 X156.884 Y105.687 E0.01675
G1 X147.023 Y95.827 E0.43760
G1 X146.490 Y95.827 E0.01675
G1 X156.350 Y105.687 E0.43760
G1 X155.816 Y105.687 E0.01675
G1 X145.956 Y95.827 E0.43760
M73 P5 R20
G1 X145.422 Y95.827 E0.01675
G1 X155.282 Y105.687 E0.43760
G1 X154.749 Y105.687 E0.01675
G1 X144.888 Y95.827 E0.43760
G1 X144.355 Y95.827 E0.01675
G1 X154.215 Y105.687 E0.43760
G1 X153.681 Y105.687 E0.01675
G1 X143.821 Y95.827 E0.43760
G1 X143.287 Y95.827 E0.01675
G1 X153.147 Y105.687 E0.43760
G1 X152.614 Y105.687 E0.01675
G1 X142.753 Y95.827 E0.43760
G1 X142.220 Y95.827 E0.01675
G1 X152.080 Y105.687 E0.43760
G1 X151.546 Y105.687 E0.01675
G1 X141.686 Y95.827 E0.43760
G1 X141.152 Y95.827 E0.01675
G1 X151.013 Y105.687 E0.43760
G1 X150.479 Y105.687 E0.01675
G1 X140.619 Y95.827 E0.43760
G1 X140.085 Y95.827 E0.01675
G1 X149.945 Y105.687 E0.43760
G1 X149.411 Y105.687 E0.01675
G1 X139.551 Y95.827 E0.43760
G1 X139.017 Y95.827 E0.01675
G1 X148.878 Y105.687 E0.43760
G1 X148.344 Y105.687 E0.01675
G1 X138.484 Y95.827 E0.43760
G1 X137.950 Y95.827 E0.01675
G1 X147.810 Y105.687 E0.43760
G1 X147.276 Y105.687 E0.01675
G1 X137.416 Y95.827 E0.43760
G1 X136.882 Y95.827 E0.01675
G1 X146.743 Y105.687 E0.43760
G1 X146.209 Y105.687 E0.01675
G1 X136.349 Y95.827 E0.43760
G1 X135.815 Y95.827 E0.01675
G1 X145.675 Y105.687 E0.43760
G1 X145.141 Y105.687 E0.01675
G1 X135.281 Y95.827 E0.43760
G1 X134.747 Y95.827 E0.01675
G1 X144.608 Y105.687 E0.43760
G1 X144.074 Y105.687 E0.01675
G1 X134.214 Y95.827 E0.43760
G1 X133.680 Y95.827 E0.01675
G1 X143.540 Y105.687 E0.43760
G1 X143.007 Y105.687 E0.01675
G1 X133.146 Y95.827 E0.43760
G1 X132.613 Y95.827 E0.01675
G1 X142.473 Y105.687 E0.43760
G1 X141.939 Y105.687 E0.01675
G1 X132.079 Y95.827 E0.43760
G1 X131.545 Y95.827 E0.01675
G1 X141.405 Y105.687 E0.43760
G1 X140.872 Y105.687 E0.01675
G1 X131.011 Y95.827 E0.43760
G1 X130.478 Y95.827 E0.01675
G1 X140.338 Y105.687 E0.43760
G1 X139.804 Y105.687 E0.01675
G1 X129.944 Y95.827 E0.43760
G1 X129.410 Y95.827 E0.01675
G1 X139.270 Y105.687 E0.43760
G1 X138.737 Y105.687 E0.01675
G1 X128.876 Y95.827 E0.43760
G1 X128.343 Y95.827 E0.01675
G1 X138.203 Y105.687 E0.43760
G1 X137.669 Y105.687 E0.01675
G1 X127.809 Y95.827 E0.43760
G1 X127.275 Y95.827 E0.01675
G1 X137.135 Y105.687 E0.43760
G1 X136.602 Y105.687 E0.01675
G1 X126.742 Y95.827 E0.43760
G1 X126.208 Y95.827 E0.01675
G1 X136.068 Y105.687 E0.43760
G1 X135.534 Y105.687 E0.01675
G1 X125.674 Y95.827 E0.43760
G1 X125.140 Y95.827 E0.01675
G1 X135.001 Y105.687 E0.43760
G1 X134.467 Y105.687 E0.01675
G1 X124.607 Y95.827 E0.43760
G1 X124.073 Y95.827 E0.01675
G1 X133.933 Y105.687 E0.43760
G1 X133.399 Y105.687 E0.01675
G1 X123.539 Y95.827 E0.43760
G1 X123.005 Y95.827 E0.01675
G1 X132.866 Y105.687 E0.43760
G1 X132.332 Y105.687 E0.01675
G1 X122.472 Y95.827 E0.43760
G1 X121.938 Y95.827 E0.01675
G1 X131.798 Y105.687 E0.43760
G1 X131.264 Y105.687 E0.01675
G1 X121.404 Y95.827 E0.43760
G1 X120.870 Y95.827 E0.01675
G1 X130.731 Y105.687 E0.43760
G1 X130.197 Y105.687 E0.01675
G1 X120.337 Y95.827 E0.43760
G1 X119.803 Y95.827 E0.01675
G1 X129.663 Y105.687 E0.43760
G1 X129.130 Y105.687 E0.01675
G1 X119.269 Y95.827 E0.43760
G1 X118.736 Y95.827 E0.01675
G1 X128.596 Y105.687 E0.43760
G1 X128.062 Y105.687 E0.01675
G1 X118.202 Y95.827 E0.43760
G1 X117.668 Y95.827 E0.01675
G1 X127.528 Y105.687 E0.43760
G1 X126.995 Y105.687 E0.01675
G1 X117.134 Y95.827 E0.43760
G1 X116.601 Y95.827 E0.01675
G1 X126.461 Y105.687 E0.43760
G1 X125.927 Y105.687 E0.01675
G1 X116.067 Y95.827 E0.43760
G1 X115.533 Y95.827 E0.01675
G1 X125.393 Y105.687 E0.43760
G1 X124.860 Y105.687 E0.01675
G1 X114.999 Y95.827 E0.43760
G1 X114.466 Y95.827 E0.01675
G1 X124.326 Y105.687 E0.43760
G1 X123.792 Y105.687 E0.01675
G1 X113.932 Y95.827 E0.43760
G1 X113.398 Y95.827 E0.01675
G1 X123.258 Y105.687 E0.43760
G1 X122.725 Y105.687 E0.01675
G1 X112.865 Y95.827 E0.43760
G1 X112.331 Y95.827 E0.01675
G1 X122.191 Y105.687 E0.43760
G1 X121.657 Y105.687 E0.01675
G1 X111.797 Y95.827 E0.43760
G1 X111.263 Y95.827 E0.01675
G1 X121.124 Y105.687 E0.43760
G1 X120.590 Y105.687 E0.01675
G1 X110.730 Y95.827 E0.43760
G1 X110.196 Y95.827 E0.01675
G1 X120.056 Y105.687 E0.43760
G1 X119.522 Y105.687 E0.01675
G1 X109.662 Y95.827 E0.43760
G1 X109.128 Y95.827 E0.01675
G1 X118.989 Y105.687 E0.43760
G1 X118.455 Y105.687 E0.01675
G1 X108.595 Y95.827 E0.43760
G1 X108.061 Y95.827 E0.01675
G1 X117.921 Y105.687 E0.43760
G1 X117.387 Y105.687 E0.01675
G1 X107.527 Y95.827 E0.43760
G1 X106.993 Y95.827 E0.01675
G1 X116.854 Y105.687 E0.43760
G1 X116.320 Y105.687 E0.01675
G1 X106.460 Y95.827 E0.43760
G1 X105.926 Y95.827 E0.01675
G1 X115.786 Y105.687 E0.43760
G1 X115.253 Y105.687 E0.01675
G1 X105.392 Y95.827 E0.43760
G1 X104.859 Y95.827 E0.01675
G1 X114.719 Y105.687 E0.43760
G1 X114.185 Y105.687 E0.01675
G1 X104.325 Y95.827 E0.43760
G1 X103.791 Y95.827 E0.01675
G1 X113.651 Y105.687 E0.43760
G1 X113.118 Y105.687 E0.01675
G1 X103.257 Y95.827 E0.43760
G1 X102.724 Y95.827 E0.01675
G1 X112.584 Y105.687 E0.43760
G1 X112.050 Y105.687 E0.01675
G1 X102.190 Y95.827 E0.43760
G1 X101.656 Y95.827 E0.01675
G1 X111.516 Y105.687 E0.43760
M73 P9 R19
G1 X110.983 Y105.687 E0.01675
G1 X101.122 Y95.827 E0.43760
G1 X100.589 Y95.827 E0.01675
G1 X110.449 Y105.687 E0.43760
G1 X109.915 Y105.687 E0.01675
G1 X100.055 Y95.827 E0.43760
G1 X99.521 Y95.827 E0.01675
G1 X109.381 Y105.687 E0.43760
G1 X108.848 Y105.687 E0.01675
G1 X98.987 Y95.827 E0.43760
G1 X98.454 Y95.827 E0.01675
G1 X108.314 Y105.687 E0.43760
G1 X107.780 Y105.687 E0.01675
G1 X97.920 Y95.827 E0.43760
G1 X97.386 Y95.827 E0.01675
G1 X107.247 Y105.687 E0.43760
G1 X106.713 Y105.687 E0.01675
G1 X96.853 Y95.827 E0.43760
G1 X96.319 Y95.827 E0.01675
G1 X106.179 Y105.687 E0.43760
G1 X105.645 Y105.687 E0.01675
G1 X95.785 Y95.827 E0.43760
G1 X95.251 Y95.827 E0.01675
G1 X105.112 Y105.687 E0.43760
G1 X104.578 Y105.687 E0.01675
G1 X94.718 Y95.827 E0.43760
G1 X94.184 Y95.827 E0.01675
G1 X104.044 Y105.687 E0.43760
G1 X103.510 Y105.687 E0.01675
G1 X93.650 Y95.827 E0.43760
G1 X93.116 Y95.827 E0.01675
G1 X102.977 Y105.687 E0.43760
G1 X102.443 Y105.687 E0.01675
G1 X92.583 Y95.827 E0.43760
G1 X92.049 Y95.827 E0.01675
G1 X101.909 Y105.687 E0.43760
G1 X101.376 Y105.687 E0.01675
G1 X91.515 Y95.827 E0.43760
G1 X90.982 Y95.827 E0.01675
G1 X100.842 Y105.687 E0.43760
G1 X100.308 Y105.687 E0.01675
G1 X90.448 Y95.827 E0.43760
G1 X89.914 Y95.827 E0.01675
G1 X99.774 Y105.687 E0.43760
G1 X99.241 Y105.687 E0.01675
G1 X89.380 Y95.827 E0.43760
G1 X88.847 Y95.827 E0.01675
G1 X98.707 Y105.687 E0.43760
G1 X98.173 Y105.687 E0.01675
G1 X88.313 Y95.827 E0.43760
G1 X87.779 Y95.827 E0.01675
G1 X97.639 Y105.687 E0.43760
G1 X97.106 Y105.687 E0.01675
G1 X87.245 Y95.827 E0.43760
G1 X86.712 Y95.827 E0.01675
G1 X96.572 Y105.687 E0.43760
G1 X96.038 Y105.687 E0.01675
G1 X86.178 Y95.827 E0.43760
G1 X85.644 Y95.827 E0.01675
G1 X95.504 Y105.687 E0.43760
G1 X94.971 Y105.687 E0.01675
G1 X85.110 Y95.827 E0.43760
G1 X84.577 Y95.827 E0.01675
G1 X94.437 Y105.687 E0.43760
G1 X93.903 Y105.687 E0.01675
G1 X84.043 Y95.827 E0.43760
G1 X83.509 Y95.827 E0.01675
G1 X93.370 Y105.687 E0.43760
G1 X92.836 Y105.687 E0.01675
G1 X82.976 Y95.827 E0.43760
G1 X82.442 Y95.827 E0.01675
G1 X92.302 Y105.687 E0.43760
G1 X91.768 Y105.687 E0.01675
G1 X81.908 Y95.827 E0.43760
G1 X81.374 Y95.827 E0.01675
G1 X91.235 Y105.687 E0.43760
G1 X90.701 Y105.687 E0.01675
G1 X81.204 Y96.190 E0.42148
G1 X81.204 Y96.724 E0.01675
G1 X90.167 Y105.687 E0.39779
G1 X89.633 Y105.687 E0.01675
G1 X81.204 Y97.258 E0.37410
G1 X81.204 Y97.792 E0.01675
G1 X89.100 Y105.687 E0.35042
G1 X88.566 Y105.687 E0.01675
G1 X81.204 Y98.325 E0.32673
G1 X81.204 Y98.859 E0.01675
G1 X88.032 Y105.687 E0.30304
G1 X87.498 Y105.687 E0.01675
G1 X81.204 Y99.393 E0.27936
G1 X81.204 Y99.927 E0.01675
G1 X86.965 Y105.687 E0.25567
G1 X86.431 Y105.687 E0.01675
G1 X81.204 Y100.460 E0.23198
G1 X81.204 Y100.994 E0.01675
G1 X85.897 Y105.687 E0.20829
G1 X85.364 Y105.687 E0.01675
G1 X81.204 Y101.528 E0.18461
G1 X81.204 Y102.061 E0.01675
G1 X84.830 Y105.687 E0.16092
G1 X84.296 Y105.687 E0.01675
G1 X81.204 Y102.595 E0.13723
G1 X81.204 Y103.129 E0.01675
G1 X83.762 Y105.687 E0.11355
G1 X83.229 Y105.687 E0.01675
G1 X81.204 Y103.663 E0.08986
G1 X81.204 Y104.196 E0.01675
G1 X82.695 Y105.687 E0.06617
G1 X82.161 Y105.687 E0.01675
G1 X81.204 Y104.730 E0.04249
G1 X81.204 Y105.264 E0.01675
G1 X81.797 Y105.857 E0.02633
M106 S255
;BEFORE_LAYER_CHANGE
G92 E0.0
;0.55


G1 E-0.80000 F2100.00000
G1 Z0.800 F10800.000
;AFTER_LAYER_CHANGE
;0.55
M104 S210 ; set temperature
G1 X79.278 Y108.975
G1 Z0.550
G1 E0.80000 F2100.00000
G1 F3000.000
G1 X78.573 Y108.550 E0.04127
G1 X78.056 Y107.911 E0.04127
G1 X77.787 Y107.134 E0.04127
G1 X77.778 Y94.442 E0.63695
G1 X77.995 Y93.719 E0.03788
G1 X78.431 Y93.099 E0.03807
G1 X79.041 Y92.647 E0.03807
G1 X79.757 Y92.410 E0.03788
G1 X169.870 Y92.380 E4.52238
G1 X170.765 Y92.557 E0.04578
G1 X171.528 Y93.057 E0.04578
G1 X172.045 Y93.808 E0.04578
G1 X172.242 Y94.703 E0.04597
G1 X172.221 Y107.084 E0.62135
G1 X172.001 Y107.802 E0.03769
G1 X171.566 Y108.419 E0.03788
G1 X170.959 Y108.868 E0.03788
G1 X170.243 Y109.104 E0.03788
G1 X80.084 Y109.134 E4.52467
G1 X79.336 Y108.986 E0.03826
G1 X80.874 Y106.017 F10800.000
M204 S800
G1 F3000.000
G1 X80.874 Y95.497 E0.54328
G1 X169.126 Y95.497 E4.55744
G1 X169.126 Y106.017 E0.54328
G1 X80.934 Y106.017 E4.55434
M204 S1000
G1 X80.434 Y106.457 F10800.000
M204 S800
G1 F2400.000
G1 X80.434 Y95.057 E0.87071
G1 X169.566 Y95.057 E6.80775
G1 X169.566 Y106.457 E0.87071
G1 X80.494 Y106.457 E6.80317
M204 S1000
G1 X80.619 Y106.103 F10800.000
G1 E-0.80000 F2100.00000
G1 Z1.150 F10800.000
G1 X167.771 Y105.931
G1 Z0.550
G1 E0.80000 F2100.00000
M204 S2000
G1 F3600.000
G1 X168.759 Y104.943 E0.12767
G1 X168.759 Y104.055 E0.08111
G1 X167.164 Y105.650 E0.20604
G1 X166.276 Y105.650 E0.08111
G1 X168.759 Y103.167 E0.32075
G1 X168.759 Y102.280 E0.08111
G1 X165.388 Y105.650 E0.43546
G1 X164.500 Y105.650 E0.08111
G1 X168.759 Y101.392 E0.55017
G1 X168.759 Y100.504 E0.08111
G1 X163.612 Y105.650 E0.66487
G1 X162.725 Y105.650 E0.08111
G1 X168.759 Y99.616 E0.77958
G1 X168.759 Y98.728 E0.08111
G1 X161.837 Y105.650 E0.89429
G1 X160.949 Y105.650 E0.08111
G1 X168.759 Y97.840 E1.00900
G1 X168.759 Y96.952 E0.08111
G1 X160.061 Y105.650 E1.12370
G1 X159.173 Y105.650 E0.08111
G1 X168.759 Y96.064 E1.23841
G1 X168.759 Y95.865 E0.01825
G1 X168.071 Y95.865 E0.06286
G1 X158.285 Y105.650 E1.26423
G1 X157.397 Y105.650 E0.08111
G1 X167.183 Y95.865 E1.26423
G1 X166.295 Y95.865 E0.08111
G1 X156.510 Y105.650 E1.26423
G1 X155.622 Y105.650 E0.08111
G1 X165.407 Y95.865 E1.26423
G1 X164.519 Y95.865 E0.08111
G1 X154.734 Y105.650 E1.26423
G1 X153.846 Y105.650 E0.08111
G1 X163.631 Y95.865 E1.26423
G1 X162.744 Y95.865 E0.08111
G1 X152.958 Y105.650 E1.26423
G1 X152.070 Y105.650 E0.08111
G1 X161.856 Y95.865 E1.26423
G1 X160.968 Y95.865 E0.08111
G1 X151.182 Y105.650 E1.26423
G1 X150.295 Y105.650 E0.08111
G1 X160.080 Y95.865 E1.26423
G1 X159.192 Y95.865 E0.08111
G1 X149.407 Y105.650 E1.26423
G1 X148.519 Y105.650 E0.08111
G1 X158.304 Y95.865 E1.26423
