; generated by PrusaSlicer 2.2.0+win64 on 2020-10-27 at 20:40:16 UTC

; 

; external perimeters extrusion width = 0.60mm
; perimeters extrusion width = 0.43mm
; infill extrusion width = 0.45mm
; solid infill extrusion width = 0.70mm
; top infill extrusion width = 0.43mm
; first layer extrusion width = 0.42mm

M73 P0 R13
M201 X9000 Y9000 Z500 E10000 ; sets maximum accelerations, mm/sec^2
M203 X500 Y500 Z12 E120 ; sets maximum feedrates, mm/sec
M204 P2000 R1500 T2000 ; sets acceleration (P, T) and retract acceleration (R), mm/sec^2
M205 X10.00 Y10.00 Z0.20 E2.50 ; sets the jerk limits, mm/sec
M205 S0 T0 ; sets the minimum extruding and travel feed rate, mm/sec
M107
M862.3 P "MK2S" ; printer model check
M862.1 P0.4 ; nozzle diameter check
M115 U3.2.3 ; tell printer latest fw version
G90 ; use absolute coordinates
M83 ; extruder relative mode
M204 S2000 T1500 ; MK2 firmware only supports the old M204 format
M104 S215 ; set extruder temp
M140 S60 ; set bed temp
M190 S60 ; wait for bed temp
M109 S215 ; wait for extruder temp
G28 W ; home all without mesh bed level
G80 ; mesh bed leveling
G1 Y-3.0 F1000.0 ; go outside print area
G92 E0.0
G1 X60.0 E9.0  F1000.0 ; intro line
M73 P0 R13
G1 X100.0 E12.5 F1000.0 ; intro line
G92 E0.0
G21 ; set units to millimeters
G90 ; use absolute coordinates
M83 ; use relative distances for extrusion
M900 K0.05 ; Filament gcode LA 1.5
M900 K30 ; Filament gcode LA 1.0
;BEFORE_LAYER_CHANGE
G92 E0.0
;0.2


G1 E-0.80000 F2100.00000
G1 Z0.600 F10800.000
;AFTER_LAYER_CHANGE
;0.2
G1 X84.770 Y76.710
G1 Z0.200
G1 E0.80000 F2100.00000
M204 S1000
G1 F1200.000
G1 X85.529 Y76.582 E0.02414
G1 X167.400 Y76.581 E2.56701
G1 X168.148 Y76.704 E0.02378
G1 X168.820 Y77.056 E0.02378
G1 X169.841 Y78.032 E0.04429
G1 X170.256 Y78.720 E0.02520
G1 X170.397 Y79.269 E0.01775
G1 X170.420 Y79.946 E0.02126
G1 X170.226 Y83.816 E0.12149
G1 X163.846 Y135.340 E1.62783
G1 X163.548 Y136.210 E0.02884
G1 X162.941 Y136.901 E0.02884
G1 X162.263 Y137.266 E0.02414
G1 X161.508 Y137.394 E0.02402
G1 X91.431 Y137.394 E2.19721
G1 X90.895 Y137.330 E0.01692
G1 X90.388 Y137.146 E0.01692
G1 X89.938 Y136.855 E0.01680
G1 X89.562 Y136.467 E0.01692
G1 X89.250 Y135.928 E0.01953
G1 X89.089 Y135.326 E0.01953
G1 X82.715 Y83.859 E1.62605
G1 X82.518 Y80.005 E0.12101
G1 X82.566 Y79.113 E0.02800
G1 X82.726 Y78.613 E0.01645
G1 X82.992 Y78.161 E0.01645
G1 X84.092 Y77.075 E0.04846
G1 X84.717 Y76.739 E0.02226
G1 E-0.80000 F2100.00000
G1 Z0.800 F10800.000
G1 X120.225 Y131.507
G1 Z0.200
G1 E0.80000 F2100.00000
G1 F1200.000
G1 X132.713 Y131.507 E0.39155
G1 X132.713 Y134.077 E0.08058
G1 X120.225 Y134.077 E0.39155
G1 X120.225 Y131.567 E0.07870
G1 X120.048 Y131.148 F10800.000
G1 X119.848 Y134.230
G1 F1200.000
G1 X119.422 Y134.230 E0.01335
G1 X119.422 Y128.104 E0.19207
G1 X119.848 Y128.104 E0.01335
G1 X119.848 Y134.170 E0.19019
G1 X120.225 Y130.827 F10800.000
G1 F1200.000
G1 X120.225 Y128.257 E0.08058
G1 X132.713 Y128.257 E0.39155
G1 X132.713 Y130.827 E0.08058
G1 X120.285 Y130.827 E0.38967
G1 X119.826 Y130.854 F10800.000
G1 E-0.80000 F2100.00000
G1 Z0.800 F10800.000
G1 X133.893 Y130.827
G1 Z0.200
G1 E0.80000 F2100.00000
G1 F1200.000
G1 X133.893 Y128.257 E0.08058
G1 X146.381 Y128.257 E0.39155
G1 X146.381 Y130.827 E0.08058
G1 X133.953 Y130.827 E0.38967
G1 X133.494 Y130.854 F10800.000
G1 X133.953 Y131.507
G1 F1200.000
G1 X146.381 Y131.507 E0.38967
G1 X146.381 Y134.077 E0.08058
G1 X133.893 Y134.077 E0.39155
G1 X133.893 Y131.507 E0.08058
G1 X133.777 Y131.148 F10800.000
G1 X133.516 Y134.230
G1 F1200.000
G1 X133.090 Y134.230 E0.01335
G1 X133.090 Y128.104 E0.19207
G1 X133.516 Y128.104 E0.01335
G1 X133.516 Y134.170 E0.19019
G1 E-0.80000 F2100.00000
G1 Z0.800 F10800.000
G1 X147.561 Y130.827
G1 Z0.200
G1 E0.80000 F2100.00000
G1 F1200.000
G1 X147.561 Y128.257 E0.08058
G1 X160.049 Y128.257 E0.39155
G1 X160.049 Y130.827 E0.08058
G1 X147.621 Y130.827 E0.38967
G1 X147.161 Y130.854 F10800.000
G1 X147.621 Y131.507
G1 F1200.000
G1 X160.049 Y131.507 E0.38967
G1 X160.049 Y134.077 E0.08058
G1 X147.561 Y134.077 E0.39155
G1 X147.561 Y131.507 E0.08058
G1 X147.445 Y131.148 F10800.000
G1 X147.184 Y134.230
G1 F1200.000
G1 X146.758 Y134.230 E0.01335
G1 X146.758 Y128.104 E0.19207
G1 X147.184 Y128.104 E0.01335
G1 X147.184 Y134.170 E0.19019
G1 E-0.80000 F2100.00000
G1 Z0.800 F10800.000
G1 X160.426 Y134.170
G1 Z0.200
G1 E0.80000 F2100.00000
G1 F1200.000
G1 X160.426 Y128.104 E0.19019
G1 X160.823 Y128.104 E0.01246
G1 X160.718 Y134.230 E0.19210
G1 X160.426 Y134.230 E0.00915
G1 E-0.80000 F2100.00000
G1 Z0.800 F10800.000
G1 X106.180 Y134.230
G1 Z0.200
G1 E0.80000 F2100.00000
G1 F1200.000
G1 X105.754 Y134.230 E0.01335
G1 X105.754 Y128.104 E0.19207
G1 X106.180 Y128.104 E0.01335
G1 X106.180 Y134.170 E0.19019
G1 X106.557 Y134.077 F10800.000
G1 F1200.000
G1 X106.557 Y131.507 E0.08058
G1 X119.045 Y131.507 E0.39155
G1 X119.045 Y134.077 E0.08058
G1 X106.617 Y134.077 E0.38967
G1 X106.158 Y134.104 F10800.000
G1 X106.617 Y130.827
G1 F1200.000
G1 X106.557 Y130.827 E0.00188
G1 X106.557 Y128.257 E0.08058
G1 X119.045 Y128.257 E0.39155
G1 X119.045 Y130.827 E0.08058
G1 X106.677 Y130.827 E0.38779
G1 X106.590 Y130.881 F10800.000
G1 X105.377 Y130.827
G1 F1200.000
G1 X92.889 Y130.827 E0.39155
G1 X92.889 Y128.257 E0.08058
G1 X105.377 Y128.257 E0.39155
G1 X105.377 Y130.767 E0.07870
G1 X105.553 Y131.187 F10800.000
G1 X105.377 Y131.507
G1 F1200.000
G1 X105.377 Y134.077 E0.08058
G1 X92.889 Y134.077 E0.39155
G1 X92.889 Y131.507 E0.08058
G1 X105.317 Y131.507 E0.38967
G1 X105.776 Y131.480 F10800.000
G1 E-0.80000 F2100.00000
G1 Z0.800 F10800.000
G1 X92.512 Y134.230
G1 Z0.200
G1 E0.80000 F2100.00000
G1 F1200.000
G1 X92.220 Y134.230 E0.00915
G1 X92.114 Y128.104 E0.19210
G1 X92.512 Y128.104 E0.01246
G1 X92.512 Y134.170 E0.19019
G1 X91.849 Y134.607 F10800.000
G1 F1200.000
G1 X91.730 Y127.727 E0.21575
G1 X161.207 Y127.727 E2.17838
G1 X161.088 Y134.607 E0.21575
G1 X91.909 Y134.607 E2.16906
G1 X92.033 Y134.252 F10800.000
G1 X92.700 Y134.342
G1 F1200.000
G1 X105.565 Y134.342 E0.16358
G1 X106.368 Y134.342 F10800.000
G1 F1200.000
G1 X119.233 Y134.342 E0.16358
G1 X120.036 Y134.342 F10800.000
G1 F1200.000
G1 X132.901 Y134.342 E0.16358
G1 X133.704 Y134.342 F10800.000
G1 F1200.000
G1 X146.569 Y134.342 E0.16358
G1 X147.372 Y134.342 F10800.000
G1 F1200.000
G1 X160.237 Y134.342 E0.16358
G1 X160.237 Y131.167 F10800.000
G1 F1200.000
G1 X147.372 Y131.167 E0.32405
G1 X146.569 Y131.167 F10800.000
G1 F1200.000
G1 X133.704 Y131.167 E0.32405
G1 X132.901 Y131.167 F10800.000
G1 F1200.000
G1 X120.036 Y131.167 E0.32405
G1 X119.233 Y131.167 F10800.000
G1 F1200.000
G1 X106.368 Y131.167 E0.32405
G1 X105.565 Y131.167 F10800.000
G1 F1200.000
G1 X92.700 Y131.167 E0.32405
G1 X92.700 Y127.992 F10800.000
G1 F1200.000
G1 X105.565 Y127.992 E0.16360
G1 X106.368 Y127.992 F10800.000
G1 F1200.000
G1 X119.233 Y127.992 E0.16360
G1 X120.036 Y127.992 F10800.000
G1 F1200.000
G1 X132.901 Y127.992 E0.16360
G1 X133.704 Y127.992 F10800.000
G1 F1200.000
G1 X146.569 Y127.992 E0.16360
G1 X147.372 Y127.992 F10800.000
G1 F1200.000
G1 X160.237 Y127.992 E0.16360
G1 E-0.80000 F2100.00000
G1 Z0.800 F10800.000
G1 X119.044 Y95.016
G1 Z0.200
G1 E0.80000 F2100.00000
G1 F1200.000
G1 X112.074 Y95.016 E0.21854
G1 X112.074 Y91.696 E0.10410
G1 X119.044 Y91.696 E0.21854
M73 P8 R12
G1 X119.044 Y94.956 E0.10221
G1 X119.190 Y95.388 F10800.000
G1 X119.044 Y91.016
G1 F1200.000
G1 X112.074 Y91.016 E0.21854
G1 X112.074 Y87.696 E0.10410
G1 X119.044 Y87.696 E0.21854
G1 X119.044 Y90.956 E0.10222
G1 X119.190 Y91.388 F10800.000
G1 X119.045 Y87.016
G1 F1200.000
G1 X112.074 Y87.016 E0.21857
G1 X112.074 Y83.696 E0.10411
G1 X117.222 Y83.703 E0.16143
G1 X117.713 Y83.739 E0.01542
G1 X118.816 Y83.924 E0.03508
G1 X119.010 Y85.083 E0.03685
G1 X119.039 Y85.600 E0.01623
G1 X119.044 Y86.956 E0.04252
G1 X119.047 Y87.416 F10800.000
G1 E-0.80000 F2100.00000
G1 Z0.800 F10800.000
G1 X111.734 Y80.837
G1 Z0.200
G1 E0.80000 F2100.00000
G1 F1200.000
G1 X111.696 Y80.497 E0.01072
G1 X111.565 Y80.008 E0.01590
G1 X111.905 Y80.000 E0.01064
G1 X111.772 Y80.497 E0.01614
G1 X111.740 Y80.778 E0.00884
G1 E-0.80000 F2100.00000
G1 Z0.800 F10800.000
G1 X104.673 Y79.896
G1 Z0.200
G1 E0.80000 F2100.00000
G1 F1200.000
G1 X111.145 Y79.896 E0.20294
G1 X111.324 Y80.567 E0.02178
G1 X111.383 Y81.094 E0.01661
G1 X111.395 Y83.016 E0.06027
G1 X104.423 Y83.016 E0.21862
G1 X104.435 Y81.094 E0.06027
G1 X104.493 Y80.567 E0.01661
G1 X104.657 Y79.954 E0.01990
G1 X104.699 Y79.497 F10800.000
G1 X104.241 Y80.049
G1 F1200.000
G1 X104.122 Y80.497 E0.01454
G1 X104.087 Y80.806 E0.00972
G1 X104.043 Y80.075 E0.02297
G1 X104.182 Y80.057 E0.00438
G1 X103.672 Y80.183 F10800.000
G1 F1200.000
G1 X103.741 Y81.316 E0.03561
G1 X103.744 Y83.016 E0.05330
G1 X101.557 Y83.016 E0.06857
G1 X102.476 Y81.131 E0.06575
G1 X103.081 Y80.066 E0.03842
G1 X103.613 Y80.171 E0.01701
G1 X104.058 Y80.079 F10800.000
G1 X102.590 Y80.156
G1 F1200.000
G1 X102.140 Y80.959 E0.02885
G1 X100.990 Y83.319 E0.08231
G1 X100.778 Y83.319 E0.00665
G1 X102.306 Y80.166 E0.10986
G1 X102.530 Y80.158 E0.00703
G1 X100.951 Y83.696 F10800.000
G1 F1200.000
G1 X103.744 Y83.696 E0.08756
G1 X103.744 Y87.016 E0.10410
G1 X102.609 Y87.016 E0.03557
G1 X102.159 Y85.914 E0.03734
G1 X101.762 Y85.104 E0.02827
G1 X100.981 Y83.748 E0.04906
G1 X100.885 Y83.302 F10800.000
G1 X104.424 Y83.748
G1 F1200.000
G1 X104.424 Y83.696 E0.00163
G1 X111.394 Y83.696 E0.21854
G1 X111.394 Y87.016 E0.10410
G1 X104.424 Y87.016 E0.21854
G1 X104.424 Y83.808 E0.10058
G1 X104.372 Y83.741 F10800.000
G1 X104.424 Y87.696
G1 F1200.000
G1 X111.394 Y87.696 E0.21854
G1 X111.394 Y91.016 E0.10410
G1 X104.424 Y91.016 E0.21854
G1 X104.424 Y87.756 E0.10222
G1 X104.277 Y87.324 F10800.000
G1 X104.424 Y91.696
G1 F1200.000
G1 X111.394 Y91.696 E0.21854
G1 X111.394 Y95.016 E0.10410
G1 X104.424 Y95.016 E0.21854
G1 X104.424 Y91.756 E0.10221
G1 X104.277 Y91.324 F10800.000
G1 X104.424 Y95.696
G1 F1200.000
G1 X111.396 Y95.696 E0.21861
G1 X111.375 Y97.620 E0.06033
G1 X111.310 Y98.144 E0.01653
G1 X111.150 Y98.813 E0.02160
G1 X110.049 Y98.832 E0.03454
G1 X108.155 Y99.003 E0.05961
G1 X104.424 Y99.017 E0.11699
G1 X104.424 Y95.756 E0.10224
G1 X104.313 Y95.312 F10800.000
G1 X104.047 Y95.319
G1 F1200.000
G1 X102.411 Y95.319 E0.05129
G1 X102.556 Y94.884 E0.01440
G1 X102.849 Y93.562 E0.04243
G1 X103.004 Y92.218 E0.04243
G1 X103.019 Y90.865 E0.04243
G1 X102.895 Y89.517 E0.04243
G1 X102.632 Y88.190 E0.04243
G1 X102.386 Y87.393 E0.02613
G1 X104.047 Y87.393 E0.05207
G1 X104.047 Y95.259 E0.24663
G1 X103.744 Y95.696 F10800.000
G1 F1200.000
G1 X103.744 Y99.016 E0.10410
G1 X101.003 Y99.016 E0.08595
G1 X101.801 Y97.610 E0.05070
G1 X102.191 Y96.800 E0.02819
G1 X102.635 Y95.696 E0.03731
G1 X103.684 Y95.696 E0.03288
G1 X104.135 Y95.614 F10800.000
G1 X100.626 Y98.915
G1 F1200.000
G1 X100.374 Y99.360 E0.01604
G1 X100.212 Y99.383 E0.00512
G1 X100.590 Y98.963 E0.01772
G1 E-0.80000 F2100.00000
G1 Z0.800 F10800.000
G1 X111.607 Y98.525
G1 Z0.200
G1 E0.80000 F2100.00000
G1 F1200.000
G1 X111.682 Y98.211 E0.01013
G1 X111.729 Y97.830 E0.01202
G1 X111.772 Y98.215 E0.01214
G1 X111.841 Y98.476 E0.00847
G1 X111.666 Y98.513 E0.00563
G1 E-0.80000 F2100.00000
G1 Z0.800 F10800.000
G1 X119.724 Y95.016
G1 Z0.200
G1 E0.80000 F2100.00000
G1 F1200.000
G1 X119.724 Y91.696 E0.10411
G1 X125.350 Y91.707 E0.17641
G1 X125.852 Y91.766 E0.01584
G1 X126.491 Y91.947 E0.02082
G1 X126.503 Y92.597 E0.02039
G1 X126.671 Y94.972 E0.07465
G1 X125.341 Y95.014 E0.04173
G1 X119.784 Y95.016 E0.17424
G1 X119.324 Y95.017 F10800.000
G1 E-0.80000 F2100.00000
G1 Z0.800 F10800.000
G1 X125.596 Y91.356
G1 Z0.200
G1 E0.80000 F2100.00000
G1 F1200.000
G1 X125.925 Y91.318 E0.01041
G1 X126.287 Y91.215 E0.01178
G1 X126.320 Y91.506 E0.00918
G1 X125.925 Y91.395 E0.01284
G1 X125.655 Y91.363 E0.00853
G1 X125.657 Y87.471 F10800.000
G1 F1200.000
G1 X125.227 Y87.393 E0.01369
G1 X125.626 Y87.382 E0.01250
G1 X125.637 Y87.414 E0.00109
G1 E-0.80000 F2100.00000
G1 Z0.800 F10800.000
G1 X119.360 Y84.892
G1 Z0.200
G1 E0.80000 F2100.00000
G1 F1200.000
G1 X119.341 Y84.775 E0.00369
G1 X119.361 Y84.794 E0.00087
G1 X119.361 Y84.832 E0.00117
G1 E-0.80000 F2100.00000
G1 Z0.800 F10800.000
G1 X112.323 Y79.896
G1 Z0.200
G1 E0.80000 F2100.00000
G1 F1200.000
G1 X112.143 Y80.567 E0.02178
G1 X112.085 Y81.094 E0.01661
G1 X112.072 Y83.017 E0.06029
G1 X117.926 Y83.003 E0.18353
G1 X118.156 Y83.205 E0.00961
G1 X118.556 Y83.472 E0.01507
G1 X118.893 Y83.771 E0.01412
G1 X119.232 Y84.076 E0.01430
G1 X119.536 Y84.441 E0.01489
G1 X119.739 Y84.633 E0.00877
G1 X119.722 Y87.016 E0.07474
G1 X125.236 Y87.016 E0.17288
G1 X125.892 Y86.996 E0.02056
G1 X126.109 Y87.623 E0.02080
G1 X126.152 Y87.896 E0.00867
G1 X125.834 Y87.896 E0.00998
G1 X125.375 Y87.795 E0.01472
G1 X124.885 Y87.725 E0.01554
G1 X124.397 Y87.701 E0.01532
G1 X119.724 Y87.696 E0.14652
G1 X119.724 Y91.017 E0.10412
G1 X125.350 Y91.005 E0.17641
G1 X125.852 Y90.947 E0.01584
G1 X126.494 Y90.765 E0.02092
G1 X126.494 Y90.055 E0.02227
G1 X126.640 Y90.980 E0.02937
G1 X126.695 Y91.469 E0.01542
G1 X126.869 Y92.428 E0.03057
G1 X127.070 Y94.867 E0.07672
G1 X127.152 Y95.458 E0.01873
G1 X126.013 Y95.696 E0.03649
G1 X119.724 Y95.696 E0.19719
G1 X119.724 Y97.011 E0.04121
G1 X119.044 Y97.153 E0.02178
G1 X119.044 Y95.696 E0.04566
G1 X112.072 Y95.696 E0.21858
G1 X112.085 Y97.619 E0.06027
G1 X112.143 Y98.145 E0.01661
G1 X112.309 Y98.764 E0.02008
G1 X110.230 Y99.197 E0.06657
G1 X108.280 Y99.419 E0.06154
G1 X106.873 Y99.696 E0.04496
G1 X104.424 Y99.696 E0.07679
G1 X104.424 Y100.208 E0.01604
G1 X103.744 Y100.350 E0.02178
G1 X103.744 Y99.696 E0.02050
G1 X100.974 Y99.701 E0.08686
G1 X100.488 Y99.725 E0.01525
G1 X99.999 Y99.795 E0.01547
G1 X99.543 Y99.896 E0.01465
G1 X99.099 Y99.895 E0.01393
G1 X99.337 Y99.632 E0.01112
G1 X99.670 Y99.369 E0.01330
G1 X100.006 Y99.061 E0.01430
G1 X100.297 Y98.725 E0.01393
G1 X100.571 Y98.363 E0.01423
G1 X101.235 Y97.227 E0.04126
G1 X101.777 Y96.030 E0.04121
G1 X102.192 Y94.783 E0.04121
G1 X102.477 Y93.500 E0.04121
G1 X102.627 Y92.194 E0.04121
G1 X102.642 Y90.880 E0.04121
G1 X102.521 Y89.571 E0.04121
G1 X102.266 Y88.282 E0.04121
G1 X101.878 Y87.026 E0.04121
G1 X101.364 Y85.817 E0.04121
G1 X100.727 Y84.667 E0.04121
G1 X100.124 Y83.804 E0.03300
G1 X102.066 Y79.796 E0.13963
G1 X102.798 Y79.772 E0.02296
G1 X103.285 Y79.733 E0.01533
G1 X103.779 Y79.728 E0.01551
G1 X104.758 Y79.604 E0.03092
G1 X111.104 Y79.604 E0.19900
G1 X111.597 Y79.632 E0.01547
G1 X112.582 Y79.604 E0.03091
G1 X115.980 Y79.604 E0.10651
G1 X116.194 Y79.662 E0.00698
G1 X116.243 Y79.886 E0.00721
G1 X112.383 Y79.896 E0.12104
G1 X111.927 Y79.835 F10800.000
G1 X111.734 Y81.026
G1 F1200.000
G1 X111.734 Y83.205 E0.05396
G1 X111.734 Y83.256 E0.00144
G1 X111.734 Y83.307 E0.00162
G1 X111.733 Y83.358 E0.00180
G1 X111.684 Y83.357 E0.00175
G1 X104.233 Y83.356 E0.18770
G1 X104.183 Y83.357 E0.00142
G1 X104.134 Y83.357 E0.00159
G1 X104.084 Y83.358 E0.00176
G1 X104.083 Y83.357 F10800.000
G1 F1200.000
G1 X104.084 Y83.408 E0.00181
G1 X104.084 Y87.205 E0.09564
G1 X104.235 Y87.356 F10800.000
G1 F1200.000
G1 X111.683 Y87.356 E0.18760
G1 X111.734 Y87.356 E0.00180
G1 X111.734 Y87.306 E0.00180
G1 X111.734 Y87.255 E0.00162
G1 X111.734 Y87.205 E0.00145
G1 X111.734 Y83.408 E0.09565
G1 X111.733 Y83.358 E0.00177
G1 X111.734 Y83.358 F10800.000
G1 F1200.000
G1 X111.783 Y83.357 E0.00177
G1 X111.885 Y83.357 E0.00256
G1 X117.241 Y83.354 E0.14337
G1 X118.110 Y83.401 E0.02646
G1 X118.442 Y83.667 F10800.000
G1 F1200.000
G1 X117.354 Y83.193 E0.02606
G1 X119.373 Y85.080 F10800.000
G1 F1200.000
G1 X119.383 Y87.204 E0.05270
G1 X119.383 Y87.255 E0.00145
G1 X119.383 Y87.306 E0.00163
G1 X119.383 Y87.357 E0.00181
G1 X119.333 Y87.357 E0.00176
G1 X111.885 Y87.356 E0.18760
G1 X111.835 Y87.356 E0.00145
G1 X111.784 Y87.356 E0.00162
G1 X111.734 Y87.356 E0.00180
G1 X111.734 Y87.407 E0.00180
G1 X111.734 Y91.205 E0.09567
G1 X111.734 Y91.255 E0.00145
G1 X111.734 Y91.306 E0.00162
G1 X111.734 Y91.356 E0.00180
G1 X111.683 Y91.356 E0.00180
G1 X104.235 Y91.356 E0.18760
G1 E-0.80000 F2100.00000
G1 Z0.800 F10800.000
G1 X104.083 Y99.356
G1 Z0.200
G1 E0.80000 F2100.00000
G1 F1200.000
G1 X104.135 Y99.357 E0.00183
