; generated by PrusaSlicer 2.2.0+win64 on 2020-11-18 at 22:41:30 UTC

; 

; external perimeters extrusion width = 0.60mm
; perimeters extrusion width = 0.43mm
; infill extrusion width = 0.45mm
; solid infill extrusion width = 0.70mm
; top infill extrusion width = 0.43mm
; first layer extrusion width = 0.42mm

M73 P0 R4
M201 X9000 Y9000 Z500 E10000 ; sets maximum accelerations, mm/sec^2
M203 X500 Y500 Z12 E120 ; sets maximum feedrates, mm/sec
M204 P2000 R1500 T2000 ; sets acceleration (P, T) and retract acceleration (R), mm/sec^2
M205 X10.00 Y10.00 Z0.20 E2.50 ; sets the jerk limits, mm/sec
M205 S0 T0 ; sets the minimum extruding and travel feed rate, mm/sec
M107
M862.3 P "MK2S" ; printer model check
M862.1 P0.4 ; nozzle diameter check
M115 U3.2.3 ; tell printer latest fw version
G90 ; use absolute coordinates
M83 ; extruder relative mode
M204 S2000 T1500 ; MK2 firmware only supports the old M204 format
M104 S215 ; set extruder temp
M140 S60 ; set bed temp
M190 S60 ; wait for bed temp
M109 S215 ; wait for extruder temp
G28 W ; home all without mesh bed level
G80 ; mesh bed leveling
G1 Y-3.0 F1000.0 ; go outside print area
G92 E0.0
G1 X60.0 E9.0  F1000.0 ; intro line
M73 P1 R4
G1 X100.0 E12.5 F1000.0 ; intro line
G92 E0.0
G21 ; set units to millimeters
G90 ; use absolute coordinates
M83 ; use relative distances for extrusion
M900 K0.05 ; Filament gcode LA 1.5
M900 K30 ; Filament gcode LA 1.0
;BEFORE_LAYER_CHANGE
G92 E0.0
;0.2


G1 E-0.80000 F2100.00000
G1 Z0.600 F10800.000
;AFTER_LAYER_CHANGE
;0.2
G1 X106.931 Y104.416
G1 Z0.200
G1 E0.80000 F2100.00000
M204 S1000
G1 F1200.000
G1 X127.276 Y86.955 E0.84063
G1 X128.241 Y86.287 E0.03681
G1 X129.236 Y85.731 E0.03573
G1 X130.574 Y85.158 E0.04562
G1 X131.655 Y84.823 E0.03549
G1 X132.861 Y84.575 E0.03860
G1 X134.082 Y84.451 E0.03848
G1 X135.213 Y84.447 E0.03549
G1 X136.560 Y84.575 E0.04241
G1 X137.880 Y84.854 E0.04229
G1 X138.959 Y85.196 E0.03549
G1 X139.993 Y85.637 E0.03525
G1 X141.176 Y86.284 E0.04229
G1 X142.282 Y87.063 E0.04241
G1 X143.136 Y87.801 E0.03537
G1 X143.915 Y88.616 E0.03537
G1 X144.745 Y89.675 E0.04217
G1 X145.450 Y90.820 E0.04217
G1 X145.946 Y91.838 E0.03549
G1 X146.341 Y92.895 E0.03537
G1 X146.688 Y94.202 E0.04241
G1 X146.884 Y95.536 E0.04229
G1 X146.938 Y96.663 E0.03537
G1 X146.884 Y97.786 E0.03525
G1 X146.688 Y99.121 E0.04229
G1 X146.344 Y100.421 E0.04217
G1 X145.948 Y101.481 E0.03549
G1 X145.454 Y102.496 E0.03537
G1 X144.765 Y103.620 E0.04133
G1 X143.982 Y104.633 E0.04015
G1 X143.061 Y105.591 E0.04169
G1 X122.858 Y122.938 E0.83491
G1 X121.657 Y123.774 E0.04586
G1 X120.673 Y124.316 E0.03525
G1 X119.637 Y124.764 E0.03537
G1 X118.353 Y125.175 E0.04229
G1 X117.030 Y125.439 E0.04229
G1 X115.907 Y125.550 E0.03537
G1 X114.771 Y125.553 E0.03561
G1 X113.436 Y125.424 E0.04205
G1 X112.109 Y125.142 E0.04256
G1 X111.041 Y124.804 E0.03511
G1 X109.996 Y124.359 E0.03561
G1 X108.750 Y123.668 E0.04467
G1 X107.798 Y123.002 E0.03645
G1 X106.859 Y122.194 E0.03883
G1 X106.011 Y121.302 E0.03860
G1 X105.249 Y120.316 E0.03907
G1 X104.598 Y119.271 E0.03860
G1 X104.052 Y118.159 E0.03883
G1 X103.622 Y116.997 E0.03884
G1 X103.311 Y115.794 E0.03895
G1 X103.125 Y114.574 E0.03872
G1 X103.062 Y113.337 E0.03883
G1 X103.125 Y112.100 E0.03884
G1 X103.312 Y110.879 E0.03872
G1 X103.622 Y109.680 E0.03883
G1 X104.052 Y108.519 E0.03884
G1 X104.597 Y107.407 E0.03883
G1 X105.235 Y106.380 E0.03788
G1 X106.015 Y105.370 E0.04003
G1 X106.889 Y104.459 E0.03957
G1 X109.046 Y106.770 F10800.000
G1 F1200.000
G1 X109.742 Y106.172 E0.02878
G1 X110.496 Y105.648 E0.02878
G1 X111.298 Y105.202 E0.02878
G1 X112.142 Y104.840 E0.02878
G1 X113.018 Y104.566 E0.02878
G1 X113.917 Y104.381 E0.02878
G1 X114.830 Y104.288 E0.02878
G1 X115.748 Y104.288 E0.02878
G1 X116.661 Y104.381 E0.02878
G1 X117.561 Y104.566 E0.02878
G1 X118.436 Y104.840 E0.02878
G1 X119.280 Y105.202 E0.02878
G1 X120.083 Y105.648 E0.02878
G1 X120.836 Y106.172 E0.02878
G1 X121.533 Y106.770 E0.02878
G1 X122.165 Y107.436 E0.02878
G1 X122.727 Y108.162 E0.02878
G1 X123.212 Y108.941 E0.02878
G1 X123.617 Y109.765 E0.02878
G1 X123.936 Y110.625 E0.02878
G1 X124.166 Y111.514 E0.02878
G1 X124.305 Y112.422 E0.02878
G1 X124.351 Y113.338 E0.02878
G1 X124.305 Y114.255 E0.02878
G1 X124.166 Y115.162 E0.02878
G1 X123.936 Y116.051 E0.02878
G1 X123.617 Y116.912 E0.02878
G1 X123.212 Y117.736 E0.02878
G1 X122.727 Y118.515 E0.02878
G1 X122.165 Y119.241 E0.02878
G1 X121.533 Y119.906 E0.02878
G1 X120.836 Y120.504 E0.02878
G1 X120.083 Y121.029 E0.02878
G1 X119.280 Y121.474 E0.02878
G1 X118.436 Y121.836 E0.02878
G1 X117.561 Y122.111 E0.02878
G1 X116.661 Y122.296 E0.02878
G1 X115.748 Y122.389 E0.02878
G1 X114.830 Y122.389 E0.02878
G1 X113.917 Y122.296 E0.02878
G1 X113.018 Y122.111 E0.02878
G1 X112.142 Y121.836 E0.02878
G1 X111.298 Y121.474 E0.02878
G1 X110.496 Y121.029 E0.02878
G1 X109.742 Y120.504 E0.02878
G1 X109.046 Y119.906 E0.02878
G1 X108.413 Y119.241 E0.02878
G1 X107.852 Y118.515 E0.02878
G1 X107.366 Y117.736 E0.02878
G1 X106.962 Y116.912 E0.02878
G1 X106.643 Y116.051 E0.02878
G1 X106.413 Y115.162 E0.02878
G1 X106.274 Y114.255 E0.02878
G1 X106.227 Y113.338 E0.02878
G1 X106.274 Y112.422 E0.02878
G1 X106.413 Y111.514 E0.02878
G1 X106.643 Y110.625 E0.02878
G1 X106.962 Y109.765 E0.02878
G1 X107.366 Y108.941 E0.02878
G1 X107.852 Y108.162 E0.02878
G1 X108.413 Y107.436 E0.02878
G1 X109.005 Y106.814 E0.02690
G1 X108.731 Y106.554 F10800.000
G1 F1200.000
G1 X109.511 Y105.874 E0.03245
G1 X110.296 Y105.328 E0.02998
G1 X111.132 Y104.864 E0.02998
G1 X112.011 Y104.486 E0.02998
G1 X112.923 Y104.200 E0.02998
G1 X113.860 Y104.008 E0.02998
G1 X114.811 Y103.911 E0.02998
G1 X115.767 Y103.911 E0.02998
G1 X116.719 Y104.008 E0.02998
G1 X117.655 Y104.200 E0.02998
G1 X118.568 Y104.486 E0.02998
G1 X119.446 Y104.864 E0.02998
G1 X120.282 Y105.328 E0.02998
G1 X121.067 Y105.874 E0.02998
G1 X121.793 Y106.497 E0.02998
G1 X122.452 Y107.190 E0.02998
G1 X123.037 Y107.946 E0.02998
G1 X123.543 Y108.757 E0.02998
G1 X123.964 Y109.616 E0.02998
G1 X124.296 Y110.512 E0.02998
G1 X124.535 Y111.438 E0.02998
G1 X124.680 Y112.383 E0.02998
G1 X124.729 Y113.338 E0.02998
G1 X124.680 Y114.293 E0.02998
G1 X124.535 Y115.238 E0.02998
G1 X124.296 Y116.164 E0.02998
G1 X123.964 Y117.061 E0.02998
G1 X123.543 Y117.919 E0.02998
G1 X123.037 Y118.731 E0.02998
G1 X122.452 Y119.487 E0.02998
G1 X121.793 Y120.180 E0.02998
G1 X121.067 Y120.803 E0.02998
G1 X120.282 Y121.349 E0.02998
G1 X119.446 Y121.813 E0.02998
G1 X118.568 Y122.190 E0.02998
G1 X117.655 Y122.476 E0.02998
G1 X116.719 Y122.669 E0.02998
G1 X115.767 Y122.766 E0.02998
G1 X114.811 Y122.766 E0.02998
G1 X113.860 Y122.669 E0.02998
G1 X112.923 Y122.476 E0.02998
G1 X112.011 Y122.190 E0.02998
G1 X111.132 Y121.813 E0.02998
G1 X110.296 Y121.349 E0.02998
G1 X109.511 Y120.803 E0.02998
G1 X108.786 Y120.180 E0.02998
G1 X108.127 Y119.487 E0.02998
G1 X107.542 Y118.731 E0.02998
G1 X107.036 Y117.919 E0.02998
G1 X106.615 Y117.061 E0.02998
G1 X106.283 Y116.164 E0.02998
G1 X106.043 Y115.238 E0.02998
G1 X105.898 Y114.293 E0.02998
G1 X105.850 Y113.338 E0.02998
G1 X105.898 Y112.383 E0.02998
G1 X106.043 Y111.438 E0.02998
G1 X106.283 Y110.512 E0.02998
G1 X106.615 Y109.616 E0.02998
G1 X107.036 Y108.757 E0.02998
G1 X107.542 Y107.946 E0.02998
G1 X108.127 Y107.190 E0.02998
G1 X108.690 Y106.597 E0.02562
G1 X109.116 Y106.665 F10800.000
G1 E-0.80000 F2100.00000
G1 Z0.800 F10800.000
G1 X122.715 Y108.355
G1 Z0.200
G1 E0.80000 F2100.00000
G1 F1200.000
G1 X121.317 Y106.958 E0.06270
G1 X120.663 Y106.396 E0.02734
G1 X119.933 Y105.888 E0.02821
G1 X119.427 Y105.608 E0.01835
G1 X123.030 Y109.210 E0.16161
G1 X123.357 Y109.876 E0.02353
G1 X123.474 Y110.194 E0.01075
G1 X118.422 Y105.142 E0.22663
G1 X117.622 Y104.881 E0.02670
G1 X123.740 Y111.000 E0.27446
G1 X123.909 Y111.708 E0.02310
G1 X116.925 Y104.724 E0.31331
G1 X116.619 Y104.661 E0.00992
G1 X116.289 Y104.627 E0.01051
G1 X124.007 Y112.345 E0.34622
G1 X124.047 Y112.925 E0.01843
G1 X115.693 Y104.571 E0.37475
G1 X115.153 Y104.571 E0.01711
G1 X124.061 Y113.478 E0.39957
G1 X124.035 Y113.992 E0.01631
G1 X114.635 Y104.592 E0.42165
G1 X114.146 Y104.642 E0.01561
G1 X123.984 Y114.480 E0.44134
G1 X123.912 Y114.948 E0.01501
G1 X113.682 Y104.718 E0.45892
G1 X113.235 Y104.810 E0.01449
G1 X123.815 Y115.390 E0.47461
G1 X123.704 Y115.818 E0.01404
G1 X112.812 Y104.927 E0.48859
G1 X112.401 Y105.056 E0.01365
G1 X123.570 Y116.224 E0.50101
G1 X123.424 Y116.618 E0.01332
G1 X112.011 Y105.205 E0.51198
G1 X111.633 Y105.367 E0.01303
G1 X123.261 Y116.994 E0.52161
G1 X123.084 Y117.356 E0.01279
G1 X111.269 Y105.542 E0.52997
G1 X110.922 Y105.735 E0.01259
G1 X122.896 Y117.709 E0.53713
G1 X122.689 Y118.041 E0.01242
G1 X110.581 Y105.933 E0.54314
G1 X110.263 Y106.154 E0.01229
G1 X122.480 Y118.372 E0.54804
G1 X122.245 Y118.676 E0.01220
G1 X109.945 Y106.376 E0.55175
G1 X109.652 Y106.622 E0.01214
G1 X122.010 Y118.980 E0.55433
G1 X121.754 Y119.263 E0.01212
G1 X109.362 Y106.872 E0.55587
G1 X109.088 Y107.137 E0.01210
G1 X121.491 Y119.540 E0.55638
G1 X121.216 Y119.805 E0.01210
G1 X108.825 Y107.413 E0.55587
G1 X108.569 Y107.697 E0.01212
G1 X120.926 Y120.054 E0.55433
G1 X120.633 Y120.301 E0.01214
G1 X108.333 Y108.001 E0.55175
G1 X108.098 Y108.305 E0.01220
G1 X120.315 Y120.522 E0.54804
G1 X119.997 Y120.744 E0.01229
G1 X107.889 Y108.636 E0.54314
G1 X107.682 Y108.968 E0.01242
G1 X119.656 Y120.942 E0.53713
G1 X119.309 Y121.135 E0.01259
G1 X107.495 Y109.320 E0.52997
G1 X107.317 Y109.682 E0.01279
G1 X118.945 Y121.310 E0.52161
G1 X118.568 Y121.472 E0.01303
G1 X107.154 Y110.059 E0.51198
G1 X107.009 Y110.453 E0.01332
G1 X118.177 Y121.621 E0.50101
G1 X117.766 Y121.750 E0.01365
G1 X106.875 Y110.858 E0.48859
G1 X106.764 Y111.287 E0.01404
G1 X117.344 Y121.867 E0.47460
G1 X116.896 Y121.959 E0.01449
G1 X106.666 Y111.729 E0.45891
G1 X106.594 Y112.196 E0.01501
G1 X116.433 Y122.035 E0.44133
G1 X115.943 Y122.084 E0.01561
G1 X106.544 Y112.685 E0.42165
G1 X106.518 Y113.198 E0.01631
G1 X115.425 Y122.106 E0.39957
G1 X114.885 Y122.106 E0.01711
G1 X106.531 Y113.752 E0.37474
G1 X106.572 Y114.331 E0.01843
G1 X114.289 Y122.049 E0.34621
G1 X113.960 Y122.016 E0.01051
G1 X113.654 Y121.953 E0.00992
G1 X106.669 Y114.969 E0.31330
G1 X106.838 Y115.677 E0.02310
G1 X112.956 Y121.795 E0.27446
G1 X112.156 Y121.534 E0.02670
G1 X107.104 Y116.483 E0.22662
G1 X107.222 Y116.800 E0.01074
G1 X107.549 Y117.467 E0.02354
G1 X111.151 Y121.069 E0.16159
G1 X110.646 Y120.788 E0.01834
G1 X109.916 Y120.280 E0.02821
G1 X109.261 Y119.718 E0.02738
G1 X107.864 Y118.321 E0.06266
G1 E-0.80000 F2100.00000
G1 Z0.800 F10800.000
G1 X127.835 Y102.564
G1 Z0.200
G1 E0.80000 F2100.00000
G1 F1200.000
G1 X127.273 Y101.838 E0.02878
G1 X126.788 Y101.059 E0.02878
G1 X126.383 Y100.235 E0.02878
G1 X126.064 Y99.375 E0.02878
G1 X125.834 Y98.486 E0.02878
G1 X125.695 Y97.578 E0.02878
G1 X125.649 Y96.662 E0.02878
G1 X125.695 Y95.745 E0.02878
G1 X125.834 Y94.838 E0.02878
G1 X126.064 Y93.949 E0.02878
G1 X126.383 Y93.088 E0.02878
G1 X126.788 Y92.264 E0.02878
G1 X127.273 Y91.485 E0.02878
G1 X127.835 Y90.759 E0.02878
G1 X128.467 Y90.094 E0.02878
G1 X129.164 Y89.496 E0.02878
G1 X129.917 Y88.971 E0.02878
G1 X130.720 Y88.526 E0.02878
G1 X131.564 Y88.164 E0.02878
G1 X132.439 Y87.889 E0.02878
G1 X133.339 Y87.704 E0.02878
G1 X134.252 Y87.611 E0.02878
G1 X135.170 Y87.611 E0.02878
G1 X136.083 Y87.704 E0.02878
G1 X136.982 Y87.889 E0.02878
G1 X137.858 Y88.164 E0.02878
G1 X138.702 Y88.526 E0.02878
G1 X139.504 Y88.971 E0.02878
G1 X140.258 Y89.496 E0.02878
G1 X140.954 Y90.094 E0.02878
G1 X141.587 Y90.759 E0.02878
G1 X142.148 Y91.485 E0.02878
G1 X142.634 Y92.264 E0.02878
G1 X143.038 Y93.088 E0.02878
G1 X143.357 Y93.949 E0.02878
G1 X143.587 Y94.838 E0.02878
G1 X143.726 Y95.745 E0.02878
G1 X143.773 Y96.662 E0.02878
G1 X143.726 Y97.578 E0.02878
G1 X143.587 Y98.486 E0.02878
G1 X143.357 Y99.375 E0.02878
G1 X143.038 Y100.235 E0.02878
G1 X142.634 Y101.059 E0.02878
G1 X142.148 Y101.838 E0.02878
G1 X141.587 Y102.564 E0.02878
G1 X140.954 Y103.230 E0.02878
G1 X140.258 Y103.828 E0.02878
G1 X139.504 Y104.352 E0.02878
G1 X138.702 Y104.798 E0.02878
G1 X137.858 Y105.160 E0.02878
G1 X136.982 Y105.434 E0.02878
G1 X136.083 Y105.619 E0.02878
G1 X135.170 Y105.712 E0.02878
G1 X134.252 Y105.712 E0.02878
G1 X133.339 Y105.619 E0.02878
G1 X132.439 Y105.434 E0.02878
G1 X131.564 Y105.160 E0.02878
G1 X130.720 Y104.798 E0.02878
G1 X129.917 Y104.352 E0.02878
G1 X129.164 Y103.828 E0.02878
G1 X128.467 Y103.230 E0.02878
G1 X127.876 Y102.608 E0.02690
G1 X127.603 Y102.868 F10800.000
G1 F1200.000
G1 X126.963 Y102.054 E0.03245
G1 X126.457 Y101.243 E0.02998
G1 X126.036 Y100.384 E0.02998
G1 X125.704 Y99.488 E0.02998
G1 X125.465 Y98.562 E0.02998
G1 X125.320 Y97.617 E0.02998
G1 X125.271 Y96.662 E0.02998
G1 X125.320 Y95.707 E0.02998
G1 X125.465 Y94.762 E0.02998
G1 X125.704 Y93.836 E0.02998
G1 X126.036 Y92.939 E0.02998
G1 X126.457 Y92.081 E0.02998
G1 X126.963 Y91.269 E0.02998
G1 X127.548 Y90.513 E0.02998
G1 X128.207 Y89.820 E0.02998
G1 X128.933 Y89.197 E0.02998
G1 X129.718 Y88.651 E0.02998
G1 X130.554 Y88.187 E0.02998
G1 X131.432 Y87.810 E0.02998
G1 X132.345 Y87.524 E0.02998
G1 X133.281 Y87.331 E0.02998
G1 X134.233 Y87.234 E0.02998
G1 X135.189 Y87.234 E0.02998
G1 X136.140 Y87.331 E0.02998
G1 X137.077 Y87.524 E0.02998
G1 X137.989 Y87.810 E0.02998
G1 X138.868 Y88.187 E0.02998
G1 X139.704 Y88.651 E0.02998
G1 X140.489 Y89.197 E0.02998
G1 X141.214 Y89.820 E0.02998
G1 X141.873 Y90.513 E0.02998
G1 X142.458 Y91.269 E0.02998
G1 X142.964 Y92.081 E0.02998
G1 X143.385 Y92.939 E0.02998
G1 X143.717 Y93.836 E0.02998
G1 X143.957 Y94.762 E0.02998
G1 X144.102 Y95.707 E0.02998
G1 X144.150 Y96.662 E0.02998
G1 X144.102 Y97.617 E0.02998
G1 X143.957 Y98.562 E0.02998
G1 X143.717 Y99.488 E0.02998
G1 X143.385 Y100.384 E0.02998
G1 X142.964 Y101.243 E0.02998
G1 X142.458 Y102.054 E0.02998
G1 X141.873 Y102.810 E0.02998
G1 X141.214 Y103.503 E0.02998
G1 X140.489 Y104.126 E0.02998
G1 X139.704 Y104.672 E0.02998
G1 X138.868 Y105.137 E0.02998
G1 X137.989 Y105.514 E0.02998
G1 X137.077 Y105.800 E0.02998
G1 X136.140 Y105.992 E0.02998
G1 X135.189 Y106.089 E0.02998
G1 X134.233 Y106.089 E0.02998
G1 X133.281 Y105.992 E0.02998
G1 X132.345 Y105.800 E0.02998
G1 X131.432 Y105.514 E0.02998
G1 X130.554 Y105.137 E0.02998
G1 X129.718 Y104.672 E0.02998
G1 X128.933 Y104.126 E0.02998
G1 X128.207 Y103.503 E0.02998
G1 X127.644 Y102.911 E0.02562
G1 X127.733 Y102.490 F10800.000
G1 E-0.80000 F2100.00000
G1 Z0.800 F10800.000
G1 X142.136 Y91.679
G1 Z0.200
G1 E0.80000 F2100.00000
G1 F1200.000
G1 X140.738 Y90.281 E0.06270
G1 X140.084 Y89.720 E0.02734
G1 X139.354 Y89.212 E0.02821
G1 X138.849 Y88.931 E0.01835
G1 X142.451 Y92.534 E0.16161
G1 X142.778 Y93.200 E0.02353
G1 X142.896 Y93.518 E0.01075
G1 X137.844 Y88.465 E0.22663
G1 X137.043 Y88.205 E0.02670
G1 X143.162 Y94.323 E0.27446
G1 X143.331 Y95.032 E0.02310
G1 X136.346 Y88.047 E0.31331
G1 X136.040 Y87.984 E0.00992
G1 X135.710 Y87.951 E0.01051
G1 X143.428 Y95.669 E0.34622
G1 X143.469 Y96.248 E0.01843
G1 X135.114 Y87.894 E0.37475
G1 X134.575 Y87.894 E0.01711
G1 X143.482 Y96.802 E0.39957
M73 P27 R3
G1 X143.456 Y97.315 E0.01631
G1 X134.057 Y87.916 E0.42165
G1 X133.567 Y87.965 E0.01561
G1 X143.406 Y97.804 E0.44134
G1 X143.334 Y98.272 E0.01501
G1 X133.104 Y88.041 E0.45892
G1 X132.656 Y88.133 E0.01449
G1 X143.236 Y98.713 E0.47461
G1 X143.125 Y99.142 E0.01404
G1 X132.233 Y88.250 E0.48859
G1 X131.823 Y88.379 E0.01365
G1 X142.991 Y99.548 E0.50101
G1 X142.846 Y99.941 E0.01332
G1 X131.432 Y88.528 E0.51198
G1 X131.055 Y88.690 E0.01303
G1 X142.683 Y100.318 E0.52161
G1 X142.505 Y100.680 E0.01279
G1 X130.691 Y88.865 E0.52997
G1 X130.344 Y89.058 E0.01259
G1 X142.318 Y101.032 E0.53713
G1 X142.111 Y101.364 E0.01242
G1 X130.003 Y89.256 E0.54314
G1 X129.685 Y89.478 E0.01229
G1 X141.902 Y101.695 E0.54804
G1 X141.667 Y101.999 E0.01220
G1 X129.367 Y89.699 E0.55175
G1 X129.074 Y89.946 E0.01214
G1 X141.431 Y102.303 E0.55433
G1 X141.175 Y102.587 E0.01212
G1 X128.784 Y90.195 E0.55587
G1 X128.509 Y90.460 E0.01210
G1 X140.912 Y102.863 E0.55638
G1 X140.638 Y103.128 E0.01210
G1 X128.246 Y90.737 E0.55587
G1 X127.990 Y91.020 E0.01212
G1 X140.348 Y103.378 E0.55433
