; generated by PrusaSlicer 2.2.0+win64 on 2020-11-18 at 22:37:42 UTC

; 

; external perimeters extrusion width = 0.60mm
; perimeters extrusion width = 0.43mm
; infill extrusion width = 0.45mm
; solid infill extrusion width = 0.70mm
; top infill extrusion width = 0.43mm
; first layer extrusion width = 0.42mm

M73 P0 R6
M201 X9000 Y9000 Z500 E10000 ; sets maximum accelerations, mm/sec^2
M203 X500 Y500 Z12 E120 ; sets maximum feedrates, mm/sec
M204 P2000 R1500 T2000 ; sets acceleration (P, T) and retract acceleration (R), mm/sec^2
M205 X10.00 Y10.00 Z0.20 E2.50 ; sets the jerk limits, mm/sec
M205 S0 T0 ; sets the minimum extruding and travel feed rate, mm/sec
M107
M862.3 P "MK2S" ; printer model check
M862.1 P0.4 ; nozzle diameter check
M115 U3.2.3 ; tell printer latest fw version
G90 ; use absolute coordinates
M83 ; extruder relative mode
M204 S2000 T1500 ; MK2 firmware only supports the old M204 format
M104 S215 ; set extruder temp
M140 S60 ; set bed temp
M190 S60 ; wait for bed temp
M109 S215 ; wait for extruder temp
G28 W ; home all without mesh bed level
G80 ; mesh bed leveling
G1 Y-3.0 F1000.0 ; go outside print area
G92 E0.0
G1 X60.0 E9.0  F1000.0 ; intro line
M73 P1 R6
G1 X100.0 E12.5 F1000.0 ; intro line
G92 E0.0
G21 ; set units to millimeters
G90 ; use absolute coordinates
M83 ; use relative distances for extrusion
M900 K0.05 ; Filament gcode LA 1.5
M900 K30 ; Filament gcode LA 1.0
;BEFORE_LAYER_CHANGE
G92 E0.0
;0.2


G1 E-0.80000 F2100.00000
G1 Z0.600 F10800.000
;AFTER_LAYER_CHANGE
;0.2
G1 X89.732 Y77.979
G1 Z0.200
G1 E0.80000 F2100.00000
M204 S1000
G1 F1200.000
G1 X90.063 Y77.343 E0.02249
G1 X90.438 Y76.939 E0.01728
G1 X90.892 Y76.634 E0.01716
G1 X91.404 Y76.441 E0.01716
G1 X91.947 Y76.370 E0.01716
G1 X158.023 Y76.369 E2.07176
G1 X158.746 Y76.483 E0.02296
G1 X159.400 Y76.812 E0.02296
G1 X159.923 Y77.324 E0.02296
G1 X160.266 Y77.971 E0.02296
G1 X160.396 Y78.749 E0.02473
G1 X160.334 Y82.326 E0.11215
G1 X160.260 Y82.841 E0.01633
G1 X145.347 Y126.166 E1.43664
G1 X145.020 Y126.791 E0.02213
G1 X144.411 Y127.372 E0.02637
G1 X143.638 Y127.704 E0.02637
G1 X118.874 Y132.879 E0.79324
G1 X118.382 Y132.926 E0.01550
G1 X117.891 Y132.871 E0.01550
G1 X117.425 Y132.716 E0.01538
G1 X116.998 Y132.467 E0.01550
G1 X116.617 Y132.118 E0.01621
G1 X116.320 Y131.695 E0.01621
G1 X89.906 Y83.290 E1.72895
G1 X89.670 Y82.402 E0.02884
G1 X89.605 Y78.685 E0.11656
G1 X89.721 Y78.038 E0.02060
G1 E-0.80000 F2100.00000
G1 Z0.800 F10800.000
G1 X120.347 Y112.643
G1 Z0.200
G1 E0.80000 F2100.00000
G1 F1200.000
G1 X132.121 Y112.643 E0.36915
G1 X132.337 Y113.127 E0.01663
G1 X132.873 Y114.066 E0.03390
G1 X133.500 Y114.946 E0.03390
G1 X134.213 Y115.759 E0.03390
G1 X135.003 Y116.497 E0.03390
G1 X135.865 Y117.153 E0.03395
G1 X136.841 Y117.744 E0.03577
G1 X137.759 Y118.187 E0.03196
G1 X138.774 Y118.557 E0.03390
G1 X139.822 Y118.824 E0.03390
G1 X140.891 Y118.984 E0.03390
G1 X141.292 Y119.004 E0.01260
G1 X142.206 Y124.771 E0.18309
G1 X121.139 Y129.174 E0.67482
G1 X120.137 Y129.414 E0.03231
G1 X119.965 Y129.476 E0.00571
G1 X120.153 Y129.214 E0.01009
G1 X120.397 Y128.799 E0.01511
G1 X120.930 Y127.597 E0.04124
G1 X121.351 Y126.358 E0.04101
G1 X121.660 Y125.087 E0.04101
G1 X121.855 Y123.794 E0.04101
G1 X121.934 Y122.489 E0.04101
G1 X121.896 Y121.181 E0.04101
G1 X121.743 Y119.883 E0.04100
G1 X121.474 Y118.603 E0.04101
G1 X121.093 Y117.352 E0.04101
G1 X120.602 Y116.140 E0.04101
G1 X120.005 Y114.976 E0.04101
G1 X119.559 Y114.270 E0.02619
G1 X120.321 Y112.697 E0.05480
G1 X120.111 Y112.266 F10800.000
G1 F1200.000
G1 X132.366 Y112.266 E0.38424
G1 X132.673 Y112.957 E0.02371
G1 X133.191 Y113.863 E0.03271
G1 X133.796 Y114.712 E0.03271
G1 X134.484 Y115.497 E0.03271
G1 X135.247 Y116.208 E0.03271
G1 X136.077 Y116.840 E0.03273
G1 X137.021 Y117.412 E0.03459
G1 X137.906 Y117.839 E0.03081
G1 X138.886 Y118.196 E0.03271
G1 X139.897 Y118.454 E0.03271
G1 X140.928 Y118.608 E0.03271
G1 X141.617 Y118.642 E0.02161
G1 X142.635 Y125.067 E0.20396
G1 X121.221 Y129.542 E0.68591
G1 X120.244 Y129.776 E0.03149
G1 X119.757 Y129.951 E0.01623
G1 X119.307 Y130.146 E0.01538
G1 X118.867 Y130.238 E0.01411
G1 X119.034 Y129.991 E0.00937
G1 X119.282 Y129.679 E0.01248
G1 X119.580 Y129.365 E0.01358
G1 X119.837 Y129.008 E0.01378
G1 X120.061 Y128.626 E0.01389
G1 X120.579 Y127.459 E0.04003
G1 X120.989 Y126.253 E0.03995
G1 X121.290 Y125.015 E0.03995
G1 X121.479 Y123.755 E0.03995
G1 X121.556 Y122.483 E0.03995
G1 X121.520 Y121.209 E0.03995
G1 X121.370 Y119.944 E0.03995
G1 X121.109 Y118.697 E0.03995
G1 X120.737 Y117.478 E0.03995
G1 X120.259 Y116.297 E0.03995
G1 X119.677 Y115.163 E0.03995
G1 X119.128 Y114.294 E0.03223
G1 X120.085 Y112.320 E0.06878
G1 X120.447 Y112.483 F10800.000
G1 E-0.80000 F2100.00000
G1 Z0.800 F10800.000
G1 X132.852 Y114.232
G1 Z0.200
G1 E0.80000 F2100.00000
G1 F1200.000
G1 X131.546 Y112.926 E0.05842
G1 X131.008 Y112.926 E0.01702
G1 X141.744 Y123.662 E0.48027
G1 X141.643 Y123.022 E0.02047
G1 X136.470 Y117.850 E0.23140
G1 X136.706 Y117.992 E0.00873
G1 X137.566 Y118.408 E0.03022
G1 X141.541 Y122.383 E0.17783
G1 X141.440 Y121.744 E0.02047
G1 X138.428 Y118.732 E0.13474
G1 X138.691 Y118.828 E0.00885
G1 X139.189 Y118.954 E0.01624
G1 X141.339 Y121.105 E0.09620
G1 X141.238 Y120.465 E0.02047
G1 X139.893 Y119.120 E0.06018
G1 X140.525 Y119.215 E0.02025
G1 X141.341 Y120.030 E0.03646
G1 X142.049 Y124.505 F10800.000
G1 F1200.000
G1 X130.470 Y112.926 E0.51800
G1 X129.932 Y112.926 E0.01702
G1 X141.613 Y124.606 E0.52253
G1 X141.168 Y124.699 E0.01438
G1 X129.394 Y112.926 E0.52669
G1 X128.856 Y112.926 E0.01702
G1 X140.723 Y124.792 E0.53085
G1 X140.278 Y124.885 E0.01438
G1 X128.318 Y112.926 E0.53501
G1 X127.780 Y112.926 E0.01702
G1 X139.833 Y124.978 E0.53917
G1 X139.388 Y125.071 E0.01438
G1 X127.242 Y112.926 E0.54333
G1 X126.704 Y112.926 E0.01702
G1 X138.943 Y125.164 E0.54749
G1 X138.498 Y125.257 E0.01438
G1 X126.166 Y112.926 E0.55165
G1 X125.628 Y112.926 E0.01702
G1 X138.053 Y125.350 E0.55581
G1 X137.608 Y125.443 E0.01438
G1 X125.090 Y112.926 E0.55997
G1 X124.552 Y112.926 E0.01702
G1 X137.163 Y125.536 E0.56413
G1 X136.718 Y125.629 E0.01438
G1 X124.014 Y112.926 E0.56829
G1 X123.476 Y112.926 E0.01702
G1 X136.273 Y125.722 E0.57245
G1 X135.828 Y125.815 E0.01438
G1 X122.938 Y112.926 E0.57661
G1 X122.400 Y112.926 E0.01702
G1 X135.383 Y125.908 E0.58077
G1 X134.938 Y126.001 E0.01438
G1 X121.862 Y112.926 E0.58493
G1 X121.324 Y112.926 E0.01702
G1 X134.493 Y126.094 E0.58909
G1 X134.048 Y126.187 E0.01438
G1 X120.786 Y112.926 E0.59325
G1 X120.525 Y112.926 E0.00827
G1 X120.434 Y113.112 E0.00655
G1 X133.603 Y126.280 E0.58908
G1 X133.158 Y126.373 E0.01438
G1 X120.259 Y113.474 E0.57703
G1 X120.083 Y113.837 E0.01274
G1 X132.713 Y126.466 E0.56498
G1 X132.268 Y126.559 E0.01438
G1 X119.907 Y114.199 E0.55293
G1 X119.882 Y114.252 E0.00185
G1 X120.251 Y114.836 E0.02185
G1 X120.508 Y115.338 E0.01785
G1 X131.823 Y126.652 E0.50615
G1 X131.378 Y126.745 E0.01438
G1 X120.999 Y116.366 E0.46430
G1 X121.363 Y117.269 E0.03079
G1 X130.933 Y126.838 E0.42808
G1 X130.488 Y126.931 E0.01438
G1 X121.599 Y118.043 E0.39762
G1 X121.748 Y118.532 E0.01619
G1 X121.801 Y118.782 E0.00808
G1 X130.043 Y127.024 E0.36869
G1 X129.598 Y127.117 E0.01438
G1 X121.944 Y119.463 E0.34240
G1 X122.022 Y119.837 E0.01208
G1 X122.055 Y120.112 E0.00877
G1 X129.153 Y127.210 E0.31752
G1 X128.708 Y127.303 E0.01438
G1 X122.127 Y120.722 E0.29439
G1 X122.183 Y121.317 E0.01888
G1 X128.263 Y127.396 E0.27196
G1 X127.818 Y127.489 E0.01438
G1 X122.199 Y121.871 E0.25134
G1 X122.215 Y122.425 E0.01753
G1 X127.373 Y127.582 E0.23073
G1 X126.928 Y127.675 E0.01438
G1 X122.190 Y122.938 E0.21193
G1 X122.159 Y123.445 E0.01608
G1 X126.483 Y127.768 E0.19340
G1 X126.038 Y127.861 E0.01438
G1 X122.119 Y123.942 E0.17531
G1 X122.048 Y124.410 E0.01496
G1 X125.593 Y127.954 E0.15856
G1 X125.148 Y128.047 E0.01438
G1 X121.978 Y124.877 E0.14180
G1 X121.892 Y125.330 E0.01457
G1 X124.703 Y128.140 E0.12572
G1 X124.258 Y128.233 E0.01438
G1 X121.787 Y125.763 E0.11052
G1 X121.682 Y126.195 E0.01409
G1 X123.813 Y128.326 E0.09532
G1 X123.368 Y128.419 E0.01438
G1 X121.563 Y126.614 E0.08074
G1 X121.426 Y127.016 E0.01342
G1 X122.923 Y128.512 E0.06693
G1 X122.478 Y128.605 E0.01438
G1 X121.290 Y127.417 E0.05313
G1 X121.145 Y127.810 E0.01325
G1 X122.033 Y128.698 E0.03971
G1 X121.588 Y128.791 E0.01438
G1 X120.979 Y128.183 E0.02720
G1 X120.814 Y128.556 E0.01290
G1 X121.143 Y128.884 E0.01469
G1 X120.707 Y128.987 E0.01415
G1 X120.520 Y128.800 E0.00836
G1 X119.812 Y129.586 F10800.000
G1 F1200.000
G1 X119.376 Y129.880 E0.00795
G1 E-0.80000 F2100.00000
G1 Z0.800 F10800.000
G1 X114.038 Y105.866
G1 Z0.200
G1 E0.80000 F2100.00000
G1 F1200.000
G1 X114.226 Y105.605 E0.01009
G1 X114.470 Y105.189 E0.01511
G1 X115.003 Y103.987 E0.04124
G1 X115.424 Y102.749 E0.04101
G1 X115.733 Y101.478 E0.04101
G1 X115.928 Y100.185 E0.04101
G1 X116.007 Y98.879 E0.04101
G1 X115.969 Y97.572 E0.04101
G1 X115.816 Y96.273 E0.04100
G1 X115.547 Y94.993 E0.04101
G1 X115.166 Y93.742 E0.04101
G1 X114.675 Y92.530 E0.04101
G1 X114.078 Y91.367 E0.04101
G1 X113.632 Y90.660 E0.02619
G1 X114.420 Y89.034 E0.05668
G1 X126.194 Y89.034 E0.36915
G1 X126.410 Y89.518 E0.01663
G1 X126.946 Y90.457 E0.03390
G1 X127.573 Y91.337 E0.03390
G1 X128.286 Y92.150 E0.03390
G1 X129.076 Y92.888 E0.03390
G1 X129.938 Y93.543 E0.03395
G1 X130.914 Y94.134 E0.03577
G1 X131.832 Y94.578 E0.03196
G1 X132.848 Y94.948 E0.03390
G1 X133.895 Y95.214 E0.03390
G1 X134.964 Y95.375 E0.03390
G1 X135.366 Y95.394 E0.01260
G1 X136.279 Y101.162 E0.18309
G1 X115.212 Y105.565 E0.67482
G1 X114.095 Y105.846 E0.03612
G1 X112.940 Y106.629 F10800.000
G1 F1200.000
G1 X113.107 Y106.381 E0.00937
G1 X113.355 Y106.070 E0.01248
G1 X113.653 Y105.756 E0.01358
G1 X113.910 Y105.399 E0.01378
G1 X114.134 Y105.017 E0.01389
G1 X114.652 Y103.850 E0.04003
G1 X115.062 Y102.643 E0.03995
G1 X115.363 Y101.405 E0.03995
G1 X115.553 Y100.145 E0.03995
G1 X115.629 Y98.873 E0.03995
G1 X115.593 Y97.600 E0.03995
G1 X115.443 Y96.334 E0.03995
G1 X115.182 Y95.087 E0.03995
G1 X114.810 Y93.868 E0.03995
G1 X114.332 Y92.688 E0.03995
G1 X113.750 Y91.554 E0.03995
M73 P17 R5
G1 X113.201 Y90.684 E0.03223
G1 X114.184 Y88.656 E0.07066
G1 X126.439 Y88.656 E0.38424
G1 X126.746 Y89.347 E0.02371
G1 X127.264 Y90.253 E0.03271
G1 X127.870 Y91.103 E0.03271
G1 X128.557 Y91.887 E0.03271
G1 X129.320 Y92.599 E0.03271
G1 X130.151 Y93.231 E0.03273
G1 X131.094 Y93.803 E0.03459
G1 X131.979 Y94.230 E0.03081
G1 X132.959 Y94.587 E0.03271
G1 X133.970 Y94.844 E0.03271
G1 X135.002 Y94.999 E0.03271
G1 X135.690 Y95.033 E0.02161
G1 X136.708 Y101.457 E0.20396
G1 X115.294 Y105.933 E0.68591
G1 X114.318 Y106.167 E0.03149
G1 X113.830 Y106.342 E0.01623
G1 X113.380 Y106.537 E0.01538
G1 X112.999 Y106.616 E0.01222
G1 X113.157 Y106.424 F10800.000
G1 X113.449 Y106.270
G1 F1200.000
G1 X113.885 Y105.976 E0.00795
G1 X114.593 Y105.190 F10800.000
G1 F1200.000
G1 X114.780 Y105.377 E0.00836
G1 X115.216 Y105.275 E0.01415
G1 X114.887 Y104.946 E0.01469
G1 X115.053 Y104.574 E0.01290
G1 X115.661 Y105.182 E0.02720
G1 X116.106 Y105.089 E0.01438
G1 X115.218 Y104.201 E0.03971
G1 X115.363 Y103.808 E0.01325
G1 X116.551 Y104.996 E0.05313
G1 X116.996 Y104.903 E0.01438
G1 X115.499 Y103.407 E0.06693
G1 X115.636 Y103.005 E0.01342
G1 X117.441 Y104.810 E0.08074
G1 X117.886 Y104.717 E0.01438
G1 X115.755 Y102.586 E0.09532
G1 X115.860 Y102.153 E0.01409
G1 X118.331 Y104.624 E0.11052
G1 X118.776 Y104.531 E0.01438
G1 X115.965 Y101.721 E0.12572
G1 X116.051 Y101.268 E0.01457
G1 X119.221 Y104.438 E0.14180
G1 X119.666 Y104.345 E0.01438
G1 X116.121 Y100.800 E0.15856
G1 X116.192 Y100.333 E0.01496
G1 X120.111 Y104.252 E0.17531
G1 X120.556 Y104.159 E0.01438
G1 X116.232 Y99.836 E0.19340
G1 X116.263 Y99.328 E0.01608
G1 X121.001 Y104.066 E0.21193
G1 X121.446 Y103.973 E0.01438
G1 X116.288 Y98.815 E0.23073
G1 X116.272 Y98.261 E0.01753
G1 X121.891 Y103.880 E0.25134
G1 X122.336 Y103.787 E0.01438
G1 X116.256 Y97.707 E0.27196
G1 X116.200 Y97.113 E0.01888
G1 X122.781 Y103.694 E0.29439
G1 X123.226 Y103.601 E0.01438
G1 X116.128 Y96.503 E0.31752
G1 X116.095 Y96.228 E0.00877
G1 X116.017 Y95.854 E0.01208
G1 X123.671 Y103.508 E0.34240
G1 X124.116 Y103.415 E0.01438
G1 X115.874 Y95.173 E0.36869
G1 X115.821 Y94.923 E0.00808
G1 X115.672 Y94.433 E0.01619
G1 X124.561 Y103.322 E0.39762
G1 X125.006 Y103.229 E0.01438
G1 X115.436 Y93.659 E0.42808
G1 X115.072 Y92.757 E0.03079
G1 X125.451 Y103.136 E0.46430
G1 X125.896 Y103.043 E0.01438
G1 X114.581 Y91.728 E0.50615
G1 X114.324 Y91.226 E0.01785
G1 X113.955 Y90.642 E0.02185
G1 X113.980 Y90.590 E0.00185
G1 X126.341 Y102.950 E0.55293
G1 X126.786 Y102.857 E0.01438
G1 X114.156 Y90.227 E0.56498
G1 X114.332 Y89.865 E0.01274
G1 X127.231 Y102.764 E0.57703
G1 X127.676 Y102.671 E0.01438
G1 X114.507 Y89.503 E0.58908
G1 X114.598 Y89.316 E0.00655
G1 X114.859 Y89.316 E0.00827
G1 X128.121 Y102.578 E0.59325
G1 X128.566 Y102.485 E0.01438
G1 X115.397 Y89.316 E0.58909
G1 X115.935 Y89.316 E0.01702
G1 X129.011 Y102.392 E0.58493
G1 X129.456 Y102.299 E0.01438
G1 X116.473 Y89.316 E0.58077
G1 X117.011 Y89.316 E0.01702
G1 X129.901 Y102.206 E0.57661
G1 X130.346 Y102.113 E0.01438
G1 X117.549 Y89.316 E0.57245
G1 X118.087 Y89.316 E0.01702
G1 X130.791 Y102.020 E0.56829
G1 X131.236 Y101.927 E0.01438
G1 X118.625 Y89.316 E0.56413
G1 X119.163 Y89.316 E0.01702
G1 X131.681 Y101.834 E0.55997
G1 X132.126 Y101.741 E0.01438
G1 X119.701 Y89.316 E0.55581
G1 X120.239 Y89.316 E0.01702
G1 X132.571 Y101.648 E0.55165
G1 X133.016 Y101.555 E0.01438
G1 X120.777 Y89.316 E0.54749
G1 X121.315 Y89.316 E0.01702
G1 X133.461 Y101.462 E0.54333
G1 X133.906 Y101.369 E0.01438
G1 X121.853 Y89.316 E0.53917
G1 X122.391 Y89.316 E0.01702
G1 X134.351 Y101.276 E0.53501
G1 X134.796 Y101.183 E0.01438
G1 X122.929 Y89.316 E0.53085
G1 X123.467 Y89.316 E0.01702
G1 X135.241 Y101.090 E0.52669
G1 X135.686 Y100.997 E0.01438
G1 X124.005 Y89.316 E0.52253
G1 X124.543 Y89.316 E0.01702
G1 X136.122 Y100.896 E0.51800
G1 X135.414 Y96.421 F10800.000
G1 F1200.000
G1 X134.599 Y95.606 E0.03646
G1 X133.966 Y95.511 E0.02025
G1 X135.311 Y96.856 E0.06018
G1 X135.412 Y97.495 E0.02047
G1 X133.262 Y95.345 E0.09620
G1 X132.764 Y95.218 E0.01624
G1 X132.501 Y95.123 E0.00885
G1 X135.513 Y98.135 E0.13474
G1 X135.615 Y98.774 E0.02047
G1 X131.639 Y94.799 E0.17783
G1 X130.779 Y94.383 E0.03022
G1 X130.543 Y94.240 E0.00873
G1 X135.716 Y99.413 E0.23140
G1 X135.817 Y100.052 E0.02047
G1 X125.081 Y89.316 E0.48027
G1 X125.619 Y89.316 E0.01702
G1 X126.925 Y90.622 E0.05842
G1 E-0.80000 F2100.00000
G1 Z0.800 F10800.000
G1 X157.185 Y81.459
G1 Z0.200
G1 E0.80000 F2100.00000
G1 F1200.000
G1 X92.815 Y81.459 E2.01826
G1 X92.782 Y79.534 E0.06039
G1 X157.218 Y79.534 E2.02035
G1 X157.186 Y81.399 E0.05851
G1 X157.555 Y81.836 F10800.000
G1 F1200.000
G1 X92.445 Y81.836 E2.04151
G1 X92.398 Y79.156 E0.08404
G1 X157.602 Y79.156 E2.04440
G1 X157.556 Y81.776 E0.08216
G1 X157.155 Y81.831 F10800.000
G1 E-0.80000 F2100.00000
G1 Z0.800 F10800.000
G1 X92.913 Y80.566
G1 Z0.200
G1 E0.80000 F2100.00000
G1 F1200.000
G1 X93.524 Y81.177 E0.02723
G1 X94.060 Y81.177 E0.01690
G1 X93.076 Y80.193 E0.04385
G1 X93.070 Y79.816 E0.01187
G1 X93.236 Y79.816 E0.00524
G1 X94.596 Y81.177 E0.06065
G1 X95.132 Y81.177 E0.01690
G1 X93.772 Y79.816 E0.06065
G1 X94.308 Y79.816 E0.01690
G1 X95.668 Y81.177 E0.06065
G1 X96.205 Y81.177 E0.01690
G1 X94.844 Y79.816 E0.06065
G1 X95.381 Y79.816 E0.01690
G1 X96.741 Y81.177 E0.06065
G1 X97.277 Y81.177 E0.01690
G1 X95.917 Y79.816 E0.06065
G1 X96.453 Y79.816 E0.01690
G1 X97.813 Y81.177 E0.06065
G1 X98.349 Y81.177 E0.01690
G1 X96.989 Y79.816 E0.06065
G1 X97.525 Y79.816 E0.01690
G1 X98.886 Y81.177 E0.06065
G1 X99.422 Y81.177 E0.01690
G1 X98.062 Y79.816 E0.06065
G1 X98.598 Y79.816 E0.01690
G1 X99.958 Y81.177 E0.06065
G1 X100.494 Y81.177 E0.01690
G1 X99.134 Y79.816 E0.06065
G1 X99.670 Y79.816 E0.01690
G1 X101.030 Y81.177 E0.06065
G1 X101.567 Y81.177 E0.01690
G1 X100.206 Y79.816 E0.06065
G1 X100.742 Y79.816 E0.01690
G1 X102.103 Y81.177 E0.06065
G1 X102.639 Y81.177 E0.01690
G1 X101.279 Y79.816 E0.06065
G1 X101.815 Y79.816 E0.01690
G1 X103.175 Y81.177 E0.06065
G1 X103.711 Y81.177 E0.01690
