; generated by PrusaSlicer 2.2.0+win64 on 2020-11-19 at 00:00:29 UTC

; 

; external perimeters extrusion width = 0.60mm
; perimeters extrusion width = 0.43mm
; infill extrusion width = 0.45mm
; solid infill extrusion width = 0.70mm
; top infill extrusion width = 0.43mm
; first layer extrusion width = 0.42mm

M73 P0 R6
M201 X9000 Y9000 Z500 E10000 ; sets maximum accelerations, mm/sec^2
M203 X500 Y500 Z12 E120 ; sets maximum feedrates, mm/sec
M204 P2000 R1500 T2000 ; sets acceleration (P, T) and retract acceleration (R), mm/sec^2
M205 X10.00 Y10.00 Z0.20 E2.50 ; sets the jerk limits, mm/sec
M205 S0 T0 ; sets the minimum extruding and travel feed rate, mm/sec
M107
M862.3 P "MK2S" ; printer model check
M862.1 P0.4 ; nozzle diameter check
M115 U3.2.3 ; tell printer latest fw version
G90 ; use absolute coordinates
M83 ; extruder relative mode
M204 S2000 T1500 ; MK2 firmware only supports the old M204 format
M104 S215 ; set extruder temp
M140 S60 ; set bed temp
M190 S60 ; wait for bed temp
M109 S215 ; wait for extruder temp
G28 W ; home all without mesh bed level
G80 ; mesh bed leveling
G1 Y-3.0 F1000.0 ; go outside print area
G92 E0.0
G1 X60.0 E9.0  F1000.0 ; intro line
M73 P1 R6
G1 X100.0 E12.5 F1000.0 ; intro line
G92 E0.0
G21 ; set units to millimeters
G90 ; use absolute coordinates
M83 ; use relative distances for extrusion
M900 K0.05 ; Filament gcode LA 1.5
M900 K30 ; Filament gcode LA 1.0
;BEFORE_LAYER_CHANGE
G92 E0.0
;0.2


G1 E-0.80000 F2100.00000
G1 Z0.600 F10800.000
;AFTER_LAYER_CHANGE
;0.2
G1 X111.690 Y90.920
G1 Z0.200
G1 E0.80000 F2100.00000
M204 S1000
G1 F1200.000
G1 X112.551 Y89.631 E0.04860
G1 X113.303 Y88.838 E0.03427
G1 X114.541 Y87.911 E0.04848
G1 X115.943 Y87.250 E0.04860
G1 X116.996 Y86.957 E0.03427
G1 X118.542 Y86.800 E0.04873
G1 X119.462 Y86.856 E0.02889
G1 X134.250 Y88.992 E0.46847
G1 X135.045 Y89.210 E0.02587
G1 X135.812 Y89.543 E0.02620
G1 X136.761 Y90.137 E0.03512
G1 X137.647 Y90.953 E0.03777
G1 X138.321 Y91.865 E0.03556
G1 X138.765 Y92.747 E0.03095
G1 X139.029 Y93.566 E0.02697
G1 X139.223 Y94.860 E0.04105
G1 X139.228 Y116.930 E0.69197
G1 X139.128 Y117.622 E0.02192
G1 X138.856 Y118.266 E0.02192
G1 X138.432 Y118.822 E0.02192
G1 X137.884 Y119.250 E0.02180
G1 X137.325 Y119.504 E0.01924
G1 X123.845 Y123.809 E0.44371
G1 X116.102 Y123.809 E0.24277
G1 X115.507 Y123.659 E0.01924
G1 X114.956 Y123.378 E0.01937
G1 X114.482 Y122.982 E0.01937
G1 X114.108 Y122.490 E0.01937
G1 X113.868 Y121.970 E0.01796
G1 X113.740 Y121.412 E0.01796
G1 X110.868 Y95.668 E0.81217
G1 X110.793 Y94.279 E0.04362
G1 X110.872 Y93.407 E0.02747
G1 X111.106 Y92.356 E0.03376
G1 X111.667 Y90.975 E0.04672
G1 X112.015 Y91.116 F10800.000
G1 F1200.000
G1 X112.848 Y89.864 E0.04718
G1 X113.549 Y89.124 E0.03195
G1 X114.737 Y88.233 E0.04657
G1 X116.081 Y87.601 E0.04657
G1 X117.063 Y87.328 E0.03195
G1 X118.544 Y87.177 E0.04668
G1 X119.410 Y87.229 E0.02719
G1 X134.142 Y89.354 E0.46669
G1 X134.928 Y89.567 E0.02555
G1 X135.663 Y89.890 E0.02517
G1 X136.535 Y90.439 E0.03230
G1 X137.363 Y91.201 E0.03529
G1 X137.988 Y92.045 E0.03292
G1 X138.416 Y92.890 E0.02971
G1 X138.670 Y93.684 E0.02613
G1 X138.846 Y94.879 E0.03790
G1 X138.851 Y116.911 E0.69080
G1 X138.767 Y117.510 E0.01894
G1 X138.538 Y118.064 E0.01882
G1 X138.174 Y118.546 E0.01894
G1 X137.703 Y118.919 E0.01882
G1 X137.209 Y119.145 E0.01704
G1 X123.818 Y123.432 E0.44084
G1 X116.193 Y123.440 E0.23910
G1 X115.667 Y123.316 E0.01692
G1 X115.184 Y123.076 E0.01692
G1 X114.769 Y122.737 E0.01680
G1 X114.439 Y122.309 E0.01692
G1 X114.227 Y121.855 E0.01574
G1 X114.114 Y121.362 E0.01585
G1 X111.243 Y95.627 E0.81192
G1 X111.170 Y94.283 E0.04217
G1 X111.245 Y93.469 E0.02563
G1 X111.464 Y92.474 E0.03195
G1 X111.992 Y91.172 E0.04406
G1 X114.819 Y92.581 F10800.000
G1 F1200.000
G1 X115.054 Y92.191 E0.01430
G1 X115.320 Y91.840 E0.01382
G1 X115.644 Y91.496 E0.01480
G1 X115.991 Y91.201 E0.01427
G1 X116.368 Y90.945 E0.01430
G1 X116.771 Y90.732 E0.01430
G1 X117.195 Y90.563 E0.01430
G1 X117.634 Y90.441 E0.01430
G1 X118.084 Y90.367 E0.01430
G1 X118.540 Y90.342 E0.01430
G1 X118.980 Y90.366 E0.01382
G1 X119.446 Y90.441 E0.01480
G1 X119.885 Y90.563 E0.01427
G1 X120.308 Y90.732 E0.01430
G1 X120.711 Y90.945 E0.01430
G1 X121.089 Y91.201 E0.01430
G1 X121.436 Y91.496 E0.01430
G1 X121.750 Y91.828 E0.01430
G1 X122.026 Y92.191 E0.01430
G1 X122.261 Y92.581 E0.01430
G1 X122.452 Y92.995 E0.01430
G1 X122.598 Y93.427 E0.01430
G1 X122.696 Y93.873 E0.01430
G1 X122.745 Y94.326 E0.01430
G1 X122.745 Y94.782 E0.01430
G1 X122.696 Y95.236 E0.01430
G1 X122.598 Y95.681 E0.01430
G1 X122.452 Y96.113 E0.01430
G1 X122.261 Y96.527 E0.01430
G1 X122.026 Y96.918 E0.01430
G1 X121.750 Y97.281 E0.01430
G1 X121.436 Y97.612 E0.01430
G1 X121.089 Y97.907 E0.01430
G1 X120.711 Y98.163 E0.01430
G1 X120.308 Y98.377 E0.01430
G1 X119.885 Y98.545 E0.01430
G1 X119.445 Y98.667 E0.01430
G1 X118.995 Y98.741 E0.01430
G1 X118.540 Y98.766 E0.01430
G1 X118.084 Y98.741 E0.01430
G1 X117.634 Y98.667 E0.01430
G1 X117.195 Y98.545 E0.01430
G1 X116.771 Y98.377 E0.01430
G1 X116.368 Y98.163 E0.01430
G1 X115.991 Y97.907 E0.01430
G1 X115.643 Y97.612 E0.01430
G1 X115.330 Y97.281 E0.01430
G1 X115.054 Y96.918 E0.01430
G1 X114.819 Y96.527 E0.01430
G1 X114.627 Y96.113 E0.01430
G1 X114.481 Y95.681 E0.01430
G1 X114.383 Y95.236 E0.01430
G1 X114.334 Y94.782 E0.01430
G1 X114.334 Y94.326 E0.01430
G1 X114.383 Y93.873 E0.01430
G1 X114.481 Y93.427 E0.01430
G1 X114.627 Y92.995 E0.01430
G1 X114.793 Y92.636 E0.01242
G1 X114.451 Y92.477 F10800.000
G1 F1200.000
G1 X114.741 Y91.979 E0.01809
G1 X115.032 Y91.596 E0.01508
G1 X115.384 Y91.222 E0.01609
G1 X115.762 Y90.901 E0.01557
G1 X116.174 Y90.622 E0.01558
G1 X116.613 Y90.389 E0.01558
G1 X117.074 Y90.205 E0.01558
G1 X117.553 Y90.072 E0.01558
G1 X118.043 Y89.992 E0.01558
G1 X118.540 Y89.965 E0.01558
G1 X119.020 Y89.991 E0.01508
G1 X119.527 Y90.072 E0.01609
G1 X120.005 Y90.205 E0.01557
G1 X120.467 Y90.389 E0.01558
G1 X120.906 Y90.622 E0.01558
G1 X121.317 Y90.901 E0.01558
G1 X121.696 Y91.222 E0.01558
G1 X122.038 Y91.583 E0.01558
G1 X122.338 Y91.979 E0.01558
G1 X122.594 Y92.404 E0.01558
G1 X122.803 Y92.855 E0.01558
G1 X122.962 Y93.326 E0.01558
G1 X123.069 Y93.812 E0.01558
G1 X123.122 Y94.306 E0.01558
G1 X123.122 Y94.803 E0.01558
G1 X123.069 Y95.297 E0.01558
G1 X122.962 Y95.782 E0.01558
G1 X122.803 Y96.253 E0.01558
G1 X122.594 Y96.704 E0.01558
G1 X122.338 Y97.130 E0.01558
G1 X122.038 Y97.525 E0.01558
G1 X121.696 Y97.886 E0.01558
G1 X121.317 Y98.208 E0.01558
G1 X120.906 Y98.487 E0.01558
G1 X120.467 Y98.719 E0.01558
G1 X120.005 Y98.903 E0.01558
G1 X119.526 Y99.036 E0.01558
G1 X119.036 Y99.117 E0.01558
G1 X118.540 Y99.144 E0.01558
G1 X118.043 Y99.117 E0.01558
G1 X117.553 Y99.036 E0.01558
G1 X117.074 Y98.903 E0.01558
G1 X116.613 Y98.719 E0.01558
G1 X116.174 Y98.487 E0.01558
G1 X115.762 Y98.208 E0.01558
G1 X115.384 Y97.886 E0.01558
G1 X115.042 Y97.525 E0.01558
G1 X114.741 Y97.130 E0.01558
G1 X114.485 Y96.704 E0.01558
G1 X114.276 Y96.253 E0.01558
G1 X114.118 Y95.782 E0.01558
G1 X114.011 Y95.297 E0.01558
G1 X113.957 Y94.803 E0.01558
G1 X113.957 Y94.306 E0.01558
G1 X114.011 Y93.812 E0.01558
G1 X114.118 Y93.326 E0.01558
G1 X114.276 Y92.855 E0.01558
G1 X114.426 Y92.532 E0.01118
G1 X114.851 Y92.458 F10800.000
G1 E-0.80000 F2100.00000
G1 Z0.800 F10800.000
G1 X122.157 Y92.628
G1 Z0.200
G1 E0.80000 F2100.00000
G1 F1200.000
G1 X121.173 Y91.644 E0.04536
G1 X120.917 Y91.427 E0.01093
G1 X120.565 Y91.188 E0.01386
G1 X120.189 Y90.989 E0.01386
G1 X119.814 Y90.839 E0.01318
G1 X122.247 Y93.273 E0.11218
G1 X122.325 Y93.503 E0.00792
G1 X122.426 Y94.006 E0.01671
G1 X119.091 Y90.671 E0.15373
G1 X118.950 Y90.648 E0.00466
G1 X118.494 Y90.628 E0.01487
G1 X122.462 Y94.597 E0.18292
G1 X122.425 Y95.113 E0.01689
G1 X117.982 Y90.670 E0.20479
G1 X117.523 Y90.765 E0.01529
G1 X122.332 Y95.575 E0.22168
G1 X122.195 Y95.992 E0.01432
G1 X117.106 Y90.903 E0.23458
G1 X116.725 Y91.076 E0.01364
G1 X122.021 Y96.372 E0.24411
G1 X121.814 Y96.720 E0.01319
G1 X116.376 Y91.282 E0.25069
G1 X116.056 Y91.517 E0.01292
G1 X121.579 Y97.039 E0.25454
G1 X121.315 Y97.329 E0.01279
G1 X115.765 Y91.780 E0.25579
G1 X115.501 Y92.070 E0.01279
G1 X121.023 Y97.592 E0.25454
G1 X120.703 Y97.827 E0.01292
G1 X115.265 Y92.388 E0.25069
G1 X115.059 Y92.736 E0.01319
G1 X120.354 Y98.032 E0.24411
G1 X119.974 Y98.206 E0.01364
G1 X114.885 Y93.117 E0.23457
G1 X114.748 Y93.534 E0.01432
G1 X119.557 Y98.343 E0.22167
G1 X119.097 Y98.438 E0.01529
G1 X114.655 Y93.995 E0.20478
G1 X114.617 Y94.512 E0.01689
G1 X118.585 Y98.480 E0.18292
G1 X117.990 Y98.439 E0.01945
G1 X114.653 Y95.103 E0.15379
G1 X114.754 Y95.605 E0.01670
G1 X114.832 Y95.836 E0.00793
G1 X117.265 Y98.269 E0.11217
G1 X116.890 Y98.120 E0.01317
G1 X116.514 Y97.920 E0.01386
G1 X116.162 Y97.682 E0.01386
G1 X115.906 Y97.464 E0.01097
G1 X114.923 Y96.481 E0.04530
G1 E-0.80000 F2100.00000
G1 Z0.800 F10800.000
G1 X135.687 Y116.098
G1 Z0.200
G1 E0.80000 F2100.00000
G1 F1200.000
G1 X130.261 Y116.098 E0.17012
G1 X130.261 Y95.143 E0.65701
G1 X130.326 Y94.533 E0.01924
G1 X130.459 Y94.099 E0.01422
G1 X130.666 Y93.689 E0.01441
G1 X130.939 Y93.319 E0.01441
G1 X131.271 Y93.001 E0.01441
G1 X131.652 Y92.744 E0.01441
G1 X132.071 Y92.554 E0.01441
G1 X132.516 Y92.439 E0.01441
G1 X132.974 Y92.400 E0.01441
G1 X133.432 Y92.439 E0.01441
G1 X133.877 Y92.554 E0.01441
G1 X134.296 Y92.744 E0.01441
G1 X134.676 Y93.001 E0.01441
G1 X135.008 Y93.319 E0.01441
G1 X135.282 Y93.689 E0.01441
G1 X135.488 Y94.099 E0.01441
G1 X135.623 Y94.539 E0.01441
G1 X135.684 Y95.013 E0.01501
G1 X135.687 Y116.038 E0.65920
G1 X136.064 Y116.475 F10800.000
G1 F1200.000
G1 X129.884 Y116.475 E0.19377
G1 X129.884 Y95.123 E0.66947
G1 X129.955 Y94.457 E0.02101
G1 X130.108 Y93.958 E0.01636
G1 X130.344 Y93.490 E0.01643
G1 X130.655 Y93.069 E0.01642
G1 X131.034 Y92.707 E0.01642
G1 X131.468 Y92.413 E0.01642
G1 X131.945 Y92.198 E0.01642
G1 X132.452 Y92.066 E0.01643
G1 X132.974 Y92.021 E0.01642
G1 X133.496 Y92.066 E0.01642
G1 X134.003 Y92.198 E0.01643
G1 X134.480 Y92.413 E0.01642
G1 X134.914 Y92.707 E0.01642
G1 X135.292 Y93.069 E0.01642
G1 X135.604 Y93.490 E0.01642
G1 X135.840 Y93.958 E0.01643
G1 X135.993 Y94.459 E0.01643
G1 X136.061 Y94.989 E0.01677
G1 X136.064 Y116.415 E0.67177
G1 X135.717 Y116.275 F10800.000
G1 E-0.80000 F2100.00000
G1 Z0.800 F10800.000
G1 X135.541 Y94.785
G1 Z0.200
G1 E0.80000 F2100.00000
G1 F1200.000
G1 X133.505 Y92.750 E0.09027
G1 X133.384 Y92.718 E0.00393
G1 X132.911 Y92.689 E0.01487
G1 X135.401 Y95.179 E0.11046
G1 X135.401 Y95.713 E0.01673
G1 X132.439 Y92.751 E0.13137
G1 X132.166 Y92.822 E0.00887
G1 X132.036 Y92.881 E0.00447
G1 X135.401 Y96.246 E0.14927
G1 X135.401 Y96.780 E0.01673
G1 X131.685 Y93.063 E0.16484
G1 X131.378 Y93.290 E0.01196
G1 X135.401 Y97.313 E0.17843
G1 X135.401 Y97.847 E0.01673
G1 X131.114 Y93.559 E0.19017
G1 X130.891 Y93.870 E0.01199
G1 X135.402 Y98.380 E0.20003
G1 X135.402 Y98.913 E0.01673
G1 X130.716 Y94.228 E0.20783
G1 X130.599 Y94.644 E0.01357
G1 X135.402 Y99.447 E0.21302
G1 X135.402 Y99.980 E0.01673
G1 X130.547 Y95.126 E0.21531
G1 X130.544 Y95.158 E0.00102
G1 X130.544 Y95.656 E0.01560
G1 X135.402 Y100.514 E0.21547
G1 X135.402 Y101.047 E0.01673
G1 X130.544 Y96.189 E0.21547
G1 X130.544 Y96.723 E0.01673
G1 X135.402 Y101.581 E0.21548
G1 X135.402 Y102.114 E0.01673
G1 X130.544 Y97.256 E0.21548
G1 X130.544 Y97.789 E0.01673
G1 X135.402 Y102.648 E0.21548
G1 X135.402 Y103.181 E0.01673
G1 X130.544 Y98.323 E0.21549
G1 X130.544 Y98.856 E0.01673
G1 X135.402 Y103.715 E0.21549
G1 X135.402 Y104.248 E0.01673
G1 X130.544 Y99.390 E0.21549
G1 X130.544 Y99.923 E0.01673
G1 X135.402 Y104.782 E0.21550
G1 X135.402 Y105.315 E0.01673
G1 X130.544 Y100.456 E0.21550
G1 X130.544 Y100.990 E0.01673
G1 X135.403 Y105.849 E0.21550
G1 X135.403 Y106.382 E0.01673
G1 X130.544 Y101.523 E0.21550
G1 X130.544 Y102.057 E0.01673
G1 X135.403 Y106.916 E0.21551
G1 X135.403 Y107.449 E0.01673
G1 X130.544 Y102.590 E0.21551
G1 X130.544 Y103.123 E0.01673
G1 X135.403 Y107.983 E0.21551
G1 X135.403 Y108.516 E0.01673
G1 X130.544 Y103.657 E0.21552
G1 X130.544 Y104.190 E0.01673
G1 X135.403 Y109.050 E0.21552
G1 X135.403 Y109.583 E0.01673
G1 X130.544 Y104.724 E0.21552
G1 X130.544 Y105.257 E0.01673
G1 X135.403 Y110.116 E0.21553
G1 X135.403 Y110.650 E0.01673
G1 X130.544 Y105.790 E0.21553
G1 X130.544 Y106.324 E0.01673
G1 X135.403 Y111.183 E0.21553
G1 X135.403 Y111.717 E0.01673
G1 X130.544 Y106.857 E0.21554
G1 X130.544 Y107.391 E0.01673
G1 X135.403 Y112.250 E0.21554
G1 X135.403 Y112.784 E0.01673
G1 X130.544 Y107.924 E0.21554
G1 X130.544 Y108.458 E0.01673
G1 X135.404 Y113.317 E0.21555
G1 X135.404 Y113.851 E0.01673
G1 X130.544 Y108.991 E0.21555
G1 X130.544 Y109.524 E0.01673
G1 X135.404 Y114.384 E0.21555
G1 X135.404 Y114.918 E0.01673
G1 X130.544 Y110.058 E0.21556
G1 X130.544 Y110.591 E0.01673
G1 X135.404 Y115.451 E0.21556
G1 X135.404 Y115.815 E0.01140
G1 X135.234 Y115.815 E0.00533
G1 X130.544 Y111.125 E0.20802
G1 X130.544 Y111.658 E0.01673
G1 X134.701 Y115.815 E0.18437
G1 X134.167 Y115.815 E0.01673
G1 X130.544 Y112.191 E0.16071
G1 X130.544 Y112.725 E0.01673
G1 X133.634 Y115.815 E0.13705
G1 X133.100 Y115.815 E0.01673
G1 X130.544 Y113.258 E0.11339
G1 X130.544 Y113.792 E0.01673
G1 X132.567 Y115.815 E0.08973
G1 X132.034 Y115.815 E0.01673
G1 X130.544 Y114.325 E0.06608
G1 X130.544 Y114.858 E0.01673
G1 X131.500 Y115.815 E0.04242
G1 X130.967 Y115.815 E0.01673
G1 X130.374 Y115.222 E0.02629
G1 E-0.80000 F2100.00000
G1 Z0.800 F10800.000
G1 X122.687 Y120.293
G1 Z0.200
G1 E0.80000 F2100.00000
G1 F1200.000
G1 X117.261 Y120.293 E0.17012
G1 X117.261 Y109.063 E0.35210
G1 X117.291 Y108.649 E0.01301
G1 X117.373 Y108.271 E0.01213
G1 X117.508 Y107.909 E0.01213
G1 X117.693 Y107.569 E0.01213
G1 X117.925 Y107.260 E0.01213
G1 X118.199 Y106.986 E0.01213
G1 X118.508 Y106.754 E0.01213
G1 X118.848 Y106.569 E0.01213
G1 X119.210 Y106.434 E0.01213
G1 X119.588 Y106.351 E0.01213
G1 X119.974 Y106.324 E0.01213
G1 X120.360 Y106.351 E0.01213
G1 X120.738 Y106.434 E0.01213
G1 X121.100 Y106.569 E0.01213
G1 X121.439 Y106.754 E0.01213
G1 X121.749 Y106.986 E0.01213
G1 X122.023 Y107.260 E0.01213
G1 X122.254 Y107.569 E0.01213
G1 X122.440 Y107.909 E0.01213
G1 X122.575 Y108.271 E0.01213
G1 X122.657 Y108.649 E0.01213
G1 X122.687 Y109.063 E0.01301
G1 X122.687 Y120.233 E0.35022
G1 X123.064 Y120.670 F10800.000
G1 F1200.000
G1 X116.884 Y120.670 E0.19377
G1 X116.884 Y109.049 E0.36435
G1 X116.916 Y108.595 E0.01428
G1 X117.010 Y108.165 E0.01382
G1 X117.164 Y107.752 E0.01382
G1 X117.375 Y107.365 E0.01382
G1 X117.639 Y107.012 E0.01382
G1 X117.951 Y106.700 E0.01382
G1 X118.304 Y106.436 E0.01382
G1 X118.691 Y106.225 E0.01382
G1 X119.104 Y106.071 E0.01382
G1 X119.534 Y105.977 E0.01382
G1 X119.974 Y105.946 E0.01382
G1 X120.413 Y105.977 E0.01382
G1 X120.844 Y106.071 E0.01382
G1 X121.257 Y106.225 E0.01382
G1 X121.644 Y106.436 E0.01382
G1 X121.997 Y106.700 E0.01382
G1 X122.308 Y107.012 E0.01382
G1 X122.572 Y107.365 E0.01382
G1 X122.784 Y107.752 E0.01382
G1 X122.938 Y108.165 E0.01382
G1 X123.031 Y108.595 E0.01382
G1 X123.064 Y109.049 E0.01428
G1 X123.064 Y120.610 E0.36247
G1 X122.717 Y120.470 F10800.000
G1 E-0.80000 F2100.00000
G1 Z0.800 F10800.000
G1 X122.351 Y107.994
G1 Z0.200
G1 E0.80000 F2100.00000
G1 F1200.000
G1 X121.538 Y107.181 E0.03692
G1 X121.286 Y106.993 E0.01009
G1 X120.982 Y106.827 E0.01112
G1 X120.658 Y106.706 E0.01112
G1 X120.477 Y106.666 E0.00593
G1 X122.342 Y108.532 E0.08468
G1 X122.377 Y108.689 E0.00518
G1 X122.404 Y109.139 E0.01447
G1 X119.879 Y106.614 E0.11465
G1 X119.628 Y106.632 E0.00806
G1 X119.400 Y106.682 E0.00749
G1 X122.404 Y109.685 E0.13637
G1 X122.404 Y110.231 E0.01753
G1 X118.990 Y106.818 E0.15500
G1 X118.637 Y107.011 E0.01291
G1 X122.404 Y110.777 E0.17101
G1 X122.404 Y111.323 E0.01753
G1 X118.333 Y107.252 E0.18485
G1 X118.071 Y107.537 E0.01241
G1 X122.404 Y111.869 E0.19673
G1 X122.404 Y112.416 E0.01753
G1 X117.854 Y107.865 E0.20659
G1 X117.766 Y108.026 E0.00589
G1 X117.685 Y108.243 E0.00741
G1 X122.404 Y112.962 E0.21425
G1 X122.404 Y113.508 E0.01753
G1 X117.574 Y108.677 E0.21930
G1 X117.544 Y109.193 E0.01659
G1 X122.404 Y114.054 E0.22067
G1 X122.404 Y114.600 E0.01753
