; generated by PrusaSlicer 2.2.0+win64 on 2020-10-27 at 20:41:03 UTC

; 

; external perimeters extrusion width = 0.60mm
; perimeters extrusion width = 0.43mm
; infill extrusion width = 0.45mm
; solid infill extrusion width = 0.70mm
; top infill extrusion width = 0.43mm
; first layer extrusion width = 0.42mm

M73 P0 R10
M201 X9000 Y9000 Z500 E10000 ; sets maximum accelerations, mm/sec^2
M203 X500 Y500 Z12 E120 ; sets maximum feedrates, mm/sec
M204 P2000 R1500 T2000 ; sets acceleration (P, T) and retract acceleration (R), mm/sec^2
M205 X10.00 Y10.00 Z0.20 E2.50 ; sets the jerk limits, mm/sec
M205 S0 T0 ; sets the minimum extruding and travel feed rate, mm/sec
M107
M862.3 P "MK2S" ; printer model check
M862.1 P0.4 ; nozzle diameter check
M115 U3.2.3 ; tell printer latest fw version
G90 ; use absolute coordinates
M83 ; extruder relative mode
M204 S2000 T1500 ; MK2 firmware only supports the old M204 format
M104 S215 ; set extruder temp
M140 S60 ; set bed temp
M190 S60 ; wait for bed temp
M109 S215 ; wait for extruder temp
G28 W ; home all without mesh bed level
G80 ; mesh bed leveling
G1 Y-3.0 F1000.0 ; go outside print area
G92 E0.0
G1 X60.0 E9.0  F1000.0 ; intro line
M73 P0 R10
G1 X100.0 E12.5 F1000.0 ; intro line
G92 E0.0
G21 ; set units to millimeters
G90 ; use absolute coordinates
M83 ; use relative distances for extrusion
M900 K0.05 ; Filament gcode LA 1.5
M900 K30 ; Filament gcode LA 1.0
;BEFORE_LAYER_CHANGE
G92 E0.0
;0.2


G1 E-0.80000 F2100.00000
G1 Z0.600 F10800.000
;AFTER_LAYER_CHANGE
;0.2
G1 X94.246 Y77.025
G1 Z0.200
G1 E0.80000 F2100.00000
M204 S1000
G1 F1200.000
G1 X95.127 Y76.854 E0.02813
G1 X161.376 Y76.854 E2.07720
G1 X162.103 Y76.969 E0.02308
G1 X162.756 Y77.299 E0.02296
G1 X163.281 Y77.815 E0.02308
G1 X163.622 Y78.463 E0.02296
G1 X168.025 Y96.287 E0.57567
G1 X168.228 Y97.658 E0.04345
G1 X168.282 Y98.789 E0.03549
G1 X168.219 Y100.022 E0.03872
G1 X168.034 Y101.231 E0.03836
G1 X167.751 Y102.336 E0.03573
G1 X167.253 Y103.686 E0.04515
G1 X166.741 Y104.722 E0.03621
G1 X166.081 Y105.779 E0.03907
G1 X165.326 Y106.751 E0.03860
G1 X164.419 Y107.697 E0.04110
G1 X138.195 Y130.533 E1.09028
G1 X137.018 Y131.350 E0.04491
G1 X136.024 Y131.898 E0.03561
G1 X134.946 Y132.363 E0.03681
G1 X133.711 Y132.755 E0.04062
G1 X132.498 Y133.005 E0.03883
G1 X131.262 Y133.131 E0.03895
G1 X130.035 Y133.132 E0.03848
G1 X128.791 Y133.007 E0.03919
G1 X127.585 Y132.759 E0.03860
G1 X126.403 Y132.389 E0.03883
G1 X125.334 Y131.934 E0.03645
G1 X83.048 Y109.974 E1.49397
G1 X82.398 Y109.465 E0.02590
G1 X81.961 Y108.763 E0.02590
G1 X81.791 Y107.829 E0.02977
G1 X82.174 Y91.430 E0.51433
G1 X82.334 Y90.646 E0.02508
G1 X83.681 Y87.850 E0.09731
G1 X84.009 Y87.365 E0.01835
G1 X93.442 Y77.558 E0.42665
G1 X94.196 Y77.058 E0.02836
G1 E-0.80000 F2100.00000
G1 Z0.800 F10800.000
G1 X98.192 Y89.718
G1 Z0.200
G1 E0.80000 F2100.00000
G1 F1200.000
G1 X98.405 Y90.204 E0.01662
G1 X98.938 Y91.148 E0.03402
G1 X99.565 Y92.034 E0.03402
G1 X100.278 Y92.852 E0.03402
G1 X101.070 Y93.593 E0.03402
G1 X101.934 Y94.249 E0.03402
G1 X102.860 Y94.815 E0.03402
G1 X103.838 Y95.284 E0.03402
G1 X104.859 Y95.652 E0.03402
G1 X105.911 Y95.913 E0.03402
G1 X106.985 Y96.067 E0.03402
G1 X107.385 Y96.083 E0.01253
G1 X108.326 Y102.025 E0.18861
G1 X86.888 Y106.505 E0.68670
G1 X85.777 Y106.789 E0.03594
G1 X85.953 Y106.553 E0.00921
G1 X86.208 Y106.137 E0.01530
G1 X86.767 Y104.927 E0.04179
G1 X87.227 Y103.610 E0.04374
G1 X87.537 Y102.399 E0.03920
G1 X87.747 Y101.092 E0.04149
G1 X87.838 Y99.772 E0.04149
G1 X87.809 Y98.449 E0.04149
G1 X87.660 Y97.134 E0.04149
G1 X87.392 Y95.838 E0.04149
G1 X87.009 Y94.571 E0.04149
G1 X86.512 Y93.345 E0.04149
G1 X85.905 Y92.168 E0.04149
G1 X85.450 Y91.452 E0.02660
G1 X86.291 Y89.718 E0.06043
G1 X98.132 Y89.718 E0.37128
G1 X98.439 Y89.341 F10800.000
G1 F1200.000
G1 X98.743 Y90.035 E0.02375
G1 X99.257 Y90.946 E0.03281
G1 X99.862 Y91.801 E0.03281
G1 X100.550 Y92.589 E0.03281
G1 X101.314 Y93.304 E0.03281
G1 X102.147 Y93.938 E0.03281
G1 X103.040 Y94.484 E0.03281
G1 X103.983 Y94.936 E0.03281
G1 X104.968 Y95.290 E0.03281
G1 X105.984 Y95.543 E0.03281
G1 X107.020 Y95.691 E0.03281
G1 X107.709 Y95.719 E0.02162
G1 X108.754 Y102.320 E0.20955
G1 X86.971 Y106.873 E0.69776
G1 X85.999 Y107.109 E0.03135
G1 X85.516 Y107.285 E0.01612
G1 X85.068 Y107.474 E0.01525
G1 X84.645 Y107.563 E0.01353
G1 X85.069 Y107.009 E0.02186
G1 X85.375 Y106.697 E0.01369
G1 X85.641 Y106.342 E0.01392
G1 X85.875 Y105.959 E0.01406
G1 X86.417 Y104.786 E0.04052
G1 X86.866 Y103.501 E0.04266
G1 X87.167 Y102.322 E0.03816
G1 X87.372 Y101.049 E0.04042
G1 X87.460 Y99.763 E0.04042
G1 X87.432 Y98.474 E0.04042
G1 X87.287 Y97.194 E0.04042
G1 X87.027 Y95.931 E0.04042
G1 X86.653 Y94.697 E0.04042
G1 X86.169 Y93.502 E0.04042
G1 X85.578 Y92.356 E0.04042
G1 X85.019 Y91.477 E0.03266
G1 X86.055 Y89.341 E0.07444
G1 X98.379 Y89.341 E0.38642
G1 X98.361 Y89.733 F10800.000
G1 X98.846 Y91.214
G1 F1200.000
G1 X97.644 Y90.012 E0.05378
G1 X97.106 Y90.012 E0.01704
G1 X107.836 Y100.742 E0.48005
G1 X107.735 Y100.103 E0.02047
G1 X102.652 Y95.020 E0.22740
G1 X103.704 Y95.534 E0.03703
G1 X107.634 Y99.464 E0.17582
G1 X107.533 Y98.824 E0.02047
G1 X104.549 Y95.841 E0.13348
G1 X104.776 Y95.923 E0.00765
G1 X105.299 Y96.052 E0.01702
G1 X107.431 Y98.185 E0.09541
G1 X107.330 Y97.546 E0.02047
G1 X105.995 Y96.211 E0.05971
G1 X106.623 Y96.301 E0.02007
G1 X107.433 Y97.111 E0.03622
G1 X108.142 Y101.586 F10800.000
G1 F1200.000
G1 X96.567 Y90.011 E0.51780
G1 X96.029 Y90.010 E0.01704
G1 X107.853 Y101.835 E0.52897
G1 X107.408 Y101.928 E0.01438
G1 X95.490 Y90.010 E0.53315
G1 X94.951 Y90.009 E0.01704
G1 X106.963 Y102.021 E0.53733
G1 X106.518 Y102.114 E0.01438
G1 X94.413 Y90.009 E0.54152
G1 X93.874 Y90.008 E0.01704
G1 X106.073 Y102.207 E0.54570
G1 X105.628 Y102.300 E0.01438
G1 X93.336 Y90.008 E0.54989
G1 X92.797 Y90.007 E0.01704
G1 X105.183 Y102.393 E0.55407
G1 X104.738 Y102.486 E0.01438
G1 X92.259 Y90.007 E0.55826
G1 X91.720 Y90.006 E0.01704
G1 X104.293 Y102.579 E0.56244
G1 X103.848 Y102.672 E0.01438
G1 X91.182 Y90.006 E0.56662
G1 X90.643 Y90.005 E0.01704
G1 X103.403 Y102.765 E0.57081
G1 X102.958 Y102.858 E0.01438
G1 X90.105 Y90.005 E0.57499
G1 X89.566 Y90.004 E0.01704
G1 X102.513 Y102.951 E0.57918
G1 X102.068 Y103.044 E0.01438
G1 X89.027 Y90.004 E0.58336
G1 X88.489 Y90.003 E0.01704
G1 X101.623 Y103.137 E0.58755
G1 X101.178 Y103.230 E0.01438
G1 X87.950 Y90.002 E0.59173
G1 X87.412 Y90.002 E0.01704
G1 X100.733 Y103.323 E0.59591
G1 X100.288 Y103.416 E0.01438
G1 X86.873 Y90.001 E0.60010
G1 X86.468 Y90.001 E0.01282
G1 X86.424 Y90.091 E0.00315
G1 X99.843 Y103.509 E0.60027
G1 X99.398 Y103.602 E0.01438
G1 X86.249 Y90.453 E0.58822
G1 X86.073 Y90.815 E0.01274
G1 X98.953 Y103.695 E0.57617
G1 X98.507 Y103.788 E0.01438
G1 X85.898 Y91.178 E0.56412
G1 X85.773 Y91.434 E0.00900
G1 X86.049 Y91.867 E0.01625
G1 X98.062 Y103.881 E0.53743
G1 X97.617 Y103.974 E0.01438
G1 X86.661 Y93.017 E0.49016
G1 X86.769 Y93.227 E0.00747
G1 X87.066 Y93.960 E0.02504
G1 X97.172 Y104.067 E0.45212
G1 X96.727 Y104.160 E0.01438
G1 X87.376 Y94.808 E0.41835
G1 X87.610 Y95.580 E0.02552
G1 X96.282 Y104.253 E0.38798
G1 X95.837 Y104.346 E0.01438
G1 X87.773 Y96.281 E0.36079
G1 X87.912 Y96.959 E0.02190
G1 X95.392 Y104.439 E0.33463
G1 X94.947 Y104.532 E0.01438
G1 X87.995 Y97.579 E0.31103
G1 X88.064 Y98.186 E0.01931
G1 X94.502 Y104.625 E0.28805
G1 X94.057 Y104.718 E0.01438
G1 X88.098 Y98.759 E0.26658
G1 X88.110 Y99.309 E0.01741
G1 X93.612 Y104.811 E0.24613
G1 X93.167 Y104.904 E0.01438
G1 X88.116 Y99.852 E0.22599
G1 X88.081 Y100.355 E0.01596
G1 X92.722 Y104.997 E0.20763
G1 X92.277 Y105.090 E0.01438
G1 X88.046 Y100.859 E0.18927
G1 X87.993 Y101.343 E0.01542
G1 X91.832 Y105.183 E0.17176
G1 X91.387 Y105.276 E0.01438
G1 X87.918 Y101.807 E0.15519
G1 X87.844 Y102.270 E0.01485
G1 X90.942 Y105.369 E0.13861
G1 X90.497 Y105.462 E0.01438
G1 X87.748 Y102.713 E0.12298
G1 X87.639 Y103.141 E0.01399
G1 X90.052 Y105.555 E0.10797
G1 X89.607 Y105.648 E0.01438
G1 X87.529 Y103.570 E0.09296
G1 X87.399 Y103.977 E0.01353
G1 X89.162 Y105.741 E0.07890
G1 X88.717 Y105.834 E0.01438
G1 X87.259 Y104.376 E0.06523
G1 X87.120 Y104.774 E0.01336
G1 X88.272 Y105.927 E0.05155
G1 X87.827 Y106.020 E0.01438
G1 X86.970 Y105.162 E0.03836
G1 X86.800 Y105.530 E0.01282
G1 X87.382 Y106.113 E0.02606
G1 X86.937 Y106.206 E0.01438
G1 X86.630 Y105.898 E0.01375
G1 X86.460 Y106.266 E0.01282
G1 X86.644 Y106.450 E0.00824
G1 X85.624 Y106.899 F10800.000
G1 F1200.000
G1 X85.176 Y107.196 E0.00713
G1 X85.180 Y107.202 F10800.000
G1 F1200.000
G1 X85.610 Y106.879 E0.00324
G1 E-0.80000 F2100.00000
G1 Z0.800 F10800.000
G1 X121.994 Y118.207
G1 Z0.200
G1 E0.80000 F2100.00000
G1 F1200.000
G1 X122.313 Y117.346 E0.02878
G1 X122.717 Y116.522 E0.02878
G1 X123.203 Y115.743 E0.02878
G1 X123.765 Y115.017 E0.02878
G1 X124.397 Y114.352 E0.02878
G1 X125.094 Y113.754 E0.02878
G1 X125.847 Y113.230 E0.02878
G1 X126.650 Y112.784 E0.02878
G1 X127.493 Y112.422 E0.02878
G1 X128.369 Y112.147 E0.02878
G1 X129.268 Y111.963 E0.02878
G1 X130.181 Y111.870 E0.02878
G1 X131.099 Y111.870 E0.02878
G1 X132.013 Y111.963 E0.02878
G1 X132.912 Y112.147 E0.02878
G1 X133.788 Y112.422 E0.02878
G1 X134.631 Y112.784 E0.02878
G1 X135.434 Y113.230 E0.02878
G1 X136.187 Y113.754 E0.02878
G1 X136.884 Y114.352 E0.02878
G1 X137.516 Y115.017 E0.02878
G1 X138.078 Y115.743 E0.02878
G1 X138.564 Y116.522 E0.02878
G1 X138.968 Y117.346 E0.02878
G1 X139.287 Y118.207 E0.02878
G1 X139.517 Y119.096 E0.02878
G1 X139.656 Y120.003 E0.02878
G1 X139.702 Y120.920 E0.02878
G1 X139.656 Y121.837 E0.02878
G1 X139.517 Y122.744 E0.02878
G1 X139.287 Y123.633 E0.02878
G1 X138.968 Y124.494 E0.02878
G1 X138.564 Y125.318 E0.02878
G1 X138.078 Y126.097 E0.02878
G1 X137.516 Y126.823 E0.02878
G1 X136.884 Y127.488 E0.02878
G1 X136.187 Y128.086 E0.02878
G1 X135.434 Y128.610 E0.02878
G1 X134.631 Y129.056 E0.02878
G1 X133.788 Y129.418 E0.02878
G1 X132.912 Y129.693 E0.02878
G1 X132.013 Y129.877 E0.02878
G1 X131.099 Y129.970 E0.02878
G1 X130.181 Y129.970 E0.02878
G1 X129.268 Y129.877 E0.02878
G1 X128.369 Y129.693 E0.02878
G1 X127.493 Y129.418 E0.02878
G1 X126.650 Y129.056 E0.02878
G1 X125.847 Y128.610 E0.02878
G1 X125.094 Y128.086 E0.02878
G1 X124.397 Y127.488 E0.02878
G1 X123.765 Y126.823 E0.02878
G1 X123.203 Y126.097 E0.02878
G1 X122.717 Y125.318 E0.02878
G1 X122.313 Y124.494 E0.02878
G1 X121.994 Y123.633 E0.02878
G1 X121.764 Y122.744 E0.02878
G1 X121.625 Y121.837 E0.02878
G1 X121.579 Y120.920 E0.02878
G1 X121.625 Y120.003 E0.02878
G1 X121.764 Y119.096 E0.02878
M73 P10 R9
G1 X121.979 Y118.265 E0.02690
G1 X121.614 Y118.171 F10800.000
G1 F1200.000
G1 X121.966 Y117.198 E0.03245
G1 X122.387 Y116.339 E0.02998
G1 X122.893 Y115.528 E0.02998
G1 X123.478 Y114.771 E0.02998
G1 X124.137 Y114.078 E0.02998
G1 X124.862 Y113.456 E0.02998
G1 X125.647 Y112.909 E0.02998
G1 X126.483 Y112.445 E0.02998
G1 X127.362 Y112.068 E0.02998
G1 X128.274 Y111.782 E0.02998
G1 X129.211 Y111.589 E0.02998
G1 X130.162 Y111.493 E0.02998
G1 X131.119 Y111.493 E0.02998
G1 X132.070 Y111.589 E0.02998
G1 X133.006 Y111.782 E0.02998
G1 X133.919 Y112.068 E0.02998
G1 X134.798 Y112.445 E0.02998
G1 X135.634 Y112.909 E0.02998
G1 X136.418 Y113.456 E0.02998
G1 X137.144 Y114.078 E0.02998
G1 X137.803 Y114.771 E0.02998
G1 X138.388 Y115.528 E0.02998
G1 X138.894 Y116.339 E0.02998
G1 X139.315 Y117.198 E0.02998
G1 X139.647 Y118.094 E0.02998
G1 X139.887 Y119.020 E0.02998
G1 X140.031 Y119.965 E0.02998
G1 X140.080 Y120.920 E0.02998
G1 X140.031 Y121.875 E0.02998
G1 X139.887 Y122.820 E0.02998
G1 X139.647 Y123.746 E0.02998
G1 X139.315 Y124.643 E0.02998
G1 X138.894 Y125.501 E0.02998
G1 X138.388 Y126.313 E0.02998
G1 X137.803 Y127.069 E0.02998
G1 X137.144 Y127.762 E0.02998
G1 X136.418 Y128.385 E0.02998
G1 X135.634 Y128.931 E0.02998
G1 X134.798 Y129.395 E0.02998
G1 X133.919 Y129.772 E0.02998
G1 X133.006 Y130.058 E0.02998
G1 X132.070 Y130.251 E0.02998
G1 X131.119 Y130.347 E0.02998
G1 X130.162 Y130.347 E0.02998
G1 X129.211 Y130.251 E0.02998
G1 X128.274 Y130.058 E0.02998
G1 X127.362 Y129.772 E0.02998
G1 X126.483 Y129.395 E0.02998
G1 X125.647 Y128.931 E0.02998
G1 X124.862 Y128.385 E0.02998
G1 X124.137 Y127.762 E0.02998
G1 X123.478 Y127.069 E0.02998
G1 X122.893 Y126.313 E0.02998
G1 X122.387 Y125.501 E0.02998
G1 X121.966 Y124.643 E0.02998
G1 X121.634 Y123.746 E0.02998
G1 X121.394 Y122.820 E0.02998
G1 X121.249 Y121.875 E0.02998
G1 X121.201 Y120.920 E0.02998
G1 X121.249 Y119.965 E0.02998
G1 X121.394 Y119.020 E0.02998
G1 X121.599 Y118.229 E0.02562
G1 X122.004 Y118.081 F10800.000
G1 E-0.80000 F2100.00000
G1 Z0.800 F10800.000
G1 X138.066 Y115.937
G1 Z0.200
G1 E0.80000 F2100.00000
G1 F1200.000
G1 X136.668 Y114.540 E0.06270
G1 X136.014 Y113.978 E0.02734
G1 X135.284 Y113.470 E0.02821
G1 X134.778 Y113.189 E0.01835
G1 X138.381 Y116.792 E0.16161
G1 X138.708 Y117.458 E0.02353
G1 X138.825 Y117.776 E0.01075
G1 X133.773 Y112.724 E0.22663
G1 X132.973 Y112.463 E0.02670
G1 X139.092 Y118.582 E0.27446
G1 X139.260 Y119.290 E0.02310
G1 X132.276 Y112.305 E0.31331
G1 X131.970 Y112.243 E0.00992
G1 X131.640 Y112.209 E0.01051
G1 X139.358 Y119.927 E0.34622
G1 X139.398 Y120.507 E0.01843
G1 X131.044 Y112.153 E0.37475
G1 X130.505 Y112.153 E0.01711
G1 X139.412 Y121.060 E0.39957
G1 X139.386 Y121.573 E0.01631
G1 X129.986 Y112.174 E0.42165
G1 X129.497 Y112.224 E0.01561
G1 X139.335 Y122.062 E0.44134
G1 X139.264 Y122.530 E0.01501
G1 X129.033 Y112.300 E0.45892
G1 X128.586 Y112.392 E0.01449
G1 X139.166 Y122.972 E0.47461
G1 X139.055 Y123.400 E0.01404
G1 X128.163 Y112.508 E0.48859
G1 X127.752 Y112.637 E0.01365
G1 X138.921 Y123.806 E0.50101
G1 X138.775 Y124.200 E0.01332
G1 X127.362 Y112.786 E0.51198
G1 X126.984 Y112.948 E0.01303
G1 X138.612 Y124.576 E0.52161
G1 X138.435 Y124.938 E0.01279
G1 X126.621 Y113.124 E0.52997
G1 X126.274 Y113.316 E0.01259
G1 X138.248 Y125.290 E0.53713
G1 X138.040 Y125.623 E0.01242
G1 X125.932 Y113.515 E0.54314
G1 X125.614 Y113.736 E0.01229
G1 X137.832 Y125.953 E0.54804
G1 X137.596 Y126.257 E0.01220
G1 X125.296 Y113.958 E0.55175
G1 X125.003 Y114.204 E0.01214
G1 X137.361 Y126.562 E0.55433
G1 X137.105 Y126.845 E0.01212
G1 X124.713 Y114.453 E0.55587
G1 X124.439 Y114.719 E0.01210
G1 X136.842 Y127.122 E0.55638
G1 X136.568 Y127.387 E0.01210
G1 X124.176 Y114.995 E0.55587
G1 X123.920 Y115.279 E0.01212
G1 X136.277 Y127.636 E0.55433
G1 X135.984 Y127.883 E0.01214
G1 X123.685 Y115.583 E0.55175
G1 X123.449 Y115.887 E0.01220
G1 X135.666 Y128.104 E0.54804
G1 X135.348 Y128.325 E0.01229
G1 X123.240 Y116.218 E0.54314
G1 X123.033 Y116.550 E0.01242
G1 X135.007 Y128.524 E0.53713
G1 X134.660 Y128.716 E0.01259
G1 X122.846 Y116.902 E0.52997
G1 X122.668 Y117.264 E0.01279
G1 X134.296 Y128.892 E0.52161
G1 X133.919 Y129.054 E0.01303
G1 X122.506 Y117.641 E0.51198
G1 X122.360 Y118.034 E0.01332
G1 X133.528 Y129.203 E0.50101
G1 X133.118 Y129.332 E0.01365
G1 X122.226 Y118.440 E0.48859
G1 X122.115 Y118.869 E0.01404
G1 X132.695 Y129.449 E0.47460
G1 X132.247 Y129.541 E0.01449
G1 X122.017 Y119.310 E0.45891
G1 X121.946 Y119.778 E0.01501
G1 X131.784 Y129.616 E0.44133
G1 X131.294 Y129.666 E0.01561
G1 X121.895 Y120.267 E0.42165
G1 X121.869 Y120.780 E0.01631
G1 X130.776 Y129.688 E0.39957
G1 X130.237 Y129.688 E0.01711
G1 X121.883 Y121.334 E0.37474
G1 X121.923 Y121.913 E0.01843
G1 X129.641 Y129.631 E0.34621
G1 X129.311 Y129.598 E0.01051
G1 X129.005 Y129.535 E0.00992
G1 X122.020 Y122.550 E0.31330
G1 X122.189 Y123.259 E0.02310
G1 X128.308 Y129.377 E0.27446
G1 X127.507 Y129.116 E0.02670
G1 X122.455 Y124.064 E0.22662
G1 X122.573 Y124.382 E0.01074
G1 X122.900 Y125.048 E0.02354
G1 X126.502 Y128.651 E0.16159
G1 X125.997 Y128.370 E0.01834
G1 X125.267 Y127.862 E0.02821
G1 X124.612 Y127.300 E0.02738
G1 X123.215 Y125.903 E0.06266
G1 E-0.80000 F2100.00000
G1 Z0.800 F10800.000
G1 X117.286 Y106.748
G1 Z0.200
G1 E0.80000 F2100.00000
G1 F1200.000
G1 X117.174 Y106.789 E0.00376
G1 X117.350 Y106.553 E0.00921
G1 X117.604 Y106.137 E0.01530
G1 X118.163 Y104.927 E0.04179
G1 X118.623 Y103.610 E0.04374
G1 X118.933 Y102.399 E0.03920
G1 X119.143 Y101.092 E0.04149
G1 X119.234 Y99.772 E0.04149
G1 X119.205 Y98.449 E0.04149
G1 X119.056 Y97.134 E0.04149
G1 X118.789 Y95.838 E0.04149
