; generated by PrusaSlicer 2.2.0+win64 on 2020-11-04 at 17:35:39 UTC

; 

; external perimeters extrusion width = 0.60mm
; perimeters extrusion width = 0.43mm
; infill extrusion width = 0.45mm
; solid infill extrusion width = 0.70mm
; top infill extrusion width = 0.43mm
; first layer extrusion width = 0.42mm

M73 P0 R6
M201 X9000 Y9000 Z500 E10000 ; sets maximum accelerations, mm/sec^2
M203 X500 Y500 Z12 E120 ; sets maximum feedrates, mm/sec
M204 P2000 R1500 T2000 ; sets acceleration (P, T) and retract acceleration (R), mm/sec^2
M205 X10.00 Y10.00 Z0.20 E2.50 ; sets the jerk limits, mm/sec
M205 S0 T0 ; sets the minimum extruding and travel feed rate, mm/sec
M107
M862.3 P "MK2S" ; printer model check
M862.1 P0.4 ; nozzle diameter check
M115 U3.2.3 ; tell printer latest fw version
G90 ; use absolute coordinates
M83 ; extruder relative mode
M204 S2000 T1500 ; MK2 firmware only supports the old M204 format
M104 S215 ; set extruder temp
M140 S60 ; set bed temp
M190 S60 ; wait for bed temp
M109 S215 ; wait for extruder temp
G28 W ; home all without mesh bed level
G80 ; mesh bed leveling
G1 Y-3.0 F1000.0 ; go outside print area
G92 E0.0
G1 X60.0 E9.0  F1000.0 ; intro line
M73 P1 R6
G1 X100.0 E12.5 F1000.0 ; intro line
G92 E0.0
G21 ; set units to millimeters
G90 ; use absolute coordinates
M83 ; use relative distances for extrusion
M900 K0.05 ; Filament gcode LA 1.5
M900 K30 ; Filament gcode LA 1.0
;BEFORE_LAYER_CHANGE
G92 E0.0
;0.2


G1 E-0.80000 F2100.00000
G1 Z0.600 F10800.000
;AFTER_LAYER_CHANGE
;0.2
G1 X112.470 Y90.369
G1 Z0.200
G1 E0.80000 F2100.00000
M204 S1000
G1 F1200.000
G1 X113.361 Y89.547 E0.03802
G1 X114.307 Y88.953 E0.03503
G1 X115.065 Y88.622 E0.02593
G1 X115.927 Y88.387 E0.02799
G1 X131.485 Y86.640 E0.49088
G1 X132.995 Y86.793 E0.04759
G1 X134.028 Y87.080 E0.03364
G1 X135.401 Y87.727 E0.04758
G1 X136.613 Y88.634 E0.04746
G1 X137.354 Y89.415 E0.03376
G1 X138.198 Y90.677 E0.04759
G1 X138.771 Y92.082 E0.04759
G1 X139.000 Y93.109 E0.03299
G1 X139.067 Y94.764 E0.05193
G1 X136.388 Y120.863 E0.82262
G1 X136.260 Y121.451 E0.01886
G1 X136.009 Y121.997 E0.01886
G1 X135.636 Y122.485 E0.01924
G1 X135.161 Y122.880 E0.01937
G1 X134.613 Y123.157 E0.01924
G1 X134.014 Y123.308 E0.01937
G1 X126.264 Y123.305 E0.24299
G1 X112.782 Y118.907 E0.44464
G1 X112.228 Y118.653 E0.01912
G1 X111.683 Y118.222 E0.02180
G1 X111.262 Y117.668 E0.02180
G1 X110.994 Y117.027 E0.02180
G1 X110.895 Y116.335 E0.02192
G1 X110.899 Y94.270 E0.69184
G1 X111.088 Y92.998 E0.04031
G1 X111.356 Y92.161 E0.02757
G1 X111.802 Y91.274 E0.03112
G1 X112.434 Y90.418 E0.03338
G1 X112.736 Y90.642 F10800.000
G1 F1200.000
G1 X113.597 Y89.840 E0.03688
G1 X114.279 Y89.389 E0.02565
G1 X115.010 Y89.049 E0.02529
G1 X116.028 Y88.751 E0.03326
G1 X131.487 Y87.017 E0.48773
G1 X132.928 Y87.165 E0.04543
G1 X133.894 Y87.433 E0.03144
G1 X135.209 Y88.052 E0.04555
G1 X136.371 Y88.923 E0.04555
G1 X137.058 Y89.648 E0.03132
G1 X137.866 Y90.856 E0.04555
G1 X138.414 Y92.205 E0.04567
G1 X138.628 Y93.173 E0.03108
G1 X138.691 Y94.731 E0.04887
G1 X136.013 Y120.821 E0.82233
G1 X135.901 Y121.337 E0.01657
G1 X135.678 Y121.816 E0.01657
G1 X135.349 Y122.239 E0.01680
G1 X134.933 Y122.578 E0.01680
G1 X134.449 Y122.816 E0.01692
G1 X133.927 Y122.938 E0.01680
G1 X126.295 Y122.929 E0.23930
G1 X112.901 Y118.549 E0.44186
G1 X112.411 Y118.322 E0.01692
G1 X111.942 Y117.948 E0.01882
G1 X111.582 Y117.468 E0.01882
G1 X111.353 Y116.912 E0.01882
G1 X111.271 Y116.318 E0.01882
G1 X111.276 Y94.288 E0.69072
G1 X111.452 Y93.092 E0.03793
G1 X111.707 Y92.298 E0.02612
G1 X112.138 Y91.446 E0.02995
G1 X112.700 Y90.690 E0.02954
G1 E-0.80000 F2100.00000
G1 Z0.800 F10800.000
G1 X127.474 Y93.587
G1 Z0.200
G1 E0.80000 F2100.00000
G1 F1200.000
G1 X127.568 Y93.157 E0.01379
G1 X127.709 Y92.740 E0.01379
G1 X127.894 Y92.341 E0.01379
G1 X128.120 Y91.964 E0.01379
G1 X128.386 Y91.614 E0.01379
G1 X128.689 Y91.295 E0.01379
G1 X129.024 Y91.010 E0.01379
G1 X129.388 Y90.763 E0.01379
G1 X129.777 Y90.557 E0.01379
G1 X130.185 Y90.395 E0.01379
G1 X130.609 Y90.277 E0.01379
G1 X131.043 Y90.206 E0.01379
G1 X131.482 Y90.182 E0.01379
G1 X131.907 Y90.205 E0.01334
G1 X132.356 Y90.277 E0.01427
G1 X132.779 Y90.395 E0.01376
G1 X133.188 Y90.557 E0.01379
G1 X133.576 Y90.763 E0.01379
G1 X133.940 Y91.010 E0.01379
G1 X134.275 Y91.295 E0.01379
G1 X134.578 Y91.614 E0.01379
G1 X134.844 Y91.964 E0.01379
G1 X135.071 Y92.341 E0.01379
G1 X135.255 Y92.740 E0.01379
G1 X135.396 Y93.157 E0.01379
G1 X135.490 Y93.587 E0.01379
G1 X135.538 Y94.024 E0.01379
G1 X135.538 Y94.464 E0.01379
G1 X135.490 Y94.901 E0.01379
G1 X135.396 Y95.330 E0.01379
G1 X135.255 Y95.747 E0.01379
G1 X135.071 Y96.146 E0.01379
G1 X134.844 Y96.523 E0.01379
G1 X134.578 Y96.873 E0.01379
G1 X134.275 Y97.193 E0.01379
G1 X133.940 Y97.477 E0.01379
G1 X133.576 Y97.724 E0.01379
G1 X133.188 Y97.930 E0.01379
G1 X132.779 Y98.093 E0.01379
G1 X132.355 Y98.211 E0.01379
G1 X131.921 Y98.282 E0.01379
G1 X131.482 Y98.305 E0.01379
G1 X131.043 Y98.282 E0.01379
G1 X130.609 Y98.211 E0.01379
G1 X130.185 Y98.093 E0.01379
G1 X129.777 Y97.930 E0.01379
G1 X129.388 Y97.724 E0.01379
G1 X129.024 Y97.477 E0.01379
G1 X128.689 Y97.193 E0.01379
G1 X128.386 Y96.873 E0.01379
G1 X128.120 Y96.523 E0.01379
G1 X127.894 Y96.146 E0.01379
G1 X127.709 Y95.747 E0.01379
G1 X127.568 Y95.330 E0.01379
G1 X127.474 Y94.901 E0.01379
G1 X127.426 Y94.464 E0.01379
G1 X127.426 Y94.024 E0.01379
G1 X127.467 Y93.646 E0.01191
G1 X127.093 Y93.605 F10800.000
G1 F1200.000
G1 X127.205 Y93.056 E0.01758
G1 X127.358 Y92.601 E0.01507
G1 X127.560 Y92.164 E0.01507
G1 X127.808 Y91.752 E0.01507
G1 X128.099 Y91.370 E0.01507
G1 X128.429 Y91.021 E0.01507
G1 X128.796 Y90.710 E0.01507
G1 X129.193 Y90.440 E0.01507
G1 X129.618 Y90.215 E0.01507
G1 X130.065 Y90.037 E0.01507
G1 X130.528 Y89.908 E0.01507
G1 X131.002 Y89.830 E0.01507
G1 X131.482 Y89.804 E0.01507
G1 X131.947 Y89.830 E0.01460
G1 X132.437 Y89.908 E0.01555
G1 X132.900 Y90.037 E0.01506
G1 X133.346 Y90.215 E0.01507
G1 X133.771 Y90.440 E0.01507
G1 X134.169 Y90.710 E0.01507
G1 X134.535 Y91.021 E0.01507
G1 X134.866 Y91.370 E0.01507
G1 X135.157 Y91.752 E0.01507
G1 X135.404 Y92.164 E0.01507
G1 X135.606 Y92.601 E0.01507
G1 X135.760 Y93.056 E0.01507
G1 X135.863 Y93.526 E0.01507
G1 X135.915 Y94.003 E0.01507
G1 X135.915 Y94.484 E0.01507
G1 X135.863 Y94.962 E0.01507
G1 X135.760 Y95.431 E0.01507
G1 X135.606 Y95.887 E0.01507
G1 X135.404 Y96.323 E0.01507
G1 X135.157 Y96.735 E0.01507
G1 X134.866 Y97.118 E0.01507
G1 X134.535 Y97.467 E0.01507
G1 X134.169 Y97.778 E0.01507
G1 X133.771 Y98.048 E0.01507
G1 X133.346 Y98.273 E0.01507
G1 X132.900 Y98.451 E0.01507
G1 X132.436 Y98.579 E0.01507
G1 X131.962 Y98.657 E0.01507
G1 X131.482 Y98.683 E0.01507
G1 X131.002 Y98.657 E0.01507
G1 X130.528 Y98.579 E0.01507
G1 X130.065 Y98.451 E0.01507
G1 X129.618 Y98.273 E0.01507
G1 X129.193 Y98.048 E0.01507
G1 X128.796 Y97.778 E0.01507
G1 X128.429 Y97.467 E0.01507
G1 X128.099 Y97.118 E0.01507
G1 X127.808 Y96.735 E0.01507
G1 X127.560 Y96.323 E0.01507
G1 X127.358 Y95.887 E0.01507
G1 X127.205 Y95.431 E0.01507
G1 X127.101 Y94.962 E0.01507
G1 X127.049 Y94.484 E0.01507
G1 X127.049 Y94.003 E0.01507
G1 X127.086 Y93.665 E0.01067
G1 X127.465 Y93.460 F10800.000
G1 E-0.80000 F2100.00000
G1 Z0.800 F10800.000
G1 X134.965 Y92.386
G1 Z0.200
G1 E0.80000 F2100.00000
G1 F1200.000
G1 X134.079 Y91.499 E0.03936
G1 X133.769 Y91.236 E0.01279
G1 X133.430 Y91.006 E0.01285
G1 X133.069 Y90.814 E0.01285
G1 X132.722 Y90.676 E0.01172
G1 X135.044 Y92.998 E0.10312
G1 X135.123 Y93.233 E0.00778
G1 X135.219 Y93.707 E0.01521
G1 X132.021 Y90.510 E0.14202
G1 X131.877 Y90.487 E0.00460
G1 X131.445 Y90.467 E0.01358
G1 X135.255 Y94.278 E0.16924
G1 X135.219 Y94.776 E0.01570
G1 X130.951 Y90.507 E0.18960
G1 X130.508 Y90.599 E0.01421
G1 X135.130 Y95.221 E0.20532
G1 X134.999 Y95.624 E0.01330
G1 X130.106 Y90.731 E0.21732
G1 X129.739 Y90.898 E0.01267
G1 X134.831 Y95.990 E0.22620
G1 X134.633 Y96.326 E0.01225
G1 X129.402 Y91.096 E0.23231
G1 X129.094 Y91.322 E0.01200
G1 X134.405 Y96.633 E0.23590
G1 X134.151 Y96.913 E0.01188
G1 X128.813 Y91.575 E0.23708
G1 X128.559 Y91.855 E0.01188
G1 X133.870 Y97.166 E0.23590
G1 X133.562 Y97.392 E0.01200
G1 X128.332 Y92.162 E0.23231
G1 X128.133 Y92.497 E0.01225
G1 X133.226 Y97.590 E0.22619
G1 X132.859 Y97.757 E0.01267
G1 X127.966 Y92.864 E0.21732
G1 X127.834 Y93.266 E0.01330
G1 X132.457 Y97.889 E0.20531
G1 X132.013 Y97.980 E0.01421
G1 X127.745 Y93.711 E0.18959
G1 X127.709 Y94.210 E0.01570
G1 X131.520 Y98.020 E0.16924
G1 X130.944 Y97.979 E0.01812
G1 X127.745 Y94.780 E0.14207
G1 X127.841 Y95.255 E0.01520
G1 X127.920 Y95.490 E0.00779
G1 X130.242 Y97.811 E0.10311
G1 X129.896 Y97.673 E0.01171
G1 X129.534 Y97.481 E0.01285
G1 X129.195 Y97.252 E0.01285
G1 X128.884 Y96.988 E0.01282
G1 X127.999 Y96.102 E0.03932
G1 E-0.80000 F2100.00000
G1 Z0.800 F10800.000
G1 X119.861 Y115.506
G1 Z0.200
G1 E0.80000 F2100.00000
G1 F1200.000
G1 X114.435 Y115.506 E0.17012
G1 X114.435 Y94.551 E0.65701
G1 X114.501 Y93.941 E0.01924
G1 X114.634 Y93.507 E0.01422
G1 X114.841 Y93.097 E0.01441
G1 X115.114 Y92.727 E0.01441
G1 X115.446 Y92.409 E0.01441
G1 X115.827 Y92.152 E0.01441
G1 X116.246 Y91.963 E0.01441
G1 X116.690 Y91.847 E0.01441
G1 X117.148 Y91.808 E0.01441
G1 X117.606 Y91.847 E0.01441
G1 X118.051 Y91.963 E0.01441
G1 X118.470 Y92.152 E0.01441
G1 X118.851 Y92.409 E0.01441
G1 X119.183 Y92.727 E0.01441
G1 X119.456 Y93.097 E0.01441
G1 X119.663 Y93.507 E0.01441
G1 X119.798 Y93.947 E0.01441
G1 X119.858 Y94.422 E0.01501
G1 X119.861 Y115.446 E0.65920
G1 X120.238 Y115.883 F10800.000
G1 F1200.000
G1 X114.058 Y115.883 E0.19377
G1 X114.058 Y94.531 E0.66947
G1 X114.130 Y93.865 E0.02101
G1 X114.283 Y93.366 E0.01636
G1 X114.518 Y92.899 E0.01642
G1 X114.830 Y92.477 E0.01642
G1 X115.208 Y92.115 E0.01642
G1 X115.642 Y91.822 E0.01642
G1 X116.119 Y91.606 E0.01642
G1 X116.626 Y91.474 E0.01642
G1 X117.148 Y91.429 E0.01642
G1 X117.670 Y91.474 E0.01642
G1 X118.177 Y91.606 E0.01643
G1 X118.655 Y91.822 E0.01642
G1 X119.089 Y92.115 E0.01642
G1 X119.467 Y92.477 E0.01642
G1 X119.778 Y92.899 E0.01642
G1 X120.014 Y93.366 E0.01642
G1 X120.168 Y93.867 E0.01642
G1 X120.235 Y94.398 E0.01677
G1 X120.238 Y115.823 E0.67177
G1 X119.892 Y115.683 F10800.000
G1 E-0.80000 F2100.00000
G1 Z0.800 F10800.000
G1 X119.715 Y94.193
G1 Z0.200
G1 E0.80000 F2100.00000
G1 F1200.000
G1 X117.680 Y92.158 E0.09027
G1 X117.558 Y92.126 E0.00393
G1 X117.085 Y92.097 E0.01487
G1 X119.576 Y94.587 E0.11046
G1 X119.576 Y95.121 E0.01673
G1 X116.614 Y92.159 E0.13137
G1 X116.340 Y92.230 E0.00887
G1 X116.210 Y92.289 E0.00447
G1 X119.576 Y95.654 E0.14927
G1 X119.576 Y96.188 E0.01673
G1 X115.859 Y92.471 E0.16484
G1 X115.553 Y92.698 E0.01196
G1 X119.576 Y96.721 E0.17843
G1 X119.576 Y97.255 E0.01673
G1 X115.288 Y92.967 E0.19017
G1 X115.066 Y93.278 E0.01199
G1 X119.576 Y97.788 E0.20003
G1 X119.576 Y98.322 E0.01673
G1 X114.890 Y93.636 E0.20784
G1 X114.773 Y94.052 E0.01357
G1 X119.576 Y98.855 E0.21302
G1 X119.576 Y99.389 E0.01673
G1 X114.722 Y94.534 E0.21531
G1 X114.718 Y94.566 E0.00102
G1 X114.718 Y95.064 E0.01560
G1 X119.576 Y99.922 E0.21547
G1 X119.576 Y100.456 E0.01673
G1 X114.718 Y95.597 E0.21547
G1 X114.718 Y96.131 E0.01673
G1 X119.576 Y100.989 E0.21548
G1 X119.577 Y101.523 E0.01673
G1 X114.718 Y96.664 E0.21548
G1 X114.718 Y97.198 E0.01673
G1 X119.577 Y102.056 E0.21548
G1 X119.577 Y102.589 E0.01673
G1 X114.718 Y97.731 E0.21549
G1 X114.718 Y98.264 E0.01673
G1 X119.577 Y103.123 E0.21549
G1 X119.577 Y103.656 E0.01673
G1 X114.718 Y98.798 E0.21549
G1 X114.718 Y99.331 E0.01673
G1 X119.577 Y104.190 E0.21550
G1 X119.577 Y104.723 E0.01673
G1 X114.718 Y99.865 E0.21550
G1 X114.718 Y100.398 E0.01673
G1 X119.577 Y105.257 E0.21550
G1 X119.577 Y105.790 E0.01673
G1 X114.718 Y100.931 E0.21550
G1 X114.718 Y101.465 E0.01673
G1 X119.577 Y106.324 E0.21551
G1 X119.577 Y106.857 E0.01673
G1 X114.718 Y101.998 E0.21551
G1 X114.718 Y102.532 E0.01673
G1 X119.577 Y107.391 E0.21551
G1 X119.577 Y107.924 E0.01673
G1 X114.718 Y103.065 E0.21552
G1 X114.718 Y103.598 E0.01673
G1 X119.577 Y108.458 E0.21552
G1 X119.578 Y108.991 E0.01673
G1 X114.718 Y104.132 E0.21552
G1 X114.718 Y104.665 E0.01673
G1 X119.578 Y109.525 E0.21553
G1 X119.578 Y110.058 E0.01673
G1 X114.718 Y105.199 E0.21553
G1 X114.718 Y105.732 E0.01673
G1 X119.578 Y110.592 E0.21553
G1 X119.578 Y111.125 E0.01673
G1 X114.718 Y106.265 E0.21554
G1 X114.718 Y106.799 E0.01673
G1 X119.578 Y111.659 E0.21554
G1 X119.578 Y112.192 E0.01673
G1 X114.718 Y107.332 E0.21554
G1 X114.718 Y107.866 E0.01673
G1 X119.578 Y112.726 E0.21555
G1 X119.578 Y113.259 E0.01673
G1 X114.718 Y108.399 E0.21555
G1 X114.718 Y108.933 E0.01673
G1 X119.578 Y113.792 E0.21555
G1 X119.578 Y114.326 E0.01673
G1 X114.718 Y109.466 E0.21556
G1 X114.718 Y109.999 E0.01673
G1 X119.578 Y114.859 E0.21556
G1 X119.578 Y115.223 E0.01140
G1 X119.408 Y115.223 E0.00533
G1 X114.718 Y110.533 E0.20802
G1 X114.718 Y111.066 E0.01673
G1 X118.875 Y115.223 E0.18437
G1 X118.342 Y115.223 E0.01673
G1 X114.718 Y111.600 E0.16071
G1 X114.718 Y112.133 E0.01673
G1 X117.808 Y115.223 E0.13705
G1 X117.275 Y115.223 E0.01673
G1 X114.718 Y112.666 E0.11339
G1 X114.718 Y113.200 E0.01673
G1 X116.741 Y115.223 E0.08973
G1 X116.208 Y115.223 E0.01673
G1 X114.718 Y113.733 E0.06608
G1 X114.718 Y114.267 E0.01673
G1 X115.675 Y115.223 E0.04242
G1 X115.141 Y115.223 E0.01673
G1 X114.549 Y114.630 E0.02629
G1 E-0.80000 F2100.00000
G1 Z0.800 F10800.000
G1 X127.435 Y119.791
G1 Z0.200
G1 E0.80000 F2100.00000
G1 F1200.000
G1 X127.435 Y108.561 E0.35210
G1 X127.465 Y108.147 E0.01301
G1 X127.547 Y107.769 E0.01213
G1 X127.682 Y107.407 E0.01213
G1 X127.868 Y107.067 E0.01213
G1 X128.100 Y106.758 E0.01213
G1 X128.373 Y106.484 E0.01213
G1 X128.683 Y106.252 E0.01213
G1 X129.022 Y106.067 E0.01213
G1 X129.385 Y105.932 E0.01213
G1 X129.763 Y105.850 E0.01213
G1 X130.148 Y105.822 E0.01213
G1 X130.534 Y105.850 E0.01213
G1 X130.912 Y105.932 E0.01213
G1 X131.275 Y106.067 E0.01213
G1 X131.614 Y106.252 E0.01213
G1 X131.924 Y106.484 E0.01213
G1 X132.197 Y106.758 E0.01213
G1 X132.429 Y107.067 E0.01213
G1 X132.614 Y107.407 E0.01213
G1 X132.749 Y107.769 E0.01213
G1 X132.832 Y108.147 E0.01213
G1 X132.861 Y108.561 E0.01301
G1 X132.861 Y119.791 E0.35210
G1 X127.495 Y119.791 E0.16824
G1 X127.058 Y120.168 F10800.000
G1 F1200.000
G1 X127.058 Y108.547 E0.36435
G1 X127.091 Y108.093 E0.01428
G1 X127.185 Y107.663 E0.01382
G1 X127.339 Y107.250 E0.01382
G1 X127.550 Y106.863 E0.01382
G1 X127.814 Y106.510 E0.01382
G1 X128.126 Y106.198 E0.01382
G1 X128.478 Y105.934 E0.01382
G1 X128.865 Y105.723 E0.01382
G1 X129.278 Y105.569 E0.01382
G1 X129.709 Y105.475 E0.01382
G1 X130.148 Y105.444 E0.01382
G1 X130.588 Y105.475 E0.01382
G1 X131.019 Y105.569 E0.01382
G1 X131.432 Y105.723 E0.01382
G1 X131.818 Y105.934 E0.01382
G1 X132.171 Y106.198 E0.01382
G1 X132.483 Y106.510 E0.01382
G1 X132.747 Y106.863 E0.01382
G1 X132.958 Y107.250 E0.01382
G1 X133.112 Y107.663 E0.01382
G1 X133.206 Y108.093 E0.01382
G1 X133.238 Y108.547 E0.01428
G1 X133.238 Y120.168 E0.36435
G1 X127.118 Y120.168 E0.19189
G1 X127.123 Y119.773 F10800.000
G1 E-0.80000 F2100.00000
G1 Z0.800 F10800.000
G1 X132.526 Y107.492
G1 Z0.200
G1 E0.80000 F2100.00000
G1 F1200.000
G1 X131.712 Y106.679 E0.03692
G1 X131.461 Y106.491 E0.01009
G1 X131.157 Y106.325 E0.01112
G1 X130.832 Y106.204 E0.01112
G1 X130.652 Y106.164 E0.00593
G1 X132.517 Y108.030 E0.08468
G1 X132.551 Y108.187 E0.00518
G1 X132.578 Y108.637 E0.01447
G1 X130.053 Y106.112 E0.11465
G1 X129.803 Y106.130 E0.00806
G1 X129.575 Y106.180 E0.00749
G1 X132.578 Y109.183 E0.13637
G1 X132.578 Y109.729 E0.01753
G1 X129.165 Y106.316 E0.15500
G1 X128.812 Y106.509 E0.01291
G1 X132.578 Y110.275 E0.17101
G1 X132.578 Y110.822 E0.01753
G1 X128.507 Y106.750 E0.18485
G1 X128.246 Y107.035 E0.01241
G1 X132.578 Y111.368 E0.19673
G1 X132.578 Y111.914 E0.01753
G1 X128.028 Y107.363 E0.20659
G1 X127.940 Y107.524 E0.00589
G1 X127.860 Y107.741 E0.00741
G1 X132.578 Y112.460 E0.21425
G1 X132.578 Y113.006 E0.01753
G1 X127.748 Y108.175 E0.21930
G1 X127.718 Y108.691 E0.01659
G1 X132.578 Y113.552 E0.22067
G1 X132.578 Y114.098 E0.01753
G1 X127.718 Y109.237 E0.22067
G1 X127.718 Y109.783 E0.01753
