; generated by PrusaSlicer 2.2.0+win64 on 2020-12-30 at 21:14:43 UTC

; 

; external perimeters extrusion width = 0.60mm
; perimeters extrusion width = 0.43mm
; infill extrusion width = 0.45mm
; solid infill extrusion width = 0.70mm
; top infill extrusion width = 0.43mm
; first layer extrusion width = 0.42mm

M73 P0 R161
M201 X9000 Y9000 Z500 E10000 ; sets maximum accelerations, mm/sec^2
M203 X500 Y500 Z12 E120 ; sets maximum feedrates, mm/sec
M204 P2000 R1500 T2000 ; sets acceleration (P, T) and retract acceleration (R), mm/sec^2
M205 X10.00 Y10.00 Z0.20 E2.50 ; sets the jerk limits, mm/sec
M205 S0 T0 ; sets the minimum extruding and travel feed rate, mm/sec
M107
M862.3 P "MK2S" ; printer model check
M862.1 P0.4 ; nozzle diameter check
M115 U3.2.3 ; tell printer latest fw version
G90 ; use absolute coordinates
M83 ; extruder relative mode
M204 S2000 T1500 ; MK2 firmware only supports the old M204 format
M104 S215 ; set extruder temp
M140 S60 ; set bed temp
M190 S60 ; wait for bed temp
M109 S215 ; wait for extruder temp
G28 W ; home all without mesh bed level
G80 ; mesh bed leveling
G1 Y-3.0 F1000.0 ; go outside print area
G92 E0.0
G1 X60.0 E9.0  F1000.0 ; intro line
M73 P0 R161
G1 X100.0 E12.5 F1000.0 ; intro line
G92 E0.0
G21 ; set units to millimeters
G90 ; use absolute coordinates
M83 ; use relative distances for extrusion
M900 K0.05 ; Filament gcode LA 1.5
M900 K30 ; Filament gcode LA 1.0
;BEFORE_LAYER_CHANGE
G92 E0.0
;0.2


G1 E-0.80000 F2100.00000
G1 Z0.600 F10800.000
;AFTER_LAYER_CHANGE
;0.2
G1 X30.664 Y53.275
G1 Z0.200
G1 E0.80000 F2100.00000
M204 S1000
G1 F1200.000
G1 X31.195 Y52.908 E0.02024
G1 X31.716 Y52.717 E0.01740
G1 X32.263 Y52.652 E0.01728
G1 X217.736 Y52.652 E5.81537
G1 X218.638 Y52.832 E0.02884
G1 X219.404 Y53.340 E0.02884
G1 X219.921 Y54.101 E0.02884
G1 X220.109 Y55.002 E0.02884
G1 X220.109 Y146.520 E2.86948
G1 X220.012 Y147.158 E0.02024
G1 X219.747 Y147.746 E0.02024
G1 X219.333 Y148.242 E0.02024
G1 X218.805 Y148.606 E0.02012
G1 X218.284 Y148.797 E0.01740
G1 X217.737 Y148.862 E0.01728
G1 X32.257 Y148.862 E5.81561
G1 X31.614 Y148.771 E0.02036
G1 X31.020 Y148.508 E0.02036
G1 X30.516 Y148.092 E0.02048
G1 X30.147 Y147.558 E0.02036
G1 X29.956 Y147.037 E0.01740
G1 X29.891 Y146.490 E0.01728
G1 X29.891 Y55.003 E2.86852
G1 X29.986 Y54.364 E0.02024
G1 X30.249 Y53.775 E0.02024
G1 X30.625 Y53.321 E0.01848
G1 E-0.80000 F2100.00000
G1 Z0.800 F10800.000
G1 X128.787 Y55.817
G1 Z0.200
G1 E0.80000 F2100.00000
G1 F1200.000
G1 X216.945 Y55.817 E2.76413
G1 X216.945 Y66.242 E0.32690
G1 X128.787 Y66.242 E2.76413
G1 X128.787 Y55.877 E0.32501
G1 X128.410 Y55.439 F10800.000
G1 F1200.000
G1 X217.322 Y55.439 E2.78778
G1 X217.322 Y66.619 E0.35054
G1 X128.410 Y66.619 E2.78778
G1 X128.410 Y55.499 E0.34866
G1 X128.810 Y55.456 F10800.000
G1 E-0.80000 F2100.00000
G1 Z0.800 F10800.000
G1 X216.832 Y56.693
G1 Z0.200
G1 E0.80000 F2100.00000
G1 F1200.000
G1 X216.239 Y56.099 E0.02633
G1 X215.705 Y56.099 E0.01675
G1 X216.662 Y57.057 E0.04249
G1 X216.662 Y57.590 E0.01675
G1 X215.171 Y56.099 E0.06617
G1 X214.637 Y56.099 E0.01675
G1 X216.662 Y58.124 E0.08986
G1 X216.662 Y58.658 E0.01675
G1 X214.104 Y56.099 E0.11355
G1 X213.570 Y56.099 E0.01675
G1 X216.662 Y59.192 E0.13723
G1 X216.662 Y59.725 E0.01675
G1 X213.036 Y56.099 E0.16092
G1 X212.502 Y56.099 E0.01675
G1 X216.662 Y60.259 E0.18461
G1 X216.662 Y60.793 E0.01675
G1 X211.969 Y56.099 E0.20829
G1 X211.435 Y56.099 E0.01675
G1 X216.662 Y61.326 E0.23198
G1 X216.662 Y61.860 E0.01675
G1 X210.901 Y56.099 E0.25567
G1 X210.368 Y56.099 E0.01675
G1 X216.662 Y62.394 E0.27936
G1 X216.662 Y62.928 E0.01675
G1 X209.834 Y56.099 E0.30304
G1 X209.300 Y56.099 E0.01675
G1 X216.662 Y63.461 E0.32673
G1 X216.662 Y63.995 E0.01675
G1 X208.766 Y56.099 E0.35042
G1 X208.233 Y56.099 E0.01675
G1 X216.662 Y64.529 E0.37410
G1 X216.662 Y65.063 E0.01675
G1 X207.699 Y56.099 E0.39779
G1 X207.165 Y56.099 E0.01675
G1 X216.662 Y65.596 E0.42148
M73 P0 R160
G1 X216.662 Y65.960 E0.01140
G1 X216.492 Y65.960 E0.00535
G1 X206.631 Y56.099 E0.43760
G1 X206.098 Y56.099 E0.01675
G1 X215.958 Y65.960 E0.43760
G1 X215.424 Y65.960 E0.01675
G1 X205.564 Y56.099 E0.43760
G1 X205.030 Y56.099 E0.01675
G1 X214.890 Y65.960 E0.43760
G1 X214.357 Y65.960 E0.01675
G1 X204.496 Y56.099 E0.43760
G1 X203.963 Y56.099 E0.01675
G1 X213.823 Y65.960 E0.43760
G1 X213.289 Y65.960 E0.01675
G1 X203.429 Y56.099 E0.43760
G1 X202.895 Y56.099 E0.01675
G1 X212.756 Y65.960 E0.43760
G1 X212.222 Y65.960 E0.01675
G1 X202.362 Y56.099 E0.43760
G1 X201.828 Y56.099 E0.01675
G1 X211.688 Y65.960 E0.43760
G1 X211.154 Y65.960 E0.01675
G1 X201.294 Y56.099 E0.43760
G1 X200.760 Y56.099 E0.01675
G1 X210.621 Y65.960 E0.43760
G1 X210.087 Y65.960 E0.01675
G1 X200.227 Y56.099 E0.43760
G1 X199.693 Y56.099 E0.01675
G1 X209.553 Y65.960 E0.43760
G1 X209.019 Y65.960 E0.01675
G1 X199.159 Y56.099 E0.43760
G1 X198.625 Y56.099 E0.01675
G1 X208.486 Y65.960 E0.43760
G1 X207.952 Y65.960 E0.01675
G1 X198.092 Y56.099 E0.43760
G1 X197.558 Y56.099 E0.01675
G1 X207.418 Y65.960 E0.43760
G1 X206.885 Y65.960 E0.01675
G1 X197.024 Y56.099 E0.43760
G1 X196.491 Y56.099 E0.01675
G1 X206.351 Y65.960 E0.43760
G1 X205.817 Y65.960 E0.01675
G1 X195.957 Y56.099 E0.43760
G1 X195.423 Y56.099 E0.01675
G1 X205.283 Y65.960 E0.43760
G1 X204.750 Y65.960 E0.01675
G1 X194.889 Y56.099 E0.43760
G1 X194.356 Y56.099 E0.01675
G1 X204.216 Y65.960 E0.43760
G1 X203.682 Y65.960 E0.01675
G1 X193.822 Y56.099 E0.43760
G1 X193.288 Y56.099 E0.01675
G1 X203.148 Y65.960 E0.43760
G1 X202.615 Y65.960 E0.01675
G1 X192.754 Y56.099 E0.43760
G1 X192.221 Y56.099 E0.01675
G1 X202.081 Y65.960 E0.43760
G1 X201.547 Y65.960 E0.01675
G1 X191.687 Y56.099 E0.43760
G1 X191.153 Y56.099 E0.01675
G1 X201.013 Y65.960 E0.43760
G1 X200.480 Y65.960 E0.01675
G1 X190.619 Y56.099 E0.43760
G1 X190.086 Y56.099 E0.01675
G1 X199.946 Y65.960 E0.43760
G1 X199.412 Y65.960 E0.01675
G1 X189.552 Y56.099 E0.43760
G1 X189.018 Y56.099 E0.01675
G1 X198.879 Y65.960 E0.43760
G1 X198.345 Y65.960 E0.01675
G1 X188.485 Y56.099 E0.43760
G1 X187.951 Y56.099 E0.01675
G1 X197.811 Y65.960 E0.43760
G1 X197.277 Y65.960 E0.01675
G1 X187.417 Y56.099 E0.43760
G1 X186.883 Y56.099 E0.01675
G1 X196.744 Y65.960 E0.43760
G1 X196.210 Y65.960 E0.01675
G1 X186.350 Y56.099 E0.43760
G1 X185.816 Y56.099 E0.01675
G1 X195.676 Y65.960 E0.43760
G1 X195.142 Y65.960 E0.01675
G1 X185.282 Y56.099 E0.43760
G1 X184.748 Y56.099 E0.01675
G1 X194.609 Y65.960 E0.43760
G1 X194.075 Y65.960 E0.01675
G1 X184.215 Y56.099 E0.43760
G1 X183.681 Y56.099 E0.01675
G1 X193.541 Y65.960 E0.43760
G1 X193.007 Y65.960 E0.01675
G1 X183.147 Y56.099 E0.43760
G1 X182.614 Y56.099 E0.01675
G1 X192.474 Y65.960 E0.43760
G1 X191.940 Y65.960 E0.01675
G1 X182.080 Y56.099 E0.43760
G1 X181.546 Y56.099 E0.01675
G1 X191.406 Y65.960 E0.43760
G1 X190.873 Y65.960 E0.01675
G1 X181.012 Y56.099 E0.43760
G1 X180.479 Y56.099 E0.01675
G1 X190.339 Y65.960 E0.43760
G1 X189.805 Y65.960 E0.01675
G1 X179.945 Y56.099 E0.43760
G1 X179.411 Y56.099 E0.01675
G1 X189.271 Y65.960 E0.43760
G1 X188.738 Y65.960 E0.01675
G1 X178.877 Y56.099 E0.43760
G1 X178.344 Y56.099 E0.01675
G1 X188.204 Y65.960 E0.43760
G1 X187.670 Y65.960 E0.01675
G1 X177.810 Y56.099 E0.43760
G1 X177.276 Y56.099 E0.01675
G1 X187.136 Y65.960 E0.43760
G1 X186.603 Y65.960 E0.01675
G1 X176.742 Y56.099 E0.43760
G1 X176.209 Y56.099 E0.01675
G1 X186.069 Y65.960 E0.43760
G1 X185.535 Y65.960 E0.01675
G1 X175.675 Y56.099 E0.43760
G1 X175.141 Y56.099 E0.01675
G1 X185.002 Y65.960 E0.43760
G1 X184.468 Y65.960 E0.01675
G1 X174.608 Y56.099 E0.43760
G1 X174.074 Y56.099 E0.01675
G1 X183.934 Y65.960 E0.43760
G1 X183.400 Y65.960 E0.01675
G1 X173.540 Y56.099 E0.43760
G1 X173.006 Y56.099 E0.01675
G1 X182.867 Y65.960 E0.43760
G1 X182.333 Y65.960 E0.01675
G1 X172.473 Y56.099 E0.43760
G1 X171.939 Y56.099 E0.01675
G1 X181.799 Y65.960 E0.43760
G1 X181.265 Y65.960 E0.01675
G1 X171.405 Y56.099 E0.43760
G1 X170.871 Y56.099 E0.01675
G1 X180.732 Y65.960 E0.43760
G1 X180.198 Y65.960 E0.01675
G1 X170.338 Y56.099 E0.43760
G1 X169.804 Y56.099 E0.01675
G1 X179.664 Y65.960 E0.43760
G1 X179.130 Y65.960 E0.01675
G1 X169.270 Y56.099 E0.43760
G1 X168.737 Y56.099 E0.01675
G1 X178.597 Y65.960 E0.43760
G1 X178.063 Y65.960 E0.01675
G1 X168.203 Y56.099 E0.43760
G1 X167.669 Y56.099 E0.01675
G1 X177.529 Y65.960 E0.43760
G1 X176.996 Y65.960 E0.01675
G1 X167.135 Y56.099 E0.43760
G1 X166.602 Y56.099 E0.01675
G1 X176.462 Y65.960 E0.43760
G1 X175.928 Y65.960 E0.01675
G1 X166.068 Y56.099 E0.43760
G1 X165.534 Y56.099 E0.01675
G1 X175.394 Y65.960 E0.43760
G1 X174.861 Y65.960 E0.01675
G1 X165.000 Y56.099 E0.43760
G1 X164.467 Y56.099 E0.01675
G1 X174.327 Y65.960 E0.43760
G1 X173.793 Y65.960 E0.01675
G1 X163.933 Y56.099 E0.43760
G1 X163.399 Y56.099 E0.01675
G1 X173.259 Y65.960 E0.43760
G1 X172.726 Y65.960 E0.01675
G1 X162.865 Y56.099 E0.43760
M73 P1 R159
G1 X162.332 Y56.099 E0.01675
G1 X172.192 Y65.960 E0.43760
G1 X171.658 Y65.960 E0.01675
G1 X161.798 Y56.099 E0.43760
G1 X161.264 Y56.099 E0.01675
G1 X171.125 Y65.960 E0.43760
G1 X170.591 Y65.960 E0.01675
G1 X160.731 Y56.099 E0.43760
G1 X160.197 Y56.099 E0.01675
G1 X170.057 Y65.960 E0.43760
G1 X169.523 Y65.960 E0.01675
G1 X159.663 Y56.099 E0.43760
G1 X159.129 Y56.099 E0.01675
G1 X168.990 Y65.960 E0.43760
G1 X168.456 Y65.960 E0.01675
G1 X158.596 Y56.099 E0.43760
G1 X158.062 Y56.099 E0.01675
G1 X167.922 Y65.960 E0.43760
G1 X167.388 Y65.960 E0.01675
G1 X157.528 Y56.099 E0.43760
G1 X156.994 Y56.099 E0.01675
G1 X166.855 Y65.960 E0.43760
G1 X166.321 Y65.960 E0.01675
G1 X156.461 Y56.099 E0.43760
G1 X155.927 Y56.099 E0.01675
G1 X165.787 Y65.960 E0.43760
G1 X165.253 Y65.960 E0.01675
G1 X155.393 Y56.099 E0.43760
G1 X154.859 Y56.099 E0.01675
G1 X164.720 Y65.960 E0.43760
G1 X164.186 Y65.960 E0.01675
G1 X154.326 Y56.099 E0.43760
G1 X153.792 Y56.099 E0.01675
G1 X163.652 Y65.960 E0.43760
G1 X163.119 Y65.960 E0.01675
G1 X153.258 Y56.099 E0.43760
G1 X152.725 Y56.099 E0.01675
G1 X162.585 Y65.960 E0.43760
G1 X162.051 Y65.960 E0.01675
G1 X152.191 Y56.099 E0.43760
G1 X151.657 Y56.099 E0.01675
G1 X161.517 Y65.960 E0.43760
G1 X160.984 Y65.960 E0.01675
G1 X151.123 Y56.099 E0.43760
G1 X150.590 Y56.099 E0.01675
G1 X160.450 Y65.960 E0.43760
G1 X159.916 Y65.960 E0.01675
G1 X150.056 Y56.099 E0.43760
G1 X149.522 Y56.099 E0.01675
G1 X159.382 Y65.960 E0.43760
G1 X158.849 Y65.960 E0.01675
G1 X148.988 Y56.099 E0.43760
G1 X148.455 Y56.099 E0.01675
G1 X158.315 Y65.960 E0.43760
G1 X157.781 Y65.960 E0.01675
G1 X147.921 Y56.099 E0.43760
G1 X147.387 Y56.099 E0.01675
G1 X157.247 Y65.960 E0.43760
G1 X156.714 Y65.960 E0.01675
G1 X146.854 Y56.099 E0.43760
G1 X146.320 Y56.099 E0.01675
G1 X156.180 Y65.960 E0.43760
G1 X155.646 Y65.960 E0.01675
G1 X145.786 Y56.099 E0.43760
G1 X145.252 Y56.099 E0.01675
G1 X155.113 Y65.960 E0.43760
G1 X154.579 Y65.960 E0.01675
G1 X144.719 Y56.099 E0.43760
G1 X144.185 Y56.099 E0.01675
G1 X154.045 Y65.960 E0.43760
G1 X153.511 Y65.960 E0.01675
G1 X143.651 Y56.099 E0.43760
G1 X143.117 Y56.099 E0.01675
G1 X152.978 Y65.960 E0.43760
G1 X152.444 Y65.960 E0.01675
G1 X142.584 Y56.099 E0.43760
G1 X142.050 Y56.099 E0.01675
G1 X151.910 Y65.960 E0.43760
G1 X151.376 Y65.960 E0.01675
G1 X141.516 Y56.099 E0.43760
G1 X140.982 Y56.099 E0.01675
G1 X150.843 Y65.960 E0.43760
G1 X150.309 Y65.960 E0.01675
G1 X140.449 Y56.099 E0.43760
G1 X139.915 Y56.099 E0.01675
G1 X149.775 Y65.960 E0.43760
G1 X149.242 Y65.960 E0.01675
G1 X139.381 Y56.099 E0.43760
G1 X138.848 Y56.099 E0.01675
G1 X148.708 Y65.960 E0.43760
G1 X148.174 Y65.960 E0.01675
G1 X138.314 Y56.099 E0.43760
G1 X137.780 Y56.099 E0.01675
G1 X147.640 Y65.960 E0.43760
G1 X147.107 Y65.960 E0.01675
G1 X137.246 Y56.099 E0.43760
G1 X136.713 Y56.099 E0.01675
G1 X146.573 Y65.960 E0.43760
G1 X146.039 Y65.960 E0.01675
G1 X136.179 Y56.099 E0.43760
G1 X135.645 Y56.099 E0.01675
G1 X145.505 Y65.960 E0.43760
G1 X144.972 Y65.960 E0.01675
G1 X135.111 Y56.099 E0.43760
G1 X134.578 Y56.099 E0.01675
G1 X144.438 Y65.960 E0.43760
G1 X143.904 Y65.960 E0.01675
G1 X134.044 Y56.099 E0.43760
G1 X133.510 Y56.099 E0.01675
G1 X143.370 Y65.960 E0.43760
G1 X142.837 Y65.960 E0.01675
G1 X132.977 Y56.099 E0.43760
G1 X132.443 Y56.099 E0.01675
G1 X142.303 Y65.960 E0.43760
G1 X141.769 Y65.960 E0.01675
G1 X131.909 Y56.099 E0.43760
G1 X131.375 Y56.099 E0.01675
G1 X141.236 Y65.960 E0.43760
G1 X140.702 Y65.960 E0.01675
G1 X130.842 Y56.099 E0.43760
G1 X130.308 Y56.099 E0.01675
G1 X140.168 Y65.960 E0.43760
G1 X139.634 Y65.960 E0.01675
G1 X129.774 Y56.099 E0.43760
G1 X129.240 Y56.099 E0.01675
G1 X139.101 Y65.960 E0.43760
G1 X138.567 Y65.960 E0.01675
G1 X129.070 Y56.463 E0.42148
G1 X129.070 Y56.996 E0.01675
G1 X138.033 Y65.960 E0.39779
G1 X137.499 Y65.960 E0.01675
G1 X129.070 Y57.530 E0.37410
G1 X129.070 Y58.064 E0.01675
G1 X136.966 Y65.960 E0.35042
G1 X136.432 Y65.960 E0.01675
G1 X129.070 Y58.597 E0.32673
G1 X129.070 Y59.131 E0.01675
G1 X135.898 Y65.960 E0.30304
G1 X135.365 Y65.960 E0.01675
G1 X129.070 Y59.665 E0.27936
G1 X129.070 Y60.199 E0.01675
G1 X134.831 Y65.960 E0.25567
G1 X134.297 Y65.960 E0.01675
G1 X129.070 Y60.732 E0.23198
G1 X129.070 Y61.266 E0.01675
G1 X133.763 Y65.960 E0.20829
G1 X133.230 Y65.960 E0.01675
G1 X129.070 Y61.800 E0.18461
G1 X129.070 Y62.334 E0.01675
G1 X132.696 Y65.960 E0.16092
G1 X132.162 Y65.960 E0.01675
G1 X129.070 Y62.867 E0.13723
G1 X129.070 Y63.401 E0.01675
G1 X131.628 Y65.960 E0.11355
G1 X131.095 Y65.960 E0.01675
G1 X129.070 Y63.935 E0.08986
G1 X129.070 Y64.469 E0.01675
G1 X130.561 Y65.960 E0.06617
G1 X130.027 Y65.960 E0.01675
G1 X129.070 Y65.002 E0.04249
G1 X129.070 Y65.536 E0.01675
G1 X129.663 Y66.129 E0.02633
G1 E-0.80000 F2100.00000
G1 Z0.800 F10800.000
G1 X128.787 Y82.302
G1 Z0.200
G1 E0.80000 F2100.00000
G1 F1200.000
G1 X216.945 Y82.302 E2.76413
G1 X216.945 Y92.728 E0.32690
G1 X128.787 Y92.728 E2.76413
M73 P1 R158
G1 X128.787 Y82.362 E0.32501
G1 X128.410 Y81.925 F10800.000
G1 F1200.000
G1 X217.322 Y81.925 E2.78778
G1 X217.322 Y93.105 E0.35054
G1 X128.410 Y93.105 E2.78778
G1 X128.410 Y81.985 E0.34866
G1 X128.810 Y81.941 F10800.000
G1 E-0.80000 F2100.00000
G1 Z0.800 F10800.000
G1 X216.832 Y83.178
G1 Z0.200
G1 E0.80000 F2100.00000
G1 F1200.000
G1 X216.239 Y82.585 E0.02633
G1 X215.705 Y82.585 E0.01675
G1 X216.662 Y83.542 E0.04249
G1 X216.662 Y84.076 E0.01675
G1 X215.171 Y82.585 E0.06617
G1 X214.637 Y82.585 E0.01675
G1 X216.662 Y84.609 E0.08986
G1 X216.662 Y85.143 E0.01675
G1 X214.104 Y82.585 E0.11355
G1 X213.570 Y82.585 E0.01675
G1 X216.662 Y85.677 E0.13723
G1 X216.662 Y86.211 E0.01675
G1 X213.036 Y82.585 E0.16092
G1 X212.502 Y82.585 E0.01675
G1 X216.662 Y86.744 E0.18461
G1 X216.662 Y87.278 E0.01675
G1 X211.969 Y82.585 E0.20829
G1 X211.435 Y82.585 E0.01675
G1 X216.662 Y87.812 E0.23198
G1 X216.662 Y88.345 E0.01675
G1 X210.901 Y82.585 E0.25567
G1 X210.368 Y82.585 E0.01675
G1 X216.662 Y88.879 E0.27936
G1 X216.662 Y89.413 E0.01675
G1 X209.834 Y82.585 E0.30304
G1 X209.300 Y82.585 E0.01675
G1 X216.662 Y89.947 E0.32673
G1 X216.662 Y90.480 E0.01675
G1 X208.766 Y82.585 E0.35042
G1 X208.233 Y82.585 E0.01675
G1 X216.662 Y91.014 E0.37410
G1 X216.662 Y91.548 E0.01675
G1 X207.699 Y82.585 E0.39779
G1 X207.165 Y82.585 E0.01675
G1 X216.662 Y92.082 E0.42148
G1 X216.662 Y92.445 E0.01140
G1 X216.492 Y92.445 E0.00535
G1 X206.631 Y82.585 E0.43760
G1 X206.098 Y82.585 E0.01675
G1 X215.958 Y92.445 E0.43760
G1 X215.424 Y92.445 E0.01675
G1 X205.564 Y82.585 E0.43760
G1 X205.030 Y82.585 E0.01675
G1 X214.890 Y92.445 E0.43760
G1 X214.357 Y92.445 E0.01675
G1 X204.496 Y82.585 E0.43760
G1 X203.963 Y82.585 E0.01675
G1 X213.823 Y92.445 E0.43760
G1 X213.289 Y92.445 E0.01675
G1 X203.429 Y82.585 E0.43760
G1 X202.895 Y82.585 E0.01675
G1 X212.756 Y92.445 E0.43760
G1 X212.222 Y92.445 E0.01675
G1 X202.362 Y82.585 E0.43760
G1 X201.828 Y82.585 E0.01675
G1 X211.688 Y92.445 E0.43760
G1 X211.154 Y92.445 E0.01675
G1 X201.294 Y82.585 E0.43760
G1 X200.760 Y82.585 E0.01675
G1 X210.621 Y92.445 E0.43760
G1 X210.087 Y92.445 E0.01675
G1 X200.227 Y82.585 E0.43760
G1 X199.693 Y82.585 E0.01675
G1 X209.553 Y92.445 E0.43760
G1 X209.019 Y92.445 E0.01675
G1 X199.159 Y82.585 E0.43760
G1 X198.625 Y82.585 E0.01675
G1 X208.486 Y92.445 E0.43760
