; generated by PrusaSlicer 2.2.0+win64 on 2020-12-30 at 21:14:33 UTC

; 

; external perimeters extrusion width = 0.60mm
; perimeters extrusion width = 0.43mm
; infill extrusion width = 0.45mm
; solid infill extrusion width = 0.70mm
; top infill extrusion width = 0.43mm
; first layer extrusion width = 0.42mm

M73 P0 R81
M201 X9000 Y9000 Z500 E10000 ; sets maximum accelerations, mm/sec^2
M203 X500 Y500 Z12 E120 ; sets maximum feedrates, mm/sec
M204 P2000 R1500 T2000 ; sets acceleration (P, T) and retract acceleration (R), mm/sec^2
M205 X10.00 Y10.00 Z0.20 E2.50 ; sets the jerk limits, mm/sec
M205 S0 T0 ; sets the minimum extruding and travel feed rate, mm/sec
M107
M862.3 P "MK2S" ; printer model check
M862.1 P0.4 ; nozzle diameter check
M115 U3.2.3 ; tell printer latest fw version
G90 ; use absolute coordinates
M83 ; extruder relative mode
M204 S2000 T1500 ; MK2 firmware only supports the old M204 format
M104 S215 ; set extruder temp
M140 S60 ; set bed temp
M190 S60 ; wait for bed temp
M109 S215 ; wait for extruder temp
G28 W ; home all without mesh bed level
G80 ; mesh bed leveling
G1 Y-3.0 F1000.0 ; go outside print area
G92 E0.0
G1 X60.0 E9.0  F1000.0 ; intro line
M73 P0 R81
G1 X100.0 E12.5 F1000.0 ; intro line
G92 E0.0
G21 ; set units to millimeters
G90 ; use absolute coordinates
M83 ; use relative distances for extrusion
M900 K0.05 ; Filament gcode LA 1.5
M900 K30 ; Filament gcode LA 1.0
;BEFORE_LAYER_CHANGE
G92 E0.0
;0.2


G1 E-0.80000 F2100.00000
G1 Z0.600 F10800.000
;AFTER_LAYER_CHANGE
;0.2
G1 X79.188 Y52.848
G1 Z0.200
G1 E0.80000 F2100.00000
M204 S1000
G1 F1200.000
G1 X80.114 Y52.652 E0.02966
G1 X169.870 Y52.652 E2.81424
G1 X170.768 Y52.830 E0.02872
G1 X171.533 Y53.335 E0.02872
G1 X172.050 Y54.091 E0.02872
G1 X172.243 Y54.986 E0.02872
G1 X172.243 Y146.501 E2.86936
G1 X172.069 Y147.377 E0.02802
G1 X171.585 Y148.128 E0.02802
G1 X170.801 Y148.671 E0.02989
G1 X169.866 Y148.862 E0.02993
G1 X80.115 Y148.862 E2.81408
G1 X79.242 Y148.689 E0.02790
G1 X78.492 Y148.204 E0.02802
G1 X77.948 Y147.420 E0.02989
G1 X77.757 Y146.485 E0.02993
G1 X77.757 Y55.014 E2.86801
G1 X77.931 Y54.138 E0.02802
G1 X78.415 Y53.387 E0.02802
G1 X79.139 Y52.883 E0.02766
G1 X80.921 Y55.817 F10800.000
G1 F1200.000
G1 X169.079 Y55.817 E2.76413
G1 X169.079 Y66.242 E0.32690
G1 X80.921 Y66.242 E2.76413
G1 X80.921 Y55.877 E0.32501
G1 X80.544 Y55.439 F10800.000
G1 F1200.000
G1 X169.456 Y55.439 E2.78778
G1 X169.456 Y66.619 E0.35054
G1 X80.544 Y66.619 E2.78778
G1 X80.544 Y55.499 E0.34866
G1 X80.944 Y55.456 F10800.000
G1 E-0.80000 F2100.00000
G1 Z0.800 F10800.000
G1 X168.966 Y56.693
G1 Z0.200
G1 E0.80000 F2100.00000
G1 F1200.000
G1 X168.373 Y56.099 E0.02633
G1 X167.839 Y56.099 E0.01675
G1 X168.796 Y57.057 E0.04249
G1 X168.796 Y57.590 E0.01675
G1 X167.305 Y56.099 E0.06617
G1 X166.771 Y56.099 E0.01675
G1 X168.796 Y58.124 E0.08986
G1 X168.796 Y58.658 E0.01675
G1 X166.238 Y56.099 E0.11355
G1 X165.704 Y56.099 E0.01675
G1 X168.796 Y59.192 E0.13723
G1 X168.796 Y59.725 E0.01675
G1 X165.170 Y56.099 E0.16092
G1 X164.636 Y56.099 E0.01675
G1 X168.796 Y60.259 E0.18461
G1 X168.796 Y60.793 E0.01675
G1 X164.103 Y56.099 E0.20829
G1 X163.569 Y56.099 E0.01675
G1 X168.796 Y61.326 E0.23198
G1 X168.796 Y61.860 E0.01675
G1 X163.035 Y56.099 E0.25567
G1 X162.502 Y56.099 E0.01675
G1 X168.796 Y62.394 E0.27936
G1 X168.796 Y62.928 E0.01675
G1 X161.968 Y56.099 E0.30304
G1 X161.434 Y56.099 E0.01675
G1 X168.796 Y63.461 E0.32673
G1 X168.796 Y63.995 E0.01675
G1 X160.900 Y56.099 E0.35042
G1 X160.367 Y56.099 E0.01675
G1 X168.796 Y64.529 E0.37410
G1 X168.796 Y65.063 E0.01675
G1 X159.833 Y56.099 E0.39779
G1 X159.299 Y56.099 E0.01675
G1 X168.796 Y65.596 E0.42148
G1 X168.796 Y65.960 E0.01140
G1 X168.626 Y65.960 E0.00535
G1 X158.765 Y56.099 E0.43760
G1 X158.232 Y56.099 E0.01675
G1 X168.092 Y65.960 E0.43760
G1 X167.558 Y65.960 E0.01675
G1 X157.698 Y56.099 E0.43760
G1 X157.164 Y56.099 E0.01675
G1 X167.024 Y65.960 E0.43760
G1 X166.491 Y65.960 E0.01675
G1 X156.630 Y56.099 E0.43760
G1 X156.097 Y56.099 E0.01675
G1 X165.957 Y65.960 E0.43760
G1 X165.423 Y65.960 E0.01675
G1 X155.563 Y56.099 E0.43760
G1 X155.029 Y56.099 E0.01675
G1 X164.890 Y65.960 E0.43760
G1 X164.356 Y65.960 E0.01675
G1 X154.496 Y56.099 E0.43760
G1 X153.962 Y56.099 E0.01675
G1 X163.822 Y65.960 E0.43760
G1 X163.288 Y65.960 E0.01675
G1 X153.428 Y56.099 E0.43760
G1 X152.894 Y56.099 E0.01675
G1 X162.755 Y65.960 E0.43760
G1 X162.221 Y65.960 E0.01675
G1 X152.361 Y56.099 E0.43760
G1 X151.827 Y56.099 E0.01675
G1 X161.687 Y65.960 E0.43760
G1 X161.153 Y65.960 E0.01675
M73 P1 R80
G1 X151.293 Y56.099 E0.43760
G1 X150.759 Y56.099 E0.01675
G1 X160.620 Y65.960 E0.43760
G1 X160.086 Y65.960 E0.01675
G1 X150.226 Y56.099 E0.43760
G1 X149.692 Y56.099 E0.01675
G1 X159.552 Y65.960 E0.43760
G1 X159.018 Y65.960 E0.01675
G1 X149.158 Y56.099 E0.43760
G1 X148.625 Y56.099 E0.01675
G1 X158.485 Y65.960 E0.43760
G1 X157.951 Y65.960 E0.01675
G1 X148.091 Y56.099 E0.43760
G1 X147.557 Y56.099 E0.01675
G1 X157.417 Y65.960 E0.43760
G1 X156.884 Y65.960 E0.01675
G1 X147.023 Y56.099 E0.43760
G1 X146.490 Y56.099 E0.01675
G1 X156.350 Y65.960 E0.43760
G1 X155.816 Y65.960 E0.01675
G1 X145.956 Y56.099 E0.43760
G1 X145.422 Y56.099 E0.01675
G1 X155.282 Y65.960 E0.43760
G1 X154.749 Y65.960 E0.01675
G1 X144.888 Y56.099 E0.43760
G1 X144.355 Y56.099 E0.01675
G1 X154.215 Y65.960 E0.43760
G1 X153.681 Y65.960 E0.01675
G1 X143.821 Y56.099 E0.43760
G1 X143.287 Y56.099 E0.01675
G1 X153.147 Y65.960 E0.43760
G1 X152.614 Y65.960 E0.01675
G1 X142.753 Y56.099 E0.43760
G1 X142.220 Y56.099 E0.01675
G1 X152.080 Y65.960 E0.43760
G1 X151.546 Y65.960 E0.01675
G1 X141.686 Y56.099 E0.43760
G1 X141.152 Y56.099 E0.01675
G1 X151.013 Y65.960 E0.43760
G1 X150.479 Y65.960 E0.01675
G1 X140.619 Y56.099 E0.43760
G1 X140.085 Y56.099 E0.01675
G1 X149.945 Y65.960 E0.43760
G1 X149.411 Y65.960 E0.01675
G1 X139.551 Y56.099 E0.43760
G1 X139.017 Y56.099 E0.01675
G1 X148.878 Y65.960 E0.43760
G1 X148.344 Y65.960 E0.01675
G1 X138.484 Y56.099 E0.43760
G1 X137.950 Y56.099 E0.01675
G1 X147.810 Y65.960 E0.43760
G1 X147.276 Y65.960 E0.01675
G1 X137.416 Y56.099 E0.43760
G1 X136.882 Y56.099 E0.01675
G1 X146.743 Y65.960 E0.43760
G1 X146.209 Y65.960 E0.01675
G1 X136.349 Y56.099 E0.43760
G1 X135.815 Y56.099 E0.01675
G1 X145.675 Y65.960 E0.43760
G1 X145.141 Y65.960 E0.01675
G1 X135.281 Y56.099 E0.43760
G1 X134.747 Y56.099 E0.01675
G1 X144.608 Y65.960 E0.43760
G1 X144.074 Y65.960 E0.01675
G1 X134.214 Y56.099 E0.43760
G1 X133.680 Y56.099 E0.01675
G1 X143.540 Y65.960 E0.43760
G1 X143.007 Y65.960 E0.01675
G1 X133.146 Y56.099 E0.43760
G1 X132.613 Y56.099 E0.01675
G1 X142.473 Y65.960 E0.43760
G1 X141.939 Y65.960 E0.01675
G1 X132.079 Y56.099 E0.43760
G1 X131.545 Y56.099 E0.01675
G1 X141.405 Y65.960 E0.43760
G1 X140.872 Y65.960 E0.01675
G1 X131.011 Y56.099 E0.43760
G1 X130.478 Y56.099 E0.01675
G1 X140.338 Y65.960 E0.43760
G1 X139.804 Y65.960 E0.01675
G1 X129.944 Y56.099 E0.43760
G1 X129.410 Y56.099 E0.01675
G1 X139.270 Y65.960 E0.43760
G1 X138.737 Y65.960 E0.01675
G1 X128.876 Y56.099 E0.43760
G1 X128.343 Y56.099 E0.01675
G1 X138.203 Y65.960 E0.43760
G1 X137.669 Y65.960 E0.01675
G1 X127.809 Y56.099 E0.43760
G1 X127.275 Y56.099 E0.01675
G1 X137.135 Y65.960 E0.43760
G1 X136.602 Y65.960 E0.01675
G1 X126.742 Y56.099 E0.43760
G1 X126.208 Y56.099 E0.01675
G1 X136.068 Y65.960 E0.43760
G1 X135.534 Y65.960 E0.01675
G1 X125.674 Y56.099 E0.43760
G1 X125.140 Y56.099 E0.01675
G1 X135.001 Y65.960 E0.43760
G1 X134.467 Y65.960 E0.01675
G1 X124.607 Y56.099 E0.43760
G1 X124.073 Y56.099 E0.01675
G1 X133.933 Y65.960 E0.43760
G1 X133.399 Y65.960 E0.01675
G1 X123.539 Y56.099 E0.43760
G1 X123.005 Y56.099 E0.01675
G1 X132.866 Y65.960 E0.43760
G1 X132.332 Y65.960 E0.01675
G1 X122.472 Y56.099 E0.43760
G1 X121.938 Y56.099 E0.01675
G1 X131.798 Y65.960 E0.43760
G1 X131.264 Y65.960 E0.01675
G1 X121.404 Y56.099 E0.43760
G1 X120.870 Y56.099 E0.01675
G1 X130.731 Y65.960 E0.43760
G1 X130.197 Y65.960 E0.01675
G1 X120.337 Y56.099 E0.43760
G1 X119.803 Y56.099 E0.01675
G1 X129.663 Y65.960 E0.43760
G1 X129.130 Y65.960 E0.01675
G1 X119.269 Y56.099 E0.43760
G1 X118.736 Y56.099 E0.01675
G1 X128.596 Y65.960 E0.43760
G1 X128.062 Y65.960 E0.01675
G1 X118.202 Y56.099 E0.43760
G1 X117.668 Y56.099 E0.01675
G1 X127.528 Y65.960 E0.43760
G1 X126.995 Y65.960 E0.01675
G1 X117.134 Y56.099 E0.43760
G1 X116.601 Y56.099 E0.01675
G1 X126.461 Y65.960 E0.43760
G1 X125.927 Y65.960 E0.01675
G1 X116.067 Y56.099 E0.43760
G1 X115.533 Y56.099 E0.01675
G1 X125.393 Y65.960 E0.43760
G1 X124.860 Y65.960 E0.01675
G1 X114.999 Y56.099 E0.43760
G1 X114.466 Y56.099 E0.01675
G1 X124.326 Y65.960 E0.43760
G1 X123.792 Y65.960 E0.01675
G1 X113.932 Y56.099 E0.43760
G1 X113.398 Y56.099 E0.01675
G1 X123.258 Y65.960 E0.43760
G1 X122.725 Y65.960 E0.01675
G1 X112.865 Y56.099 E0.43760
G1 X112.331 Y56.099 E0.01675
G1 X122.191 Y65.960 E0.43760
G1 X121.657 Y65.960 E0.01675
G1 X111.797 Y56.099 E0.43760
G1 X111.263 Y56.099 E0.01675
G1 X121.124 Y65.960 E0.43760
G1 X120.590 Y65.960 E0.01675
G1 X110.730 Y56.099 E0.43760
G1 X110.196 Y56.099 E0.01675
G1 X120.056 Y65.960 E0.43760
G1 X119.522 Y65.960 E0.01675
G1 X109.662 Y56.099 E0.43760
G1 X109.128 Y56.099 E0.01675
G1 X118.989 Y65.960 E0.43760
G1 X118.455 Y65.960 E0.01675
G1 X108.595 Y56.099 E0.43760
G1 X108.061 Y56.099 E0.01675
G1 X117.921 Y65.960 E0.43760
G1 X117.387 Y65.960 E0.01675
G1 X107.527 Y56.099 E0.43760
M73 P2 R79
G1 X106.993 Y56.099 E0.01675
G1 X116.854 Y65.960 E0.43760
G1 X116.320 Y65.960 E0.01675
G1 X106.460 Y56.099 E0.43760
G1 X105.926 Y56.099 E0.01675
G1 X115.786 Y65.960 E0.43760
G1 X115.253 Y65.960 E0.01675
G1 X105.392 Y56.099 E0.43760
G1 X104.859 Y56.099 E0.01675
G1 X114.719 Y65.960 E0.43760
G1 X114.185 Y65.960 E0.01675
G1 X104.325 Y56.099 E0.43760
G1 X103.791 Y56.099 E0.01675
G1 X113.651 Y65.960 E0.43760
G1 X113.118 Y65.960 E0.01675
G1 X103.257 Y56.099 E0.43760
G1 X102.724 Y56.099 E0.01675
G1 X112.584 Y65.960 E0.43760
G1 X112.050 Y65.960 E0.01675
G1 X102.190 Y56.099 E0.43760
G1 X101.656 Y56.099 E0.01675
G1 X111.516 Y65.960 E0.43760
G1 X110.983 Y65.960 E0.01675
G1 X101.122 Y56.099 E0.43760
G1 X100.589 Y56.099 E0.01675
G1 X110.449 Y65.960 E0.43760
G1 X109.915 Y65.960 E0.01675
G1 X100.055 Y56.099 E0.43760
G1 X99.521 Y56.099 E0.01675
G1 X109.381 Y65.960 E0.43760
G1 X108.848 Y65.960 E0.01675
G1 X98.987 Y56.099 E0.43760
G1 X98.454 Y56.099 E0.01675
G1 X108.314 Y65.960 E0.43760
G1 X107.780 Y65.960 E0.01675
G1 X97.920 Y56.099 E0.43760
G1 X97.386 Y56.099 E0.01675
G1 X107.247 Y65.960 E0.43760
G1 X106.713 Y65.960 E0.01675
G1 X96.853 Y56.099 E0.43760
G1 X96.319 Y56.099 E0.01675
G1 X106.179 Y65.960 E0.43760
G1 X105.645 Y65.960 E0.01675
G1 X95.785 Y56.099 E0.43760
G1 X95.251 Y56.099 E0.01675
G1 X105.112 Y65.960 E0.43760
G1 X104.578 Y65.960 E0.01675
G1 X94.718 Y56.099 E0.43760
G1 X94.184 Y56.099 E0.01675
G1 X104.044 Y65.960 E0.43760
G1 X103.510 Y65.960 E0.01675
G1 X93.650 Y56.099 E0.43760
G1 X93.116 Y56.099 E0.01675
G1 X102.977 Y65.960 E0.43760
G1 X102.443 Y65.960 E0.01675
G1 X92.583 Y56.099 E0.43760
G1 X92.049 Y56.099 E0.01675
G1 X101.909 Y65.960 E0.43760
G1 X101.376 Y65.960 E0.01675
G1 X91.515 Y56.099 E0.43760
G1 X90.982 Y56.099 E0.01675
G1 X100.842 Y65.960 E0.43760
G1 X100.308 Y65.960 E0.01675
G1 X90.448 Y56.099 E0.43760
G1 X89.914 Y56.099 E0.01675
G1 X99.774 Y65.960 E0.43760
G1 X99.241 Y65.960 E0.01675
G1 X89.380 Y56.099 E0.43760
G1 X88.847 Y56.099 E0.01675
G1 X98.707 Y65.960 E0.43760
G1 X98.173 Y65.960 E0.01675
G1 X88.313 Y56.099 E0.43760
G1 X87.779 Y56.099 E0.01675
G1 X97.639 Y65.960 E0.43760
G1 X97.106 Y65.960 E0.01675
G1 X87.245 Y56.099 E0.43760
G1 X86.712 Y56.099 E0.01675
G1 X96.572 Y65.960 E0.43760
G1 X96.038 Y65.960 E0.01675
G1 X86.178 Y56.099 E0.43760
G1 X85.644 Y56.099 E0.01675
G1 X95.504 Y65.960 E0.43760
G1 X94.971 Y65.960 E0.01675
G1 X85.110 Y56.099 E0.43760
G1 X84.577 Y56.099 E0.01675
G1 X94.437 Y65.960 E0.43760
G1 X93.903 Y65.960 E0.01675
G1 X84.043 Y56.099 E0.43760
G1 X83.509 Y56.099 E0.01675
G1 X93.370 Y65.960 E0.43760
G1 X92.836 Y65.960 E0.01675
G1 X82.976 Y56.099 E0.43760
G1 X82.442 Y56.099 E0.01675
G1 X92.302 Y65.960 E0.43760
G1 X91.768 Y65.960 E0.01675
G1 X81.908 Y56.099 E0.43760
G1 X81.374 Y56.099 E0.01675
G1 X91.235 Y65.960 E0.43760
G1 X90.701 Y65.960 E0.01675
G1 X81.204 Y56.463 E0.42148
G1 X81.204 Y56.996 E0.01675
G1 X90.167 Y65.960 E0.39779
G1 X89.633 Y65.960 E0.01675
G1 X81.204 Y57.530 E0.37410
G1 X81.204 Y58.064 E0.01675
G1 X89.100 Y65.960 E0.35042
G1 X88.566 Y65.960 E0.01675
G1 X81.204 Y58.597 E0.32673
G1 X81.204 Y59.131 E0.01675
G1 X88.032 Y65.960 E0.30304
G1 X87.498 Y65.960 E0.01675
G1 X81.204 Y59.665 E0.27936
G1 X81.204 Y60.199 E0.01675
G1 X86.965 Y65.960 E0.25567
G1 X86.431 Y65.960 E0.01675
G1 X81.204 Y60.732 E0.23198
G1 X81.204 Y61.266 E0.01675
G1 X85.897 Y65.960 E0.20829
G1 X85.364 Y65.960 E0.01675
G1 X81.204 Y61.800 E0.18461
G1 X81.204 Y62.334 E0.01675
G1 X84.830 Y65.960 E0.16092
G1 X84.296 Y65.960 E0.01675
G1 X81.204 Y62.867 E0.13723
G1 X81.204 Y63.401 E0.01675
G1 X83.762 Y65.960 E0.11355
G1 X83.229 Y65.960 E0.01675
G1 X81.204 Y63.935 E0.08986
G1 X81.204 Y64.469 E0.01675
G1 X82.695 Y65.960 E0.06617
G1 X82.161 Y65.960 E0.01675
G1 X81.204 Y65.002 E0.04249
G1 X81.204 Y65.536 E0.01675
G1 X81.797 Y66.129 E0.02633
G1 E-0.80000 F2100.00000
G1 Z0.800 F10800.000
G1 X80.921 Y82.302
G1 Z0.200
G1 E0.80000 F2100.00000
G1 F1200.000
G1 X169.079 Y82.302 E2.76413
G1 X169.079 Y92.728 E0.32690
G1 X80.921 Y92.728 E2.76413
G1 X80.921 Y82.362 E0.32501
G1 X80.544 Y81.925 F10800.000
G1 F1200.000
G1 X169.456 Y81.925 E2.78778
G1 X169.456 Y93.105 E0.35054
G1 X80.544 Y93.105 E2.78778
M73 P3 R78
G1 X80.544 Y81.985 E0.34866
G1 X80.944 Y81.941 F10800.000
G1 E-0.80000 F2100.00000
G1 Z0.800 F10800.000
G1 X168.966 Y83.178
G1 Z0.200
G1 E0.80000 F2100.00000
G1 F1200.000
G1 X168.373 Y82.585 E0.02633
G1 X167.839 Y82.585 E0.01675
G1 X168.796 Y83.542 E0.04249
G1 X168.796 Y84.076 E0.01675
G1 X167.305 Y82.585 E0.06617
G1 X166.771 Y82.585 E0.01675
G1 X168.796 Y84.609 E0.08986
G1 X168.796 Y85.143 E0.01675
G1 X166.238 Y82.585 E0.11355
G1 X165.704 Y82.585 E0.01675
G1 X168.796 Y85.677 E0.13723
G1 X168.796 Y86.211 E0.01675
G1 X165.170 Y82.585 E0.16092
G1 X164.636 Y82.585 E0.01675
G1 X168.796 Y86.744 E0.18461
G1 X168.796 Y87.278 E0.01675
G1 X164.103 Y82.585 E0.20829
G1 X163.569 Y82.585 E0.01675
G1 X168.796 Y87.812 E0.23198
G1 X168.796 Y88.345 E0.01675
G1 X163.035 Y82.585 E0.25567
G1 X162.502 Y82.585 E0.01675
G1 X168.796 Y88.879 E0.27936
G1 X168.796 Y89.413 E0.01675
G1 X161.968 Y82.585 E0.30304
G1 X161.434 Y82.585 E0.01675
G1 X168.796 Y89.947 E0.32673
G1 X168.796 Y90.480 E0.01675
G1 X160.900 Y82.585 E0.35042
G1 X160.367 Y82.585 E0.01675
G1 X168.796 Y91.014 E0.37410
G1 X168.796 Y91.548 E0.01675
G1 X159.833 Y82.585 E0.39779
G1 X159.299 Y82.585 E0.01675
G1 X168.796 Y92.082 E0.42148
G1 X168.796 Y92.445 E0.01140
G1 X168.626 Y92.445 E0.00535
G1 X158.765 Y82.585 E0.43760
G1 X158.232 Y82.585 E0.01675
G1 X168.092 Y92.445 E0.43760
G1 X167.558 Y92.445 E0.01675
G1 X157.698 Y82.585 E0.43760
G1 X157.164 Y82.585 E0.01675
G1 X167.024 Y92.445 E0.43760
G1 X166.491 Y92.445 E0.01675
G1 X156.630 Y82.585 E0.43760
G1 X156.097 Y82.585 E0.01675
G1 X165.957 Y92.445 E0.43760
G1 X165.423 Y92.445 E0.01675
G1 X155.563 Y82.585 E0.43760
G1 X155.029 Y82.585 E0.01675
G1 X164.890 Y92.445 E0.43760
G1 X164.356 Y92.445 E0.01675
G1 X154.496 Y82.585 E0.43760
G1 X153.962 Y82.585 E0.01675
G1 X163.822 Y92.445 E0.43760
G1 X163.288 Y92.445 E0.01675
G1 X153.428 Y82.585 E0.43760
G1 X152.894 Y82.585 E0.01675
G1 X162.755 Y92.445 E0.43760
G1 X162.221 Y92.445 E0.01675
G1 X152.361 Y82.585 E0.43760
G1 X151.827 Y82.585 E0.01675
G1 X161.687 Y92.445 E0.43760
G1 X161.153 Y92.445 E0.01675
G1 X151.293 Y82.585 E0.43760
G1 X150.759 Y82.585 E0.01675
G1 X160.620 Y92.445 E0.43760
G1 X160.086 Y92.445 E0.01675
G1 X150.226 Y82.585 E0.43760
G1 X149.692 Y82.585 E0.01675
G1 X159.552 Y92.445 E0.43760
G1 X159.018 Y92.445 E0.01675
G1 X149.158 Y82.585 E0.43760
G1 X148.625 Y82.585 E0.01675
G1 X158.485 Y92.445 E0.43760
G1 X157.951 Y92.445 E0.01675
G1 X148.091 Y82.585 E0.43760
G1 X147.557 Y82.585 E0.01675
G1 X157.417 Y92.445 E0.43760
