; generated by PrusaSlicer 2.2.0+win64 on 2020-12-30 at 21:14:23 UTC

; 

; external perimeters extrusion width = 0.60mm
; perimeters extrusion width = 0.43mm
; infill extrusion width = 0.45mm
; solid infill extrusion width = 0.70mm
; top infill extrusion width = 0.43mm
; first layer extrusion width = 0.42mm

M73 P0 R41
M201 X9000 Y9000 Z500 E10000 ; sets maximum accelerations, mm/sec^2
M203 X500 Y500 Z12 E120 ; sets maximum feedrates, mm/sec
M204 P2000 R1500 T2000 ; sets acceleration (P, T) and retract acceleration (R), mm/sec^2
M205 X10.00 Y10.00 Z0.20 E2.50 ; sets the jerk limits, mm/sec
M205 S0 T0 ; sets the minimum extruding and travel feed rate, mm/sec
M107
M862.3 P "MK2S" ; printer model check
M862.1 P0.4 ; nozzle diameter check
M115 U3.2.3 ; tell printer latest fw version
G90 ; use absolute coordinates
M83 ; extruder relative mode
M204 S2000 T1500 ; MK2 firmware only supports the old M204 format
M104 S215 ; set extruder temp
M140 S60 ; set bed temp
M190 S60 ; wait for bed temp
M109 S215 ; wait for extruder temp
G28 W ; home all without mesh bed level
G80 ; mesh bed leveling
G1 Y-3.0 F1000.0 ; go outside print area
G92 E0.0
G1 X60.0 E9.0  F1000.0 ; intro line
M73 P0 R41
G1 X100.0 E12.5 F1000.0 ; intro line
G92 E0.0
G21 ; set units to millimeters
G90 ; use absolute coordinates
M83 ; use relative distances for extrusion
M900 K0.05 ; Filament gcode LA 1.5
M900 K30 ; Filament gcode LA 1.0
;BEFORE_LAYER_CHANGE
G92 E0.0
;0.2


G1 E-0.80000 F2100.00000
G1 Z0.600 F10800.000
;AFTER_LAYER_CHANGE
;0.2
G1 X78.593 Y79.705
G1 Z0.200
G1 E0.80000 F2100.00000
M204 S1000
G1 F1200.000
G1 X79.150 Y79.351 E0.02071
G1 X79.626 Y79.192 E0.01574
G1 X80.129 Y79.138 E0.01585
G1 X169.870 Y79.138 E2.81376
G1 X170.765 Y79.314 E0.02860
G1 X171.528 Y79.815 E0.02860
G1 X172.045 Y80.566 E0.02860
G1 X172.242 Y81.460 E0.02872
G1 X172.242 Y120.080 E1.21089
G1 X172.128 Y120.731 E0.02071
G1 X171.842 Y121.322 E0.02060
G1 X171.404 Y121.812 E0.02060
G1 X170.850 Y122.164 E0.02060
G1 X170.374 Y122.322 E0.01574
G1 X169.871 Y122.377 E0.01585
G1 X80.104 Y122.377 E2.81459
G1 X79.443 Y122.275 E0.02095
G1 X78.834 Y121.990 E0.02107
G1 X78.329 Y121.547 E0.02107
G1 X77.970 Y120.984 E0.02095
G1 X77.813 Y120.511 E0.01562
G1 X77.757 Y120.013 E0.01574
G1 X77.758 Y81.446 E1.20922
G1 X77.869 Y80.795 E0.02071
G1 X78.154 Y80.199 E0.02071
G1 X78.553 Y79.750 E0.01883
G1 E-0.80000 F2100.00000
G1 Z0.800 F10800.000
G1 X80.921 Y108.787
G1 Z0.200
G1 E0.80000 F2100.00000
G1 F1200.000
G1 X169.079 Y108.787 E2.76413
G1 X169.079 Y119.213 E0.32690
G1 X80.921 Y119.213 E2.76413
G1 X80.921 Y108.847 E0.32501
G1 X80.544 Y108.410 F10800.000
G1 F1200.000
G1 X169.456 Y108.410 E2.78778
G1 X169.456 Y119.590 E0.35054
G1 X80.544 Y119.590 E2.78778
G1 X80.544 Y108.470 E0.34866
G1 X80.944 Y108.427 F10800.000
G1 E-0.80000 F2100.00000
G1 Z0.800 F10800.000
G1 X168.966 Y109.663
G1 Z0.200
G1 E0.80000 F2100.00000
G1 F1200.000
G1 X168.373 Y109.070 E0.02633
G1 X167.839 Y109.070 E0.01675
G1 X168.796 Y110.027 E0.04249
G1 X168.796 Y110.561 E0.01675
G1 X167.305 Y109.070 E0.06617
G1 X166.771 Y109.070 E0.01675
G1 X168.796 Y111.095 E0.08986
G1 X168.796 Y111.628 E0.01675
G1 X166.238 Y109.070 E0.11355
G1 X165.704 Y109.070 E0.01675
G1 X168.796 Y112.162 E0.13723
G1 X168.796 Y112.696 E0.01675
G1 X165.170 Y109.070 E0.16092
G1 X164.636 Y109.070 E0.01675
G1 X168.796 Y113.230 E0.18461
G1 X168.796 Y113.763 E0.01675
G1 X164.103 Y109.070 E0.20829
G1 X163.569 Y109.070 E0.01675
G1 X168.796 Y114.297 E0.23198
G1 X168.796 Y114.831 E0.01675
G1 X163.035 Y109.070 E0.25567
G1 X162.502 Y109.070 E0.01675
G1 X168.796 Y115.365 E0.27936
G1 X168.796 Y115.898 E0.01675
G1 X161.968 Y109.070 E0.30304
G1 X161.434 Y109.070 E0.01675
G1 X168.796 Y116.432 E0.32673
G1 X168.796 Y116.966 E0.01675
G1 X160.900 Y109.070 E0.35042
G1 X160.367 Y109.070 E0.01675
G1 X168.796 Y117.499 E0.37410
G1 X168.796 Y118.033 E0.01675
G1 X159.833 Y109.070 E0.39779
G1 X159.299 Y109.070 E0.01675
G1 X168.796 Y118.567 E0.42148
G1 X168.796 Y118.930 E0.01140
G1 X168.626 Y118.930 E0.00535
G1 X158.765 Y109.070 E0.43760
G1 X158.232 Y109.070 E0.01675
G1 X168.092 Y118.930 E0.43760
G1 X167.558 Y118.930 E0.01675
G1 X157.698 Y109.070 E0.43760
G1 X157.164 Y109.070 E0.01675
G1 X167.024 Y118.930 E0.43760
G1 X166.491 Y118.930 E0.01675
G1 X156.630 Y109.070 E0.43760
G1 X156.097 Y109.070 E0.01675
G1 X165.957 Y118.930 E0.43760
G1 X165.423 Y118.930 E0.01675
G1 X155.563 Y109.070 E0.43760
G1 X155.029 Y109.070 E0.01675
G1 X164.890 Y118.930 E0.43760
G1 X164.356 Y118.930 E0.01675
G1 X154.496 Y109.070 E0.43760
G1 X153.962 Y109.070 E0.01675
G1 X163.822 Y118.930 E0.43760
G1 X163.288 Y118.930 E0.01675
G1 X153.428 Y109.070 E0.43760
G1 X152.894 Y109.070 E0.01675
G1 X162.755 Y118.930 E0.43760
G1 X162.221 Y118.930 E0.01675
G1 X152.361 Y109.070 E0.43760
G1 X151.827 Y109.070 E0.01675
G1 X161.687 Y118.930 E0.43760
G1 X161.153 Y118.930 E0.01675
G1 X151.293 Y109.070 E0.43760
G1 X150.759 Y109.070 E0.01675
G1 X160.620 Y118.930 E0.43760
G1 X160.086 Y118.930 E0.01675
G1 X150.226 Y109.070 E0.43760
G1 X149.692 Y109.070 E0.01675
G1 X159.552 Y118.930 E0.43760
G1 X159.018 Y118.930 E0.01675
G1 X149.158 Y109.070 E0.43760
G1 X148.625 Y109.070 E0.01675
G1 X158.485 Y118.930 E0.43760
G1 X157.951 Y118.930 E0.01675
G1 X148.091 Y109.070 E0.43760
M73 P2 R40
G1 X147.557 Y109.070 E0.01675
G1 X157.417 Y118.930 E0.43760
G1 X156.884 Y118.930 E0.01675
G1 X147.023 Y109.070 E0.43760
G1 X146.490 Y109.070 E0.01675
G1 X156.350 Y118.930 E0.43760
G1 X155.816 Y118.930 E0.01675
G1 X145.956 Y109.070 E0.43760
G1 X145.422 Y109.070 E0.01675
G1 X155.282 Y118.930 E0.43760
G1 X154.749 Y118.930 E0.01675
G1 X144.888 Y109.070 E0.43760
G1 X144.355 Y109.070 E0.01675
G1 X154.215 Y118.930 E0.43760
G1 X153.681 Y118.930 E0.01675
G1 X143.821 Y109.070 E0.43760
G1 X143.287 Y109.070 E0.01675
G1 X153.147 Y118.930 E0.43760
G1 X152.614 Y118.930 E0.01675
G1 X142.753 Y109.070 E0.43760
G1 X142.220 Y109.070 E0.01675
G1 X152.080 Y118.930 E0.43760
G1 X151.546 Y118.930 E0.01675
G1 X141.686 Y109.070 E0.43760
G1 X141.152 Y109.070 E0.01675
G1 X151.013 Y118.930 E0.43760
G1 X150.479 Y118.930 E0.01675
G1 X140.619 Y109.070 E0.43760
G1 X140.085 Y109.070 E0.01675
G1 X149.945 Y118.930 E0.43760
G1 X149.411 Y118.930 E0.01675
G1 X139.551 Y109.070 E0.43760
G1 X139.017 Y109.070 E0.01675
G1 X148.878 Y118.930 E0.43760
G1 X148.344 Y118.930 E0.01675
G1 X138.484 Y109.070 E0.43760
G1 X137.950 Y109.070 E0.01675
G1 X147.810 Y118.930 E0.43760
G1 X147.276 Y118.930 E0.01675
G1 X137.416 Y109.070 E0.43760
G1 X136.882 Y109.070 E0.01675
G1 X146.743 Y118.930 E0.43760
G1 X146.209 Y118.930 E0.01675
G1 X136.349 Y109.070 E0.43760
G1 X135.815 Y109.070 E0.01675
G1 X145.675 Y118.930 E0.43760
G1 X145.141 Y118.930 E0.01675
G1 X135.281 Y109.070 E0.43760
G1 X134.747 Y109.070 E0.01675
G1 X144.608 Y118.930 E0.43760
G1 X144.074 Y118.930 E0.01675
G1 X134.214 Y109.070 E0.43760
G1 X133.680 Y109.070 E0.01675
G1 X143.540 Y118.930 E0.43760
G1 X143.007 Y118.930 E0.01675
G1 X133.146 Y109.070 E0.43760
G1 X132.613 Y109.070 E0.01675
G1 X142.473 Y118.930 E0.43760
G1 X141.939 Y118.930 E0.01675
G1 X132.079 Y109.070 E0.43760
G1 X131.545 Y109.070 E0.01675
G1 X141.405 Y118.930 E0.43760
G1 X140.872 Y118.930 E0.01675
G1 X131.011 Y109.070 E0.43760
G1 X130.478 Y109.070 E0.01675
G1 X140.338 Y118.930 E0.43760
G1 X139.804 Y118.930 E0.01675
G1 X129.944 Y109.070 E0.43760
G1 X129.410 Y109.070 E0.01675
G1 X139.270 Y118.930 E0.43760
G1 X138.737 Y118.930 E0.01675
G1 X128.876 Y109.070 E0.43760
G1 X128.343 Y109.070 E0.01675
G1 X138.203 Y118.930 E0.43760
G1 X137.669 Y118.930 E0.01675
G1 X127.809 Y109.070 E0.43760
G1 X127.275 Y109.070 E0.01675
G1 X137.135 Y118.930 E0.43760
G1 X136.602 Y118.930 E0.01675
G1 X126.742 Y109.070 E0.43760
G1 X126.208 Y109.070 E0.01675
G1 X136.068 Y118.930 E0.43760
G1 X135.534 Y118.930 E0.01675
G1 X125.674 Y109.070 E0.43760
G1 X125.140 Y109.070 E0.01675
G1 X135.001 Y118.930 E0.43760
G1 X134.467 Y118.930 E0.01675
G1 X124.607 Y109.070 E0.43760
G1 X124.073 Y109.070 E0.01675
G1 X133.933 Y118.930 E0.43760
G1 X133.399 Y118.930 E0.01675
G1 X123.539 Y109.070 E0.43760
G1 X123.005 Y109.070 E0.01675
G1 X132.866 Y118.930 E0.43760
G1 X132.332 Y118.930 E0.01675
G1 X122.472 Y109.070 E0.43760
G1 X121.938 Y109.070 E0.01675
G1 X131.798 Y118.930 E0.43760
G1 X131.264 Y118.930 E0.01675
G1 X121.404 Y109.070 E0.43760
G1 X120.870 Y109.070 E0.01675
G1 X130.731 Y118.930 E0.43760
G1 X130.197 Y118.930 E0.01675
G1 X120.337 Y109.070 E0.43760
G1 X119.803 Y109.070 E0.01675
G1 X129.663 Y118.930 E0.43760
G1 X129.130 Y118.930 E0.01675
G1 X119.269 Y109.070 E0.43760
G1 X118.736 Y109.070 E0.01675
G1 X128.596 Y118.930 E0.43760
G1 X128.062 Y118.930 E0.01675
G1 X118.202 Y109.070 E0.43760
G1 X117.668 Y109.070 E0.01675
G1 X127.528 Y118.930 E0.43760
G1 X126.995 Y118.930 E0.01675
G1 X117.134 Y109.070 E0.43760
G1 X116.601 Y109.070 E0.01675
G1 X126.461 Y118.930 E0.43760
G1 X125.927 Y118.930 E0.01675
G1 X116.067 Y109.070 E0.43760
G1 X115.533 Y109.070 E0.01675
G1 X125.393 Y118.930 E0.43760
G1 X124.860 Y118.930 E0.01675
G1 X114.999 Y109.070 E0.43760
G1 X114.466 Y109.070 E0.01675
G1 X124.326 Y118.930 E0.43760
G1 X123.792 Y118.930 E0.01675
G1 X113.932 Y109.070 E0.43760
G1 X113.398 Y109.070 E0.01675
G1 X123.258 Y118.930 E0.43760
G1 X122.725 Y118.930 E0.01675
G1 X112.865 Y109.070 E0.43760
G1 X112.331 Y109.070 E0.01675
G1 X122.191 Y118.930 E0.43760
G1 X121.657 Y118.930 E0.01675
G1 X111.797 Y109.070 E0.43760
G1 X111.263 Y109.070 E0.01675
G1 X121.124 Y118.930 E0.43760
G1 X120.590 Y118.930 E0.01675
G1 X110.730 Y109.070 E0.43760
G1 X110.196 Y109.070 E0.01675
G1 X120.056 Y118.930 E0.43760
G1 X119.522 Y118.930 E0.01675
G1 X109.662 Y109.070 E0.43760
G1 X109.128 Y109.070 E0.01675
G1 X118.989 Y118.930 E0.43760
G1 X118.455 Y118.930 E0.01675
G1 X108.595 Y109.070 E0.43760
G1 X108.061 Y109.070 E0.01675
G1 X117.921 Y118.930 E0.43760
G1 X117.387 Y118.930 E0.01675
G1 X107.527 Y109.070 E0.43760
G1 X106.993 Y109.070 E0.01675
G1 X116.854 Y118.930 E0.43760
G1 X116.320 Y118.930 E0.01675
G1 X106.460 Y109.070 E0.43760
G1 X105.926 Y109.070 E0.01675
G1 X115.786 Y118.930 E0.43760
G1 X115.253 Y118.930 E0.01675
G1 X105.392 Y109.070 E0.43760
G1 X104.859 Y109.070 E0.01675
G1 X114.719 Y118.930 E0.43760
G1 X114.185 Y118.930 E0.01675
G1 X104.325 Y109.070 E0.43760
G1 X103.791 Y109.070 E0.01675
G1 X113.651 Y118.930 E0.43760
M73 P5 R39
G1 X113.118 Y118.930 E0.01675
G1 X103.257 Y109.070 E0.43760
G1 X102.724 Y109.070 E0.01675
G1 X112.584 Y118.930 E0.43760
G1 X112.050 Y118.930 E0.01675
G1 X102.190 Y109.070 E0.43760
G1 X101.656 Y109.070 E0.01675
G1 X111.516 Y118.930 E0.43760
G1 X110.983 Y118.930 E0.01675
G1 X101.122 Y109.070 E0.43760
G1 X100.589 Y109.070 E0.01675
G1 X110.449 Y118.930 E0.43760
G1 X109.915 Y118.930 E0.01675
G1 X100.055 Y109.070 E0.43760
G1 X99.521 Y109.070 E0.01675
G1 X109.381 Y118.930 E0.43760
G1 X108.848 Y118.930 E0.01675
G1 X98.987 Y109.070 E0.43760
G1 X98.454 Y109.070 E0.01675
G1 X108.314 Y118.930 E0.43760
G1 X107.780 Y118.930 E0.01675
G1 X97.920 Y109.070 E0.43760
G1 X97.386 Y109.070 E0.01675
G1 X107.247 Y118.930 E0.43760
G1 X106.713 Y118.930 E0.01675
G1 X96.853 Y109.070 E0.43760
G1 X96.319 Y109.070 E0.01675
G1 X106.179 Y118.930 E0.43760
G1 X105.645 Y118.930 E0.01675
G1 X95.785 Y109.070 E0.43760
G1 X95.251 Y109.070 E0.01675
G1 X105.112 Y118.930 E0.43760
G1 X104.578 Y118.930 E0.01675
G1 X94.718 Y109.070 E0.43760
G1 X94.184 Y109.070 E0.01675
G1 X104.044 Y118.930 E0.43760
G1 X103.510 Y118.930 E0.01675
G1 X93.650 Y109.070 E0.43760
G1 X93.116 Y109.070 E0.01675
G1 X102.977 Y118.930 E0.43760
G1 X102.443 Y118.930 E0.01675
G1 X92.583 Y109.070 E0.43760
G1 X92.049 Y109.070 E0.01675
G1 X101.909 Y118.930 E0.43760
G1 X101.376 Y118.930 E0.01675
G1 X91.515 Y109.070 E0.43760
G1 X90.982 Y109.070 E0.01675
G1 X100.842 Y118.930 E0.43760
G1 X100.308 Y118.930 E0.01675
G1 X90.448 Y109.070 E0.43760
G1 X89.914 Y109.070 E0.01675
G1 X99.774 Y118.930 E0.43760
G1 X99.241 Y118.930 E0.01675
G1 X89.380 Y109.070 E0.43760
G1 X88.847 Y109.070 E0.01675
G1 X98.707 Y118.930 E0.43760
G1 X98.173 Y118.930 E0.01675
G1 X88.313 Y109.070 E0.43760
G1 X87.779 Y109.070 E0.01675
G1 X97.639 Y118.930 E0.43760
G1 X97.106 Y118.930 E0.01675
G1 X87.245 Y109.070 E0.43760
G1 X86.712 Y109.070 E0.01675
G1 X96.572 Y118.930 E0.43760
G1 X96.038 Y118.930 E0.01675
G1 X86.178 Y109.070 E0.43760
G1 X85.644 Y109.070 E0.01675
G1 X95.504 Y118.930 E0.43760
G1 X94.971 Y118.930 E0.01675
G1 X85.110 Y109.070 E0.43760
G1 X84.577 Y109.070 E0.01675
G1 X94.437 Y118.930 E0.43760
G1 X93.903 Y118.930 E0.01675
G1 X84.043 Y109.070 E0.43760
G1 X83.509 Y109.070 E0.01675
G1 X93.370 Y118.930 E0.43760
G1 X92.836 Y118.930 E0.01675
G1 X82.976 Y109.070 E0.43760
G1 X82.442 Y109.070 E0.01675
G1 X92.302 Y118.930 E0.43760
G1 X91.768 Y118.930 E0.01675
G1 X81.908 Y109.070 E0.43760
G1 X81.374 Y109.070 E0.01675
G1 X91.235 Y118.930 E0.43760
G1 X90.701 Y118.930 E0.01675
G1 X81.204 Y109.433 E0.42148
G1 X81.204 Y109.967 E0.01675
G1 X90.167 Y118.930 E0.39779
G1 X89.633 Y118.930 E0.01675
G1 X81.204 Y110.501 E0.37410
G1 X81.204 Y111.034 E0.01675
G1 X89.100 Y118.930 E0.35042
G1 X88.566 Y118.930 E0.01675
G1 X81.204 Y111.568 E0.32673
G1 X81.204 Y112.102 E0.01675
G1 X88.032 Y118.930 E0.30304
G1 X87.498 Y118.930 E0.01675
G1 X81.204 Y112.635 E0.27936
G1 X81.204 Y113.169 E0.01675
G1 X86.965 Y118.930 E0.25567
G1 X86.431 Y118.930 E0.01675
G1 X81.204 Y113.703 E0.23198
G1 X81.204 Y114.237 E0.01675
G1 X85.897 Y118.930 E0.20829
G1 X85.364 Y118.930 E0.01675
G1 X81.204 Y114.770 E0.18461
G1 X81.204 Y115.304 E0.01675
G1 X84.830 Y118.930 E0.16092
G1 X84.296 Y118.930 E0.01675
G1 X81.204 Y115.838 E0.13723
G1 X81.204 Y116.372 E0.01675
G1 X83.762 Y118.930 E0.11355
G1 X83.229 Y118.930 E0.01675
G1 X81.204 Y116.905 E0.08986
G1 X81.204 Y117.439 E0.01675
G1 X82.695 Y118.930 E0.06617
G1 X82.161 Y118.930 E0.01675
G1 X81.204 Y117.973 E0.04249
G1 X81.204 Y118.507 E0.01675
G1 X81.797 Y119.100 E0.02633
G1 E-0.80000 F2100.00000
G1 Z0.800 F10800.000
G1 X80.921 Y92.728
G1 Z0.200
G1 E0.80000 F2100.00000
G1 F1200.000
G1 X80.921 Y82.302 E0.32690
G1 X169.079 Y82.302 E2.76413
G1 X169.079 Y92.728 E0.32690
G1 X80.981 Y92.728 E2.76225
G1 X80.544 Y93.105 F10800.000
G1 F1200.000
G1 X80.544 Y81.925 E0.35054
G1 X169.456 Y81.925 E2.78778
G1 X169.456 Y93.105 E0.35054
G1 X80.604 Y93.105 E2.78589
G1 X80.729 Y92.750 F10800.000
G1 E-0.80000 F2100.00000
G1 Z0.800 F10800.000
G1 X168.966 Y83.178
G1 Z0.200
G1 E0.80000 F2100.00000
G1 F1200.000
G1 X168.373 Y82.585 E0.02633
G1 X167.839 Y82.585 E0.01675
G1 X168.796 Y83.542 E0.04249
G1 X168.796 Y84.076 E0.01675
G1 X167.305 Y82.585 E0.06617
G1 X166.771 Y82.585 E0.01675
G1 X168.796 Y84.609 E0.08986
G1 X168.796 Y85.143 E0.01675
G1 X166.238 Y82.585 E0.11355
G1 X165.704 Y82.585 E0.01675
G1 X168.796 Y85.677 E0.13723
G1 X168.796 Y86.211 E0.01675
G1 X165.170 Y82.585 E0.16092
M73 P7 R38
G1 X164.636 Y82.585 E0.01675
G1 X168.796 Y86.744 E0.18461
G1 X168.796 Y87.278 E0.01675
G1 X164.103 Y82.585 E0.20829
G1 X163.569 Y82.585 E0.01675
G1 X168.796 Y87.812 E0.23198
G1 X168.796 Y88.345 E0.01675
G1 X163.035 Y82.585 E0.25567
G1 X162.502 Y82.585 E0.01675
G1 X168.796 Y88.879 E0.27936
G1 X168.796 Y89.413 E0.01675
G1 X161.968 Y82.585 E0.30304
G1 X161.434 Y82.585 E0.01675
G1 X168.796 Y89.947 E0.32673
G1 X168.796 Y90.480 E0.01675
G1 X160.900 Y82.585 E0.35042
G1 X160.367 Y82.585 E0.01675
G1 X168.796 Y91.014 E0.37410
G1 X168.796 Y91.548 E0.01675
G1 X159.833 Y82.585 E0.39779
G1 X159.299 Y82.585 E0.01675
G1 X168.796 Y92.082 E0.42148
G1 X168.796 Y92.445 E0.01140
G1 X168.626 Y92.445 E0.00535
G1 X158.765 Y82.585 E0.43760
G1 X158.232 Y82.585 E0.01675
G1 X168.092 Y92.445 E0.43760
G1 X167.558 Y92.445 E0.01675
G1 X157.698 Y82.585 E0.43760
G1 X157.164 Y82.585 E0.01675
G1 X167.024 Y92.445 E0.43760
G1 X166.491 Y92.445 E0.01675
G1 X156.630 Y82.585 E0.43760
G1 X156.097 Y82.585 E0.01675
G1 X165.957 Y92.445 E0.43760
G1 X165.423 Y92.445 E0.01675
G1 X155.563 Y82.585 E0.43760
G1 X155.029 Y82.585 E0.01675
G1 X164.890 Y92.445 E0.43760
G1 X164.356 Y92.445 E0.01675
G1 X154.496 Y82.585 E0.43760
G1 X153.962 Y82.585 E0.01675
G1 X163.822 Y92.445 E0.43760
G1 X163.288 Y92.445 E0.01675
G1 X153.428 Y82.585 E0.43760
G1 X152.894 Y82.585 E0.01675
