; generated by PrusaSlicer 2.2.0+win64 on 2020-10-27 at 20:41:58 UTC

; 

; external perimeters extrusion width = 0.60mm
; perimeters extrusion width = 0.43mm
; infill extrusion width = 0.45mm
; solid infill extrusion width = 0.70mm
; top infill extrusion width = 0.43mm
; first layer extrusion width = 0.42mm

M73 P0 R74
M201 X9000 Y9000 Z500 E10000 ; sets maximum accelerations, mm/sec^2
M203 X500 Y500 Z12 E120 ; sets maximum feedrates, mm/sec
M204 P2000 R1500 T2000 ; sets acceleration (P, T) and retract acceleration (R), mm/sec^2
M205 X10.00 Y10.00 Z0.20 E2.50 ; sets the jerk limits, mm/sec
M205 S0 T0 ; sets the minimum extruding and travel feed rate, mm/sec
M107
M862.3 P "MK2S" ; printer model check
M862.1 P0.4 ; nozzle diameter check
M115 U3.2.3 ; tell printer latest fw version
G90 ; use absolute coordinates
M83 ; extruder relative mode
M204 S2000 T1500 ; MK2 firmware only supports the old M204 format
M104 S215 ; set extruder temp
M140 S60 ; set bed temp
M190 S60 ; wait for bed temp
M109 S215 ; wait for extruder temp
G28 W ; home all without mesh bed level
G80 ; mesh bed leveling
G1 Y-3.0 F1000.0 ; go outside print area
G92 E0.0
G1 X60.0 E9.0  F1000.0 ; intro line
M73 P0 R74
G1 X100.0 E12.5 F1000.0 ; intro line
G92 E0.0
G21 ; set units to millimeters
G90 ; use absolute coordinates
M83 ; use relative distances for extrusion
M900 K0.05 ; Filament gcode LA 1.5
M900 K30 ; Filament gcode LA 1.0
;BEFORE_LAYER_CHANGE
G92 E0.0
;0.2


G1 E-0.80000 F2100.00000
G1 Z0.600 F10800.000
;AFTER_LAYER_CHANGE
;0.2
G1 X58.011 Y28.168
G1 Z0.200
G1 E0.80000 F2100.00000
M204 S1000
G1 F1200.000
G1 X58.746 Y27.699 E0.02731
G1 X90.422 Y15.099 E1.06888
G1 X91.605 Y14.727 E0.03887
G1 X92.810 Y14.479 E0.03860
G1 X94.042 Y14.353 E0.03884
G1 X95.174 Y14.349 E0.03549
G1 X197.974 Y17.437 E3.22467
G1 X199.248 Y17.578 E0.04017
G1 X200.348 Y17.807 E0.03525
G1 X201.422 Y18.141 E0.03525
G1 X202.655 Y18.660 E0.04193
G1 X203.748 Y19.266 E0.03919
G1 X204.777 Y19.983 E0.03931
G1 X205.786 Y20.860 E0.04193
G1 X206.558 Y21.677 E0.03525
G1 X207.246 Y22.562 E0.03513
G1 X207.928 Y23.632 E0.03978
G1 X208.556 Y24.915 E0.04479
G1 X208.949 Y25.985 E0.03573
G1 X209.236 Y27.080 E0.03549
G1 X234.969 Y129.617 E3.31468
G1 X235.177 Y130.931 E0.04173
G1 X235.239 Y132.229 E0.04074
G1 X235.177 Y133.413 E0.03716
G1 X234.986 Y134.648 E0.03919
G1 X234.676 Y135.843 E0.03871
G1 X234.211 Y137.077 E0.04134
G1 X208.051 Y189.299 E1.83132
G1 X207.355 Y190.426 E0.04154
G1 X206.522 Y191.487 E0.04229
G1 X205.745 Y192.300 E0.03525
G1 X204.891 Y193.037 E0.03537
G1 X203.763 Y193.830 E0.04324
G1 X202.606 Y194.461 E0.04134
G1 X201.568 Y194.903 E0.03537
G1 X200.499 Y195.241 E0.03513
G1 X199.188 Y195.520 E0.04205
G1 X197.940 Y195.648 E0.03931
G1 X171.081 Y195.651 E0.84215
G1 X169.806 Y195.532 E0.04014
G1 X16.858 Y171.560 E4.85414
G1 X16.363 Y171.423 E0.01609
G1 X15.909 Y171.184 E0.01609
G1 X15.517 Y170.853 E0.01609
G1 X15.203 Y170.443 E0.01621
G1 X14.957 Y169.883 E0.01917
G1 X14.861 Y169.275 E0.01929
G1 X14.797 Y165.520 E0.11776
G1 X14.813 Y155.532 E0.31316
G1 X24.639 Y82.258 E2.31802
G1 X24.821 Y81.631 E0.02048
G1 X26.122 Y78.946 E0.09354
G1 X57.622 Y28.639 E1.86102
G1 X57.973 Y28.214 E0.01729
G1 E-0.80000 F2100.00000
G1 Z0.800 F10800.000
G1 X215.575 Y126.994
G1 Z0.200
G1 E0.80000 F2100.00000
G1 F1200.000
G1 X216.137 Y126.268 E0.02878
G1 X216.770 Y125.603 E0.02878
G1 X217.466 Y125.005 E0.02878
G1 X218.220 Y124.480 E0.02878
G1 X219.022 Y124.035 E0.02878
G1 X219.866 Y123.673 E0.02878
G1 X220.742 Y123.398 E0.02878
G1 X221.641 Y123.213 E0.02878
G1 X222.554 Y123.121 E0.02878
G1 X223.472 Y123.121 E0.02878
G1 X224.385 Y123.213 E0.02878
G1 X225.285 Y123.398 E0.02878
G1 X226.160 Y123.673 E0.02878
G1 X227.004 Y124.035 E0.02878
G1 X227.807 Y124.480 E0.02878
G1 X228.560 Y125.005 E0.02878
G1 X229.256 Y125.603 E0.02878
G1 X229.889 Y126.268 E0.02878
G1 X230.451 Y126.994 E0.02878
G1 X230.936 Y127.773 E0.02878
G1 X231.341 Y128.597 E0.02878
G1 X231.659 Y129.458 E0.02878
G1 X231.890 Y130.347 E0.02878
G1 X232.029 Y131.254 E0.02878
G1 X232.075 Y132.171 E0.02878
G1 X232.029 Y133.088 E0.02878
G1 X231.890 Y133.995 E0.02878
G1 X231.659 Y134.884 E0.02878
G1 X231.341 Y135.744 E0.02878
G1 X230.936 Y136.569 E0.02878
G1 X230.451 Y137.348 E0.02878
G1 X229.889 Y138.074 E0.02878
G1 X229.256 Y138.739 E0.02878
G1 X228.560 Y139.337 E0.02878
G1 X227.807 Y139.861 E0.02878
G1 X227.004 Y140.307 E0.02878
G1 X226.160 Y140.669 E0.02878
G1 X225.285 Y140.943 E0.02878
G1 X224.385 Y141.128 E0.02878
G1 X223.472 Y141.221 E0.02878
G1 X222.554 Y141.221 E0.02878
G1 X221.641 Y141.128 E0.02878
G1 X220.742 Y140.943 E0.02878
G1 X219.866 Y140.669 E0.02878
G1 X219.022 Y140.307 E0.02878
G1 X218.220 Y139.861 E0.02878
G1 X217.466 Y139.337 E0.02878
G1 X216.770 Y138.739 E0.02878
G1 X216.137 Y138.074 E0.02878
G1 X215.575 Y137.348 E0.02878
G1 X215.090 Y136.569 E0.02878
G1 X214.686 Y135.744 E0.02878
G1 X214.367 Y134.884 E0.02878
G1 X214.137 Y133.995 E0.02878
G1 X213.998 Y133.088 E0.02878
G1 X213.951 Y132.171 E0.02878
G1 X213.998 Y131.254 E0.02878
G1 X214.137 Y130.347 E0.02878
G1 X214.367 Y129.458 E0.02878
G1 X214.686 Y128.597 E0.02878
G1 X215.090 Y127.773 E0.02878
G1 X215.544 Y127.045 E0.02690
G1 X215.224 Y126.846 F10800.000
G1 F1200.000
G1 X215.851 Y126.022 E0.03245
G1 X216.510 Y125.329 E0.02998
G1 X217.235 Y124.706 E0.02998
G1 X218.020 Y124.160 E0.02998
G1 X218.856 Y123.696 E0.02998
G1 X219.735 Y123.319 E0.02998
G1 X220.647 Y123.033 E0.02998
G1 X221.584 Y122.840 E0.02998
G1 X222.535 Y122.743 E0.02998
G1 X223.491 Y122.743 E0.02998
G1 X224.443 Y122.840 E0.02998
G1 X225.379 Y123.033 E0.02998
G1 X226.291 Y123.319 E0.02998
G1 X227.170 Y123.696 E0.02998
G1 X228.006 Y124.160 E0.02998
G1 X228.791 Y124.706 E0.02998
G1 X229.517 Y125.329 E0.02998
G1 X230.175 Y126.022 E0.02998
G1 X230.761 Y126.778 E0.02998
G1 X231.266 Y127.590 E0.02998
G1 X231.688 Y128.448 E0.02998
G1 X232.020 Y129.345 E0.02998
G1 X232.259 Y130.271 E0.02998
G1 X232.404 Y131.216 E0.02998
G1 X232.453 Y132.171 E0.02998
G1 X232.404 Y133.126 E0.02998
G1 X232.259 Y134.071 E0.02998
G1 X232.020 Y134.997 E0.02998
G1 X231.688 Y135.893 E0.02998
G1 X231.266 Y136.752 E0.02998
G1 X230.761 Y137.563 E0.02998
G1 X230.175 Y138.319 E0.02998
G1 X229.517 Y139.012 E0.02998
G1 X228.791 Y139.635 E0.02998
G1 X228.006 Y140.182 E0.02998
G1 X227.170 Y140.646 E0.02998
G1 X226.291 Y141.023 E0.02998
G1 X225.379 Y141.309 E0.02998
G1 X224.443 Y141.501 E0.02998
G1 X223.491 Y141.598 E0.02998
G1 X222.535 Y141.598 E0.02998
G1 X221.584 Y141.501 E0.02998
G1 X220.647 Y141.309 E0.02998
G1 X219.735 Y141.023 E0.02998
G1 X218.856 Y140.646 E0.02998
G1 X218.020 Y140.182 E0.02998
G1 X217.235 Y139.635 E0.02998
G1 X216.510 Y139.012 E0.02998
G1 X215.851 Y138.319 E0.02998
G1 X215.266 Y137.563 E0.02998
G1 X214.760 Y136.752 E0.02998
G1 X214.339 Y135.893 E0.02998
G1 X214.007 Y134.997 E0.02998
G1 X213.767 Y134.071 E0.02998
G1 X213.622 Y133.126 E0.02998
G1 X213.574 Y132.171 E0.02998
G1 X213.622 Y131.216 E0.02998
G1 X213.767 Y130.271 E0.02998
G1 X214.007 Y129.345 E0.02998
G1 X214.339 Y128.448 E0.02998
G1 X214.760 Y127.590 E0.02998
G1 X215.192 Y126.896 E0.02562
G1 X215.622 Y126.877 F10800.000
G1 E-0.80000 F2100.00000
G1 Z0.800 F10800.000
G1 X230.438 Y127.188
G1 Z0.200
G1 E0.80000 F2100.00000
G1 F1200.000
G1 X229.041 Y125.790 E0.06270
G1 X228.387 Y125.229 E0.02734
G1 X227.657 Y124.721 E0.02821
G1 X227.151 Y124.440 E0.01835
G1 X230.754 Y128.043 E0.16161
G1 X231.080 Y128.709 E0.02353
G1 X231.198 Y129.027 E0.01075
G1 X226.146 Y123.975 E0.22663
G1 X225.346 Y123.714 E0.02670
G1 X231.464 Y129.832 E0.27446
G1 X231.633 Y130.541 E0.02310
G1 X224.649 Y123.556 E0.31331
G1 X224.342 Y123.493 E0.00992
G1 X224.013 Y123.460 E0.01051
G1 X231.731 Y131.178 E0.34622
G1 X231.771 Y131.757 E0.01843
G1 X223.417 Y123.403 E0.37475
G1 X222.877 Y123.403 E0.01711
G1 X231.785 Y132.311 E0.39957
G1 X231.759 Y132.824 E0.01631
G1 X222.359 Y123.425 E0.42165
G1 X221.869 Y123.474 E0.01561
G1 X231.708 Y133.313 E0.44134
G1 X231.636 Y133.781 E0.01501
G1 X221.406 Y123.550 E0.45892
G1 X220.958 Y123.642 E0.01449
G1 X231.539 Y134.222 E0.47461
G1 X231.428 Y134.651 E0.01404
G1 X220.536 Y123.759 E0.48859
G1 X220.125 Y123.888 E0.01365
G1 X231.294 Y135.057 E0.50101
G1 X231.148 Y135.450 E0.01332
G1 X219.735 Y124.037 E0.51198
G1 X219.357 Y124.199 E0.01303
G1 X230.985 Y135.827 E0.52161
G1 X230.808 Y136.189 E0.01279
G1 X218.993 Y124.375 E0.52997
G1 X218.646 Y124.567 E0.01259
G1 X230.620 Y136.541 E0.53713
G1 X230.413 Y136.873 E0.01242
G1 X218.305 Y124.766 E0.54314
G1 X217.987 Y124.987 E0.01229
G1 X230.204 Y137.204 E0.54804
G1 X229.969 Y137.508 E0.01220
G1 X217.669 Y125.208 E0.55175
G1 X217.376 Y125.455 E0.01214
G1 X229.733 Y137.812 E0.55433
M73 P1 R73
G1 X229.478 Y138.096 E0.01212
G1 X217.086 Y125.704 E0.55587
G1 X216.812 Y125.969 E0.01210
G1 X229.215 Y138.372 E0.55638
G1 X228.940 Y138.638 E0.01210
G1 X216.549 Y126.246 E0.55587
G1 X216.293 Y126.529 E0.01212
G1 X228.650 Y138.887 E0.55433
G1 X228.357 Y139.133 E0.01214
G1 X216.057 Y126.834 E0.55175
G1 X215.822 Y127.138 E0.01220
G1 X228.039 Y139.355 E0.54804
G1 X227.721 Y139.576 E0.01229
G1 X215.613 Y127.468 E0.54314
G1 X215.406 Y127.801 E0.01242
G1 X227.380 Y139.775 E0.53713
G1 X227.033 Y139.967 E0.01259
G1 X215.219 Y128.153 E0.52997
G1 X215.041 Y128.515 E0.01279
G1 X226.669 Y140.143 E0.52161
G1 X226.292 Y140.305 E0.01303
G1 X214.878 Y128.891 E0.51198
G1 X214.732 Y129.285 E0.01332
G1 X225.901 Y140.454 E0.50101
G1 X225.490 Y140.582 E0.01365
G1 X214.599 Y129.691 E0.48859
G1 X214.488 Y130.119 E0.01404
G1 X225.068 Y140.699 E0.47460
G1 X224.620 Y140.791 E0.01449
G1 X214.390 Y130.561 E0.45891
G1 X214.318 Y131.029 E0.01501
G1 X224.157 Y140.867 E0.44133
G1 X223.667 Y140.917 E0.01561
G1 X214.268 Y131.518 E0.42165
G1 X214.241 Y132.031 E0.01631
G1 X223.149 Y140.938 E0.39957
G1 X222.609 Y140.938 E0.01711
G1 X214.255 Y132.584 E0.37474
G1 X214.296 Y133.164 E0.01843
G1 X222.013 Y140.882 E0.34621
G1 X221.684 Y140.848 E0.01051
G1 X221.377 Y140.785 E0.00992
G1 X214.393 Y133.801 E0.31330
G1 X214.562 Y134.510 E0.02310
G1 X220.680 Y140.628 E0.27446
G1 X219.880 Y140.367 E0.02670
G1 X214.828 Y135.315 E0.22662
G1 X214.946 Y135.633 E0.01074
G1 X215.273 Y136.299 E0.02354
G1 X218.875 Y139.901 E0.16159
G1 X218.369 Y139.621 E0.01834
G1 X217.640 Y139.113 E0.02821
G1 X216.985 Y138.551 E0.02738
G1 X215.588 Y137.154 E0.06266
G1 E-0.80000 F2100.00000
G1 Z0.800 F10800.000
G1 X198.654 Y38.601
G1 Z0.200
G1 E0.80000 F2100.00000
G1 F1200.000
G1 X197.741 Y38.694 E0.02878
G1 X196.823 Y38.694 E0.02878
G1 X195.910 Y38.601 E0.02878
G1 X195.011 Y38.416 E0.02878
G1 X194.135 Y38.141 E0.02878
G1 X193.291 Y37.779 E0.02878
G1 X192.489 Y37.334 E0.02878
G1 X191.735 Y36.809 E0.02878
G1 X191.039 Y36.212 E0.02878
G1 X190.406 Y35.546 E0.02878
G1 X189.844 Y34.820 E0.02878
G1 X189.359 Y34.041 E0.02878
G1 X188.955 Y33.217 E0.02878
G1 X188.636 Y32.356 E0.02878
G1 X188.406 Y31.468 E0.02878
G1 X188.267 Y30.560 E0.02878
G1 X188.220 Y29.644 E0.02878
G1 X188.267 Y28.727 E0.02878
G1 X188.406 Y27.819 E0.02878
G1 X188.636 Y26.931 E0.02878
G1 X188.955 Y26.070 E0.02878
G1 X189.359 Y25.246 E0.02878
G1 X189.844 Y24.467 E0.02878
G1 X190.406 Y23.741 E0.02878
G1 X191.039 Y23.076 E0.02878
G1 X191.735 Y22.478 E0.02878
G1 X192.489 Y21.953 E0.02878
G1 X193.291 Y21.508 E0.02878
G1 X194.135 Y21.146 E0.02878
G1 X195.011 Y20.871 E0.02878
G1 X195.910 Y20.686 E0.02878
G1 X196.823 Y20.593 E0.02878
G1 X197.741 Y20.593 E0.02878
G1 X198.654 Y20.686 E0.02878
G1 X199.554 Y20.871 E0.02878
G1 X200.429 Y21.146 E0.02878
G1 X201.273 Y21.508 E0.02878
G1 X202.076 Y21.953 E0.02878
G1 X202.829 Y22.478 E0.02878
G1 X203.526 Y23.076 E0.02878
G1 X204.158 Y23.741 E0.02878
G1 X204.720 Y24.467 E0.02878
G1 X205.205 Y25.246 E0.02878
G1 X205.610 Y26.070 E0.02878
G1 X205.929 Y26.931 E0.02878
G1 X206.159 Y27.819 E0.02878
G1 X206.298 Y28.727 E0.02878
G1 X206.344 Y29.644 E0.02878
G1 X206.298 Y30.560 E0.02878
G1 X206.159 Y31.468 E0.02878
G1 X205.929 Y32.356 E0.02878
G1 X205.610 Y33.217 E0.02878
G1 X205.205 Y34.041 E0.02878
G1 X204.720 Y34.820 E0.02878
G1 X204.158 Y35.546 E0.02878
G1 X203.526 Y36.212 E0.02878
G1 X202.829 Y36.809 E0.02878
G1 X202.076 Y37.334 E0.02878
G1 X201.273 Y37.779 E0.02878
G1 X200.429 Y38.141 E0.02878
G1 X199.554 Y38.416 E0.02878
G1 X198.713 Y38.589 E0.02690
G1 X198.789 Y38.958 F10800.000
G1 F1200.000
G1 X197.760 Y39.071 E0.03245
G1 X196.804 Y39.071 E0.02998
G1 X195.853 Y38.974 E0.02998
G1 X194.916 Y38.782 E0.02998
G1 X194.004 Y38.495 E0.02998
G1 X193.125 Y38.118 E0.02998
G1 X192.289 Y37.654 E0.02998
G1 X191.504 Y37.108 E0.02998
G1 X190.779 Y36.485 E0.02998
G1 X190.120 Y35.792 E0.02998
G1 X189.535 Y35.036 E0.02998
G1 X189.029 Y34.225 E0.02998
G1 X188.608 Y33.366 E0.02998
G1 X188.276 Y32.469 E0.02998
G1 X188.036 Y31.544 E0.02998
G1 X187.891 Y30.599 E0.02998
G1 X187.843 Y29.644 E0.02998
G1 X187.891 Y28.689 E0.02998
G1 X188.036 Y27.743 E0.02998
G1 X188.276 Y26.818 E0.02998
G1 X188.608 Y25.921 E0.02998
G1 X189.029 Y25.063 E0.02998
G1 X189.535 Y24.251 E0.02998
G1 X190.120 Y23.495 E0.02998
G1 X190.779 Y22.802 E0.02998
G1 X191.504 Y22.179 E0.02998
G1 X192.289 Y21.633 E0.02998
G1 X193.125 Y21.169 E0.02998
G1 X194.004 Y20.792 E0.02998
G1 X194.916 Y20.505 E0.02998
G1 X195.853 Y20.313 E0.02998
G1 X196.804 Y20.216 E0.02998
G1 X197.760 Y20.216 E0.02998
G1 X198.712 Y20.313 E0.02998
G1 X199.648 Y20.505 E0.02998
G1 X200.561 Y20.792 E0.02998
G1 X201.439 Y21.169 E0.02998
G1 X202.275 Y21.633 E0.02998
G1 X203.060 Y22.179 E0.02998
G1 X203.786 Y22.802 E0.02998
G1 X204.444 Y23.495 E0.02998
G1 X205.030 Y24.251 E0.02998
G1 X205.536 Y25.063 E0.02998
G1 X205.957 Y25.921 E0.02998
G1 X206.289 Y26.818 E0.02998
G1 X206.528 Y27.743 E0.02998
G1 X206.673 Y28.689 E0.02998
G1 X206.722 Y29.644 E0.02998
G1 X206.673 Y30.599 E0.02998
G1 X206.528 Y31.544 E0.02998
G1 X206.289 Y32.469 E0.02998
G1 X205.957 Y33.366 E0.02998
G1 X205.536 Y34.225 E0.02998
G1 X205.030 Y35.036 E0.02998
G1 X204.444 Y35.792 E0.02998
G1 X203.786 Y36.485 E0.02998
G1 X203.060 Y37.108 E0.02998
G1 X202.275 Y37.654 E0.02998
G1 X201.439 Y38.118 E0.02998
G1 X200.561 Y38.495 E0.02998
G1 X199.648 Y38.782 E0.02998
G1 X198.848 Y38.946 E0.02562
G1 X198.537 Y38.648 F10800.000
G1 E-0.80000 F2100.00000
G1 Z0.800 F10800.000
G1 X204.707 Y24.661
G1 Z0.200
G1 E0.80000 F2100.00000
G1 F1200.000
G1 X203.310 Y23.263 E0.06270
G1 X202.656 Y22.702 E0.02734
G1 X201.926 Y22.194 E0.02821
G1 X201.420 Y21.913 E0.01835
G1 X205.023 Y25.515 E0.16161
G1 X205.349 Y26.182 E0.02353
G1 X205.467 Y26.499 E0.01075
G1 X200.415 Y21.447 E0.22663
G1 X199.615 Y21.187 E0.02670
G1 X205.733 Y27.305 E0.27446
G1 X205.902 Y28.013 E0.02310
G1 X198.918 Y21.029 E0.31331
G1 X198.612 Y20.966 E0.00992
G1 X198.282 Y20.932 E0.01051
G1 X206.000 Y28.650 E0.34622
G1 X206.040 Y29.230 E0.01843
G1 X197.686 Y20.876 E0.37475
G1 X197.146 Y20.876 E0.01711
G1 X206.054 Y29.783 E0.39957
G1 X206.028 Y30.297 E0.01631
G1 X196.628 Y20.897 E0.42165
G1 X196.139 Y20.947 E0.01561
G1 X205.977 Y30.786 E0.44134
G1 X205.905 Y31.253 E0.01501
G1 X195.675 Y21.023 E0.45892
G1 X195.228 Y21.115 E0.01449
G1 X205.808 Y31.695 E0.47461
G1 X205.697 Y32.124 E0.01404
G1 X194.805 Y21.232 E0.48859
G1 X194.394 Y21.361 E0.01365
G1 X205.563 Y32.529 E0.50101
G1 X205.417 Y32.923 E0.01332
G1 X194.004 Y21.510 E0.51198
G1 X193.626 Y21.672 E0.01303
G1 X205.254 Y33.300 E0.52161
G1 X205.077 Y33.662 E0.01279
G1 X193.262 Y21.847 E0.52997
G1 X192.915 Y22.040 E0.01259
G1 X204.889 Y34.014 E0.53713
G1 X204.682 Y34.346 E0.01242
G1 X192.574 Y22.238 E0.54314
G1 X192.256 Y22.460 E0.01229
G1 X204.473 Y34.677 E0.54804
G1 X204.238 Y34.981 E0.01220
G1 X191.938 Y22.681 E0.55175
G1 X191.645 Y22.928 E0.01214
G1 X204.003 Y35.285 E0.55433
G1 X203.747 Y35.569 E0.01212
G1 X191.355 Y23.177 E0.55587
G1 X191.081 Y23.442 E0.01210
G1 X203.484 Y35.845 E0.55638
G1 X203.209 Y36.110 E0.01210
G1 X190.818 Y23.719 E0.55587
G1 X190.562 Y24.002 E0.01212
G1 X202.919 Y36.359 E0.55433
G1 X202.626 Y36.606 E0.01214
G1 X190.326 Y24.306 E0.55175
G1 X190.091 Y24.610 E0.01220
G1 X202.308 Y36.827 E0.54804
G1 X201.990 Y37.049 E0.01229
G1 X189.882 Y24.941 E0.54314
G1 X189.675 Y25.273 E0.01242
G1 X201.649 Y37.247 E0.53713
G1 X201.302 Y37.440 E0.01259
