; generated by PrusaSlicer 2.2.0+win64 on 2020-10-27 at 20:39:04 UTC

; 

; external perimeters extrusion width = 0.60mm
; perimeters extrusion width = 0.43mm
; infill extrusion width = 0.45mm
; solid infill extrusion width = 0.70mm
; top infill extrusion width = 0.43mm
; first layer extrusion width = 0.42mm

M73 P0 R96
M201 X9000 Y9000 Z500 E10000 ; sets maximum accelerations, mm/sec^2
M203 X500 Y500 Z12 E120 ; sets maximum feedrates, mm/sec
M204 P2000 R1500 T2000 ; sets acceleration (P, T) and retract acceleration (R), mm/sec^2
M205 X10.00 Y10.00 Z0.20 E2.50 ; sets the jerk limits, mm/sec
M205 S0 T0 ; sets the minimum extruding and travel feed rate, mm/sec
M107
M862.3 P "MK2S" ; printer model check
M862.1 P0.4 ; nozzle diameter check
M115 U3.2.3 ; tell printer latest fw version
G90 ; use absolute coordinates
M83 ; extruder relative mode
M204 S2000 T1500 ; MK2 firmware only supports the old M204 format
M104 S215 ; set extruder temp
M140 S60 ; set bed temp
M190 S60 ; wait for bed temp
M109 S215 ; wait for extruder temp
G28 W ; home all without mesh bed level
G80 ; mesh bed leveling
G1 Y-3.0 F1000.0 ; go outside print area
G92 E0.0
G1 X60.0 E9.0  F1000.0 ; intro line
M73 P0 R96
G1 X100.0 E12.5 F1000.0 ; intro line
G92 E0.0
G21 ; set units to millimeters
G90 ; use absolute coordinates
M83 ; use relative distances for extrusion
M900 K0.05 ; Filament gcode LA 1.5
M900 K30 ; Filament gcode LA 1.0
;BEFORE_LAYER_CHANGE
G92 E0.0
;0.2


G1 E-0.80000 F2100.00000
G1 Z0.600 F10800.000
;AFTER_LAYER_CHANGE
;0.2
G1 X10.206 Y12.403
G1 Z0.200
G1 E0.80000 F2100.00000
M204 S1000
G1 F1200.000
G1 X10.782 Y12.156 E0.01965
G1 X11.398 Y12.068 E0.01953
G1 X96.035 Y11.680 E2.65376
G1 X177.901 Y11.680 E2.56684
G1 X239.929 Y16.904 E1.95173
G1 X240.600 Y17.084 E0.02178
G1 X241.193 Y17.452 E0.02190
G1 X242.133 Y18.419 E0.04228
G1 X242.514 Y19.092 E0.02426
G1 X242.659 Y19.894 E0.02555
G1 X243.047 Y104.524 E2.65352
G1 X243.047 Y186.385 E2.56672
G1 X242.896 Y187.220 E0.02661
G1 X242.461 Y187.949 E0.02661
G1 X241.367 Y189.006 E0.04769
G1 X240.859 Y189.264 E0.01787
G1 X240.304 Y189.393 E0.01787
G1 X173.755 Y195.470 E2.09528
G1 X89.066 Y195.860 E2.65537
G1 X19.010 Y195.860 E2.19656
G1 X18.179 Y195.709 E0.02649
G1 X17.450 Y195.273 E0.02661
G1 X16.917 Y194.603 E0.02684
G1 X16.657 Y193.788 E0.02684
G1 X10.290 Y142.389 E1.62390
G1 X10.087 Y138.508 E0.12184
G1 X8.398 Y15.438 E3.85914
G1 X8.505 Y14.374 E0.03353
G1 X8.700 Y13.916 E0.01562
G1 X8.988 Y13.505 E0.01574
G1 X10.161 Y12.443 E0.04962
G1 E-0.80000 F2100.00000
G1 Z0.800 F10800.000
G1 X228.353 Y74.550
G1 Z0.200
G1 E0.80000 F2100.00000
G1 F1200.000
G1 X231.673 Y74.550 E0.10410
G1 X231.673 Y81.520 E0.21854
G1 X228.353 Y81.520 E0.10410
G1 X228.353 Y74.610 E0.21666
G1 X228.294 Y74.155 F10800.000
G1 X227.673 Y74.610
G1 F1200.000
G1 X227.673 Y81.520 E0.21666
G1 X224.353 Y81.520 E0.10410
G1 X224.353 Y74.550 E0.21854
G1 X227.673 Y74.550 E0.10410
G1 X228.045 Y74.464 F10800.000
G1 E-0.80000 F2100.00000
G1 Z0.800 F10800.000
G1 X221.539 Y74.205
G1 Z0.200
G1 E0.80000 F2100.00000
G1 F1200.000
G1 X221.154 Y74.248 E0.01214
G1 X220.893 Y74.318 E0.00847
G1 X220.844 Y74.083 E0.00751
G1 X221.158 Y74.158 E0.01013
G1 X221.479 Y74.198 E0.01014
G1 E-0.80000 F2100.00000
G1 Z0.800 F10800.000
G1 X224.353 Y82.200
G1 Z0.200
G1 E0.80000 F2100.00000
G1 F1200.000
G1 X227.673 Y82.200 E0.10411
G1 X227.662 Y87.826 E0.17641
G1 X227.603 Y88.328 E0.01584
G1 X227.422 Y88.967 E0.02082
G1 X226.772 Y88.980 E0.02039
G1 X224.397 Y89.147 E0.07465
G1 X224.355 Y87.817 E0.04173
G1 X224.353 Y82.260 E0.17424
G1 X224.352 Y81.800 F10800.000
G1 E-0.80000 F2100.00000
G1 Z0.800 F10800.000
G1 X228.013 Y88.072
G1 Z0.200
G1 E0.80000 F2100.00000
G1 F1200.000
G1 X228.051 Y88.402 E0.01041
G1 X228.154 Y88.763 E0.01178
G1 X227.863 Y88.796 E0.00918
G1 X227.974 Y88.402 E0.01284
G1 X228.006 Y88.132 E0.00853
G1 X231.898 Y88.133 F10800.000
G1 F1200.000
G1 X231.976 Y87.704 E0.01369
G1 X231.987 Y88.102 E0.01250
G1 X231.955 Y88.114 E0.00109
G1 E-0.80000 F2100.00000
G1 Z0.800 F10800.000
G1 X232.353 Y81.521
G1 Z0.200
G1 E0.80000 F2100.00000
G1 F1200.000
G1 X232.353 Y74.550 E0.21857
G1 X235.673 Y74.550 E0.10411
G1 X235.666 Y79.699 E0.16143
G1 X235.630 Y80.189 E0.01542
G1 X235.446 Y81.289 E0.03498
G1 X234.458 Y81.476 E0.03152
G1 X234.022 Y81.513 E0.01371
G1 X232.413 Y81.521 E0.05046
G1 X231.953 Y81.524 F10800.000
G1 E-0.80000 F2100.00000
G1 Z0.800 F10800.000
G1 X236.353 Y73.871
G1 Z0.200
G1 E0.80000 F2100.00000
G1 F1200.000
G1 X236.353 Y66.899 E0.21862
G1 X238.275 Y66.911 E0.06027
G1 X238.802 Y66.970 E0.01661
G1 X239.473 Y67.149 E0.02178
G1 X239.473 Y73.621 E0.20294
G1 X238.802 Y73.801 E0.02178
G1 X238.275 Y73.859 E0.01661
G1 X236.413 Y73.871 E0.05839
G1 X235.953 Y73.875 F10800.000
G1 X238.532 Y74.210
G1 F1200.000
G1 X238.872 Y74.172 E0.01072
G1 X239.361 Y74.041 E0.01590
G1 X239.369 Y74.381 E0.01064
G1 X238.872 Y74.248 E0.01614
G1 X238.591 Y74.217 E0.00884
G1 E-0.80000 F2100.00000
G1 Z0.800 F10800.000
G1 X239.213 Y65.070
G1 Z0.200
G1 E0.80000 F2100.00000
G1 F1200.000
G1 X238.415 Y64.620 E0.02871
G1 X236.050 Y63.467 E0.08251
G1 X236.050 Y63.254 E0.00665
G1 X239.203 Y64.782 E0.10986
G1 X239.211 Y65.010 E0.00714
G1 X239.295 Y66.520 F10800.000
G1 F1200.000
G1 X239.320 Y66.718 E0.00626
G1 X238.872 Y66.598 E0.01454
G1 X238.563 Y66.564 E0.00972
G1 X239.235 Y66.523 E0.02108
G1 X239.186 Y66.148 F10800.000
G1 F1200.000
G1 X238.053 Y66.217 E0.03561
G1 X236.353 Y66.221 E0.05330
G1 X236.353 Y64.034 E0.06857
G1 X238.240 Y64.954 E0.06582
G1 X239.304 Y65.554 E0.03832
G1 X239.198 Y66.089 E0.01710
G1 X239.290 Y66.534 F10800.000
G1 X235.673 Y66.089
G1 F1200.000
G1 X235.673 Y66.220 E0.00410
G1 X232.353 Y66.220 E0.10410
G1 X232.353 Y65.086 E0.03557
G1 X233.455 Y64.635 E0.03734
G1 X234.265 Y64.239 E0.02827
G1 X235.673 Y63.428 E0.05095
G1 X235.673 Y66.029 E0.08158
G1 X235.797 Y66.129 F10800.000
G1 X235.673 Y66.900
G1 F1200.000
G1 X235.673 Y73.870 E0.21854
G1 X232.353 Y73.870 E0.10410
G1 X232.353 Y66.900 E0.21854
G1 X235.613 Y66.900 E0.10222
G1 X236.045 Y66.754 F10800.000
G1 X231.976 Y66.523
G1 F1200.000
G1 X224.050 Y66.523 E0.24851
G1 X224.050 Y64.887 E0.05129
G1 X224.485 Y65.032 E0.01440
G1 X225.807 Y65.325 E0.04243
G1 X227.151 Y65.480 E0.04243
G1 X228.504 Y65.496 E0.04243
G1 X229.852 Y65.371 E0.04243
G1 X231.179 Y65.108 E0.04243
G1 X231.976 Y64.862 E0.02613
G1 X231.976 Y66.463 E0.05019
G1 X231.673 Y66.900 F10800.000
G1 F1200.000
G1 X231.673 Y73.870 E0.21854
G1 X228.353 Y73.870 E0.10410
G1 X228.353 Y66.900 E0.21854
G1 X231.613 Y66.900 E0.10222
G1 X232.045 Y66.754 F10800.000
G1 X227.673 Y66.900
G1 F1200.000
G1 X227.673 Y73.870 E0.21854
G1 X224.353 Y73.870 E0.10410
G1 X224.353 Y66.900 E0.21854
G1 X227.613 Y66.900 E0.10221
G1 X228.045 Y66.754 F10800.000
G1 X223.673 Y66.900
G1 F1200.000
G1 X223.673 Y73.873 E0.21861
M73 P1 R95
G1 X221.749 Y73.851 E0.06033
G1 X221.225 Y73.787 E0.01653
G1 X220.556 Y73.627 E0.02160
G1 X220.537 Y72.525 E0.03454
G1 X220.366 Y70.632 E0.05961
G1 X220.352 Y66.900 E0.11699
G1 X223.613 Y66.900 E0.10224
G1 X224.057 Y66.789 F10800.000
G1 X223.613 Y66.220
G1 F1200.000
G1 X220.353 Y66.220 E0.10221
G1 X220.353 Y63.479 E0.08595
G1 X221.759 Y64.277 E0.05070
G1 X222.569 Y64.668 E0.02819
G1 X223.673 Y65.111 E0.03731
G1 X223.673 Y66.220 E0.03477
G1 X223.691 Y66.612 F10800.000
G1 X220.454 Y63.103
G1 F1200.000
G1 X220.009 Y62.850 E0.01604
G1 X219.986 Y62.689 E0.00512
G1 X220.406 Y63.067 E0.01773
G1 E-0.80000 F2100.00000
G1 Z0.800 F10800.000
G1 X239.473 Y74.799
G1 Z0.200
G1 E0.80000 F2100.00000
G1 F1200.000
G1 X238.802 Y74.620 E0.02178
G1 X238.275 Y74.561 E0.01661
G1 X236.352 Y74.549 E0.06029
G1 X236.366 Y80.402 E0.18353
G1 X236.164 Y80.632 E0.00961
G1 X235.897 Y81.032 E0.01507
G1 X235.598 Y81.369 E0.01412
G1 X235.293 Y81.708 E0.01430
G1 X234.928 Y82.012 E0.01489
G1 X234.736 Y82.216 E0.00877
G1 X232.353 Y82.199 E0.07474
G1 X232.353 Y87.712 E0.17288
G1 X232.373 Y88.368 E0.02056
G1 X231.746 Y88.585 E0.02080
G1 X231.473 Y88.628 E0.00867
G1 X231.473 Y88.310 E0.00998
G1 X231.574 Y87.851 E0.01472
G1 X231.644 Y87.361 E0.01554
G1 X231.668 Y86.873 E0.01532
G1 X231.673 Y82.200 E0.14652
G1 X228.352 Y82.200 E0.10412
G1 X228.364 Y87.826 E0.17641
G1 X228.422 Y88.328 E0.01584
G1 X228.604 Y88.970 E0.02092
G1 X229.314 Y88.970 E0.02227
G1 X228.389 Y89.117 E0.02937
G1 X227.900 Y89.171 E0.01542
G1 X226.941 Y89.346 E0.03057
G1 X224.502 Y89.547 E0.07672
G1 X223.911 Y89.629 E0.01873
G1 X223.673 Y88.489 E0.03649
G1 X223.673 Y82.200 E0.19719
G1 X222.358 Y82.200 E0.04121
G1 X222.216 Y81.520 E0.02178
G1 X223.673 Y81.520 E0.04566
G1 X223.673 Y74.549 E0.21858
G1 X221.750 Y74.561 E0.06027
G1 X221.224 Y74.620 E0.01661
G1 X220.605 Y74.785 E0.02008
G1 X220.172 Y72.706 E0.06657
G1 X219.950 Y70.756 E0.06154
G1 X219.673 Y69.349 E0.04496
G1 X219.673 Y66.900 E0.07679
G1 X219.161 Y66.900 E0.01604
G1 X219.019 Y66.220 E0.02178
G1 X219.673 Y66.220 E0.02050
G1 X219.668 Y63.450 E0.08686
G1 X219.644 Y62.964 E0.01525
G1 X219.574 Y62.476 E0.01547
G1 X219.473 Y62.019 E0.01465
G1 X219.474 Y61.581 E0.01373
G1 X219.757 Y61.831 E0.01185
G1 X219.999 Y62.146 E0.01243
G1 X220.308 Y62.482 E0.01434
G1 X220.644 Y62.774 E0.01393
G1 X221.006 Y63.047 E0.01423
G1 X222.142 Y63.711 E0.04126
G1 X223.339 Y64.253 E0.04121
G1 X224.586 Y64.668 E0.04121
G1 X225.869 Y64.953 E0.04121
G1 X227.175 Y65.103 E0.04121
G1 X228.489 Y65.118 E0.04121
G1 X229.798 Y64.997 E0.04121
G1 X231.087 Y64.742 E0.04121
G1 X232.343 Y64.355 E0.04121
G1 X233.552 Y63.840 E0.04121
G1 X234.702 Y63.203 E0.04121
G1 X235.565 Y62.600 E0.03300
G1 X239.573 Y64.542 E0.13963
G1 X239.597 Y65.274 E0.02296
G1 X239.636 Y65.761 E0.01533
G1 X239.641 Y66.256 E0.01551
G1 X239.765 Y67.234 E0.03092
G1 X239.765 Y73.581 E0.19900
G1 X239.737 Y74.073 E0.01547
G1 X239.765 Y75.059 E0.03091
G1 X239.765 Y78.456 E0.10652
G1 X239.706 Y78.675 E0.00712
G1 X239.483 Y78.722 E0.00715
G1 X239.473 Y74.859 E0.12112
G1 X239.534 Y74.404 F10800.000
G1 X238.343 Y74.210
G1 F1200.000
G1 X236.165 Y74.210 E0.05858
G1 X236.062 Y74.210 E0.00255
G1 X236.011 Y74.210 E0.00180
G1 X236.011 Y74.210 F10800.000
G1 F1200.000
G1 X236.012 Y74.160 E0.00176
G1 X236.013 Y66.709 E0.18769
G1 X236.012 Y66.660 E0.00142
G1 X236.012 Y66.610 E0.00159
G1 X236.011 Y66.560 E0.00176
G1 X235.961 Y66.560 E0.00178
G1 X232.164 Y66.560 E0.09564
G1 X232.013 Y66.712 F10800.000
G1 F1200.000
G1 X232.013 Y74.059 E0.18505
G1 X232.013 Y74.109 E0.00145
G1 X232.013 Y74.160 E0.00162
G1 X232.013 Y74.210 E0.00180
G1 X231.962 Y74.210 E0.00180
G1 X228.164 Y74.210 E0.09567
G1 X228.114 Y74.210 E0.00145
G1 X228.063 Y74.210 E0.00162
G1 X228.013 Y74.210 E0.00180
G1 X228.013 Y74.160 E0.00180
G1 X228.013 Y66.712 E0.18760
G1 E-0.80000 F2100.00000
G1 Z0.800 F10800.000
G1 X220.013 Y66.559
G1 Z0.200
G1 E0.80000 F2100.00000
G1 F1200.000
G1 X220.063 Y66.560 E0.00177
G1 X223.861 Y66.560 E0.09567
G1 X224.013 Y66.712 F10800.000
G1 F1200.000
G1 X224.014 Y74.161 E0.18764
G1 X224.014 Y74.211 E0.00177
G1 X224.015 Y74.210 F10800.000
G1 F1200.000
G1 X224.065 Y74.210 E0.00176
G1 X227.861 Y74.210 E0.09563
G1 X227.912 Y74.210 E0.00145
G1 X227.962 Y74.210 E0.00162
G1 X228.013 Y74.210 E0.00180
G1 X228.013 Y74.261 E0.00180
G1 X228.013 Y81.709 E0.18760
G1 X228.013 Y81.759 E0.00144
G1 X228.013 Y81.809 E0.00162
G1 X228.013 Y81.860 E0.00179
G1 X227.962 Y81.860 E0.00179
G1 X224.164 Y81.860 E0.09568
G1 X224.114 Y81.860 E0.00145
G1 X224.063 Y81.860 E0.00162
G1 X224.013 Y81.860 E0.00180
G1 X224.013 Y81.860 F10800.000
G1 F1200.000
G1 X224.013 Y81.911 E0.00180
G1 X224.013 Y81.961 E0.00162
G1 X224.013 Y82.012 E0.00145
G1 X224.013 Y82.012 F10800.000
G1 F1200.000
G1 X224.014 Y87.820 E0.14721
G1 X224.024 Y88.453 E0.01603
G1 X224.052 Y88.691 E0.00608
G1 X224.081 Y88.930 E0.00573
G1 X224.109 Y89.168 E0.00497
G1 X224.138 Y89.407 E0.00422
G1 X228.013 Y87.883 F10800.000
G1 F1200.000
G1 X228.013 Y81.910 E0.16099
G1 X228.013 Y81.860 E0.00180
G1 X228.063 Y81.860 E0.00179
G1 X228.113 Y81.860 E0.00161
G1 X228.163 Y81.860 E0.00144
G1 X231.962 Y81.860 E0.09567
G1 X232.011 Y81.860 E0.00177
G1 X232.012 Y81.910 E0.00176
G1 X232.012 Y81.959 E0.00159
G1 X232.013 Y82.009 E0.00142
G1 X232.011 Y86.878 E0.12249
G1 X231.995 Y87.516 E0.01606
G1 E-0.80000 F2100.00000
G1 Z0.800 F10800.000
G1 X234.202 Y82.023
G1 Z0.200
G1 E0.80000 F2100.00000
G1 F1200.000
G1 X235.145 Y81.542 E0.02592
G1 X234.875 Y81.810 F10800.000
G1 F1200.000
G1 X234.517 Y81.843 E0.01126
G1 X234.044 Y81.862 E0.01440
G1 X232.165 Y81.860 E0.05016
G1 X232.063 Y81.860 E0.00254
G1 X232.012 Y81.860 E0.00181
G1 X232.011 Y81.860 F10800.000
G1 F1200.000
G1 X232.012 Y81.810 E0.00177
G1 X232.012 Y81.760 E0.00159
G1 X232.013 Y81.711 E0.00142
G1 X232.013 Y74.261 E0.18765
G1 X232.013 Y74.210 E0.00180
G1 X232.063 Y74.210 E0.00180
G1 X232.114 Y74.210 E0.00162
G1 X232.164 Y74.210 E0.00145
G1 X235.961 Y74.210 E0.09565
G1 X236.011 Y74.210 E0.00176
G1 X236.012 Y74.260 E0.00177
G1 X236.012 Y74.310 E0.00159
G1 X236.012 Y74.359 E0.00142
G1 X236.015 Y79.706 E0.13401
G1 X235.968 Y80.586 E0.02210
G1 X235.702 Y80.918 F10800.000
G1 F1200.000
G1 X236.176 Y79.830 E0.02605
G1 E-0.80000 F2100.00000
G1 Z0.800 F10800.000
G1 X222.480 Y81.860
G1 Z0.200
G1 E0.80000 F2100.00000
G1 F1200.000
G1 X223.861 Y81.860 E0.03479
G1 X223.912 Y81.860 E0.00145
G1 X223.962 Y81.860 E0.00162
G1 X224.013 Y81.860 E0.00180
G1 X224.013 Y81.810 E0.00180
G1 X224.013 Y74.359 E0.18768
G1 X224.013 Y74.310 E0.00141
G1 X224.014 Y74.260 E0.00158
G1 X224.014 Y74.211 E0.00174
G1 X223.963 Y74.211 E0.00181
G1 X223.860 Y74.211 E0.00254
G1 X221.727 Y74.206 E0.05858
G1 X220.162 Y70.733 F10800.000
G1 F1200.000
G1 X220.105 Y70.199 E0.00256
G1 X220.039 Y69.536 E0.01022
G1 X220.017 Y69.316 E0.00575
G1 X220.012 Y66.712 E0.06741
G1 X220.012 Y66.611 E0.00254
G1 X220.013 Y66.509 E0.00361
G1 X220.013 Y66.459 E0.00161
G1 X220.013 Y66.409 E0.00144
G1 X220.001 Y63.063 E0.08410
G1 X219.780 Y62.577 F10800.000
G1 F1200.000
G1 X219.861 Y62.426 E0.00293
G1 X219.701 Y62.107 E0.00608
G1 X219.701 Y62.107 F10800.000
G1 F1200.000
G1 X219.904 Y62.519 E0.00533
G1 X220.611 Y63.206 F10800.000
G1 F1200.000
G1 X221.980 Y64.008 E0.03891
G1 X223.224 Y64.569 E0.03349
G1 X223.861 Y64.803 E0.01839
G1 X224.163 Y65.638 F10800.000
G1 F1200.000
G1 X224.765 Y66.240 E0.02703
G1 X225.305 Y66.240 E0.01713
G1 X224.350 Y65.285 E0.04287
G1 X225.052 Y65.448 E0.02287
G1 X225.845 Y66.240 E0.03558
G1 X226.384 Y66.240 E0.01713
G1 X225.745 Y65.601 E0.02868
G1 X226.357 Y65.673 E0.01955
G1 X226.924 Y66.240 E0.02544
G1 X227.464 Y66.240 E0.01713
G1 X226.967 Y65.744 E0.02229
G1 X227.531 Y65.767 E0.01789
G1 X228.004 Y66.240 E0.02123
G1 X228.543 Y66.240 E0.01713
G1 X228.077 Y65.773 E0.02095
G1 X228.612 Y65.770 E0.01700
G1 X229.083 Y66.240 E0.02113
G1 X229.623 Y66.240 E0.01713
G1 X229.107 Y65.724 E0.02318
G1 X229.601 Y65.678 E0.01575
G1 X230.163 Y66.240 E0.02523
G1 X230.703 Y66.240 E0.01713
G1 X230.077 Y65.615 E0.02808
G1 X230.527 Y65.525 E0.01458
G1 X231.242 Y66.240 E0.03209
G1 X231.693 Y66.240 E0.01430
G1 X231.693 Y66.151 E0.00283
G1 X230.978 Y65.436 E0.03209
G1 X231.413 Y65.332 E0.01421
G1 X231.863 Y65.781 E0.02016
G1 X232.164 Y64.780 F10800.000
G1 F1200.000
G1 X232.467 Y64.671 E0.00788
G1 X233.706 Y64.138 E0.03303
G1 X234.888 Y63.487 E0.03397
G1 X235.337 Y63.202 E0.01500
G1 X235.786 Y62.917 E0.01661
G1 X236.013 Y63.658 F10800.000
G1 F1200.000
G1 X236.012 Y66.509 E0.07182
G1 X236.011 Y66.560 E0.00180
G1 X236.012 Y66.559 F10800.000
G1 F1200.000
G1 X236.063 Y66.559 E0.00180
G1 X236.165 Y66.559 E0.00254
G1 X238.068 Y66.563 E0.05002
G1 X238.375 Y66.555 E0.00832
G1 X239.459 Y66.321 F10800.000
G1 F1200.000
G1 X239.404 Y66.275 E0.00059
G1 X239.427 Y66.017 E0.00212
G1 E-0.80000 F2100.00000
G1 Z0.800 F10800.000
G1 X238.870 Y99.965
G1 Z0.200
G1 E0.80000 F2100.00000
G1 F1200.000
G1 X238.870 Y101.602 E0.05135
G1 X235.673 Y101.440 E0.10036
G1 X232.063 Y100.931 E0.11432
G1 X228.512 Y100.102 E0.11432
G1 X225.050 Y98.959 E0.11432
G1 X221.704 Y97.511 E0.11432
G1 X218.500 Y95.770 E0.11432
G1 X215.465 Y93.750 E0.11432
G1 X212.622 Y91.467 E0.11432
G1 X209.994 Y88.940 E0.11432
G1 X207.603 Y86.187 E0.11432
G1 X205.467 Y83.233 E0.11432
G1 X203.603 Y80.099 E0.11432
G1 X202.027 Y76.811 E0.11432
