; generated by PrusaSlicer 2.2.0+win64 on 2020-10-27 at 20:40:03 UTC

; 

; external perimeters extrusion width = 0.60mm
; perimeters extrusion width = 0.43mm
; infill extrusion width = 0.45mm
; solid infill extrusion width = 0.70mm
; top infill extrusion width = 0.43mm
; first layer extrusion width = 0.42mm

M73 P0 R25
M201 X9000 Y9000 Z500 E10000 ; sets maximum accelerations, mm/sec^2
M203 X500 Y500 Z12 E120 ; sets maximum feedrates, mm/sec
M204 P2000 R1500 T2000 ; sets acceleration (P, T) and retract acceleration (R), mm/sec^2
M205 X10.00 Y10.00 Z0.20 E2.50 ; sets the jerk limits, mm/sec
M205 S0 T0 ; sets the minimum extruding and travel feed rate, mm/sec
M107
M862.3 P "MK2S" ; printer model check
M862.1 P0.4 ; nozzle diameter check
M115 U3.2.3 ; tell printer latest fw version
G90 ; use absolute coordinates
M83 ; extruder relative mode
M204 S2000 T1500 ; MK2 firmware only supports the old M204 format
M104 S215 ; set extruder temp
M140 S60 ; set bed temp
M190 S60 ; wait for bed temp
M109 S215 ; wait for extruder temp
G28 W ; home all without mesh bed level
G80 ; mesh bed leveling
G1 Y-3.0 F1000.0 ; go outside print area
G92 E0.0
G1 X60.0 E9.0  F1000.0 ; intro line
M73 P0 R25
G1 X100.0 E12.5 F1000.0 ; intro line
G92 E0.0
G21 ; set units to millimeters
G90 ; use absolute coordinates
M83 ; use relative distances for extrusion
M900 K0.05 ; Filament gcode LA 1.5
M900 K30 ; Filament gcode LA 1.0
;BEFORE_LAYER_CHANGE
G92 E0.0
;0.2


G1 E-0.80000 F2100.00000
G1 Z0.600 F10800.000
;AFTER_LAYER_CHANGE
;0.2
G1 X44.183 Y89.793
G1 Z0.200
G1 E0.80000 F2100.00000
M204 S1000
G1 F1200.000
G1 X44.985 Y89.648 E0.02555
G1 X129.614 Y89.260 E2.65352
G1 X211.480 Y89.260 E2.56684
G1 X212.228 Y89.382 E0.02378
G1 X212.900 Y89.734 E0.02378
G1 X213.921 Y90.710 E0.04429
G1 X214.336 Y91.398 E0.02520
G1 X214.477 Y91.947 E0.01775
G1 X214.500 Y92.624 E0.02126
G1 X214.304 Y96.521 E0.12233
G1 X207.922 Y148.044 E1.62783
G1 X207.747 Y148.654 E0.01989
G1 X207.416 Y149.195 E0.01989
G1 X206.951 Y149.631 E0.02000
G1 X206.390 Y149.927 E0.01989
G1 X205.584 Y150.072 E0.02567
G1 X120.958 Y150.461 E2.65340
G1 X50.891 Y150.461 E2.19691
G1 X50.183 Y150.348 E0.02249
G1 X49.540 Y150.029 E0.02249
G1 X49.022 Y149.533 E0.02249
G1 X48.674 Y148.902 E0.02260
G1 X48.547 Y148.376 E0.01697
G1 X42.168 Y96.841 E1.62818
G1 X41.977 Y93.044 E0.11918
G1 X42.071 Y91.998 E0.03294
G1 X42.295 Y91.466 E0.01811
G1 X42.639 Y91.007 E0.01799
G1 X43.534 Y90.155 E0.03872
G1 X44.131 Y89.823 E0.02143
G1 E-0.80000 F2100.00000
G1 Z0.800 F10800.000
G1 X79.685 Y144.574
G1 Z0.200
G1 E0.80000 F2100.00000
G1 F1200.000
G1 X92.173 Y144.574 E0.39155
G1 X92.173 Y147.144 E0.08058
G1 X79.685 Y147.144 E0.39155
G1 X79.685 Y144.634 E0.07870
G1 X79.509 Y144.215 F10800.000
G1 X79.308 Y147.297
G1 F1200.000
G1 X78.882 Y147.297 E0.01335
G1 X78.882 Y141.171 E0.19207
G1 X79.308 Y141.171 E0.01335
G1 X79.308 Y147.237 E0.19019
G1 X79.685 Y143.894 F10800.000
G1 F1200.000
G1 X79.685 Y141.324 E0.08058
G1 X92.173 Y141.324 E0.39155
G1 X92.173 Y143.894 E0.08058
G1 X79.745 Y143.894 E0.38967
G1 X79.286 Y143.921 F10800.000
G1 E-0.80000 F2100.00000
G1 Z0.800 F10800.000
G1 X93.353 Y143.894
G1 Z0.200
G1 E0.80000 F2100.00000
G1 F1200.000
G1 X93.353 Y141.324 E0.08058
G1 X105.841 Y141.324 E0.39155
G1 X105.841 Y143.894 E0.08058
G1 X93.413 Y143.894 E0.38967
G1 X92.954 Y143.921 F10800.000
G1 X93.413 Y144.574
G1 F1200.000
G1 X105.841 Y144.574 E0.38967
G1 X105.841 Y147.144 E0.08058
G1 X93.353 Y147.144 E0.39155
G1 X93.353 Y144.574 E0.08058
G1 X93.237 Y144.215 F10800.000
G1 X92.976 Y147.297
G1 F1200.000
G1 X92.550 Y147.297 E0.01335
G1 X92.550 Y141.171 E0.19207
G1 X92.976 Y141.171 E0.01335
G1 X92.976 Y147.237 E0.19019
G1 E-0.80000 F2100.00000
G1 Z0.800 F10800.000
G1 X107.021 Y143.894
G1 Z0.200
G1 E0.80000 F2100.00000
G1 F1200.000
G1 X107.021 Y141.324 E0.08058
G1 X119.509 Y141.324 E0.39155
G1 X119.509 Y143.894 E0.08058
G1 X107.081 Y143.894 E0.38967
G1 X106.622 Y143.921 F10800.000
G1 X107.081 Y144.574
G1 F1200.000
G1 X119.509 Y144.574 E0.38967
G1 X119.509 Y147.144 E0.08058
G1 X107.021 Y147.144 E0.39155
G1 X107.021 Y144.574 E0.08058
G1 X106.905 Y144.215 F10800.000
G1 X106.644 Y147.297
G1 F1200.000
G1 X106.218 Y147.297 E0.01335
G1 X106.218 Y141.171 E0.19207
G1 X106.644 Y141.171 E0.01335
G1 X106.644 Y147.237 E0.19019
G1 E-0.80000 F2100.00000
G1 Z0.800 F10800.000
G1 X119.886 Y147.237
G1 Z0.200
G1 E0.80000 F2100.00000
G1 F1200.000
G1 X119.886 Y141.171 E0.19019
G1 X120.283 Y141.171 E0.01246
G1 X120.178 Y147.297 E0.19210
G1 X119.886 Y147.297 E0.00915
G1 E-0.80000 F2100.00000
G1 Z0.800 F10800.000
G1 X65.640 Y147.297
G1 Z0.200
G1 E0.80000 F2100.00000
G1 F1200.000
G1 X65.214 Y147.297 E0.01335
G1 X65.214 Y141.171 E0.19207
G1 X65.640 Y141.171 E0.01335
G1 X65.640 Y147.237 E0.19019
G1 X66.017 Y147.144 F10800.000
G1 F1200.000
G1 X66.017 Y144.574 E0.08058
G1 X78.505 Y144.574 E0.39155
G1 X78.505 Y147.144 E0.08058
G1 X66.077 Y147.144 E0.38967
G1 X65.618 Y147.171 F10800.000
G1 X66.077 Y143.894
G1 F1200.000
G1 X66.017 Y143.894 E0.00188
G1 X66.017 Y141.324 E0.08058
G1 X78.505 Y141.324 E0.39155
G1 X78.505 Y143.894 E0.08058
G1 X66.137 Y143.894 E0.38779
G1 X66.050 Y143.948 F10800.000
G1 X64.837 Y143.894
G1 F1200.000
G1 X52.349 Y143.894 E0.39155
G1 X52.349 Y141.324 E0.08058
G1 X64.837 Y141.324 E0.39155
G1 X64.837 Y143.834 E0.07870
G1 X65.013 Y144.253 F10800.000
G1 X64.837 Y144.574
G1 F1200.000
G1 X64.837 Y147.144 E0.08058
G1 X52.349 Y147.144 E0.39155
G1 X52.349 Y144.574 E0.08058
G1 X64.777 Y144.574 E0.38967
G1 X65.236 Y144.547 F10800.000
G1 E-0.80000 F2100.00000
G1 Z0.800 F10800.000
G1 X51.972 Y147.297
G1 Z0.200
G1 E0.80000 F2100.00000
G1 F1200.000
G1 X51.680 Y147.297 E0.00915
G1 X51.574 Y141.171 E0.19210
G1 X51.972 Y141.171 E0.01246
G1 X51.972 Y147.237 E0.19019
G1 X51.309 Y147.674 F10800.000
G1 F1200.000
G1 X51.191 Y140.794 E0.21575
G1 X120.667 Y140.794 E2.17838
G1 X120.548 Y147.674 E0.21575
G1 X51.369 Y147.674 E2.16906
G1 X51.494 Y147.319 F10800.000
G1 X52.160 Y147.409
G1 F1200.000
G1 X65.025 Y147.409 E0.16358
G1 X65.828 Y147.409 F10800.000
G1 F1200.000
G1 X78.693 Y147.409 E0.16358
G1 X79.496 Y147.409 F10800.000
G1 F1200.000
G1 X92.361 Y147.409 E0.16358
G1 X93.164 Y147.409 F10800.000
G1 F1200.000
G1 X106.029 Y147.409 E0.16358
G1 X106.832 Y147.409 F10800.000
G1 F1200.000
G1 X119.697 Y147.409 E0.16358
M73 P4 R24
G1 X119.697 Y144.234 F10800.000
G1 F1200.000
G1 X106.832 Y144.234 E0.32405
G1 X106.029 Y144.234 F10800.000
G1 F1200.000
G1 X93.164 Y144.234 E0.32405
G1 X92.361 Y144.234 F10800.000
G1 F1200.000
G1 X79.496 Y144.234 E0.32405
G1 X78.693 Y144.234 F10800.000
G1 F1200.000
G1 X65.828 Y144.234 E0.32405
G1 X65.025 Y144.234 F10800.000
G1 F1200.000
G1 X52.160 Y144.234 E0.32405
G1 X52.160 Y141.059 F10800.000
G1 F1200.000
G1 X65.025 Y141.059 E0.16360
G1 X65.828 Y141.059 F10800.000
G1 F1200.000
G1 X78.693 Y141.059 E0.16360
G1 X79.496 Y141.059 F10800.000
G1 F1200.000
G1 X92.361 Y141.059 E0.16360
G1 X93.164 Y141.059 F10800.000
G1 F1200.000
G1 X106.029 Y141.059 E0.16360
G1 X106.832 Y141.059 F10800.000
G1 F1200.000
G1 X119.697 Y141.059 E0.16360
G1 E-0.80000 F2100.00000
G1 Z0.800 F10800.000
G1 X78.504 Y108.083
G1 Z0.200
G1 E0.80000 F2100.00000
G1 F1200.000
G1 X71.534 Y108.083 E0.21854
G1 X71.534 Y104.763 E0.10410
G1 X78.504 Y104.763 E0.21854
G1 X78.504 Y108.023 E0.10221
G1 X78.651 Y108.455 F10800.000
G1 X78.504 Y104.083
G1 F1200.000
G1 X71.534 Y104.083 E0.21854
G1 X71.534 Y100.763 E0.10410
G1 X78.504 Y100.763 E0.21854
G1 X78.504 Y104.023 E0.10222
G1 X78.651 Y104.455 F10800.000
G1 X78.505 Y100.083
G1 F1200.000
G1 X71.534 Y100.083 E0.21857
G1 X71.534 Y96.763 E0.10411
G1 X76.682 Y96.770 E0.16143
G1 X77.173 Y96.805 E0.01542
G1 X78.276 Y96.991 E0.03508
G1 X78.470 Y98.150 E0.03685
G1 X78.499 Y98.667 E0.01623
G1 X78.505 Y100.023 E0.04252
G1 X78.507 Y100.483 F10800.000
G1 E-0.80000 F2100.00000
G1 Z0.800 F10800.000
G1 X71.194 Y93.904
G1 Z0.200
G1 E0.80000 F2100.00000
G1 F1200.000
G1 X71.156 Y93.564 E0.01072
G1 X71.025 Y93.074 E0.01590
G1 X71.365 Y93.067 E0.01064
G1 X71.232 Y93.564 E0.01614
G1 X71.201 Y93.844 E0.00884
G1 E-0.80000 F2100.00000
G1 Z0.800 F10800.000
G1 X64.133 Y92.963
G1 Z0.200
G1 E0.80000 F2100.00000
G1 F1200.000
G1 X70.605 Y92.963 E0.20294
G1 X70.785 Y93.634 E0.02178
G1 X70.843 Y94.161 E0.01661
G1 X70.855 Y96.083 E0.06027
G1 X63.883 Y96.083 E0.21862
G1 X63.895 Y94.161 E0.06027
G1 X63.953 Y93.634 E0.01661
G1 X64.117 Y93.021 E0.01990
G1 X64.159 Y92.564 F10800.000
G1 X63.702 Y93.116
G1 F1200.000
G1 X63.582 Y93.564 E0.01454
G1 X63.548 Y93.872 E0.00972
G1 X63.503 Y93.141 E0.02297
G1 X63.642 Y93.123 E0.00438
G1 X63.132 Y93.249 F10800.000
G1 F1200.000
G1 X63.201 Y94.383 E0.03561
G1 X63.205 Y96.083 E0.05330
G1 X61.018 Y96.083 E0.06857
G1 X61.936 Y94.198 E0.06575
G1 X62.541 Y93.132 E0.03842
G1 X63.073 Y93.238 E0.01701
G1 X63.518 Y93.145 F10800.000
G1 X62.050 Y93.223
G1 F1200.000
G1 X61.601 Y94.026 E0.02885
G1 X60.450 Y96.386 E0.08231
G1 X60.238 Y96.386 E0.00665
G1 X61.766 Y93.232 E0.10986
G1 X61.990 Y93.225 E0.00703
G1 X60.411 Y96.763 F10800.000
G1 F1200.000
G1 X63.204 Y96.763 E0.08756
G1 X63.204 Y100.083 E0.10410
G1 X62.069 Y100.083 E0.03557
G1 X61.619 Y98.981 E0.03734
G1 X61.223 Y98.171 E0.02827
G1 X60.441 Y96.815 E0.04906
G1 X60.345 Y96.368 F10800.000
G1 X63.884 Y96.815
G1 F1200.000
G1 X63.884 Y96.763 E0.00163
G1 X70.854 Y96.763 E0.21854
G1 X70.854 Y100.083 E0.10410
G1 X63.884 Y100.083 E0.21854
G1 X63.884 Y96.875 E0.10058
G1 X63.833 Y96.807 F10800.000
G1 X63.884 Y100.763
G1 F1200.000
G1 X70.854 Y100.763 E0.21854
G1 X70.854 Y104.083 E0.10410
G1 X63.884 Y104.083 E0.21854
G1 X63.884 Y100.823 E0.10222
G1 X63.737 Y100.391 F10800.000
G1 X63.884 Y104.763
G1 F1200.000
G1 X70.854 Y104.763 E0.21854
G1 X70.854 Y108.083 E0.10410
G1 X63.884 Y108.083 E0.21854
G1 X63.884 Y104.823 E0.10221
G1 X63.737 Y104.391 F10800.000
G1 X63.884 Y108.763
G1 F1200.000
G1 X70.856 Y108.763 E0.21861
G1 X70.835 Y110.687 E0.06033
G1 X70.771 Y111.210 E0.01653
G1 X70.610 Y111.880 E0.02160
G1 X69.509 Y111.899 E0.03454
G1 X67.615 Y112.069 E0.05961
G1 X63.884 Y112.084 E0.11699
G1 X63.884 Y108.823 E0.10224
G1 X63.773 Y108.379 F10800.000
G1 X63.507 Y108.386
G1 F1200.000
G1 X61.871 Y108.386 E0.05129
G1 X62.016 Y107.950 E0.01440
G1 X62.309 Y106.629 E0.04243
G1 X62.464 Y105.285 E0.04243
G1 X62.479 Y103.931 E0.04243
G1 X62.355 Y102.584 E0.04243
G1 X62.092 Y101.256 E0.04243
G1 X61.846 Y100.460 E0.02613
G1 X63.507 Y100.460 E0.05207
G1 X63.507 Y108.326 E0.24663
G1 X63.204 Y108.763 F10800.000
G1 F1200.000
G1 X63.204 Y112.083 E0.10410
G1 X60.463 Y112.083 E0.08595
G1 X61.261 Y110.677 E0.05070
G1 X61.652 Y109.867 E0.02819
G1 X62.095 Y108.763 E0.03731
G1 X63.144 Y108.763 E0.03288
G1 X63.596 Y108.681 F10800.000
G1 X60.087 Y111.982
G1 F1200.000
G1 X59.834 Y112.427 E0.01604
G1 X59.672 Y112.450 E0.00512
G1 X60.050 Y112.030 E0.01772
G1 E-0.80000 F2100.00000
G1 Z0.800 F10800.000
G1 X71.067 Y111.592
G1 Z0.200
G1 E0.80000 F2100.00000
G1 F1200.000
G1 X71.142 Y111.277 E0.01013
G1 X71.189 Y110.897 E0.01202
G1 X71.232 Y111.282 E0.01214
G1 X71.302 Y111.543 E0.00847
G1 X71.126 Y111.579 E0.00563
G1 E-0.80000 F2100.00000
G1 Z0.800 F10800.000
G1 X79.184 Y108.083
G1 Z0.200
G1 E0.80000 F2100.00000
G1 F1200.000
G1 X79.184 Y104.762 E0.10411
G1 X84.810 Y104.774 E0.17641
G1 X85.312 Y104.833 E0.01584
G1 X85.951 Y105.013 E0.02082
G1 X85.963 Y105.663 E0.02039
G1 X86.131 Y108.038 E0.07465
G1 X84.801 Y108.081 E0.04173
G1 X79.244 Y108.083 E0.17424
G1 X78.784 Y108.084 F10800.000
G1 E-0.80000 F2100.00000
G1 Z0.800 F10800.000
G1 X85.056 Y104.423
G1 Z0.200
G1 E0.80000 F2100.00000
G1 F1200.000
G1 X85.386 Y104.384 E0.01041
G1 X85.747 Y104.282 E0.01178
G1 X85.780 Y104.573 E0.00918
G1 X85.386 Y104.462 E0.01284
G1 X85.115 Y104.430 E0.00853
G1 X85.117 Y100.538 F10800.000
G1 F1200.000
G1 X84.688 Y100.460 E0.01369
G1 X85.086 Y100.448 E0.01250
G1 X85.097 Y100.481 E0.00109
G1 E-0.80000 F2100.00000
G1 Z0.800 F10800.000
G1 X78.820 Y97.958
G1 Z0.200
G1 E0.80000 F2100.00000
G1 F1200.000
G1 X78.801 Y97.842 E0.00369
G1 X78.821 Y97.861 E0.00087
G1 X78.821 Y97.898 E0.00117
G1 E-0.80000 F2100.00000
G1 Z0.800 F10800.000
G1 X71.783 Y92.963
G1 Z0.200
G1 E0.80000 F2100.00000
G1 F1200.000
G1 X71.603 Y93.634 E0.02178
G1 X71.545 Y94.161 E0.01661
G1 X71.533 Y96.083 E0.06029
G1 X77.386 Y96.069 E0.18353
G1 X77.616 Y96.272 E0.00961
G1 X78.016 Y96.539 E0.01507
G1 X78.353 Y96.837 E0.01412
G1 X78.692 Y97.143 E0.01430
G1 X78.996 Y97.507 E0.01489
G1 X79.199 Y97.699 E0.00877
G1 X79.182 Y100.083 E0.07474
G1 X84.696 Y100.083 E0.17288
G1 X85.352 Y100.063 E0.02056
G1 X85.569 Y100.690 E0.02080
G1 X85.612 Y100.963 E0.00867
G1 X85.294 Y100.963 E0.00998
G1 X84.835 Y100.862 E0.01472
G1 X84.345 Y100.791 E0.01554
G1 X83.857 Y100.767 E0.01532
G1 X79.184 Y100.763 E0.14652
G1 X79.184 Y104.083 E0.10412
G1 X84.810 Y104.072 E0.17641
G1 X85.312 Y104.013 E0.01584
G1 X85.954 Y103.832 E0.02092
G1 X85.954 Y103.121 E0.02227
G1 X86.100 Y104.047 E0.02937
G1 X86.155 Y104.535 E0.01542
G1 X86.330 Y105.495 E0.03057
G1 X86.530 Y107.933 E0.07672
G1 X86.612 Y108.525 E0.01873
G1 X85.473 Y108.763 E0.03649
G1 X79.184 Y108.763 E0.19719
G1 X79.184 Y110.077 E0.04121
G1 X78.504 Y110.219 E0.02178
G1 X78.504 Y108.763 E0.04566
G1 X71.533 Y108.763 E0.21858
G1 X71.545 Y110.685 E0.06027
G1 X71.603 Y111.212 E0.01661
G1 X71.769 Y111.830 E0.02008
G1 X69.690 Y112.264 E0.06657
G1 X67.740 Y112.485 E0.06154
G1 X66.333 Y112.763 E0.04496
G1 X63.884 Y112.763 E0.07679
G1 X63.884 Y113.274 E0.01604
G1 X63.204 Y113.416 E0.02178
G1 X63.204 Y112.762 E0.02050
G1 X60.434 Y112.767 E0.08686
G1 X59.948 Y112.791 E0.01525
G1 X59.459 Y112.862 E0.01547
G1 X59.003 Y112.963 E0.01465
G1 X58.559 Y112.961 E0.01393
G1 X58.797 Y112.698 E0.01112
G1 X59.130 Y112.436 E0.01330
G1 X59.466 Y112.128 E0.01430
G1 X59.757 Y111.792 E0.01393
G1 X60.031 Y111.430 E0.01423
G1 X60.695 Y110.294 E0.04126
G1 X61.237 Y109.096 E0.04121
G1 X61.652 Y107.850 E0.04121
G1 X61.937 Y106.566 E0.04121
G1 X62.087 Y105.261 E0.04121
G1 X62.102 Y103.947 E0.04121
G1 X61.981 Y102.638 E0.04121
G1 X61.726 Y101.349 E0.04121
G1 X61.339 Y100.093 E0.04121
G1 X60.824 Y98.884 E0.04121
G1 X60.187 Y97.734 E0.04121
G1 X59.584 Y96.871 E0.03300
G1 X61.526 Y92.863 E0.13963
G1 X62.258 Y92.839 E0.02296
G1 X62.745 Y92.800 E0.01533
G1 X63.240 Y92.794 E0.01551
G1 X64.218 Y92.670 E0.03092
G1 X70.565 Y92.670 E0.19900
G1 X71.057 Y92.698 E0.01547
G1 X72.043 Y92.670 E0.03091
G1 X75.440 Y92.670 E0.10651
G1 X75.655 Y92.728 E0.00698
G1 X75.703 Y92.953 E0.00721
G1 X71.843 Y92.963 E0.12104
G1 X71.387 Y92.902 F10800.000
G1 X71.194 Y94.092
G1 F1200.000
G1 X71.194 Y96.271 E0.05396
G1 X71.194 Y96.322 E0.00144
G1 X71.194 Y96.373 E0.00162
G1 X71.193 Y96.424 E0.00180
G1 X71.144 Y96.424 E0.00175
G1 X63.693 Y96.423 E0.18770
G1 X63.643 Y96.423 E0.00142
G1 X63.594 Y96.424 E0.00159
G1 X63.544 Y96.424 E0.00176
G1 X63.543 Y96.423 F10800.000
G1 F1200.000
G1 X63.544 Y96.474 E0.00181
G1 X63.544 Y100.271 E0.09564
G1 X63.696 Y100.423 F10800.000
G1 F1200.000
G1 X71.143 Y100.423 E0.18760
G1 X71.194 Y100.423 E0.00180
G1 X71.194 Y100.372 E0.00180
G1 X71.194 Y100.322 E0.00162
G1 X71.194 Y100.271 E0.00145
G1 X71.194 Y96.474 E0.09565
G1 X71.193 Y96.424 E0.00177
G1 X71.194 Y96.424 F10800.000
G1 F1200.000
G1 X71.244 Y96.424 E0.00177
G1 X71.346 Y96.423 E0.00256
G1 X76.701 Y96.420 E0.14337
G1 X77.570 Y96.468 E0.02646
G1 X77.902 Y96.733 F10800.000
G1 F1200.000
G1 X76.814 Y96.259 E0.02606
G1 X78.833 Y98.146 F10800.000
G1 F1200.000
G1 X78.843 Y100.271 E0.05270
G1 X78.843 Y100.322 E0.00145
G1 X78.843 Y100.373 E0.00163
G1 X78.843 Y100.424 E0.00181
G1 X78.794 Y100.423 E0.00176
G1 X71.345 Y100.423 E0.18760
G1 X71.295 Y100.423 E0.00145
G1 X71.244 Y100.423 E0.00162
G1 X71.194 Y100.423 E0.00180
G1 X71.194 Y100.473 E0.00180
G1 X71.194 Y104.271 E0.09567
G1 X71.194 Y104.322 E0.00145
G1 X71.194 Y104.372 E0.00162
G1 X71.194 Y104.423 E0.00180
G1 X71.143 Y104.423 E0.00180
G1 X63.696 Y104.423 E0.18760
G1 E-0.80000 F2100.00000
G1 Z0.800 F10800.000
G1 X63.543 Y112.422
G1 Z0.200
G1 E0.80000 F2100.00000
G1 F1200.000
G1 X63.595 Y112.424 E0.00183
G1 X63.645 Y112.424 E0.00161
G1 X63.696 Y112.424 E0.00144
G1 X66.299 Y112.419 E0.06526
G1 X66.520 Y112.397 E0.00556
