; G-Code generated by Simplify3D(R) Version 4.1.1
; May 6, 2019 at 5:53:38 PM
; Settings Summary
;   processName,Process1
;   applyToModels,ring1,ring2,ring3
;   profileName,Original Prusa i3 MK2 RC4 (modified)
;   profileVersion,2019-05-06 17:41:34
;   baseProfile,Prusa Mendel (modified)
;   printMaterial,PLA
;   printQuality,NORMAL 0.2mm
;   printExtruders,
;   extruderName,Primary Extruder
;   extruderToolheadNumber,0
;   extruderDiameter,0.4
;   extruderAutoWidth,0
;   extruderWidth,0.45
;   extrusionMultiplier,1
;   extruderUseRetract,1
;   extruderRetractionDistance,0.8
;   extruderExtraRestartDistance,0
;   extruderRetractionZLift,0
;   extruderRetractionSpeed,1800
;   extruderUseCoasting,1
;   extruderCoastingDistance,0.2
;   extruderUseWipe,1
;   extruderWipeDistance,2
;   primaryExtruder,0
;   layerHeight,0.2
;   topSolidLayers,3
;   bottomSolidLayers,3
;   perimeterOutlines,2
;   printPerimetersInsideOut,1
;   startPointOption,2
;   startPointOriginX,0
;   startPointOriginY,0
;   sequentialIslands,0
;   spiralVaseMode,0
;   firstLayerHeightPercentage,100
;   firstLayerWidthPercentage,95
;   firstLayerUnderspeed,0.6
;   useRaft,0
;   raftExtruder,0
;   raftTopLayers,3
;   raftBaseLayers,2
;   raftOffset,3
;   raftSeparationDistance,0.14
;   raftTopInfill,100
;   aboveRaftSpeedMultiplier,0.3
;   useSkirt,1
;   skirtExtruder,0
;   skirtLayers,1
;   skirtOutlines,1
;   skirtOffset,1.8
;   usePrimePillar,0
;   primePillarExtruder,999
;   primePillarWidth,12
;   primePillarLocation,7
;   primePillarSpeedMultiplier,1
;   useOozeShield,0
;   oozeShieldExtruder,999
;   oozeShieldOffset,2
;   oozeShieldOutlines,1
;   oozeShieldSidewallShape,1
;   oozeShieldSidewallAngle,30
;   oozeShieldSpeedMultiplier,1
;   infillExtruder,0
;   internalInfillPattern,Rectilinear
;   externalInfillPattern,Rectilinear
;   infillPercentage,10
;   outlineOverlapPercentage,21
;   infillExtrusionWidthPercentage,100
;   minInfillLength,2
;   infillLayerInterval,1
;   internalInfillAngles,45,-45
;   overlapInternalInfillAngles,0
;   externalInfillAngles,45,-45
;   generateSupport,0
;   supportExtruder,0
;   supportInfillPercentage,30
;   supportExtraInflation,0.5
;   supportBaseLayers,0
;   denseSupportExtruder,0
;   denseSupportLayers,0
;   denseSupportInfillPercentage,70
;   supportLayerInterval,1
;   supportHorizontalPartOffset,0.2
;   supportUpperSeparationLayers,1
;   supportLowerSeparationLayers,1
;   supportType,0
;   supportGridSpacing,4
;   maxOverhangAngle,45
;   supportAngles,0
;   temperatureName,Primary Extruder,Heated Bed
;   temperatureNumber,0,1
;   temperatureSetpointCount,1,1
;   temperatureSetpointLayers,1,1
;   temperatureSetpointTemperatures,230,55
;   temperatureStabilizeAtStartup,1,1
;   temperatureHeatedBed,0,1
;   fanLayers,1,2
;   fanSpeeds,0,100
;   blipFanToFullPower,1
;   adjustSpeedForCooling,1
;   minSpeedLayerTime,15
;   minCoolingSpeedSlowdown,5
;   increaseFanForCooling,0
;   minFanLayerTime,45
;   maxCoolingFanSpeed,100
;   increaseFanForBridging,1
;   bridgingFanSpeed,100
;   use5D,1
;   relativeEdistances,1
;   allowEaxisZeroing,1
;   independentExtruderAxes,0
;   includeM10123,0
;   stickySupport,1
;   applyToolheadOffsets,0
;   gcodeXoffset,0
;   gcodeYoffset,0
;   gcodeZoffset,0
;   overrideMachineDefinition,1
;   machineTypeOverride,0
;   strokeXoverride,250
;   strokeYoverride,210
;   strokeZoverride,200
;   originOffsetXoverride,0
;   originOffsetYoverride,0
;   originOffsetZoverride,0
;   homeXdirOverride,-1
;   homeYdirOverride,-1
;   homeZdirOverride,-1
;   flipXoverride,1
;   flipYoverride,-1
;   flipZoverride,1
;   toolheadOffsets,0,0|0,0|0,0|0,0|0,0|0,0
;   overrideFirmwareConfiguration,0
;   firmwareTypeOverride,RepRap (Marlin/Repetier/Sprinter)
;   GPXconfigOverride,r2
;   baudRateOverride,250000
;   overridePrinterModels,1
;   printerModelsOverride
;   startingGcode,M115 U3.0.7 ; tell the printer latest firmware varsion available,G28 W ; home all without mesh bed level,G80 ; mesh bed leveling,G1 Y-3.0 F1000.0 ; go outside printing area,G1 X60.0 E9.0  F1000.0 ; intro line,G1 X100.0 E12.5  F1000.0 ; intro line
;   layerChangeGcode,
;   retractionGcode,
;   toolChangeGcode,
;   endingGcode,M104 S0 ; turn off temperature,M140 S0 ; turn off heatbed,M107 ; turn off fan,G1 X0 Y200; home X axis,M84 ; disable motors
;   exportFileFormat,gcode
;   celebration,0
;   celebrationSong,Random Song
;   postProcessing,{REPLACE "; outer perimeter\n" "; outer perimeter\nM204 S600\n"},{REPLACE "; inner perimeter\n" "; inner perimeter\nM204 S1200\n"},{REPLACE "; solid layer\n" "; solid layer\nM204 S1500\n"},{REPLACE "; infill\n" "; infill\nM204 S2000\n"}
;   defaultSpeed,2400
;   outlineUnderspeed,0.8
;   solidInfillUnderspeed,0.8
;   supportUnderspeed,0.8
;   rapidXYspeed,4800
;   rapidZspeed,1002
;   minBridgingArea,50
;   bridgingExtraInflation,1
;   bridgingExtrusionMultiplier,1
;   bridgingSpeedMultiplier,1
;   useFixedBridgingAngle,0
;   fixedBridgingAngle,0
;   applyBridgingToPerimeters,0
;   filamentDiameters,1.75|1.75|1.75|1.75|1.75|1.75
;   filamentPricesPerKg,215|215|215|215|215|215
;   filamentDensities,1.25|1.25|1.25|1.25|1.25|1.25
;   useMinPrintHeight,0
;   minPrintHeight,0
;   useMaxPrintHeight,0
;   maxPrintHeight,0
;   useDiaphragm,0
;   diaphragmLayerInterval,20
;   robustSlicing,1
;   mergeAllIntoSolid,0
;   onlyRetractWhenCrossingOutline,0
;   retractBetweenLayers,0
;   useRetractionMinTravel,1
;   retractionMinTravel,3
;   retractWhileWiping,1
;   onlyWipeOutlines,0
;   avoidCrossingOutline,0
;   maxMovementDetourFactor,3
;   toolChangeRetractionDistance,12
;   toolChangeExtraRestartDistance,-0.5
;   toolChangeRetractionSpeed,600
;   externalThinWallType,0
;   internalThinWallType,2
;   thinWallAllowedOverlapPercentage,25
;   singleExtrusionMinLength,1
;   singleExtrusionMinPrintingWidthPercentage,50
;   singleExtrusionMaxPrintingWidthPercentage,200
;   singleExtrusionEndpointExtension,0.2
;   horizontalSizeCompensation,0
G90
M83
M127
M140 S55 T0
M134 T0
M104 S230 T0
M133 T0
M115 U3.0.7 ; tell the printer latest firmware varsion available
G28 W ; home all without mesh bed level
G80 ; mesh bed leveling
G1 Y-3.0 F1000.0 ; go outside printing area
G1 X60.0 E9.0  F1000.0 ; intro line
G1 X100.0 E12.5  F1000.0 ; intro line
; process Process1
; layer 1, Z = 0.200
M135 T0
G1 E-0.8000 F1800
; feature skirt
; tool H0.200 W0.428
G1 Z0.200 F1002
G1 X85.879 Y70.713 F4800
G1 E0.8000 F1800
G1 X85.926 Y70.658 E0.0026 F1440
G1 X86.978 Y69.529 E0.0549
G1 X87.029 Y69.478 E0.0026
G1 X88.158 Y68.426 E0.0549
G1 X88.213 Y68.379 E0.0026
G1 X89.414 Y67.411 E0.0549
G1 X89.472 Y67.368 E0.0026
G1 X90.739 Y66.488 E0.0549
G1 X90.800 Y66.449 E0.0026
G1 X92.127 Y65.662 E0.0549
G1 X92.190 Y65.627 E0.0026
G1 X93.570 Y64.936 E0.0549
G1 X93.635 Y64.907 E0.0026
G1 X95.061 Y64.316 E0.0549
G1 X95.128 Y64.291 E0.0026
G1 X96.593 Y63.804 E0.0549
G1 X96.661 Y63.783 E0.0026
G1 X98.157 Y63.402 E0.0549
G1 X98.227 Y63.386 E0.0026
G1 X99.746 Y63.112 E0.0549
G1 X99.817 Y63.102 E0.0026
G1 X101.351 Y62.937 E0.0549
G1 X101.423 Y62.932 E0.0026
G1 X102.965 Y62.877 E0.0549
G1 X103.037 Y62.877 E0.0026
G1 X104.579 Y62.932 E0.0549
G1 X104.651 Y62.937 E0.0026
G1 X106.185 Y63.102 E0.0549
G1 X106.256 Y63.112 E0.0026
G1 X107.775 Y63.386 E0.0549
G1 X107.845 Y63.402 E0.0026
G1 X109.340 Y63.783 E0.0549
G1 X109.409 Y63.804 E0.0026
G1 X110.879 Y64.293 E0.0551
G1 X110.956 Y64.322 E0.0030
G1 X112.623 Y65.034 E0.0644
G1 X112.678 Y65.059 E0.0022
G1 X113.812 Y65.627 E0.0451
G1 X113.875 Y65.662 E0.0026
G1 X115.202 Y66.449 E0.0549
G1 X115.263 Y66.488 E0.0026
G1 X116.530 Y67.368 E0.0549
G1 X116.588 Y67.411 E0.0026
G1 X117.789 Y68.379 E0.0549
G1 X117.844 Y68.426 E0.0026
G1 X118.973 Y69.478 E0.0549
G1 X119.024 Y69.529 E0.0026
G1 X120.075 Y70.658 E0.0549
G1 X120.122 Y70.713 E0.0026
G1 X121.091 Y71.914 E0.0549
G1 X121.134 Y71.972 E0.0026
G1 X122.014 Y73.239 E0.0549
G1 X122.053 Y73.300 E0.0026
G1 X122.840 Y74.627 E0.0549
G1 X122.875 Y74.690 E0.0026
G1 X123.565 Y76.070 E0.0549
G1 X123.595 Y76.135 E0.0026
G1 X124.186 Y77.561 E0.0549
G1 X124.211 Y77.628 E0.0026
G1 X124.698 Y79.093 E0.0549
G1 X124.719 Y79.161 E0.0026
G1 X125.100 Y80.657 E0.0549
G1 X125.115 Y80.727 E0.0026
G1 X125.389 Y82.246 E0.0549
G1 X125.400 Y82.317 E0.0026
G1 X125.565 Y83.851 E0.0549
G1 X125.570 Y83.923 E0.0026
G1 X125.625 Y85.465 E0.0549
G1 X125.625 Y85.537 E0.0026
G1 X125.570 Y87.085 E0.0551
G1 X125.563 Y87.167 E0.0030
G1 X125.350 Y88.967 E0.0644
G1 X125.341 Y89.027 E0.0022
G1 X125.115 Y90.275 E0.0451
G1 X125.100 Y90.345 E0.0026
G1 X124.719 Y91.840 E0.0549
G1 X124.698 Y91.909 E0.0026
G1 X124.209 Y93.379 E0.0551
G1 X124.180 Y93.456 E0.0030
G1 X123.468 Y95.123 E0.0644
G1 X123.442 Y95.178 E0.0022
G1 X122.875 Y96.312 E0.0451
G1 X122.840 Y96.375 E0.0026
G1 X122.053 Y97.702 E0.0549
G1 X122.014 Y97.763 E0.0026
G1 X121.134 Y99.030 E0.0549
G1 X121.091 Y99.088 E0.0026
G1 X120.122 Y100.289 E0.0549
G1 X120.075 Y100.344 E0.0026
G1 X119.024 Y101.473 E0.0549
G1 X118.973 Y101.524 E0.0026
G1 X117.844 Y102.575 E0.0549
G1 X117.789 Y102.622 E0.0026
G1 X116.588 Y103.591 E0.0549
G1 X116.530 Y103.634 E0.0026
G1 X115.263 Y104.514 E0.0549
G1 X115.202 Y104.553 E0.0026
G1 X113.875 Y105.340 E0.0549
G1 X113.812 Y105.375 E0.0026
G1 X112.432 Y106.065 E0.0549
G1 X112.367 Y106.095 E0.0026
G1 X110.941 Y106.686 E0.0549
G1 X110.873 Y106.711 E0.0026
G1 X109.409 Y107.198 E0.0549
G1 X109.340 Y107.219 E0.0026
G1 X107.845 Y107.600 E0.0549
G1 X107.775 Y107.615 E0.0026
G1 X106.256 Y107.889 E0.0549
G1 X106.185 Y107.900 E0.0026
G1 X104.651 Y108.065 E0.0549
G1 X104.579 Y108.070 E0.0026
G1 X103.037 Y108.125 E0.0549
G1 X102.965 Y108.125 E0.0026
G1 X101.423 Y108.070 E0.0549
G1 X101.351 Y108.065 E0.0026
G1 X99.817 Y107.900 E0.0549
G1 X99.746 Y107.889 E0.0026
G1 X98.227 Y107.615 E0.0549
G1 X98.157 Y107.600 E0.0026
G1 X96.661 Y107.219 E0.0549
G1 X96.592 Y107.198 E0.0026
G1 X95.128 Y106.711 E0.0549
G1 X95.061 Y106.686 E0.0026
G1 X93.635 Y106.095 E0.0549
G1 X93.570 Y106.065 E0.0026
G1 X92.190 Y105.375 E0.0549
G1 X92.127 Y105.340 E0.0026
G1 X90.800 Y104.553 E0.0549
G1 X90.739 Y104.514 E0.0026
G1 X89.472 Y103.634 E0.0549
G1 X89.414 Y103.591 E0.0026
G1 X88.213 Y102.622 E0.0549
G1 X88.158 Y102.575 E0.0026
G1 X87.029 Y101.524 E0.0549
G1 X86.978 Y101.473 E0.0026
G1 X85.926 Y100.344 E0.0549
G1 X85.879 Y100.289 E0.0026
G1 X84.911 Y99.088 E0.0549
G1 X84.868 Y99.030 E0.0026
G1 X83.988 Y97.763 E0.0549
G1 X83.949 Y97.702 E0.0026
G1 X83.162 Y96.375 E0.0549
G1 X83.127 Y96.312 E0.0026
G1 X82.436 Y94.932 E0.0549
G1 X82.407 Y94.867 E0.0026
G1 X81.816 Y93.441 E0.0549
G1 X81.791 Y93.373 E0.0026
G1 X81.304 Y91.909 E0.0549
G1 X81.283 Y91.840 E0.0026
G1 X80.902 Y90.345 E0.0549
G1 X80.886 Y90.275 E0.0026
G1 X80.612 Y88.756 E0.0549
G1 X80.602 Y88.685 E0.0026
G1 X80.437 Y87.151 E0.0549
G1 X80.432 Y87.079 E0.0026
G1 X80.377 Y85.537 E0.0549
G1 X80.377 Y85.465 E0.0026
G1 X80.432 Y83.923 E0.0549
G1 X80.437 Y83.851 E0.0026
G1 X80.602 Y82.317 E0.0549
G1 X80.612 Y82.246 E0.0026
G1 X80.886 Y80.727 E0.0549
G1 X80.902 Y80.657 E0.0026
G1 X81.283 Y79.161 E0.0549
G1 X81.304 Y79.093 E0.0026
G1 X81.791 Y77.628 E0.0549
G1 X81.816 Y77.561 E0.0026
G1 X82.407 Y76.135 E0.0549
G1 X82.436 Y76.070 E0.0026
G1 X83.127 Y74.690 E0.0549
G1 X83.162 Y74.627 E0.0026
G1 X83.952 Y73.295 E0.0551
G1 X83.997 Y73.225 E0.0030
G1 X85.047 Y71.749 E0.0644
G1 X85.084 Y71.700 E0.0022
G1 X85.879 Y70.713 E0.0451
G1 E-0.8000 F1800
G1 X94.306 Y112.267 F4800
G1 E0.8000 F1800
G1 X95.675 Y112.035 E0.0494 F1440
G1 X95.736 Y112.027 E0.0022
G1 X96.708 Y111.923 E0.0348
G1 X96.779 Y111.918 E0.0026
G1 X97.965 Y111.875 E0.0422
G1 X98.037 Y111.875 E0.0026
G1 X99.228 Y111.918 E0.0424
G1 X99.311 Y111.924 E0.0029
G1 X100.690 Y112.088 E0.0494
G1 X100.750 Y112.097 E0.0022
G1 X101.712 Y112.270 E0.0348
G1 X101.782 Y112.286 E0.0026
G1 X102.932 Y112.579 E0.0422
G1 X103.001 Y112.599 E0.0026
G1 X104.126 Y112.974 E0.0422
G1 X104.193 Y112.999 E0.0026
G1 X105.289 Y113.453 E0.0422
G1 X105.355 Y113.483 E0.0026
G1 X106.416 Y114.014 E0.0422
G1 X106.479 Y114.048 E0.0026
G1 X107.499 Y114.653 E0.0422
G1 X107.559 Y114.692 E0.0026
G1 X108.534 Y115.369 E0.0422
G1 X108.591 Y115.412 E0.0026
G1 X109.515 Y116.156 E0.0422
G1 X109.569 Y116.203 E0.0026
G1 X110.437 Y117.012 E0.0422
G1 X110.488 Y117.063 E0.0026
G1 X111.297 Y117.931 E0.0422
G1 X111.344 Y117.985 E0.0026
G1 X112.088 Y118.909 E0.0422
G1 X112.131 Y118.966 E0.0026
G1 X112.808 Y119.941 E0.0422
G1 X112.847 Y120.001 E0.0026
G1 X113.452 Y121.021 E0.0422
G1 X113.486 Y121.084 E0.0026
G1 X114.017 Y122.145 E0.0422
G1 X114.047 Y122.211 E0.0026
G1 X114.501 Y123.306 E0.0422
G1 X114.526 Y123.374 E0.0026
G1 X114.901 Y124.499 E0.0422
G1 X114.921 Y124.568 E0.0026
G1 X115.214 Y125.718 E0.0422
G1 X115.230 Y125.788 E0.0026
G1 X115.440 Y126.955 E0.0422
G1 X115.451 Y127.027 E0.0026
G1 X115.577 Y128.206 E0.0422
G1 X115.582 Y128.278 E0.0026
G1 X115.625 Y129.463 E0.0422
G1 X115.625 Y129.535 E0.0026
G1 X115.582 Y130.721 E0.0422
G1 X115.577 Y130.792 E0.0026
G1 X115.451 Y131.972 E0.0422
G1 X115.440 Y132.043 E0.0026
G1 X115.230 Y133.210 E0.0422
G1 X115.214 Y133.280 E0.0026
G1 X114.921 Y134.430 E0.0422
G1 X114.901 Y134.499 E0.0026
G1 X114.526 Y135.624 E0.0422
G1 X114.501 Y135.692 E0.0026
G1 X114.047 Y136.788 E0.0422
G1 X114.017 Y136.853 E0.0026
G1 X113.486 Y137.914 E0.0422
G1 X113.452 Y137.977 E0.0026
G1 X112.847 Y138.997 E0.0422
G1 X112.808 Y139.058 E0.0026
G1 X112.131 Y140.032 E0.0422
G1 X112.088 Y140.090 E0.0026
G1 X111.344 Y141.013 E0.0422
G1 X111.297 Y141.067 E0.0026
G1 X110.488 Y141.936 E0.0422
G1 X110.437 Y141.987 E0.0026
G1 X109.569 Y142.795 E0.0422
G1 X109.515 Y142.842 E0.0026
G1 X108.591 Y143.586 E0.0422
G1 X108.534 Y143.629 E0.0026
G1 X107.559 Y144.306 E0.0422
G1 X107.499 Y144.345 E0.0026
G1 X106.479 Y144.950 E0.0422
G1 X106.416 Y144.985 E0.0026
G1 X105.355 Y145.515 E0.0422
G1 X105.289 Y145.545 E0.0026
G1 X104.194 Y145.999 E0.0422
G1 X104.126 Y146.024 E0.0026
G1 X103.001 Y146.399 E0.0422
G1 X102.932 Y146.419 E0.0026
G1 X101.782 Y146.713 E0.0422
G1 X101.712 Y146.728 E0.0026
G1 X100.545 Y146.939 E0.0422
G1 X100.473 Y146.949 E0.0026
G1 X99.294 Y147.076 E0.0422
G1 X99.222 Y147.081 E0.0026
G1 X98.037 Y147.123 E0.0422
G1 X97.965 Y147.123 E0.0026
G1 X96.779 Y147.081 E0.0422
G1 X96.708 Y147.076 E0.0026
G1 X95.528 Y146.949 E0.0422
G1 X95.457 Y146.939 E0.0026
G1 X94.290 Y146.728 E0.0422
G1 X94.219 Y146.713 E0.0026
G1 X93.065 Y146.418 E0.0424
G1 X92.985 Y146.394 E0.0029
G1 X91.672 Y145.941 E0.0494
G1 X91.615 Y145.919 E0.0022
G1 X90.712 Y145.545 E0.0348
G1 X90.647 Y145.515 E0.0026
G1 X89.586 Y144.985 E0.0422
G1 X89.523 Y144.950 E0.0026
G1 X88.503 Y144.345 E0.0422
G1 X88.442 Y144.306 E0.0026
G1 X87.468 Y143.629 E0.0422
G1 X87.410 Y143.586 E0.0026
G1 X86.487 Y142.842 E0.0422
G1 X86.432 Y142.795 E0.0026
G1 X85.564 Y141.987 E0.0422
G1 X85.513 Y141.936 E0.0026
G1 X84.705 Y141.067 E0.0422
G1 X84.658 Y141.013 E0.0026
G1 X83.914 Y140.090 E0.0422
G1 X83.871 Y140.032 E0.0026
G1 X83.194 Y139.058 E0.0422
G1 X83.155 Y138.997 E0.0026
G1 X82.550 Y137.977 E0.0422
G1 X82.516 Y137.914 E0.0026
G1 X81.985 Y136.853 E0.0422
G1 X81.955 Y136.788 E0.0026
G1 X81.501 Y135.692 E0.0422
G1 X81.476 Y135.624 E0.0026
G1 X81.101 Y134.499 E0.0422
G1 X81.081 Y134.430 E0.0026
G1 X80.787 Y133.280 E0.0422
G1 X80.772 Y133.210 E0.0026
G1 X80.561 Y132.043 E0.0422
G1 X80.551 Y131.972 E0.0026
G1 X80.424 Y130.792 E0.0422
G1 X80.419 Y130.721 E0.0026
G1 X80.377 Y129.535 E0.0422
G1 X80.377 Y129.463 E0.0026
G1 X80.419 Y128.278 E0.0422
G1 X80.424 Y128.206 E0.0026
G1 X80.551 Y127.027 E0.0422
G1 X80.561 Y126.955 E0.0026
G1 X80.772 Y125.788 E0.0422
G1 X80.787 Y125.718 E0.0026
G1 X81.081 Y124.568 E0.0422
G1 X81.101 Y124.499 E0.0026
G1 X81.476 Y123.374 E0.0422
G1 X81.501 Y123.306 E0.0026
G1 X81.955 Y122.211 E0.0422
G1 X81.985 Y122.145 E0.0026
G1 X82.516 Y121.084 E0.0422
G1 X82.550 Y121.021 E0.0026
G1 X83.155 Y120.001 E0.0422
G1 X83.194 Y119.941 E0.0026
G1 X83.871 Y118.966 E0.0422
G1 X83.914 Y118.909 E0.0026
G1 X84.658 Y117.985 E0.0422
G1 X84.705 Y117.931 E0.0026
G1 X85.513 Y117.063 E0.0422
G1 X85.564 Y117.012 E0.0026
G1 X86.432 Y116.203 E0.0422
