; G-Code generated by Simplify3D(R) Version 4.1.1
; May 6, 2019 at 5:40:24 PM
; Settings Summary
;   processName,Process1
;   applyToModels,base1,base2
;   profileName,Original Prusa i3 MK2 RC4 (modified)
;   profileVersion,2019-04-14 22:45:17
;   baseProfile,Prusa Mendel (modified)
;   printMaterial,PLA
;   printQuality,NORMAL 0.2mm
;   printExtruders,
;   extruderName,Primary Extruder
;   extruderToolheadNumber,0
;   extruderDiameter,0.4
;   extruderAutoWidth,0
;   extruderWidth,0.45
;   extrusionMultiplier,1
;   extruderUseRetract,1
;   extruderRetractionDistance,0.8
;   extruderExtraRestartDistance,0
;   extruderRetractionZLift,0
;   extruderRetractionSpeed,1800
;   extruderUseCoasting,1
;   extruderCoastingDistance,0.2
;   extruderUseWipe,1
;   extruderWipeDistance,2
;   primaryExtruder,0
;   layerHeight,0.2
;   topSolidLayers,3
;   bottomSolidLayers,3
;   perimeterOutlines,2
;   printPerimetersInsideOut,1
;   startPointOption,2
;   startPointOriginX,0
;   startPointOriginY,0
;   sequentialIslands,0
;   spiralVaseMode,0
;   firstLayerHeightPercentage,100
;   firstLayerWidthPercentage,95
;   firstLayerUnderspeed,0.6
;   useRaft,0
;   raftExtruder,0
;   raftTopLayers,3
;   raftBaseLayers,2
;   raftOffset,3
;   raftSeparationDistance,0.14
;   raftTopInfill,100
;   aboveRaftSpeedMultiplier,0.3
;   useSkirt,1
;   skirtExtruder,0
;   skirtLayers,1
;   skirtOutlines,1
;   skirtOffset,1.8
;   usePrimePillar,0
;   primePillarExtruder,999
;   primePillarWidth,12
;   primePillarLocation,7
;   primePillarSpeedMultiplier,1
;   useOozeShield,0
;   oozeShieldExtruder,999
;   oozeShieldOffset,2
;   oozeShieldOutlines,1
;   oozeShieldSidewallShape,1
;   oozeShieldSidewallAngle,30
;   oozeShieldSpeedMultiplier,1
;   infillExtruder,0
;   internalInfillPattern,Rectilinear
;   externalInfillPattern,Rectilinear
;   infillPercentage,10
;   outlineOverlapPercentage,21
;   infillExtrusionWidthPercentage,100
;   minInfillLength,2
;   infillLayerInterval,1
;   internalInfillAngles,45,-45
;   overlapInternalInfillAngles,0
;   externalInfillAngles,45,-45
;   generateSupport,1
;   supportExtruder,0
;   supportInfillPercentage,30
;   supportExtraInflation,0.5
;   supportBaseLayers,0
;   denseSupportExtruder,0
;   denseSupportLayers,0
;   denseSupportInfillPercentage,70
;   supportLayerInterval,1
;   supportHorizontalPartOffset,0.2
;   supportUpperSeparationLayers,1
;   supportLowerSeparationLayers,1
;   supportType,0
;   supportGridSpacing,4
;   maxOverhangAngle,45
;   supportAngles,0
;   temperatureName,Primary Extruder,Heated Bed
;   temperatureNumber,0,1
;   temperatureSetpointCount,1,1
;   temperatureSetpointLayers,1,1
;   temperatureSetpointTemperatures,230,55
;   temperatureStabilizeAtStartup,1,1
;   temperatureHeatedBed,0,1
;   fanLayers,1,2
;   fanSpeeds,0,100
;   blipFanToFullPower,1
;   adjustSpeedForCooling,1
;   minSpeedLayerTime,15
;   minCoolingSpeedSlowdown,5
;   increaseFanForCooling,0
;   minFanLayerTime,45
;   maxCoolingFanSpeed,100
;   increaseFanForBridging,1
;   bridgingFanSpeed,100
;   use5D,1
;   relativeEdistances,1
;   allowEaxisZeroing,1
;   independentExtruderAxes,0
;   includeM10123,0
;   stickySupport,1
;   applyToolheadOffsets,0
;   gcodeXoffset,0
;   gcodeYoffset,0
;   gcodeZoffset,0
;   overrideMachineDefinition,1
;   machineTypeOverride,0
;   strokeXoverride,250
;   strokeYoverride,210
;   strokeZoverride,200
;   originOffsetXoverride,0
;   originOffsetYoverride,0
;   originOffsetZoverride,0
;   homeXdirOverride,-1
;   homeYdirOverride,-1
;   homeZdirOverride,-1
;   flipXoverride,1
;   flipYoverride,-1
;   flipZoverride,1
;   toolheadOffsets,0,0|0,0|0,0|0,0|0,0|0,0
;   overrideFirmwareConfiguration,0
;   firmwareTypeOverride,RepRap (Marlin/Repetier/Sprinter)
;   GPXconfigOverride,r2
;   baudRateOverride,250000
;   overridePrinterModels,1
;   printerModelsOverride
;   startingGcode,M115 U3.0.7 ; tell the printer latest firmware varsion available,G28 W ; home all without mesh bed level,G80 ; mesh bed leveling,G1 Y-3.0 F1000.0 ; go outside printing area,G1 X60.0 E9.0  F1000.0 ; intro line,G1 X100.0 E12.5  F1000.0 ; intro line
;   layerChangeGcode,
;   retractionGcode,
;   toolChangeGcode,
;   endingGcode,M104 S0 ; turn off temperature,M140 S0 ; turn off heatbed,M107 ; turn off fan,G1 X0 Y200; home X axis,M84 ; disable motors
;   exportFileFormat,gcode
;   celebration,0
;   celebrationSong,Random Song
;   postProcessing,{REPLACE "; outer perimeter\n" "; outer perimeter\nM204 S600\n"},{REPLACE "; inner perimeter\n" "; inner perimeter\nM204 S1200\n"},{REPLACE "; solid layer\n" "; solid layer\nM204 S1500\n"},{REPLACE "; infill\n" "; infill\nM204 S2000\n"}
;   defaultSpeed,2400
;   outlineUnderspeed,0.8
;   solidInfillUnderspeed,0.8
;   supportUnderspeed,0.8
;   rapidXYspeed,4800
;   rapidZspeed,1002
;   minBridgingArea,50
;   bridgingExtraInflation,1
;   bridgingExtrusionMultiplier,1
;   bridgingSpeedMultiplier,1
;   useFixedBridgingAngle,0
;   fixedBridgingAngle,0
;   applyBridgingToPerimeters,0
;   filamentDiameters,1.75|1.75|1.75|1.75|1.75|1.75
;   filamentPricesPerKg,215|215|215|215|215|215
;   filamentDensities,1.25|1.25|1.25|1.25|1.25|1.25
;   useMinPrintHeight,0
;   minPrintHeight,0
;   useMaxPrintHeight,0
;   maxPrintHeight,0
;   useDiaphragm,0
;   diaphragmLayerInterval,20
;   robustSlicing,1
;   mergeAllIntoSolid,0
;   onlyRetractWhenCrossingOutline,0
;   retractBetweenLayers,0
;   useRetractionMinTravel,1
;   retractionMinTravel,3
;   retractWhileWiping,1
;   onlyWipeOutlines,0
;   avoidCrossingOutline,0
;   maxMovementDetourFactor,3
;   toolChangeRetractionDistance,12
;   toolChangeExtraRestartDistance,-0.5
;   toolChangeRetractionSpeed,600
;   externalThinWallType,0
;   internalThinWallType,2
;   thinWallAllowedOverlapPercentage,25
;   singleExtrusionMinLength,1
;   singleExtrusionMinPrintingWidthPercentage,50
;   singleExtrusionMaxPrintingWidthPercentage,200
;   singleExtrusionEndpointExtension,0.2
;   horizontalSizeCompensation,0
G90
M83
M106 S0
M140 S55
M190 S55
M104 S230 T0
M109 S230 T0
M115 U3.0.7 ; tell the printer latest firmware varsion available
G28 W ; home all without mesh bed level
G80 ; mesh bed leveling
G1 Y-3.0 F1000.0 ; go outside printing area
G1 X60.0 E9.0  F1000.0 ; intro line
G1 X100.0 E12.5  F1000.0 ; intro line
; process Process1
; layer 1, Z = 0.200
T0
G1 E-0.8000 F1800
; feature skirt
; tool H0.200 W0.428
G1 Z0.200 F1002
G1 X109.991 Y79.353 F4800
G1 E0.8000 F1800
G1 X110.059 Y79.260 E0.0041 F1440
G1 X111.317 Y77.721 E0.0707
G1 X111.379 Y77.652 E0.0033
G1 X113.952 Y75.039 E0.1304
G1 X115.518 Y73.213 E0.0855
G1 X116.954 Y71.284 E0.0855
G1 X118.254 Y69.262 E0.0855
G1 X119.457 Y67.072 E0.0888
G1 X119.483 Y67.029 E0.0018
G1 X119.914 Y66.329 E0.0292
G1 X120.014 Y66.193 E0.0060
G1 X120.596 Y65.529 E0.0314
G1 X120.718 Y65.412 E0.0060
G1 X121.402 Y64.856 E0.0313
G1 X121.542 Y64.760 E0.0060
G1 X122.309 Y64.326 E0.0314
G1 X122.463 Y64.255 E0.0060
G1 X123.292 Y63.955 E0.0314
G1 X123.455 Y63.911 E0.0060
G1 X124.323 Y63.754 E0.0314
G1 X124.492 Y63.738 E0.0060
G1 X125.374 Y63.728 E0.0313
G1 X125.542 Y63.740 E0.0060
G1 X126.413 Y63.878 E0.0314
G1 X126.578 Y63.918 E0.0060
G1 X127.414 Y64.199 E0.0314
G1 X127.569 Y64.267 E0.0060
G1 X128.346 Y64.683 E0.0313
G1 X128.488 Y64.776 E0.0060
G1 X129.184 Y65.317 E0.0314
G1 X129.309 Y65.431 E0.0060
G1 X129.905 Y66.081 E0.0313
G1 X130.009 Y66.215 E0.0060
G1 X130.457 Y66.907 E0.0293
G1 X130.485 Y66.953 E0.0019
G1 X131.770 Y69.193 E0.0918
G1 X133.142 Y71.278 E0.0887
G1 X134.636 Y73.275 E0.0887
G1 X136.250 Y75.178 E0.0887
G1 X138.027 Y77.032 E0.0913
G1 X138.043 Y77.050 E0.0009
G1 X139.301 Y78.428 E0.0663
G1 X139.373 Y78.515 E0.0040
G1 X140.547 Y80.131 E0.0710
G1 X140.609 Y80.228 E0.0041
G1 X141.592 Y81.968 E0.0711
G1 X141.643 Y82.072 E0.0041
G1 X142.420 Y83.911 E0.0710
G1 X142.458 Y84.016 E0.0040
G1 X142.982 Y85.780 E0.0654
G1 X142.988 Y85.799 E0.0007
G1 X143.649 Y88.193 E0.0883
G1 X144.447 Y90.461 E0.0855
G1 X145.399 Y92.670 E0.0855
G1 X146.501 Y94.807 E0.0855
G1 X147.795 Y96.944 E0.0888
G1 X147.820 Y96.988 E0.0018
G1 X148.211 Y97.711 E0.0292
G1 X148.279 Y97.866 E0.0060
G1 X148.562 Y98.701 E0.0314
G1 X148.603 Y98.865 E0.0060
G1 X148.743 Y99.736 E0.0313
G1 X148.755 Y99.905 E0.0060
G1 X148.748 Y100.787 E0.0314
G1 X148.732 Y100.955 E0.0060
G1 X148.577 Y101.823 E0.0313
G1 X148.534 Y101.987 E0.0060
G1 X148.236 Y102.817 E0.0314
G1 X148.166 Y102.971 E0.0060
G1 X147.733 Y103.740 E0.0313
G1 X147.638 Y103.880 E0.0060
G1 X147.084 Y104.565 E0.0314
G1 X146.967 Y104.687 E0.0060
G1 X146.305 Y105.271 E0.0313
G1 X146.169 Y105.372 E0.0060
G1 X145.420 Y105.836 E0.0314
G1 X145.269 Y105.913 E0.0060
G1 X144.452 Y106.246 E0.0313
G1 X144.291 Y106.296 E0.0060
G1 X143.430 Y106.488 E0.0314
G1 X143.262 Y106.510 E0.0060
G1 X142.439 Y106.552 E0.0293
G1 X142.385 Y106.554 E0.0019
G1 X139.802 Y106.547 E0.0918
G1 X137.311 Y106.692 E0.0887
G1 X134.834 Y106.988 E0.0887
G1 X132.378 Y107.434 E0.0887
G1 X128.709 Y108.328 E0.1342
G1 X128.614 Y108.346 E0.0034
G1 X126.645 Y108.629 E0.0707
G1 X126.530 Y108.639 E0.0041
G1 X124.532 Y108.696 E0.0711
G1 X124.417 Y108.693 E0.0041
G1 X122.425 Y108.522 E0.0711
G1 X122.311 Y108.506 E0.0041
G1 X120.380 Y108.114 E0.0700
G1 X120.324 Y108.101 E0.0021
G1 X117.405 Y107.333 E0.1073
G1 X115.045 Y106.891 E0.0854
G1 X112.656 Y106.611 E0.0855
G1 X110.255 Y106.497 E0.0855
G1 X107.756 Y106.549 E0.0888
G1 X107.706 Y106.549 E0.0018
G1 X106.884 Y106.526 E0.0292
G1 X106.716 Y106.507 E0.0060
G1 X105.851 Y106.335 E0.0314
G1 X105.689 Y106.288 E0.0060
G1 X104.865 Y105.974 E0.0313
G1 X104.712 Y105.900 E0.0060
G1 X103.952 Y105.453 E0.0314
G1 X103.814 Y105.355 E0.0060
G1 X103.140 Y104.787 E0.0314
G1 X103.020 Y104.667 E0.0060
G1 X102.450 Y103.995 E0.0314
G1 X102.352 Y103.857 E0.0060
G1 X101.902 Y103.098 E0.0313
G1 X101.829 Y102.946 E0.0060
G1 X101.512 Y102.123 E0.0314
G1 X101.465 Y101.960 E0.0060
G1 X101.290 Y101.096 E0.0313
G1 X101.271 Y100.927 E0.0060
G1 X101.244 Y100.046 E0.0314
G1 X101.253 Y99.877 E0.0060
G1 X101.373 Y99.003 E0.0313
G1 X101.410 Y98.838 E0.0060
G1 X101.674 Y97.997 E0.0313
G1 X101.738 Y97.840 E0.0060
G1 X102.114 Y97.106 E0.0293
G1 X102.140 Y97.059 E0.0019
G1 X103.437 Y94.825 E0.0918
G1 X104.555 Y92.599 E0.0886
G1 X105.582 Y90.182 E0.0933
G1 X106.379 Y87.956 E0.0841
G1 X107.245 Y84.952 E0.1111
G1 X107.264 Y84.893 E0.0022
G1 X107.927 Y83.035 E0.0701
G1 X107.972 Y82.929 E0.0041
G1 X108.854 Y81.135 E0.0711
G1 X108.911 Y81.035 E0.0041
G1 X109.991 Y79.353 E0.0711
G1 E-0.8000 F1800
G1 X114.196 Y109.236 F4800
G1 E0.8000 F1800
G1 X125.305 Y109.236 E0.3949 F1440
G1 X126.484 Y110.416 E0.0593
G1 X126.484 Y110.561 E0.0052
G1 X127.465 Y110.961 E0.0377
G1 X127.549 Y111.000 E0.0033
G1 X128.961 Y111.732 E0.0566
G1 X129.041 Y111.777 E0.0033
G1 X130.381 Y112.635 E0.0566
G1 X130.456 Y112.688 E0.0033
G1 X131.712 Y113.663 E0.0566
G1 X131.782 Y113.723 E0.0033
G1 X132.945 Y114.809 E0.0566
G1 X133.009 Y114.874 E0.0033
G1 X134.068 Y116.061 E0.0566
G1 X134.126 Y116.133 E0.0033
G1 X135.073 Y117.411 E0.0566
G1 X135.124 Y117.487 E0.0033
G1 X135.951 Y118.847 E0.0566
G1 X135.995 Y118.927 E0.0033
G1 X136.694 Y120.356 E0.0566
G1 X136.731 Y120.440 E0.0033
G1 X137.297 Y121.927 E0.0566
G1 X137.326 Y122.014 E0.0033
G1 X137.755 Y123.546 E0.0566
G1 X137.776 Y123.635 E0.0033
G1 X138.064 Y125.200 E0.0566
G1 X138.077 Y125.290 E0.0033
G1 X138.221 Y126.875 E0.0566
G1 X138.226 Y126.966 E0.0033
G1 X138.226 Y128.557 E0.0566
G1 X138.221 Y128.649 E0.0033
G1 X138.077 Y130.233 E0.0566
G1 X138.064 Y130.324 E0.0033
G1 X137.776 Y131.889 E0.0566
G1 X137.755 Y131.978 E0.0033
G1 X137.326 Y133.510 E0.0566
G1 X137.297 Y133.597 E0.0033
G1 X136.731 Y135.084 E0.0566
G1 X136.694 Y135.168 E0.0033
G1 X135.995 Y136.597 E0.0566
G1 X135.951 Y136.677 E0.0033
G1 X135.124 Y138.036 E0.0566
G1 X135.073 Y138.113 E0.0033
G1 X134.126 Y139.391 E0.0566
G1 X134.068 Y139.462 E0.0033
G1 X133.009 Y140.649 E0.0566
G1 X132.945 Y140.715 E0.0033
G1 X131.782 Y141.801 E0.0566
G1 X131.712 Y141.860 E0.0033
G1 X130.456 Y142.836 E0.0566
G1 X130.381 Y142.889 E0.0033
G1 X129.041 Y143.746 E0.0566
G1 X128.961 Y143.792 E0.0033
G1 X127.549 Y144.524 E0.0566
G1 X127.465 Y144.562 E0.0033
G1 X125.992 Y145.163 E0.0566
G1 X125.906 Y145.194 E0.0033
G1 X124.384 Y145.658 E0.0566
G1 X124.295 Y145.680 E0.0033
G1 X122.737 Y146.004 E0.0566
G1 X122.647 Y146.019 E0.0033
G1 X121.066 Y146.199 E0.0566
G1 X120.975 Y146.205 E0.0033
G1 X119.384 Y146.242 E0.0566
G1 X119.292 Y146.240 E0.0033
G1 X117.705 Y146.131 E0.0566
G1 X117.614 Y146.121 E0.0033
G1 X116.043 Y145.868 E0.0566
G1 X115.953 Y145.850 E0.0033
G1 X114.411 Y145.455 E0.0566
G1 X114.322 Y145.428 E0.0033
G1 X112.796 Y144.882 E0.0576
G1 X112.713 Y144.848 E0.0032
G1 X111.296 Y144.194 E0.0555
G1 X111.215 Y144.152 E0.0033
G1 X109.837 Y143.357 E0.0566
G1 X109.760 Y143.307 E0.0033
G1 X108.460 Y142.390 E0.0566
G1 X108.387 Y142.333 E0.0033
G1 X107.176 Y141.302 E0.0566
G1 X107.109 Y141.239 E0.0033
G1 X105.997 Y140.101 E0.0566
G1 X105.936 Y140.033 E0.0033
G1 X104.932 Y138.799 E0.0566
G1 X104.878 Y138.725 E0.0033
G1 X103.990 Y137.405 E0.0566
G1 X103.942 Y137.326 E0.0033
G1 X103.178 Y135.931 E0.0566
G1 X103.138 Y135.849 E0.0033
G1 X102.504 Y134.389 E0.0566
G1 X102.472 Y134.304 E0.0033
G1 X101.973 Y132.793 E0.0566
G1 X101.948 Y132.704 E0.0033
G1 X101.589 Y131.155 E0.0566
G1 X101.573 Y131.064 E0.0033
G1 X101.356 Y129.488 E0.0566
G1 X101.348 Y129.397 E0.0033
G1 X101.275 Y127.808 E0.0566
G1 X101.275 Y127.716 E0.0033
G1 X101.348 Y126.127 E0.0566
G1 X101.356 Y126.035 E0.0033
G1 X101.573 Y124.459 E0.0566
G1 X101.589 Y124.369 E0.0033
G1 X101.948 Y122.819 E0.0566
G1 X101.973 Y122.731 E0.0033
G1 X102.472 Y121.220 E0.0566
G1 X102.504 Y121.134 E0.0033
G1 X103.138 Y119.675 E0.0566
G1 X103.178 Y119.593 E0.0033
G1 X103.942 Y118.197 E0.0566
G1 X103.990 Y118.119 E0.0033
G1 X104.878 Y116.798 E0.0566
G1 X104.932 Y116.725 E0.0033
G1 X105.936 Y115.491 E0.0566
G1 X105.997 Y115.422 E0.0033
G1 X107.109 Y114.285 E0.0566
G1 X107.176 Y114.222 E0.0033
G1 X108.387 Y113.190 E0.0566
G1 X108.460 Y113.134 E0.0033
G1 X109.760 Y112.216 E0.0566
G1 X109.837 Y112.167 E0.0033
G1 X111.215 Y111.372 E0.0566
G1 X111.296 Y111.329 E0.0033
G1 X112.740 Y110.662 E0.0566
G1 X112.825 Y110.628 E0.0033
G1 X113.017 Y110.560 E0.0072
G1 X113.017 Y110.416 E0.0051
G1 X114.196 Y109.236 E0.0593
G1 E-0.8000 F1800
; feature inner perimeter
G1 X115.444 Y104.265 F4800
G1 E0.8000 F1800
G1 X112.874 Y103.964 E0.0920 F1296
G1 X110.290 Y103.840 E0.0920
G1 X107.741 Y103.894 E0.0906
G1 X107.098 Y103.876 E0.0229
G1 X106.505 Y103.758 E0.0215
G1 X105.940 Y103.542 E0.0215
G1 X105.419 Y103.235 E0.0215
G1 X104.956 Y102.846 E0.0215
G1 X104.565 Y102.384 E0.0215
G1 X104.257 Y101.864 E0.0215
G1 X104.040 Y101.299 E0.0215
G1 X103.920 Y100.706 E0.0215
G1 X103.902 Y100.102 E0.0215
G1 X103.984 Y99.503 E0.0215
G1 X104.165 Y98.926 E0.0215
G1 X104.458 Y98.354 E0.0228
G1 X105.773 Y96.089 E0.0931
G1 X106.966 Y93.715 E0.0945
G1 X108.055 Y91.150 E0.0991
G1 X108.907 Y88.772 E0.0898
G1 X109.782 Y85.737 E0.1123
G1 X110.396 Y84.016 E0.0650
G1 X111.195 Y82.391 E0.0644
G1 X112.174 Y80.868 E0.0644
G1 X113.325 Y79.460 E0.0646
G1 X115.908 Y76.836 E0.1309
G1 X117.592 Y74.872 E0.0920
G1 X119.138 Y72.797 E0.0920
G1 X120.537 Y70.621 E0.0920
G1 X121.764 Y68.387 E0.0906
G1 X122.102 Y67.839 E0.0229
G1 X122.501 Y67.384 E0.0215
G1 X122.970 Y67.003 E0.0215
G1 X123.496 Y66.705 E0.0215
G1 X124.065 Y66.499 E0.0215
G1 X124.660 Y66.391 E0.0215
G1 X125.265 Y66.384 E0.0215
G1 X125.862 Y66.479 E0.0215
G1 X126.436 Y66.672 E0.0215
G1 X126.969 Y66.957 E0.0215
G1 X127.446 Y67.329 E0.0215
G1 X127.855 Y67.774 E0.0215
G1 X128.204 Y68.313 E0.0228
G1 X129.508 Y70.585 E0.0931
G1 X130.968 Y72.804 E0.0944
G1 X132.559 Y74.930 E0.0944
G1 X134.277 Y76.956 E0.0944
G1 X136.096 Y78.854 E0.0934
G1 X137.279 Y80.150 E0.0624
G1 X138.343 Y81.615 E0.0644
G1 X139.234 Y83.192 E0.0644
G1 X139.939 Y84.860 E0.0644
G1 X140.433 Y86.521 E0.0616
G1 X141.114 Y88.988 E0.0910
G1 X141.973 Y91.429 E0.0920
G1 X142.997 Y93.805 E0.0920
G1 X144.183 Y96.105 E0.0920
G1 X145.503 Y98.285 E0.0906
G1 X145.809 Y98.851 E0.0229
G1 X146.003 Y99.423 E0.0215
