; generated by PrusaSlicer 2.1.1+win64 on 2020-05-14 at 17:48:58 UTC

; 

; external perimeters extrusion width = 0.45mm
; perimeters extrusion width = 0.45mm
; infill extrusion width = 0.45mm
; solid infill extrusion width = 0.45mm
; top infill extrusion width = 0.40mm
; first layer extrusion width = 0.42mm

M73 P0 R38
M201 X9000 Y9000 Z500 E10000 ; sets maximum accelerations, mm/sec^2
M203 X500 Y500 Z12 E120 ; sets maximum feedrates, mm/sec
M204 P2000 R1500 T2000 ; sets acceleration (P, T) and retract acceleration (R), mm/sec^2
M205 X10.00 Y10.00 Z0.20 E2.50 ; sets the jerk limits, mm/sec
M205 S0 T0 ; sets the minimum extruding and travel feed rate, mm/sec
M107
M862.3 P "MK2S" ; printer model check
M862.1 P0.4 ; nozzle diameter check
M115 U3.2.3 ; tell printer latest fw version
G90 ; use absolute coordinates
M83 ; extruder relative mode
M204 S2000 T1500 ; MK2 firmware only supports the old M204 format
M104 S215 ; set extruder temp
M140 S60 ; set bed temp
M190 S60 ; wait for bed temp
M109 S215 ; wait for extruder temp
G28 W ; home all without mesh bed level
G80 ; mesh bed leveling
G1 Y-3.0 F1000.0 ; go outside print area
G92 E0.0
G1 X60.0 E9.0  F1000.0 ; intro line
M73 P0 R38
G1 X100.0 E12.5 F1000.0 ; intro line
G92 E0.0
G21 ; set units to millimeters
G90 ; use absolute coordinates
M83 ; use relative distances for extrusion
M900 K30 ; Filament gcode
;BEFORE_LAYER_CHANGE
G92 E0.0
;0.2


G1 E-0.80000 F2100.00000
G1 Z0.600 F10800.000
;AFTER_LAYER_CHANGE
;0.2
G1 X104.835 Y98.811
G1 Z0.200
G1 E0.80000 F2100.00000
M204 S1000
G1 F1200
G1 X103.827 Y98.811 E0.03160
G1 X103.827 Y83.387 E0.48359
G1 X154.725 Y83.387 E1.59585
G1 X154.725 Y84.395 E0.03160
G1 X104.835 Y84.395 E1.56425
G1 X104.835 Y98.751 E0.45011
G1 X105.212 Y99.188 F10800.000
G1 F1200
G1 X103.450 Y99.188 E0.05525
G1 X103.450 Y83.010 E0.50724
G1 X155.102 Y83.010 E1.61950
G1 X155.102 Y84.772 E0.05525
G1 X142.010 Y84.772 E0.41049
G1 X142.010 Y86.879 E0.06606
G1 X141.115 Y86.879 E0.02807
G1 X141.115 Y84.772 E0.06607
G1 X105.212 Y84.772 E1.12569
G1 X105.212 Y99.128 E0.45011
G1 X104.970 Y98.870 F10800.000
G1 X103.940 Y97.931
G1 F1200
G1 X104.553 Y98.528 E0.02695
G1 X104.553 Y98.007 E0.01642
G1 X104.110 Y97.565 E0.01972
G1 X104.110 Y97.029 E0.01690
G1 X104.553 Y97.471 E0.01972
G1 X104.553 Y96.935 E0.01690
G1 X104.110 Y96.493 E0.01972
G1 X104.110 Y95.957 E0.01690
G1 X104.553 Y96.399 E0.01972
G1 X104.553 Y95.863 E0.01690
G1 X104.110 Y95.420 E0.01972
G1 X104.110 Y94.884 E0.01690
G1 X104.553 Y95.327 E0.01972
G1 X104.553 Y94.791 E0.01690
G1 X104.110 Y94.348 E0.01972
G1 X104.110 Y93.812 E0.01690
G1 X104.553 Y94.254 E0.01972
G1 X104.553 Y93.718 E0.01690
G1 X104.110 Y93.276 E0.01972
G1 X104.110 Y92.740 E0.01690
G1 X104.553 Y93.182 E0.01972
G1 X104.553 Y92.646 E0.01690
G1 X104.110 Y92.204 E0.01972
G1 X104.110 Y91.667 E0.01690
G1 X104.553 Y92.110 E0.01972
G1 X104.553 Y91.574 E0.01690
G1 X104.110 Y91.131 E0.01972
G1 X104.110 Y90.595 E0.01690
G1 X104.553 Y91.038 E0.01972
G1 X104.553 Y90.501 E0.01690
G1 X104.110 Y90.059 E0.01972
G1 X104.110 Y89.523 E0.01690
G1 X104.553 Y89.965 E0.01972
G1 X104.553 Y89.429 E0.01690
G1 X104.110 Y88.987 E0.01972
G1 X104.110 Y88.451 E0.01690
G1 X104.553 Y88.893 E0.01972
G1 X104.553 Y88.357 E0.01690
G1 X104.110 Y87.915 E0.01972
G1 X104.110 Y87.378 E0.01690
G1 X104.553 Y87.821 E0.01972
G1 X104.553 Y87.285 E0.01690
G1 X104.110 Y86.842 E0.01972
G1 X104.110 Y86.306 E0.01690
G1 X104.553 Y86.749 E0.01972
G1 X104.553 Y86.212 E0.01690
G1 X104.110 Y85.770 E0.01972
G1 X104.110 Y85.234 E0.01690
G1 X104.553 Y85.676 E0.01972
G1 X104.553 Y85.140 E0.01690
G1 X104.110 Y84.698 E0.01972
G1 X104.110 Y84.162 E0.01690
G1 X104.553 Y84.604 E0.01972
G1 X104.553 Y84.113 E0.01549
G1 X104.597 Y84.113 E0.00141
G1 X104.155 Y83.670 E0.01972
G1 X104.691 Y83.670 E0.01690
G1 X105.133 Y84.113 E0.01972
G1 X105.669 Y84.113 E0.01690
G1 X105.227 Y83.670 E0.01972
G1 X105.763 Y83.670 E0.01690
G1 X106.206 Y84.113 E0.01972
G1 X106.742 Y84.113 E0.01690
G1 X106.299 Y83.670 E0.01972
G1 X106.835 Y83.670 E0.01690
G1 X107.278 Y84.113 E0.01972
G1 X107.814 Y84.113 E0.01690
G1 X107.372 Y83.670 E0.01972
G1 X107.908 Y83.670 E0.01690
G1 X108.350 Y84.113 E0.01972
G1 X108.886 Y84.113 E0.01690
G1 X108.444 Y83.670 E0.01972
G1 X108.980 Y83.670 E0.01690
G1 X109.422 Y84.113 E0.01972
G1 X109.958 Y84.113 E0.01690
G1 X109.516 Y83.670 E0.01972
G1 X110.052 Y83.670 E0.01690
G1 X110.495 Y84.113 E0.01972
G1 X111.031 Y84.113 E0.01690
G1 X110.588 Y83.670 E0.01972
G1 X111.124 Y83.670 E0.01690
G1 X111.567 Y84.113 E0.01972
G1 X112.103 Y84.113 E0.01690
G1 X111.661 Y83.670 E0.01972
G1 X112.197 Y83.670 E0.01690
G1 X112.639 Y84.113 E0.01972
G1 X113.175 Y84.113 E0.01690
G1 X112.733 Y83.670 E0.01972
G1 X113.269 Y83.670 E0.01690
G1 X113.711 Y84.113 E0.01972
G1 X114.247 Y84.113 E0.01690
G1 X113.805 Y83.670 E0.01972
G1 X114.341 Y83.670 E0.01690
G1 X114.784 Y84.113 E0.01972
G1 X115.320 Y84.113 E0.01690
G1 X114.877 Y83.670 E0.01972
G1 X115.413 Y83.670 E0.01690
G1 X115.856 Y84.113 E0.01972
G1 X116.392 Y84.113 E0.01690
G1 X115.950 Y83.670 E0.01972
G1 X116.486 Y83.670 E0.01690
G1 X116.928 Y84.113 E0.01972
G1 X117.464 Y84.113 E0.01690
G1 X117.022 Y83.670 E0.01972
G1 X117.558 Y83.670 E0.01690
G1 X118.000 Y84.113 E0.01972
G1 X118.537 Y84.113 E0.01690
G1 X118.094 Y83.670 E0.01972
G1 X118.630 Y83.670 E0.01690
G1 X119.073 Y84.113 E0.01972
G1 X119.609 Y84.113 E0.01690
G1 X119.166 Y83.670 E0.01972
G1 X119.703 Y83.670 E0.01690
G1 X120.145 Y84.113 E0.01972
G1 X120.681 Y84.113 E0.01690
G1 X120.239 Y83.670 E0.01972
G1 X120.775 Y83.670 E0.01690
G1 X121.217 Y84.113 E0.01972
G1 X121.753 Y84.113 E0.01690
G1 X121.311 Y83.670 E0.01972
G1 X121.847 Y83.670 E0.01690
G1 X122.289 Y84.113 E0.01972
G1 X122.826 Y84.113 E0.01690
G1 X122.383 Y83.670 E0.01972
G1 X122.919 Y83.670 E0.01690
G1 X123.362 Y84.113 E0.01972
G1 X123.898 Y84.113 E0.01690
G1 X123.455 Y83.670 E0.01972
G1 X123.992 Y83.670 E0.01690
G1 X124.434 Y84.113 E0.01972
G1 X124.970 Y84.113 E0.01690
G1 X124.528 Y83.670 E0.01972
G1 X125.064 Y83.670 E0.01690
G1 X125.506 Y84.113 E0.01972
G1 X126.042 Y84.113 E0.01690
G1 X125.600 Y83.670 E0.01972
G1 X126.136 Y83.670 E0.01690
G1 X126.578 Y84.113 E0.01972
G1 X127.115 Y84.113 E0.01690
G1 X126.672 Y83.670 E0.01972
G1 X127.208 Y83.670 E0.01690
G1 X127.651 Y84.113 E0.01972
G1 X128.187 Y84.113 E0.01690
G1 X127.744 Y83.670 E0.01972
G1 X128.281 Y83.670 E0.01690
G1 X128.723 Y84.113 E0.01972
G1 X129.259 Y84.113 E0.01690
G1 X128.817 Y83.670 E0.01972
G1 X129.353 Y83.670 E0.01690
G1 X129.795 Y84.113 E0.01972
G1 X130.331 Y84.113 E0.01690
G1 X129.889 Y83.670 E0.01972
G1 X130.425 Y83.670 E0.01690
G1 X130.868 Y84.113 E0.01972
G1 X131.404 Y84.113 E0.01690
G1 X130.961 Y83.670 E0.01972
G1 X131.497 Y83.670 E0.01690
G1 X131.940 Y84.113 E0.01972
G1 X132.476 Y84.113 E0.01690
G1 X132.034 Y83.670 E0.01972
G1 X132.570 Y83.670 E0.01690
G1 X133.012 Y84.113 E0.01972
G1 X133.548 Y84.113 E0.01690
G1 X133.106 Y83.670 E0.01972
G1 X133.642 Y83.670 E0.01690
G1 X134.084 Y84.113 E0.01972
G1 X134.620 Y84.113 E0.01690
G1 X134.178 Y83.670 E0.01972
G1 X134.714 Y83.670 E0.01690
G1 X135.157 Y84.113 E0.01972
G1 X135.693 Y84.113 E0.01690
G1 X135.250 Y83.670 E0.01972
G1 X135.786 Y83.670 E0.01690
G1 X136.229 Y84.113 E0.01972
G1 X136.765 Y84.113 E0.01690
G1 X136.323 Y83.670 E0.01972
G1 X136.859 Y83.670 E0.01690
G1 X137.301 Y84.113 E0.01972
G1 X137.837 Y84.113 E0.01690
G1 X137.395 Y83.670 E0.01972
G1 X137.931 Y83.670 E0.01690
G1 X138.373 Y84.113 E0.01972
G1 X138.909 Y84.113 E0.01690
G1 X138.467 Y83.670 E0.01972
G1 X139.003 Y83.670 E0.01690
G1 X139.446 Y84.113 E0.01972
G1 X139.982 Y84.113 E0.01690
G1 X139.539 Y83.670 E0.01972
G1 X140.075 Y83.670 E0.01690
G1 X140.518 Y84.113 E0.01972
G1 X141.054 Y84.113 E0.01690
G1 X140.612 Y83.670 E0.01972
G1 X141.148 Y83.670 E0.01690
G1 X141.590 Y84.113 E0.01972
G1 X142.126 Y84.113 E0.01690
G1 X141.684 Y83.670 E0.01972
G1 X142.220 Y83.670 E0.01690
G1 X142.662 Y84.113 E0.01972
G1 X143.198 Y84.113 E0.01690
G1 X142.756 Y83.670 E0.01972
G1 X143.292 Y83.670 E0.01690
G1 X143.735 Y84.113 E0.01972
G1 X144.271 Y84.113 E0.01690
G1 X143.828 Y83.670 E0.01972
G1 X144.364 Y83.670 E0.01690
G1 X144.807 Y84.113 E0.01972
G1 X145.343 Y84.113 E0.01690
G1 X144.901 Y83.670 E0.01972
G1 X145.437 Y83.670 E0.01690
G1 X145.879 Y84.113 E0.01972
G1 X146.415 Y84.113 E0.01690
G1 X145.973 Y83.670 E0.01972
G1 X146.509 Y83.670 E0.01690
G1 X146.951 Y84.113 E0.01972
G1 X147.488 Y84.113 E0.01690
G1 X147.045 Y83.670 E0.01972
G1 X147.581 Y83.670 E0.01690
G1 X148.024 Y84.113 E0.01972
G1 X148.560 Y84.113 E0.01690
G1 X148.117 Y83.670 E0.01972
G1 X148.654 Y83.670 E0.01690
G1 X149.096 Y84.113 E0.01972
G1 X149.632 Y84.113 E0.01690
G1 X149.190 Y83.670 E0.01972
G1 X149.726 Y83.670 E0.01690
G1 X150.168 Y84.113 E0.01972
G1 X150.704 Y84.113 E0.01690
G1 X150.262 Y83.670 E0.01972
G1 X150.798 Y83.670 E0.01690
G1 X151.240 Y84.113 E0.01972
G1 X151.777 Y84.113 E0.01690
G1 X151.334 Y83.670 E0.01972
G1 X151.870 Y83.670 E0.01690
G1 X152.313 Y84.113 E0.01972
G1 X152.849 Y84.113 E0.01690
G1 X152.406 Y83.670 E0.01972
G1 X152.943 Y83.670 E0.01690
G1 X153.385 Y84.113 E0.01972
G1 X153.921 Y84.113 E0.01690
G1 X153.479 Y83.670 E0.01972
G1 X154.015 Y83.670 E0.01690
G1 X154.612 Y84.267 E0.02661
G1 E-0.80000 F2100.00000
G1 Z0.800 F10800.000
G1 X141.562 Y84.584
G1 Z0.200
G1 E0.80000 F2100.00000
G1 F1200
G1 X141.563 Y86.691 E0.09076
G1 E-0.80000 F2100.00000
G1 Z0.800 F10800.000
G1 X117.335 Y111.311
G1 Z0.200
G1 E0.80000 F2100.00000
G1 F1200
G1 X116.327 Y111.311 E0.03160
G1 X116.327 Y95.887 E0.48359
G1 X167.225 Y95.887 E1.59585
G1 X167.225 Y96.895 E0.03160
G1 X117.335 Y96.895 E1.56425
G1 X117.335 Y111.251 E0.45011
G1 X117.712 Y111.688 F10800.000
G1 F1200
G1 X115.950 Y111.688 E0.05525
G1 X115.950 Y95.510 E0.50724
G1 X167.602 Y95.510 E1.61950
G1 X167.602 Y97.272 E0.05525
G1 X154.510 Y97.272 E0.41049
G1 X154.510 Y99.379 E0.06606
G1 X153.615 Y99.379 E0.02807
G1 X153.615 Y97.272 E0.06607
G1 X117.712 Y97.272 E1.12569
G1 X117.712 Y111.628 E0.45011
G1 X117.470 Y111.370 F10800.000
G1 X116.440 Y110.431
G1 F1200
G1 X117.053 Y111.028 E0.02695
G1 X117.053 Y110.507 E0.01642
G1 X116.610 Y110.065 E0.01972
G1 X116.610 Y109.529 E0.01690
G1 X117.053 Y109.971 E0.01972
G1 X117.053 Y109.435 E0.01690
G1 X116.610 Y108.993 E0.01972
G1 X116.610 Y108.457 E0.01690
G1 X117.053 Y108.899 E0.01972
G1 X117.053 Y108.363 E0.01690
G1 X116.610 Y107.920 E0.01972
G1 X116.610 Y107.384 E0.01690
G1 X117.053 Y107.827 E0.01972
G1 X117.053 Y107.291 E0.01690
G1 X116.610 Y106.848 E0.01972
G1 X116.610 Y106.312 E0.01690
G1 X117.053 Y106.754 E0.01972
G1 X117.053 Y106.218 E0.01690
G1 X116.610 Y105.776 E0.01972
G1 X116.610 Y105.240 E0.01690
G1 X117.053 Y105.682 E0.01972
G1 X117.053 Y105.146 E0.01690
G1 X116.610 Y104.704 E0.01972
G1 X116.610 Y104.167 E0.01690
G1 X117.053 Y104.610 E0.01972
G1 X117.053 Y104.074 E0.01690
G1 X116.610 Y103.631 E0.01972
G1 X116.610 Y103.095 E0.01690
G1 X117.053 Y103.538 E0.01972
G1 X117.053 Y103.001 E0.01690
G1 X116.610 Y102.559 E0.01972
G1 X116.610 Y102.023 E0.01690
G1 X117.053 Y102.465 E0.01972
G1 X117.053 Y101.929 E0.01690
G1 X116.610 Y101.487 E0.01972
G1 X116.610 Y100.951 E0.01690
G1 X117.053 Y101.393 E0.01972
G1 X117.053 Y100.857 E0.01690
G1 X116.610 Y100.415 E0.01972
G1 X116.610 Y99.878 E0.01690
G1 X117.053 Y100.321 E0.01972
G1 X117.053 Y99.785 E0.01690
G1 X116.610 Y99.342 E0.01972
G1 X116.610 Y98.806 E0.01690
G1 X117.053 Y99.249 E0.01972
G1 X117.053 Y98.712 E0.01690
G1 X116.610 Y98.270 E0.01972
G1 X116.610 Y97.734 E0.01690
G1 X117.053 Y98.176 E0.01972
G1 X117.053 Y97.640 E0.01690
G1 X116.610 Y97.198 E0.01972
G1 X116.610 Y96.662 E0.01690
G1 X117.053 Y97.104 E0.01972
G1 X117.053 Y96.613 E0.01549
G1 X117.097 Y96.613 E0.00141
G1 X116.655 Y96.170 E0.01972
G1 X117.191 Y96.170 E0.01690
G1 X117.633 Y96.613 E0.01972
G1 X118.169 Y96.613 E0.01690
G1 X117.727 Y96.170 E0.01972
G1 X118.263 Y96.170 E0.01690
G1 X118.706 Y96.613 E0.01972
G1 X119.242 Y96.613 E0.01690
G1 X118.799 Y96.170 E0.01972
G1 X119.335 Y96.170 E0.01690
G1 X119.778 Y96.613 E0.01972
G1 X120.314 Y96.613 E0.01690
G1 X119.872 Y96.170 E0.01972
G1 X120.408 Y96.170 E0.01690
G1 X120.850 Y96.613 E0.01972
G1 X121.386 Y96.613 E0.01690
G1 X120.944 Y96.170 E0.01972
G1 X121.480 Y96.170 E0.01690
G1 X121.922 Y96.613 E0.01972
G1 X122.458 Y96.613 E0.01690
G1 X122.016 Y96.170 E0.01972
G1 X122.552 Y96.170 E0.01690
G1 X122.995 Y96.613 E0.01972
G1 X123.531 Y96.613 E0.01690
G1 X123.088 Y96.170 E0.01972
G1 X123.624 Y96.170 E0.01690
G1 X124.067 Y96.613 E0.01972
G1 X124.603 Y96.613 E0.01690
G1 X124.161 Y96.170 E0.01972
G1 X124.697 Y96.170 E0.01690
G1 X125.139 Y96.613 E0.01972
G1 X125.675 Y96.613 E0.01690
G1 X125.233 Y96.170 E0.01972
G1 X125.769 Y96.170 E0.01690
G1 X126.211 Y96.613 E0.01972
G1 X126.747 Y96.613 E0.01690
G1 X126.305 Y96.170 E0.01972
G1 X126.841 Y96.170 E0.01690
G1 X127.284 Y96.613 E0.01972
G1 X127.820 Y96.613 E0.01690
G1 X127.377 Y96.170 E0.01972
G1 X127.913 Y96.170 E0.01690
G1 X128.356 Y96.613 E0.01972
G1 X128.892 Y96.613 E0.01690
G1 X128.450 Y96.170 E0.01972
G1 X128.986 Y96.170 E0.01690
G1 X129.428 Y96.613 E0.01972
G1 X129.964 Y96.613 E0.01690
G1 X129.522 Y96.170 E0.01972
G1 X130.058 Y96.170 E0.01690
G1 X130.500 Y96.613 E0.01972
G1 X131.037 Y96.613 E0.01690
G1 X130.594 Y96.170 E0.01972
G1 X131.130 Y96.170 E0.01690
G1 X131.573 Y96.613 E0.01972
G1 X132.109 Y96.613 E0.01690
G1 X131.666 Y96.170 E0.01972
G1 X132.203 Y96.170 E0.01690
G1 X132.645 Y96.613 E0.01972
G1 X133.181 Y96.613 E0.01690
G1 X132.739 Y96.170 E0.01972
G1 X133.275 Y96.170 E0.01690
G1 X133.717 Y96.613 E0.01972
G1 X134.253 Y96.613 E0.01690
G1 X133.811 Y96.170 E0.01972
G1 X134.347 Y96.170 E0.01690
G1 X134.789 Y96.613 E0.01972
G1 X135.326 Y96.613 E0.01690
G1 X134.883 Y96.170 E0.01972
G1 X135.419 Y96.170 E0.01690
G1 X135.862 Y96.613 E0.01972
G1 X136.398 Y96.613 E0.01690
G1 X135.955 Y96.170 E0.01972
G1 X136.492 Y96.170 E0.01690
G1 X136.934 Y96.613 E0.01972
G1 X137.470 Y96.613 E0.01690
G1 X137.028 Y96.170 E0.01972
G1 X137.564 Y96.170 E0.01690
G1 X138.006 Y96.613 E0.01972
G1 X138.542 Y96.613 E0.01690
G1 X138.100 Y96.170 E0.01972
G1 X138.636 Y96.170 E0.01690
G1 X139.078 Y96.613 E0.01972
G1 X139.615 Y96.613 E0.01690
G1 X139.172 Y96.170 E0.01972
G1 X139.708 Y96.170 E0.01690
G1 X140.151 Y96.613 E0.01972
G1 X140.687 Y96.613 E0.01690
G1 X140.244 Y96.170 E0.01972
G1 X140.781 Y96.170 E0.01690
G1 X141.223 Y96.613 E0.01972
G1 X141.759 Y96.613 E0.01690
G1 X141.317 Y96.170 E0.01972
G1 X141.853 Y96.170 E0.01690
G1 X142.295 Y96.613 E0.01972
G1 X142.831 Y96.613 E0.01690
G1 X142.389 Y96.170 E0.01972
G1 X142.925 Y96.170 E0.01690
G1 X143.368 Y96.613 E0.01972
G1 X143.904 Y96.613 E0.01690
G1 X143.461 Y96.170 E0.01972
G1 X143.997 Y96.170 E0.01690
G1 X144.440 Y96.613 E0.01972
G1 X144.976 Y96.613 E0.01690
G1 X144.534 Y96.170 E0.01972
G1 X145.070 Y96.170 E0.01690
G1 X145.512 Y96.613 E0.01972
G1 X146.048 Y96.613 E0.01690
G1 X145.606 Y96.170 E0.01972
G1 X146.142 Y96.170 E0.01690
G1 X146.584 Y96.613 E0.01972
G1 X147.120 Y96.613 E0.01690
G1 X146.678 Y96.170 E0.01972
G1 X147.214 Y96.170 E0.01690
G1 X147.657 Y96.613 E0.01972
G1 X148.193 Y96.613 E0.01690
G1 X147.750 Y96.170 E0.01972
G1 X148.286 Y96.170 E0.01690
G1 X148.729 Y96.613 E0.01972
G1 X149.265 Y96.613 E0.01690
G1 X148.823 Y96.170 E0.01972
G1 X149.359 Y96.170 E0.01690
G1 X149.801 Y96.613 E0.01972
G1 X150.337 Y96.613 E0.01690
G1 X149.895 Y96.170 E0.01972
G1 X150.431 Y96.170 E0.01690
G1 X150.873 Y96.613 E0.01972
G1 X151.409 Y96.613 E0.01690
G1 X150.967 Y96.170 E0.01972
G1 X151.503 Y96.170 E0.01690
G1 X151.946 Y96.613 E0.01972
G1 X152.482 Y96.613 E0.01690
G1 X152.039 Y96.170 E0.01972
G1 X152.575 Y96.170 E0.01690
G1 X153.018 Y96.613 E0.01972
G1 X153.554 Y96.613 E0.01690
G1 X153.112 Y96.170 E0.01972
G1 X153.648 Y96.170 E0.01690
G1 X154.090 Y96.613 E0.01972
G1 X154.626 Y96.613 E0.01690
G1 X154.184 Y96.170 E0.01972
G1 X154.720 Y96.170 E0.01690
G1 X155.162 Y96.613 E0.01972
G1 X155.698 Y96.613 E0.01690
G1 X155.256 Y96.170 E0.01972
G1 X155.792 Y96.170 E0.01690
G1 X156.235 Y96.613 E0.01972
G1 X156.771 Y96.613 E0.01690
G1 X156.328 Y96.170 E0.01972
G1 X156.864 Y96.170 E0.01690
G1 X157.307 Y96.613 E0.01972
G1 X157.843 Y96.613 E0.01690
