; generated by PrusaSlicer 2.1.1+win64 on 2020-05-14 at 17:42:26 UTC

; 

; external perimeters extrusion width = 0.45mm
; perimeters extrusion width = 0.45mm
; infill extrusion width = 0.45mm
; solid infill extrusion width = 0.45mm
; top infill extrusion width = 0.40mm
; first layer extrusion width = 0.42mm

M73 P0 R105
M201 X9000 Y9000 Z500 E10000 ; sets maximum accelerations, mm/sec^2
M203 X500 Y500 Z12 E120 ; sets maximum feedrates, mm/sec
M204 P2000 R1500 T2000 ; sets acceleration (P, T) and retract acceleration (R), mm/sec^2
M205 X10.00 Y10.00 Z0.20 E2.50 ; sets the jerk limits, mm/sec
M205 S0 T0 ; sets the minimum extruding and travel feed rate, mm/sec
M107
M862.3 P "MK2S" ; printer model check
M862.1 P0.4 ; nozzle diameter check
M115 U3.2.3 ; tell printer latest fw version
G90 ; use absolute coordinates
M83 ; extruder relative mode
M204 S2000 T1500 ; MK2 firmware only supports the old M204 format
M104 S215 ; set extruder temp
M140 S60 ; set bed temp
M190 S60 ; wait for bed temp
M109 S215 ; wait for extruder temp
G28 W ; home all without mesh bed level
G80 ; mesh bed leveling
G1 Y-3.0 F1000.0 ; go outside print area
G92 E0.0
G1 X60.0 E9.0  F1000.0 ; intro line
M73 P0 R105
G1 X100.0 E12.5 F1000.0 ; intro line
G92 E0.0
G21 ; set units to millimeters
G90 ; use absolute coordinates
M83 ; use relative distances for extrusion
M900 K30 ; Filament gcode
;BEFORE_LAYER_CHANGE
G92 E0.0
;0.2


G1 E-0.80000 F2100.00000
G1 Z0.600 F10800.000
;AFTER_LAYER_CHANGE
;0.2
G1 X110.570 Y165.902
G1 Z0.200
G1 E0.80000 F2100.00000
M204 S1000
G1 F1200
G1 X100.395 Y166.180 E0.31913
G1 X106.175 Y141.469 E0.79572
G1 X95.048 Y141.469 E0.34887
G1 X129.067 Y81.485 E2.16216
G1 X129.249 Y81.555 E0.00611
G1 X119.954 Y123.611 E1.35046
G1 X131.885 Y123.611 E0.37410
G1 X118.283 Y165.692 E1.38663
G1 X110.630 Y165.901 E0.24007
G1 X110.580 Y166.279 F10800.000
G1 F1200
G1 X99.917 Y166.570 E0.33447
G1 X105.699 Y141.846 E0.79614
G1 X94.401 Y141.846 E0.35426
G1 X129.977 Y79.117 E2.26111
G1 X130.159 Y79.187 E0.00611
G1 X120.423 Y123.234 E1.41439
G1 X132.403 Y123.234 E0.37562
G1 X118.560 Y166.061 E1.41123
G1 X110.640 Y166.278 E0.24843
G1 X110.264 Y166.033 F10800.000
G1 E-0.80000 F2100.00000
G1 Z0.800 F10800.000
G1 X130.143 Y78.956
G1 Z0.200
G1 E0.80000 F2100.00000
G1 F1200
G1 X130.218 Y78.760 E0.00836
G1 X130.369 Y78.368 E0.01327
G1 X130.519 Y77.976 E0.00982
G1 X130.670 Y77.585 E0.00638
G1 X129.794 Y79.866 F10800.000
G1 F1200
G1 X129.652 Y80.235 E0.00329
G1 X129.510 Y80.605 E0.00656
G1 X129.368 Y80.975 E0.00982
G1 X129.226 Y81.344 E0.01309
G1 X128.884 Y82.234 F10800.000
G1 F1200
G1 X128.742 Y82.604 E0.00329
G1 X128.600 Y82.973 E0.00656
G1 X128.458 Y83.343 E0.00982
G1 X128.316 Y83.712 E0.01309
G1 X128.466 Y84.574 F10800.000
G1 F1200
G1 X127.939 Y84.048 E0.02345
G1 X127.746 Y84.389 E0.01236
G1 X128.227 Y84.870 E0.02142
G1 X128.130 Y85.309 E0.01413
G1 X127.552 Y84.731 E0.02573
G1 X127.358 Y85.072 E0.01236
G1 X128.033 Y85.747 E0.03004
G1 X127.936 Y86.186 E0.01413
G1 X127.164 Y85.414 E0.03435
G1 X126.971 Y85.755 E0.01236
G1 X127.839 Y86.624 E0.03866
G1 X127.742 Y87.062 E0.01413
G1 X126.777 Y86.097 E0.04297
G1 X126.583 Y86.438 E0.01236
G1 X127.646 Y87.501 E0.04728
G1 X127.549 Y87.939 E0.01413
G1 X126.390 Y86.780 E0.05158
G1 X126.196 Y87.122 E0.01236
G1 X127.452 Y88.377 E0.05589
G1 X127.355 Y88.816 E0.01413
G1 X126.002 Y87.463 E0.06020
G1 X125.808 Y87.805 E0.01236
G1 X127.258 Y89.254 E0.06451
G1 X127.161 Y89.692 E0.01413
G1 X125.615 Y88.146 E0.06882
G1 X125.421 Y88.488 E0.01236
G1 X127.064 Y90.131 E0.07313
G1 X126.967 Y90.569 E0.01413
G1 X125.227 Y88.829 E0.07744
G1 X125.034 Y89.171 E0.01236
G1 X126.870 Y91.008 E0.08175
G1 X126.774 Y91.446 E0.01413
G1 X124.840 Y89.512 E0.08606
G1 X124.646 Y89.854 E0.01236
G1 X126.677 Y91.884 E0.09037
G1 X126.580 Y92.323 E0.01413
G1 X124.453 Y90.195 E0.09467
G1 X124.259 Y90.537 E0.01236
G1 X126.483 Y92.761 E0.09898
G1 X126.386 Y93.199 E0.01413
G1 X124.065 Y90.879 E0.10329
G1 X123.871 Y91.220 E0.01236
G1 X126.289 Y93.638 E0.10760
G1 X126.192 Y94.076 E0.01413
G1 X123.678 Y91.562 E0.11191
G1 X123.484 Y91.903 E0.01236
G1 X126.095 Y94.514 E0.11622
G1 X125.998 Y94.953 E0.01413
G1 X123.290 Y92.245 E0.12053
G1 X123.097 Y92.586 E0.01236
G1 X125.902 Y95.391 E0.12484
G1 X125.805 Y95.830 E0.01413
G1 X122.903 Y92.928 E0.12915
G1 X122.709 Y93.269 E0.01236
G1 X125.708 Y96.268 E0.13346
G1 X125.611 Y96.706 E0.01413
G1 X122.515 Y93.611 E0.13776
G1 X122.322 Y93.952 E0.01236
G1 X125.514 Y97.145 E0.14207
G1 X125.417 Y97.583 E0.01413
G1 X122.128 Y94.294 E0.14638
G1 X121.934 Y94.636 E0.01236
G1 X125.320 Y98.021 E0.15069
G1 X125.223 Y98.460 E0.01413
G1 X121.741 Y94.977 E0.15500
G1 X121.547 Y95.319 E0.01236
G1 X125.126 Y98.898 E0.15931
G1 X125.030 Y99.336 E0.01413
G1 X121.353 Y95.660 E0.16362
G1 X121.160 Y96.002 E0.01236
G1 X124.933 Y99.775 E0.16793
G1 X124.836 Y100.213 E0.01413
G1 X120.966 Y96.343 E0.17224
G1 X120.772 Y96.685 E0.01236
G1 X124.739 Y100.652 E0.17655
G1 X124.642 Y101.090 E0.01413
G1 X120.578 Y97.026 E0.18085
G1 X120.385 Y97.368 E0.01236
G1 X124.545 Y101.528 E0.18516
G1 X124.448 Y101.967 E0.01413
G1 X120.191 Y97.709 E0.18947
G1 X119.997 Y98.051 E0.01236
G1 X124.351 Y102.405 E0.19378
G1 X124.254 Y102.843 E0.01413
G1 X119.804 Y98.393 E0.19809
G1 X119.610 Y98.734 E0.01236
G1 X124.158 Y103.282 E0.20240
G1 X124.061 Y103.720 E0.01413
G1 X119.416 Y99.076 E0.20671
G1 X119.222 Y99.417 E0.01236
G1 X123.964 Y104.158 E0.21102
G1 X123.867 Y104.597 E0.01413
G1 X119.029 Y99.759 E0.21533
G1 X118.835 Y100.100 E0.01236
G1 X123.770 Y105.035 E0.21964
G1 X123.673 Y105.474 E0.01413
G1 X118.641 Y100.442 E0.22394
G1 X118.448 Y100.783 E0.01236
G1 X123.576 Y105.912 E0.22825
G1 X123.479 Y106.350 E0.01413
G1 X118.254 Y101.125 E0.23256
G1 X118.060 Y101.466 E0.01236
G1 X123.382 Y106.789 E0.23687
G1 X123.286 Y107.227 E0.01413
G1 X117.867 Y101.808 E0.24118
G1 X117.673 Y102.150 E0.01236
G1 X123.189 Y107.665 E0.24549
G1 X123.092 Y108.104 E0.01413
G1 X117.479 Y102.491 E0.24980
G1 X117.285 Y102.833 E0.01236
G1 X122.995 Y108.542 E0.25411
G1 X122.898 Y108.980 E0.01413
G1 X117.092 Y103.174 E0.25842
G1 X116.898 Y103.516 E0.01236
G1 X122.801 Y109.419 E0.26273
G1 X122.704 Y109.857 E0.01413
G1 X116.704 Y103.857 E0.26703
G1 X116.511 Y104.199 E0.01236
G1 X122.607 Y110.296 E0.27134
G1 X122.510 Y110.734 E0.01413
G1 X116.317 Y104.540 E0.27565
G1 X116.123 Y104.882 E0.01236
G1 X122.414 Y111.172 E0.27996
G1 X122.317 Y111.611 E0.01413
G1 X115.929 Y105.223 E0.28427
G1 X115.736 Y105.565 E0.01236
G1 X122.220 Y112.049 E0.28858
G1 X122.123 Y112.487 E0.01413
G1 X115.542 Y105.907 E0.29289
G1 X115.348 Y106.248 E0.01236
G1 X122.026 Y112.926 E0.29720
G1 X121.929 Y113.364 E0.01413
G1 X115.155 Y106.590 E0.30151
G1 X114.961 Y106.931 E0.01236
G1 X121.832 Y113.802 E0.30582
G1 X121.735 Y114.241 E0.01413
G1 X114.767 Y107.273 E0.31012
G1 X114.573 Y107.614 E0.01236
G1 X121.638 Y114.679 E0.31443
G1 X121.542 Y115.118 E0.01413
G1 X114.380 Y107.956 E0.31874
G1 X114.186 Y108.297 E0.01236
G1 X121.445 Y115.556 E0.32305
G1 X121.348 Y115.994 E0.01413
G1 X113.992 Y108.639 E0.32736
G1 X113.799 Y108.980 E0.01236
G1 X121.251 Y116.433 E0.33167
G1 X121.154 Y116.871 E0.01413
G1 X113.605 Y109.322 E0.33598
G1 X113.411 Y109.664 E0.01236
G1 X121.057 Y117.309 E0.34029
G1 X120.960 Y117.748 E0.01413
G1 X113.218 Y110.005 E0.34460
G1 X113.024 Y110.347 E0.01236
G1 X120.863 Y118.186 E0.34891
G1 X120.766 Y118.624 E0.01413
G1 X112.830 Y110.688 E0.35321
G1 X112.636 Y111.030 E0.01236
G1 X120.670 Y119.063 E0.35752
G1 X120.573 Y119.501 E0.01413
G1 X112.443 Y111.371 E0.36183
G1 X112.249 Y111.713 E0.01236
G1 X120.476 Y119.940 E0.36614
G1 X120.379 Y120.378 E0.01413
G1 X112.055 Y112.054 E0.37045
G1 X111.862 Y112.396 E0.01236
G1 X120.282 Y120.816 E0.37476
G1 X120.185 Y121.255 E0.01413
G1 X111.668 Y112.738 E0.37907
G1 X111.474 Y113.079 E0.01236
G1 X120.088 Y121.693 E0.38338
G1 X119.991 Y122.131 E0.01413
G1 X111.280 Y113.421 E0.38769
G1 X111.087 Y113.762 E0.01236
G1 X119.894 Y122.570 E0.39200
G1 X119.798 Y123.008 E0.01413
G1 X110.893 Y114.104 E0.39630
G1 X110.699 Y114.445 E0.01236
G1 X119.843 Y123.589 E0.40695
G1 E-0.80000 F2100.00000
M73 P1 R104
G1 Z0.800 F10800.000
G1 X131.605 Y124.110
G1 Z0.200
G1 E0.80000 F2100.00000
G1 F1200
G1 X131.388 Y123.894 E0.00965
G1 X130.853 Y123.894 E0.01684
G1 X131.339 Y124.380 E0.02166
G1 X131.209 Y124.785 E0.01338
G1 X130.318 Y123.894 E0.03966
G1 X129.782 Y123.894 E0.01684
G1 X131.078 Y125.189 E0.05766
G1 X130.947 Y125.594 E0.01338
G1 X129.247 Y123.894 E0.07566
G1 X128.712 Y123.894 E0.01684
G1 X130.816 Y125.998 E0.09367
G1 X130.686 Y126.403 E0.01338
G1 X128.177 Y123.894 E0.11167
G1 X127.641 Y123.894 E0.01684
G1 X130.555 Y126.807 E0.12967
G1 X130.424 Y127.212 E0.01338
G1 X127.106 Y123.894 E0.14768
G1 X126.571 Y123.894 E0.01684
G1 X130.293 Y127.616 E0.16568
G1 X130.163 Y128.021 E0.01338
G1 X126.036 Y123.894 E0.18368
G1 X125.500 Y123.894 E0.01684
G1 X130.032 Y128.425 E0.20169
G1 X129.901 Y128.830 E0.01338
G1 X124.965 Y123.894 E0.21969
G1 X124.430 Y123.894 E0.01684
G1 X129.770 Y129.234 E0.23769
G1 X129.640 Y129.639 E0.01338
G1 X123.895 Y123.894 E0.25570
G1 X123.359 Y123.894 E0.01684
G1 X129.509 Y130.043 E0.27370
G1 X129.378 Y130.448 E0.01338
G1 X122.824 Y123.894 E0.29170
G1 X122.289 Y123.894 E0.01684
G1 X129.247 Y130.852 E0.30970
G1 X129.117 Y131.257 E0.01338
G1 X121.754 Y123.894 E0.32771
G1 X121.218 Y123.894 E0.01684
G1 X128.986 Y131.661 E0.34571
G1 X128.855 Y132.066 E0.01338
G1 X120.683 Y123.894 E0.36371
G1 X120.148 Y123.894 E0.01684
G1 X128.724 Y132.470 E0.38172
G1 X128.594 Y132.875 E0.01338
G1 X110.506 Y114.787 E0.80503
G1 X110.312 Y115.128 E0.01236
G1 X128.463 Y133.279 E0.80783
G1 X128.332 Y133.684 E0.01338
G1 X110.118 Y115.470 E0.81064
G1 X109.925 Y115.811 E0.01236
G1 X128.201 Y134.088 E0.81344
G1 X128.071 Y134.493 E0.01338
G1 X109.731 Y116.153 E0.81624
G1 X109.537 Y116.495 E0.01236
G1 X127.940 Y134.897 E0.81904
G1 X127.809 Y135.302 E0.01338
G1 X109.343 Y116.836 E0.82184
G1 X109.150 Y117.178 E0.01236
G1 X127.678 Y135.706 E0.82465
G1 X127.548 Y136.111 E0.01338
G1 X108.956 Y117.519 E0.82745
G1 X108.762 Y117.861 E0.01236
G1 X127.417 Y136.515 E0.83025
G1 X127.286 Y136.920 E0.01338
G1 X108.569 Y118.202 E0.83305
G1 X108.375 Y118.544 E0.01236
G1 X127.155 Y137.324 E0.83586
G1 X127.025 Y137.729 E0.01338
G1 X108.181 Y118.885 E0.83866
G1 X107.987 Y119.227 E0.01236
G1 X126.894 Y138.133 E0.84146
G1 X126.763 Y138.538 E0.01338
G1 X107.794 Y119.568 E0.84426
G1 X107.600 Y119.910 E0.01236
G1 X126.632 Y138.942 E0.84706
G1 X126.502 Y139.347 E0.01338
G1 X107.406 Y120.252 E0.84987
G1 X107.213 Y120.593 E0.01236
G1 X126.371 Y139.751 E0.85267
G1 X126.240 Y140.156 E0.01338
G1 X107.019 Y120.935 E0.85547
G1 X106.825 Y121.276 E0.01236
G1 X126.109 Y140.560 E0.85827
G1 X125.979 Y140.965 E0.01338
G1 X106.632 Y121.618 E0.86107
G1 X106.438 Y121.959 E0.01236
G1 X125.848 Y141.369 E0.86388
G1 X125.717 Y141.774 E0.01338
G1 X106.244 Y122.301 E0.86668
G1 X106.050 Y122.642 E0.01236
G1 X125.586 Y142.178 E0.86948
G1 X125.456 Y142.583 E0.01338
G1 X105.857 Y122.984 E0.87228
G1 X105.663 Y123.325 E0.01236
G1 X125.325 Y142.987 E0.87508
G1 X125.194 Y143.392 E0.01338
G1 X105.469 Y123.667 E0.87789
G1 X105.276 Y124.009 E0.01236
G1 X125.063 Y143.796 E0.88069
G1 X124.933 Y144.201 E0.01338
G1 X105.082 Y124.350 E0.88349
G1 X104.888 Y124.692 E0.01236
G1 X124.802 Y144.605 E0.88629
G1 X124.671 Y145.010 E0.01338
G1 X104.694 Y125.033 E0.88909
G1 X104.501 Y125.375 E0.01236
G1 X124.540 Y145.414 E0.89190
G1 X124.410 Y145.819 E0.01338
G1 X104.307 Y125.716 E0.89470
G1 X104.113 Y126.058 E0.01236
G1 X124.279 Y146.223 E0.89750
G1 X124.148 Y146.628 E0.01338
G1 X103.920 Y126.399 E0.90030
G1 X103.726 Y126.741 E0.01236
G1 X124.017 Y147.032 E0.90310
G1 X123.887 Y147.437 E0.01338
G1 X103.532 Y127.082 E0.90591
G1 X103.339 Y127.424 E0.01236
G1 X123.756 Y147.841 E0.90871
M73 P1 R103
G1 X123.625 Y148.246 E0.01338
G1 X103.145 Y127.766 E0.91151
G1 X102.951 Y128.107 E0.01236
G1 X123.494 Y148.650 E0.91431
G1 X123.364 Y149.055 E0.01338
G1 X102.757 Y128.449 E0.91711
G1 X102.564 Y128.790 E0.01236
G1 X123.233 Y149.459 E0.91992
G1 X123.102 Y149.864 E0.01338
G1 X102.370 Y129.132 E0.92272
G1 X102.176 Y129.473 E0.01236
G1 X122.971 Y150.268 E0.92552
G1 X122.841 Y150.673 E0.01338
G1 X101.983 Y129.815 E0.92832
G1 X101.789 Y130.156 E0.01236
G1 X122.710 Y151.077 E0.93112
G1 X122.579 Y151.482 E0.01338
G1 X101.595 Y130.498 E0.93393
G1 X101.401 Y130.839 E0.01236
G1 X122.448 Y151.886 E0.93673
G1 X122.318 Y152.291 E0.01338
G1 X101.208 Y131.181 E0.93953
G1 X101.014 Y131.523 E0.01236
G1 X122.187 Y152.696 E0.94233
G1 X122.056 Y153.100 E0.01338
G1 X100.820 Y131.864 E0.94513
G1 X100.627 Y132.206 E0.01236
G1 X121.925 Y153.505 E0.94794
G1 X121.795 Y153.909 E0.01338
G1 X100.433 Y132.547 E0.95074
G1 X100.239 Y132.889 E0.01236
G1 X121.664 Y154.314 E0.95354
G1 X121.533 Y154.718 E0.01338
G1 X100.046 Y133.230 E0.95634
G1 X99.852 Y133.572 E0.01236
G1 X121.402 Y155.123 E0.95915
G1 X121.272 Y155.527 E0.01338
G1 X99.658 Y133.913 E0.96195
G1 X99.464 Y134.255 E0.01236
G1 X121.141 Y155.932 E0.96475
G1 X121.010 Y156.336 E0.01338
G1 X106.404 Y141.730 E0.65007
G1 X106.303 Y142.164 E0.01402
G1 X120.880 Y156.741 E0.64876
G1 X120.749 Y157.145 E0.01338
G1 X106.201 Y142.597 E0.64746
G1 X106.100 Y143.031 E0.01402
G1 X120.618 Y157.550 E0.64616
G1 X120.487 Y157.954 E0.01338
G1 X105.998 Y143.465 E0.64485
G1 X105.897 Y143.899 E0.01402
G1 X120.357 Y158.359 E0.64355
G1 X120.226 Y158.763 E0.01338
G1 X105.795 Y144.333 E0.64225
G1 X105.694 Y144.766 E0.01402
G1 X120.095 Y159.168 E0.64094
G1 X119.964 Y159.572 E0.01338
G1 X105.592 Y145.200 E0.63964
G1 X105.491 Y145.634 E0.01402
G1 X119.834 Y159.977 E0.63834
G1 X119.703 Y160.381 E0.01338
G1 X105.390 Y146.068 E0.63703
G1 X105.288 Y146.502 E0.01402
G1 X119.572 Y160.786 E0.63573
G1 X119.441 Y161.190 E0.01338
G1 X105.187 Y146.935 E0.63443
G1 X105.085 Y147.369 E0.01402
G1 X119.311 Y161.595 E0.63312
G1 X119.180 Y161.999 E0.01338
G1 X104.984 Y147.803 E0.63182
G1 X104.882 Y148.237 E0.01402
G1 X119.049 Y162.404 E0.63051
G1 X118.918 Y162.808 E0.01338
G1 X104.781 Y148.671 E0.62921
G1 X104.679 Y149.104 E0.01402
G1 X118.788 Y163.213 E0.62791
G1 X118.657 Y163.617 E0.01338
G1 X104.578 Y149.538 E0.62660
G1 X104.476 Y149.972 E0.01402
G1 X118.526 Y164.022 E0.62530
G1 X118.395 Y164.426 E0.01338
G1 X104.375 Y150.406 E0.62400
G1 X104.273 Y150.840 E0.01402
G1 X118.265 Y164.831 E0.62269
G1 X118.134 Y165.235 E0.01338
G1 X104.172 Y151.273 E0.62139
G1 X104.071 Y151.707 E0.01402
G1 X117.786 Y165.422 E0.61041
G1 X117.265 Y165.437 E0.01640
G1 X103.969 Y152.141 E0.59174
G1 X103.868 Y152.575 E0.01402
G1 X116.744 Y165.451 E0.57307
G1 X116.223 Y165.465 E0.01640
G1 X103.766 Y153.009 E0.55439
G1 X103.665 Y153.442 E0.01402
G1 X115.702 Y165.479 E0.53572
G1 X115.181 Y165.493 E0.01640
G1 X103.563 Y153.876 E0.51704
G1 X103.462 Y154.310 E0.01402
G1 X114.660 Y165.508 E0.49837
M73 P2 R102
G1 X114.139 Y165.522 E0.01640
G1 X103.360 Y154.744 E0.47970
G1 X103.259 Y155.178 E0.01402
G1 X113.617 Y165.536 E0.46102
G1 X113.096 Y165.550 E0.01640
G1 X103.157 Y155.611 E0.44235
G1 X103.056 Y156.045 E0.01402
G1 X112.575 Y165.565 E0.42368
G1 X112.054 Y165.579 E0.01640
G1 X102.955 Y156.479 E0.40500
G1 X102.853 Y156.913 E0.01402
G1 X111.533 Y165.593 E0.38633
G1 X111.012 Y165.607 E0.01640
G1 X102.752 Y157.346 E0.36766
G1 X102.650 Y157.780 E0.01402
G1 X110.491 Y165.621 E0.34898
G1 X109.970 Y165.636 E0.01640
G1 X102.549 Y158.214 E0.33031
G1 X102.447 Y158.648 E0.01402
G1 X109.449 Y165.650 E0.31164
G1 X108.928 Y165.664 E0.01640
G1 X102.346 Y159.082 E0.29296
G1 X102.244 Y159.515 E0.01402
G1 X108.407 Y165.678 E0.27429
G1 X107.886 Y165.693 E0.01640
G1 X102.143 Y159.949 E0.25562
G1 X102.041 Y160.383 E0.01402
G1 X107.365 Y165.707 E0.23694
G1 X106.844 Y165.721 E0.01640
G1 X101.940 Y160.817 E0.21827
G1 X101.838 Y161.251 E0.01402
G1 X106.323 Y165.735 E0.19959
G1 X105.802 Y165.749 E0.01640
G1 X101.737 Y161.684 E0.18092
G1 X101.636 Y162.118 E0.01402
G1 X105.281 Y165.764 E0.16225
G1 X104.760 Y165.778 E0.01640
G1 X101.534 Y162.552 E0.14357
G1 X101.433 Y162.986 E0.01402
G1 X104.239 Y165.792 E0.12490
G1 X103.718 Y165.806 E0.01640
