; generated by PrusaSlicer 2.2.0+win64 on 2022-02-17 at 16:42:31 UTC

; 

; external perimeters extrusion width = 0.45mm
; perimeters extrusion width = 0.45mm
; infill extrusion width = 0.45mm
; solid infill extrusion width = 0.45mm
; top infill extrusion width = 0.45mm
; first layer extrusion width = 0.42mm

M73 P0 R22
M201 X9000 Y9000 Z500 E10000 ; sets maximum accelerations, mm/sec^2
M203 X500 Y500 Z12 E120 ; sets maximum feedrates, mm/sec
M204 P2000 R1500 T2000 ; sets acceleration (P, T) and retract acceleration (R), mm/sec^2
M205 X10.00 Y10.00 Z0.20 E2.50 ; sets the jerk limits, mm/sec
M205 S0 T0 ; sets the minimum extruding and travel feed rate, mm/sec
M107
M862.3 P "MK2S" ; printer model check
M862.1 P0.4 ; nozzle diameter check
M115 U3.2.3 ; tell printer latest fw version
G90 ; use absolute coordinates
M83 ; extruder relative mode
M204 S2000 T1500 ; MK2 firmware only supports the old M204 format
M104 S215 ; set extruder temp
M140 S60 ; set bed temp
M190 S60 ; wait for bed temp
M109 S215 ; wait for extruder temp
G28 W ; home all without mesh bed level
G80 ; mesh bed leveling
G1 Y-3.0 F1000.0 ; go outside print area
G92 E0.0
G1 X60.0 E9.0  F1000.0 ; intro line
M73 P0 R22
G1 X100.0 E12.5 F1000.0 ; intro line
G92 E0.0
G21 ; set units to millimeters
G90 ; use absolute coordinates
M83 ; use relative distances for extrusion
M900 K0.05 ; Filament gcode LA 1.5
M900 K30 ; Filament gcode LA 1.0
;BEFORE_LAYER_CHANGE
G92 E0.0
;0.2


G1 E-0.80000 F2100.00000
G1 Z0.400 F10800.000
;AFTER_LAYER_CHANGE
;0.2
G1 X90.134 Y99.106
G1 Z0.200
G1 E0.80000 F2100.00000
M204 S1000
G1 F1200.000
G1 X90.590 Y98.567 E0.02211
G1 X108.713 Y82.514 E0.75911
G1 X109.186 Y82.155 E0.01863
G1 X109.807 Y81.849 E0.02170
G1 X110.357 Y81.694 E0.01793
G1 X110.966 Y81.636 E0.01918
G1 X139.027 Y81.636 E0.87982
G1 X139.662 Y81.697 E0.02001
G1 X140.258 Y81.870 E0.01944
G1 X140.828 Y82.159 E0.02004
G1 X141.273 Y82.497 E0.01754
G1 X159.354 Y98.541 E0.75794
G1 X159.821 Y99.081 E0.02238
G1 X160.144 Y99.660 E0.02076
G1 X160.353 Y100.316 E0.02160
G1 X160.424 Y100.978 E0.02089
G1 X160.423 Y125.052 E0.75481
G1 X160.351 Y125.686 E0.02002
G1 X160.148 Y126.325 E0.02101
G1 X159.831 Y126.898 E0.02053
G1 X159.383 Y127.426 E0.02171
G1 X158.897 Y127.812 E0.01945
G1 X158.328 Y128.111 E0.02016
G1 X157.713 Y128.298 E0.02016
G1 X157.081 Y128.364 E0.01992
G1 X92.922 Y128.364 E2.01167
G1 X92.257 Y128.297 E0.02096
G1 X91.610 Y128.097 E0.02123
G1 X91.022 Y127.777 E0.02099
G1 X90.488 Y127.325 E0.02194
G1 X90.105 Y126.846 E0.01921
G1 X89.807 Y126.285 E0.01993
G1 X89.619 Y125.677 E0.01994
G1 X89.549 Y125.072 E0.01910
G1 X89.548 Y100.999 E0.75481
G1 X89.615 Y100.333 E0.02097
G1 X89.816 Y99.686 E0.02125
G1 X90.106 Y99.158 E0.01887
; printing object LightSensorAngled.stl id:0 copy 2
G1 F8640.000
G1 X90.590 Y98.567 E-0.17639
G1 X92.482 Y96.891 E-0.58361
G1 E-0.04000 F2100.00000
G1 Z0.600 F10800.000
G1 X114.286 Y119.054
G1 Z0.200
G1 E0.80000 F2100.00000
G1 F1200.000
G1 X114.550 Y118.736 E0.01295
G1 X114.851 Y118.453 E0.01295
G1 X115.185 Y118.210 E0.01295
G1 X115.547 Y118.011 E0.01295
G1 X115.932 Y117.859 E0.01295
G1 X116.332 Y117.757 E0.01296
G1 X116.742 Y117.705 E0.01296
G1 X117.155 Y117.705 E0.01296
G1 X117.491 Y117.747 E0.01060
G1 X117.959 Y117.857 E0.01510
G1 X118.349 Y118.011 E0.01315
G1 X118.712 Y118.210 E0.01295
G1 X119.046 Y118.453 E0.01295
G1 X119.347 Y118.736 E0.01295
G1 X119.611 Y119.054 E0.01295
G1 X119.832 Y119.403 E0.01295
G1 X120.008 Y119.776 E0.01295
G1 X120.136 Y120.169 E0.01295
G1 X120.214 Y120.575 E0.01295
G1 X120.234 Y120.899 E0.01018
G1 X120.215 Y121.392 E0.01548
G1 X120.136 Y121.805 E0.01318
G1 X120.008 Y122.198 E0.01295
G1 X119.832 Y122.572 E0.01295
G1 X119.611 Y122.920 E0.01295
G1 X119.343 Y123.244 E0.01316
G1 X118.980 Y123.569 E0.01527
G1 X118.712 Y123.764 E0.01041
G1 X118.344 Y123.966 E0.01315
G1 X117.891 Y124.134 E0.01514
G1 X117.565 Y124.218 E0.01056
G1 X117.155 Y124.269 E0.01296
G1 X116.742 Y124.269 E0.01296
G1 X116.332 Y124.218 E0.01296
G1 X115.932 Y124.115 E0.01296
G1 X115.547 Y123.963 E0.01295
G1 X115.185 Y123.764 E0.01295
G1 X114.851 Y123.521 E0.01295
G1 X114.550 Y123.239 E0.01295
G1 X114.286 Y122.920 E0.01295
G1 X114.065 Y122.572 E0.01295
G1 X113.889 Y122.198 E0.01295
G1 X113.761 Y121.805 E0.01295
G1 X113.683 Y121.399 E0.01295
G1 X113.657 Y120.987 E0.01295
G1 X113.683 Y120.575 E0.01295
G1 X113.761 Y120.169 E0.01295
G1 X113.889 Y119.776 E0.01295
G1 X114.065 Y119.403 E0.01295
G1 X114.254 Y119.104 E0.01107
G1 X114.572 Y119.307 F10800.000
G1 F1200.000
G1 X114.825 Y118.994 E0.01259
G1 X115.092 Y118.744 E0.01147
G1 X115.388 Y118.529 E0.01147
G1 X115.708 Y118.353 E0.01147
G1 X116.048 Y118.219 E0.01147
G1 X116.403 Y118.128 E0.01147
G1 X116.766 Y118.082 E0.01147
G1 X117.131 Y118.082 E0.01147
G1 X117.424 Y118.119 E0.00924
G1 X117.847 Y118.218 E0.01361
G1 X118.189 Y118.353 E0.01154
G1 X118.509 Y118.529 E0.01147
G1 X118.805 Y118.744 E0.01147
G1 X119.072 Y118.994 E0.01147
G1 X119.305 Y119.276 E0.01147
G1 X119.501 Y119.585 E0.01146
G1 X119.657 Y119.915 E0.01146
G1 X119.770 Y120.263 E0.01146
G1 X119.839 Y120.622 E0.01146
G1 X119.856 Y120.904 E0.00884
G1 X119.839 Y121.349 E0.01399
G1 X119.770 Y121.711 E0.01154
G1 X119.657 Y122.059 E0.01146
G1 X119.501 Y122.390 E0.01146
G1 X119.305 Y122.698 E0.01146
G1 X119.070 Y122.982 E0.01154
G1 X118.743 Y123.275 E0.01379
G1 X118.509 Y123.445 E0.00906
G1 X118.187 Y123.622 E0.01154
G1 X117.778 Y123.773 E0.01365
G1 X117.494 Y123.846 E0.00920
G1 X117.131 Y123.892 E0.01147
G1 X116.766 Y123.892 E0.01147
G1 X116.403 Y123.846 E0.01147
G1 X116.048 Y123.755 E0.01147
G1 X115.708 Y123.621 E0.01147
G1 X115.388 Y123.445 E0.01147
G1 X115.092 Y123.230 E0.01147
G1 X114.825 Y122.980 E0.01147
G1 X114.592 Y122.698 E0.01147
G1 X114.396 Y122.390 E0.01146
G1 X114.240 Y122.059 E0.01146
G1 X114.127 Y121.711 E0.01146
G1 X114.058 Y121.352 E0.01146
G1 X114.035 Y120.987 E0.01146
G1 X114.058 Y120.622 E0.01146
G1 X114.127 Y120.263 E0.01146
G1 X114.240 Y119.915 E0.01146
G1 X114.396 Y119.585 E0.01146
G1 X114.540 Y119.357 E0.00845
G1 X114.407 Y118.943 F10800.000
G1 F8640.000
G1 X114.825 Y118.994 E-0.10653
G1 X115.092 Y118.744 E-0.08444
G1 X115.388 Y118.529 E-0.08445
G1 X115.708 Y118.353 E-0.08445
G1 X116.048 Y118.219 E-0.08446
G1 X116.403 Y118.128 E-0.08446
G1 X116.766 Y118.082 E-0.08446
G1 X117.131 Y118.082 E-0.08446
G1 X117.399 Y118.116 E-0.06229
G1 E-0.04000 F2100.00000
G1 Z0.600 F10800.000
G1 X121.033 Y116.794
G1 Z0.200
G1 E0.80000 F2100.00000
G1 F1200.000
G1 X121.127 Y116.871 E0.00382
G1 X121.166 Y117.026 E0.00500
G1 X121.166 Y124.948 E0.24841
G1 X121.127 Y125.103 E0.00500
G1 X121.069 Y125.161 E0.00256
G1 X120.993 Y125.192 E0.00257
G1 X92.964 Y125.200 E0.87883
G1 X92.809 Y125.161 E0.00503
G1 X92.751 Y125.103 E0.00256
G1 X92.720 Y125.028 E0.00255
G1 X92.712 Y117.026 E0.25090
G1 X92.751 Y116.871 E0.00500
G1 X92.809 Y116.813 E0.00256
G1 X92.884 Y116.782 E0.00257
G1 X94.506 Y116.774 E0.05083
G1 X94.506 Y118.769 E0.06255
G1 X94.216 Y119.128 E0.01448
G1 X94.005 Y119.481 E0.01289
G1 X93.824 Y119.900 E0.01430
G1 X93.712 Y120.297 E0.01295
G1 X93.651 Y120.703 E0.01287
G1 X93.642 Y121.112 E0.01282
G1 X93.676 Y121.478 E0.01152
G1 X93.774 Y121.920 E0.01421
G1 X93.916 Y122.308 E0.01296
G1 X94.105 Y122.673 E0.01288
G1 X94.336 Y123.011 E0.01283
G1 X94.578 Y123.286 E0.01149
G1 X94.916 Y123.588 E0.01423
G1 X95.259 Y123.820 E0.01297
G1 X95.625 Y124.006 E0.01288
G1 X96.011 Y124.144 E0.01284
G1 X96.366 Y124.226 E0.01144
G1 X96.819 Y124.274 E0.01428
G1 X97.233 Y124.261 E0.01298
G1 X97.639 Y124.198 E0.01288
G1 X98.032 Y124.085 E0.01284
G1 X98.366 Y123.944 E0.01136
G1 X98.763 Y123.718 E0.01433
G1 X99.092 Y123.466 E0.01298
G1 X99.384 Y123.177 E0.01288
G1 X99.637 Y122.855 E0.01284
G1 X99.824 Y122.548 E0.01129
G1 X100.015 Y122.131 E0.01438
G1 X100.134 Y121.734 E0.01299
G1 X100.202 Y121.329 E0.01287
G1 X100.220 Y120.919 E0.01287
G1 X100.185 Y120.510 E0.01287
G1 X100.101 Y120.108 E0.01287
G1 X99.966 Y119.720 E0.01287
G1 X99.784 Y119.350 E0.01294
G1 X99.540 Y118.987 E0.01370
G1 X99.259 Y118.668 E0.01334
G1 X99.259 Y116.774 E0.05938
G1 X120.975 Y116.780 E0.68089
G1 F8640.000
G1 X121.127 Y116.871 E-0.04098
G1 X121.166 Y117.026 E-0.03682
G1 X121.166 Y119.980 E-0.68221
G1 E-0.04000 F2100.00000
G1 Z0.600 F10800.000
G1 X98.882 Y116.397
G1 Z0.200
G1 E0.80000 F2100.00000
G1 F1200.000
G1 X120.932 Y116.397 E0.69138
G1 X121.178 Y116.444 E0.00784
G1 X121.280 Y116.498 E0.00362
G1 X121.442 Y116.661 E0.00720
G1 X121.530 Y116.872 E0.00719
G1 X121.543 Y117.007 E0.00425
G1 X121.543 Y124.967 E0.24957
G1 X121.496 Y125.212 E0.00782
G1 X121.369 Y125.403 E0.00720
G1 X121.280 Y125.476 E0.00362
G1 X121.067 Y125.564 E0.00721
G1 X120.932 Y125.577 E0.00426
G1 X92.946 Y125.577 E0.87749
G1 X92.811 Y125.564 E0.00426
G1 X92.598 Y125.476 E0.00721
G1 X92.509 Y125.403 E0.00362
G1 X92.381 Y125.212 E0.00720
G1 X92.335 Y124.967 E0.00782
G1 X92.335 Y117.007 E0.24957
G1 X92.348 Y116.872 E0.00425
G1 X92.436 Y116.661 E0.00719
G1 X92.598 Y116.498 E0.00720
G1 X92.811 Y116.410 E0.00721
G1 X94.883 Y116.397 E0.06497
G1 X94.883 Y118.923 E0.07921
G1 X94.733 Y119.075 E0.00668
G1 X94.528 Y119.341 E0.01054
G1 X94.341 Y119.653 E0.01140
G1 X94.180 Y120.026 E0.01273
G1 X94.082 Y120.377 E0.01142
G1 X94.028 Y120.736 E0.01139
G1 X94.019 Y121.099 E0.01137
G1 X94.049 Y121.419 E0.01009
G1 X94.137 Y121.814 E0.01269
G1 X94.262 Y122.156 E0.01143
G1 X94.429 Y122.479 E0.01140
G1 X94.634 Y122.779 E0.01138
G1 X94.846 Y123.020 E0.01007
G1 X95.149 Y123.290 E0.01272
G1 X95.451 Y123.494 E0.01143
G1 X95.775 Y123.659 E0.01140
G1 X96.117 Y123.782 E0.01139
G1 X96.428 Y123.853 E0.01002
G1 X96.833 Y123.896 E0.01277
G1 X97.198 Y123.885 E0.01144
G1 X97.557 Y123.829 E0.01140
G1 X97.906 Y123.729 E0.01139
G1 X98.199 Y123.605 E0.00995
G1 X98.554 Y123.403 E0.01283
G1 X98.844 Y123.181 E0.01144
G1 X99.102 Y122.926 E0.01140
G1 X99.327 Y122.640 E0.01139
G1 X99.490 Y122.371 E0.00988
G1 X99.661 Y121.997 E0.01288
G1 X99.766 Y121.648 E0.01144
G1 X99.827 Y121.290 E0.01139
G1 X99.842 Y120.927 E0.01139
G1 X99.812 Y120.565 E0.01139
G1 X99.736 Y120.209 E0.01139
G1 X99.618 Y119.866 E0.01139
G1 X99.457 Y119.539 E0.01142
G1 X99.240 Y119.216 E0.01221
G1 X99.022 Y118.963 E0.01047
G1 X98.882 Y118.834 E0.00597
G1 X98.882 Y116.457 E0.07452
G1 X99.232 Y116.591 F10800.000
G1 F8640.000
G1 X102.173 Y116.448 E-0.76000
G1 E-0.04000 F2100.00000
G1 Z0.600 F10800.000
G1 X94.392 Y117.274
G1 Z0.200
G1 E0.80000 F2100.00000
G1 F1200.000
G1 X94.175 Y117.057 E0.00968
G1 X93.640 Y117.057 E0.01685
G1 X94.223 Y117.640 E0.02596
G1 X94.223 Y118.175 E0.01685
G1 X93.104 Y117.057 E0.04979
G1 X92.995 Y117.057 E0.00345
G1 X92.995 Y117.483 E0.01340
G1 X94.204 Y118.692 E0.05385
G1 X93.968 Y118.992 E0.01200
G1 X92.995 Y118.018 E0.04333
G1 X92.995 Y118.553 E0.01685
G1 X93.768 Y119.326 E0.03441
G1 X93.603 Y119.698 E0.01278
G1 X92.995 Y119.089 E0.02710
G1 X92.995 Y119.624 E0.01685
G1 X93.473 Y120.103 E0.02131
G1 X93.388 Y120.553 E0.01442
G1 X92.995 Y120.160 E0.01751
G1 X92.995 Y120.695 E0.01685
G1 X93.360 Y121.060 E0.01626
G1 X93.396 Y121.522 E0.01458
G1 X93.428 Y121.664 E0.00457
G1 X92.995 Y121.230 E0.01928
G1 X92.995 Y121.766 E0.01685
G1 X93.663 Y122.434 E0.02976
G1 X93.861 Y122.819 E0.01362
G1 X94.112 Y123.185 E0.01397
G1 X94.377 Y123.486 E0.01261
G1 X94.742 Y123.812 E0.01542
G1 X95.115 Y124.064 E0.01417
G1 X95.476 Y124.248 E0.01275
G1 X96.139 Y124.910 E0.02950
G1 X96.675 Y124.910 E0.01686
G1 X96.255 Y124.490 E0.01870
G1 X96.855 Y124.556 E0.01901
G1 X97.210 Y124.911 E0.01581
G1 X97.746 Y124.911 E0.01686
G1 X97.362 Y124.527 E0.01707
G1 X97.813 Y124.442 E0.01443
G1 X98.281 Y124.911 E0.02086
G1 X98.817 Y124.911 E0.01686
G1 X98.219 Y124.313 E0.02661
G1 X98.586 Y124.144 E0.01270
G1 X99.352 Y124.911 E0.03413
G1 X99.888 Y124.911 E0.01686
G1 X98.926 Y123.949 E0.04282
G1 X99.229 Y123.717 E0.01202
G1 X100.423 Y124.911 E0.05317
G1 X100.959 Y124.912 E0.01686
G1 X99.504 Y123.456 E0.06478
G1 X99.751 Y123.168 E0.01195
G1 X101.494 Y124.912 E0.07761
G1 X102.030 Y124.912 E0.01686
G1 X99.970 Y122.852 E0.09170
G1 X100.156 Y122.502 E0.01246
G1 X102.565 Y124.912 E0.10727
G1 X103.101 Y124.912 E0.01686
G1 X100.312 Y122.124 E0.12414
G1 X100.426 Y121.702 E0.01374
G1 X103.637 Y124.912 E0.14291
G1 X104.172 Y124.913 E0.01686
G1 X100.490 Y121.230 E0.16394
G1 X100.503 Y120.913 E0.00999
G1 X100.484 Y120.689 E0.00707
G1 X104.708 Y124.913 E0.18802
G1 X105.243 Y124.913 E0.01686
G1 X100.376 Y120.046 E0.21665
G1 X100.228 Y119.611 E0.01448
G1 X100.029 Y119.208 E0.01414
G1 X99.938 Y119.072 E0.00515
G1 X105.779 Y124.913 E0.26002
G1 X106.314 Y124.913 E0.01686
G1 X99.542 Y118.141 E0.30150
G1 X99.542 Y117.605 E0.01685
G1 X106.850 Y124.913 E0.32534
G1 X107.385 Y124.913 E0.01686
G1 X99.542 Y117.057 E0.34946
G1 X100.064 Y117.057 E0.01646
G1 X107.921 Y124.914 E0.34974
G1 X108.456 Y124.914 E0.01686
G1 X100.600 Y117.057 E0.34974
G1 X101.136 Y117.058 E0.01686
G1 X108.992 Y124.914 E0.34974
G1 X109.527 Y124.914 E0.01686
G1 X101.671 Y117.058 E0.34974
G1 X102.207 Y117.058 E0.01686
G1 X110.063 Y124.914 E0.34973
G1 X110.598 Y124.914 E0.01686
G1 X102.742 Y117.058 E0.34973
G1 X103.278 Y117.058 E0.01686
G1 X111.134 Y124.914 E0.34973
G1 X111.670 Y124.915 E0.01686
G1 X103.814 Y117.059 E0.34973
G1 X104.349 Y117.059 E0.01686
G1 X112.205 Y124.915 E0.34973
G1 X112.741 Y124.915 E0.01686
G1 X104.885 Y117.059 E0.34972
G1 X105.420 Y117.059 E0.01686
G1 X113.276 Y124.915 E0.34972
G1 X113.812 Y124.915 E0.01686
G1 X105.956 Y117.059 E0.34972
G1 X106.491 Y117.060 E0.01686
G1 X114.347 Y124.915 E0.34972
G1 X114.883 Y124.916 E0.01686
G1 X107.027 Y117.060 E0.34972
G1 X107.563 Y117.060 E0.01686
G1 X115.588 Y125.085 E0.35727
G1 F8640.000
G1 X113.261 Y122.758 E-0.76000
G1 E-0.04000 F2100.00000
G1 Z0.600 F10800.000
G1 X121.050 Y120.375
G1 Z0.200
G1 E0.80000 F2100.00000
G1 F1200.000
G1 X120.205 Y119.530 E0.03761
G1 X120.272 Y119.672 E0.00493
G1 X120.411 Y120.099 E0.01412
G1 X120.451 Y120.312 E0.00683
G1 X120.880 Y120.740 E0.01908
G1 X120.879 Y121.275 E0.01684
G1 X120.516 Y120.912 E0.01615
G1 X120.496 Y121.427 E0.01623
G1 X120.879 Y121.810 E0.01703
G1 X120.878 Y122.345 E0.01684
G1 X120.410 Y121.877 E0.02084
G1 X120.279 Y122.281 E0.01337
G1 X120.878 Y122.880 E0.02666
G1 X120.877 Y123.415 E0.01684
G1 X120.109 Y122.647 E0.03417
G1 X119.908 Y122.980 E0.01227
G1 X120.877 Y123.949 E0.04314
G1 X120.876 Y124.484 E0.01684
G1 X119.676 Y123.285 E0.05341
G1 X119.547 Y123.440 E0.00636
G1 X119.415 Y123.559 E0.00559
G1 X120.774 Y124.917 E0.06047
G1 X120.238 Y124.917 E0.01686
G1 X119.130 Y123.809 E0.04931
G1 X118.815 Y124.030 E0.01210
G1 X119.703 Y124.917 E0.03950
G1 X119.167 Y124.917 E0.01686
G1 X118.470 Y124.219 E0.03104
G1 X118.080 Y124.365 E0.01309
G1 X118.631 Y124.917 E0.02454
G1 X118.096 Y124.916 E0.01686
G1 X117.664 Y124.484 E0.01924
G1 X117.194 Y124.549 E0.01494
G1 X117.560 Y124.916 E0.01633
G1 X117.025 Y124.916 E0.01686
G1 X116.652 Y124.543 E0.01662
G1 X116.279 Y124.496 E0.01183
G1 X115.997 Y124.423 E0.00917
G1 X116.489 Y124.916 E0.02192
G1 X115.954 Y124.916 E0.01686
G1 X108.098 Y117.060 E0.34971
G1 X108.634 Y117.060 E0.01686
G1 X113.505 Y121.931 E0.21684
G1 X113.402 Y121.435 E0.01595
G1 X113.393 Y121.284 E0.00476
G1 X109.169 Y117.061 E0.18802
G1 X109.705 Y117.061 E0.01686
G1 X113.389 Y120.745 E0.16402
G1 X113.402 Y120.539 E0.00650
G1 X113.453 Y120.274 E0.00852
G1 X110.240 Y117.061 E0.14302
G1 X110.776 Y117.061 E0.01686
G1 X113.567 Y119.852 E0.12423
G1 X113.625 Y119.672 E0.00596
G1 X113.720 Y119.470 E0.00702
G1 X111.312 Y117.061 E0.10723
G1 X111.847 Y117.062 E0.01686
G1 X113.908 Y119.122 E0.09173
G1 X114.125 Y118.804 E0.01212
G1 X112.383 Y117.062 E0.07758
G1 X112.918 Y117.062 E0.01686
G1 X114.371 Y118.515 E0.06469
G1 X114.648 Y118.256 E0.01192
G1 X113.454 Y117.062 E0.05314
G1 X113.989 Y117.062 E0.01686
G1 X114.955 Y118.028 E0.04299
G1 X115.292 Y117.829 E0.01231
G1 X114.525 Y117.062 E0.03413
G1 X115.061 Y117.063 E0.01686
G1 X115.660 Y117.663 E0.02670
G1 X115.844 Y117.590 E0.00622
G1 X116.066 Y117.533 E0.00721
G1 X115.596 Y117.063 E0.02092
G1 X116.132 Y117.063 E0.01686
G1 X116.517 Y117.448 E0.01715
G1 X116.724 Y117.422 E0.00657
G1 X117.026 Y117.422 E0.00951
G1 X116.667 Y117.063 E0.01598
