; generated by PrusaSlicer 2.2.0+win64 on 2022-02-17 at 16:42:47 UTC

; 

; external perimeters extrusion width = 0.45mm
; perimeters extrusion width = 0.45mm
; infill extrusion width = 0.45mm
; solid infill extrusion width = 0.45mm
; top infill extrusion width = 0.45mm
; first layer extrusion width = 0.42mm

M73 P0 R9
M201 X9000 Y9000 Z500 E10000 ; sets maximum accelerations, mm/sec^2
M203 X500 Y500 Z12 E120 ; sets maximum feedrates, mm/sec
M204 P2000 R1500 T2000 ; sets acceleration (P, T) and retract acceleration (R), mm/sec^2
M205 X10.00 Y10.00 Z0.20 E2.50 ; sets the jerk limits, mm/sec
M205 S0 T0 ; sets the minimum extruding and travel feed rate, mm/sec
M107
M862.3 P "MK2S" ; printer model check
M862.1 P0.4 ; nozzle diameter check
M115 U3.2.3 ; tell printer latest fw version
G90 ; use absolute coordinates
M83 ; extruder relative mode
M204 S2000 T1500 ; MK2 firmware only supports the old M204 format
M104 S215 ; set extruder temp
M140 S60 ; set bed temp
M190 S60 ; wait for bed temp
M109 S215 ; wait for extruder temp
G28 W ; home all without mesh bed level
G80 ; mesh bed leveling
G1 Y-3.0 F1000.0 ; go outside print area
G92 E0.0
G1 X60.0 E9.0  F1000.0 ; intro line
M73 P0 R9
G1 X100.0 E12.5 F1000.0 ; intro line
G92 E0.0
G21 ; set units to millimeters
G90 ; use absolute coordinates
M83 ; use relative distances for extrusion
M900 K0.05 ; Filament gcode LA 1.5
M900 K30 ; Filament gcode LA 1.0
;BEFORE_LAYER_CHANGE
G92 E0.0
;0.2


G1 E-0.80000 F2100.00000
G1 Z0.400 F10800.000
;AFTER_LAYER_CHANGE
;0.2
G1 X108.328 Y90.343
G1 Z0.200
G1 E0.80000 F2100.00000
M204 S1000
G1 F1200.000
G1 X108.873 Y89.897 E0.02208
G1 X109.500 Y89.556 E0.02238
G1 X110.190 Y89.338 E0.02270
G1 X110.873 Y89.257 E0.02155
G1 X139.016 Y89.255 E0.88240
G1 X139.736 Y89.326 E0.02270
G1 X140.422 Y89.530 E0.02243
G1 X141.063 Y89.865 E0.02268
G1 X141.608 Y90.297 E0.02179
G1 X142.092 Y90.862 E0.02333
G1 X142.435 Y91.467 E0.02180
G1 X142.667 Y92.153 E0.02270
G1 X142.757 Y92.772 E0.01962
G1 X142.754 Y117.103 E0.76288
G1 X142.672 Y117.780 E0.02136
G1 X142.452 Y118.470 E0.02271
G1 X142.111 Y119.094 E0.02232
G1 X141.646 Y119.655 E0.02283
G1 X141.093 Y120.108 E0.02244
G1 X140.467 Y120.447 E0.02231
G1 X139.777 Y120.664 E0.02269
G1 X139.099 Y120.743 E0.02140
G1 X110.960 Y120.745 E0.88227
G1 X110.227 Y120.673 E0.02308
G1 X109.520 Y120.458 E0.02319
G1 X108.868 Y120.108 E0.02320
G1 X108.294 Y119.634 E0.02333
G1 X107.843 Y119.084 E0.02231
G1 X107.504 Y118.458 E0.02231
G1 X107.288 Y117.776 E0.02245
G1 X107.207 Y117.101 E0.02130
G1 X107.216 Y93.008 E0.75544
G1 X107.289 Y92.273 E0.02316
G1 X107.505 Y91.565 E0.02322
G1 X107.850 Y90.923 E0.02284
G1 X108.290 Y90.389 E0.02169
G1 X108.580 Y90.629 F10800.000
G1 F1200.000
G1 X109.091 Y90.205 E0.02084
G1 X109.657 Y89.899 E0.02016
G1 X110.275 Y89.705 E0.02031
G1 X110.894 Y89.634 E0.01954
G1 X139.016 Y89.633 E0.88173
G1 X139.666 Y89.696 E0.02049
G1 X140.285 Y89.882 E0.02027
G1 X140.865 Y90.186 E0.02051
G1 X141.355 Y90.578 E0.01968
G1 X141.791 Y91.091 E0.02111
G1 X142.099 Y91.639 E0.01969
G1 X142.305 Y92.260 E0.02053
G1 X142.382 Y92.822 E0.01779
G1 X142.377 Y117.080 E0.76059
G1 X142.305 Y117.693 E0.01937
G1 X142.105 Y118.321 E0.02065
G1 X141.795 Y118.889 E0.02029
G1 X141.368 Y119.400 E0.02088
G1 X140.871 Y119.803 E0.02005
G1 X140.308 Y120.105 E0.02004
G1 X139.690 Y120.296 E0.02028
G1 X139.078 Y120.366 E0.01932
G1 X110.956 Y120.368 E0.88173
G1 X110.298 Y120.302 E0.02072
G1 X109.658 Y120.107 E0.02099
G1 X109.072 Y119.791 E0.02087
G1 X108.551 Y119.358 E0.02123
G1 X108.150 Y118.865 E0.01993
G1 X107.847 Y118.302 E0.02005
G1 X107.654 Y117.685 E0.02029
G1 X107.583 Y117.076 E0.01922
G1 X107.593 Y93.004 E0.75474
G1 X107.659 Y92.344 E0.02080
G1 X107.854 Y91.707 E0.02089
G1 X108.167 Y91.128 E0.02064
G1 X108.542 Y90.675 E0.01842
; printing object LightSensorAngled.stl id:0 copy 1
G1 F8640.000
G1 X109.091 Y90.205 E-0.16711
G1 X109.657 Y89.899 E-0.14846
G1 X110.275 Y89.705 E-0.14956
G1 X110.894 Y89.634 E-0.14387
G1 X111.548 Y89.634 E-0.15100
G1 E-0.04000 F2100.00000
G1 Z0.600 F10800.000
G1 X132.584 Y110.739
G1 Z0.200
G1 E0.80000 F2100.00000
G1 F1200.000
G1 X132.885 Y110.456 E0.01295
G1 X133.220 Y110.214 E0.01295
G1 X133.582 Y110.015 E0.01295
G1 X133.966 Y109.863 E0.01295
G1 X134.366 Y109.760 E0.01296
G1 X134.776 Y109.708 E0.01296
G1 X135.189 Y109.708 E0.01296
G1 X135.525 Y109.751 E0.01060
G1 X135.994 Y109.860 E0.01510
G1 X136.384 Y110.015 E0.01315
G1 X136.746 Y110.214 E0.01295
G1 X137.080 Y110.456 E0.01295
G1 X137.382 Y110.739 E0.01295
G1 X137.645 Y111.057 E0.01295
G1 X137.867 Y111.406 E0.01295
G1 X138.043 Y111.780 E0.01295
G1 X138.170 Y112.172 E0.01295
G1 X138.248 Y112.578 E0.01295
G1 X138.268 Y112.902 E0.01018
G1 X138.249 Y113.396 E0.01548
G1 X138.170 Y113.809 E0.01318
G1 X138.043 Y114.201 E0.01295
G1 X137.867 Y114.575 E0.01295
G1 X137.645 Y114.924 E0.01295
G1 X137.377 Y115.247 E0.01316
G1 X137.015 Y115.572 E0.01527
G1 X136.746 Y115.767 E0.01041
G1 X136.378 Y115.969 E0.01315
G1 X135.925 Y116.137 E0.01514
G1 X135.599 Y116.221 E0.01056
G1 X135.189 Y116.273 E0.01296
G1 X134.776 Y116.273 E0.01296
G1 X134.366 Y116.221 E0.01296
G1 X133.966 Y116.118 E0.01296
G1 X133.582 Y115.966 E0.01295
G1 X133.220 Y115.767 E0.01295
G1 X132.885 Y115.525 E0.01295
G1 X132.584 Y115.242 E0.01295
G1 X132.321 Y114.924 E0.01295
G1 X132.099 Y114.575 E0.01295
G1 X131.923 Y114.201 E0.01295
G1 X131.795 Y113.809 E0.01295
G1 X131.718 Y113.403 E0.01295
G1 X131.692 Y112.991 E0.01295
G1 X131.718 Y112.578 E0.01295
G1 X131.795 Y112.172 E0.01295
G1 X131.923 Y111.780 E0.01295
G1 X132.099 Y111.406 E0.01295
G1 X132.321 Y111.057 E0.01295
G1 X132.546 Y110.785 E0.01107
G1 X132.836 Y111.026 F10800.000
G1 F1200.000
G1 X133.126 Y110.748 E0.01260
G1 X133.422 Y110.533 E0.01147
G1 X133.743 Y110.357 E0.01147
G1 X134.083 Y110.222 E0.01147
G1 X134.437 Y110.131 E0.01147
G1 X134.800 Y110.085 E0.01147
G1 X135.166 Y110.085 E0.01147
G1 X135.458 Y110.122 E0.00924
G1 X135.881 Y110.221 E0.01361
G1 X136.223 Y110.357 E0.01154
G1 X136.544 Y110.533 E0.01147
G1 X136.840 Y110.748 E0.01147
G1 X137.106 Y110.998 E0.01147
G1 X137.340 Y111.279 E0.01147
G1 X137.536 Y111.588 E0.01146
G1 X137.691 Y111.919 E0.01146
G1 X137.804 Y112.267 E0.01146
G1 X137.873 Y112.626 E0.01146
G1 X137.891 Y112.907 E0.00884
G1 X137.873 Y113.353 E0.01399
G1 X137.804 Y113.714 E0.01154
G1 X137.691 Y114.062 E0.01146
G1 X137.536 Y114.393 E0.01146
G1 X137.340 Y114.702 E0.01146
G1 X137.105 Y114.985 E0.01154
G1 X136.777 Y115.279 E0.01379
G1 X136.544 Y115.448 E0.00906
G1 X136.221 Y115.625 E0.01154
G1 X135.813 Y115.777 E0.01365
G1 X135.529 Y115.850 E0.00920
G1 X135.166 Y115.896 E0.01147
G1 X134.800 Y115.896 E0.01147
G1 X134.437 Y115.850 E0.01147
G1 X134.083 Y115.759 E0.01147
G1 X133.743 Y115.624 E0.01147
G1 X133.422 Y115.448 E0.01147
G1 X133.126 Y115.233 E0.01147
G1 X132.859 Y114.983 E0.01147
G1 X132.626 Y114.702 E0.01147
G1 X132.430 Y114.393 E0.01146
G1 X132.274 Y114.062 E0.01146
G1 X132.161 Y113.714 E0.01146
G1 X132.093 Y113.355 E0.01146
G1 X132.070 Y112.991 E0.01146
G1 X132.093 Y112.626 E0.01146
G1 X132.161 Y112.267 E0.01146
G1 X132.274 Y111.919 E0.01146
G1 X132.430 Y111.588 E0.01146
G1 X132.626 Y111.279 E0.01146
G1 X132.798 Y111.072 E0.00845
G1 X132.717 Y110.644 F10800.000
G1 F8640.000
G1 X133.126 Y110.748 E-0.10653
G1 X133.422 Y110.533 E-0.08445
G1 X133.743 Y110.357 E-0.08445
G1 X134.083 Y110.222 E-0.08446
G1 X134.437 Y110.131 E-0.08446
G1 X134.800 Y110.085 E-0.08446
G1 X135.166 Y110.085 E-0.08446
G1 X135.458 Y110.122 E-0.06807
G1 X135.790 Y110.200 E-0.07866
G1 E-0.04000 F2100.00000
G1 Z0.600 F10800.000
G1 X139.067 Y108.797
G1 Z0.200
G1 E0.80000 F2100.00000
G1 F1200.000
G1 X139.161 Y108.875 E0.00382
G1 X139.200 Y109.029 E0.00500
G1 X139.200 Y116.952 E0.24841
G1 X139.161 Y117.106 E0.00500
G1 X139.104 Y117.164 E0.00256
G1 X139.028 Y117.196 E0.00257
G1 X110.999 Y117.203 E0.87883
G1 X110.843 Y117.164 E0.00503
G1 X110.785 Y117.106 E0.00256
G1 X110.754 Y117.031 E0.00255
G1 X110.746 Y109.029 E0.25090
G1 X110.785 Y108.875 E0.00500
G1 X110.843 Y108.817 E0.00256
G1 X110.919 Y108.785 E0.00257
G1 X112.540 Y108.778 E0.05083
G1 X112.540 Y110.772 E0.06255
G1 X112.250 Y111.132 E0.01448
G1 X112.039 Y111.485 E0.01289
G1 X111.858 Y111.903 E0.01430
G1 X111.747 Y112.301 E0.01295
G1 X111.686 Y112.707 E0.01287
G1 X111.676 Y113.115 E0.01282
G1 X111.711 Y113.481 E0.01152
G1 X111.808 Y113.924 E0.01421
G1 X111.951 Y114.312 E0.01296
G1 X112.139 Y114.677 E0.01288
G1 X112.370 Y115.014 E0.01283
G1 X112.612 Y115.289 E0.01149
G1 X112.951 Y115.592 E0.01423
G1 X113.293 Y115.823 E0.01297
G1 X113.660 Y116.009 E0.01288
G1 X114.045 Y116.148 E0.01284
G1 X114.400 Y116.229 E0.01144
G1 X114.853 Y116.277 E0.01428
G1 X115.267 Y116.265 E0.01298
G1 X115.673 Y116.202 E0.01288
G1 X116.066 Y116.089 E0.01284
G1 X116.400 Y115.948 E0.01136
G1 X116.797 Y115.721 E0.01433
G1 X117.126 Y115.469 E0.01298
G1 X117.418 Y115.181 E0.01288
G1 X117.672 Y114.859 E0.01284
G1 X117.858 Y114.551 E0.01129
G1 X118.049 Y114.134 E0.01438
G1 X118.169 Y113.737 E0.01299
G1 X118.237 Y113.333 E0.01287
G1 X118.254 Y112.922 E0.01287
G1 X118.220 Y112.513 E0.01287
G1 X118.135 Y112.112 E0.01287
G1 X118.001 Y111.724 E0.01287
G1 X117.818 Y111.353 E0.01294
G1 X117.575 Y110.990 E0.01370
G1 X117.293 Y110.672 E0.01334
G1 X117.293 Y108.778 E0.05938
G1 X139.009 Y108.784 E0.68089
G1 F8640.000
G1 X139.161 Y108.875 E-0.04098
G1 X139.200 Y109.029 E-0.03682
G1 X139.200 Y111.984 E-0.68221
G1 E-0.04000 F2100.00000
G1 Z0.600 F10800.000
G1 X116.916 Y108.401
G1 Z0.200
G1 E0.80000 F2100.00000
G1 F1200.000
G1 X138.966 Y108.401 E0.69138
G1 X139.212 Y108.447 E0.00784
G1 X139.314 Y108.502 E0.00362
G1 X139.476 Y108.664 E0.00720
G1 X139.564 Y108.876 E0.00719
G1 X139.578 Y109.011 E0.00425
G1 X139.578 Y116.970 E0.24957
G1 X139.531 Y117.215 E0.00782
G1 X139.403 Y117.406 E0.00720
G1 X139.314 Y117.479 E0.00362
G1 X139.102 Y117.567 E0.00721
G1 X138.966 Y117.581 E0.00426
G1 X110.980 Y117.581 E0.87749
G1 X110.845 Y117.567 E0.00426
G1 X110.633 Y117.479 E0.00721
G1 X110.543 Y117.406 E0.00362
G1 X110.416 Y117.215 E0.00720
G1 X110.369 Y116.970 E0.00782
G1 X110.369 Y109.011 E0.24957
G1 X110.382 Y108.876 E0.00425
G1 X110.470 Y108.664 E0.00719
G1 X110.633 Y108.502 E0.00720
G1 X110.845 Y108.414 E0.00721
G1 X112.917 Y108.401 E0.06497
G1 X112.917 Y110.927 E0.07921
G1 X112.768 Y111.079 E0.00668
G1 X112.562 Y111.345 E0.01054
G1 X112.375 Y111.657 E0.01140
G1 X112.215 Y112.029 E0.01273
G1 X112.116 Y112.380 E0.01142
G1 X112.062 Y112.739 E0.01139
G1 X112.053 Y113.102 E0.01137
G1 X112.084 Y113.422 E0.01009
G1 X112.171 Y113.818 E0.01269
G1 X112.297 Y114.160 E0.01143
G1 X112.463 Y114.483 E0.01140
G1 X112.668 Y114.782 E0.01138
G1 X112.880 Y115.023 E0.01007
G1 X113.183 Y115.294 E0.01272
G1 X113.485 Y115.498 E0.01143
G1 X113.809 Y115.662 E0.01140
G1 X114.151 Y115.785 E0.01139
G1 X114.463 Y115.857 E0.01002
G1 X114.867 Y115.899 E0.01277
G1 X115.232 Y115.889 E0.01144
G1 X115.591 Y115.833 E0.01140
G1 X115.941 Y115.732 E0.01139
G1 X116.233 Y115.609 E0.00995
G1 X116.588 Y115.406 E0.01283
G1 X116.878 Y115.184 E0.01144
G1 X117.137 Y114.929 E0.01140
G1 X117.361 Y114.644 E0.01139
G1 X117.525 Y114.374 E0.00988
G1 X117.696 Y114.001 E0.01288
G1 X117.801 Y113.652 E0.01144
G1 X117.861 Y113.293 E0.01139
G1 X117.876 Y112.930 E0.01139
G1 X117.846 Y112.568 E0.01139
G1 X117.771 Y112.213 E0.01139
G1 X117.652 Y111.869 E0.01139
G1 X117.491 Y111.543 E0.01142
G1 X117.274 Y111.219 E0.01221
G1 X117.056 Y110.966 E0.01047
G1 X116.916 Y110.837 E0.00597
G1 X116.916 Y108.461 E0.07452
G1 X117.266 Y108.594 F10800.000
G1 F8640.000
G1 X120.207 Y108.452 E-0.76000
G1 E-0.04000 F2100.00000
G1 Z0.600 F10800.000
G1 X112.427 Y109.278
G1 Z0.200
G1 E0.80000 F2100.00000
G1 F1200.000
G1 X112.209 Y109.060 E0.00968
G1 X111.674 Y109.060 E0.01685
G1 X112.257 Y109.644 E0.02596
G1 X112.257 Y110.179 E0.01685
G1 X111.139 Y109.060 E0.04979
G1 X111.029 Y109.060 E0.00345
G1 X111.029 Y109.486 E0.01340
G1 X112.238 Y110.696 E0.05385
G1 X112.002 Y110.995 E0.01200
G1 X111.029 Y110.021 E0.04333
G1 X111.029 Y110.557 E0.01685
G1 X111.802 Y111.330 E0.03441
G1 X111.638 Y111.701 E0.01278
G1 X111.029 Y111.092 E0.02710
G1 X111.029 Y111.628 E0.01685
G1 X111.507 Y112.106 E0.02131
G1 X111.422 Y112.556 E0.01442
G1 X111.029 Y112.163 E0.01751
G1 X111.029 Y112.698 E0.01685
G1 X111.394 Y113.064 E0.01626
G1 X111.431 Y113.525 E0.01458
G1 X111.462 Y113.667 E0.00457
G1 X111.029 Y113.234 E0.01928
G1 X111.029 Y113.769 E0.01685
G1 X111.697 Y114.438 E0.02976
G1 X111.896 Y114.822 E0.01362
G1 X112.147 Y115.188 E0.01397
G1 X112.411 Y115.489 E0.01261
G1 X112.776 Y115.815 E0.01542
G1 X113.149 Y116.068 E0.01417
G1 X113.511 Y116.251 E0.01275
G1 X114.173 Y116.914 E0.02950
G1 X114.709 Y116.914 E0.01686
G1 X114.289 Y116.494 E0.01870
G1 X114.889 Y116.559 E0.01901
G1 X115.244 Y116.914 E0.01581
G1 X115.780 Y116.914 E0.01686
G1 X115.397 Y116.531 E0.01707
G1 X115.847 Y116.446 E0.01443
G1 X116.316 Y116.914 E0.02086
G1 X116.851 Y116.914 E0.01686
G1 X116.253 Y116.317 E0.02661
G1 X116.620 Y116.148 E0.01270
G1 X117.387 Y116.915 E0.03413
G1 X117.922 Y116.915 E0.01686
G1 X116.960 Y115.953 E0.04282
G1 X117.263 Y115.720 E0.01202
G1 X118.458 Y116.915 E0.05317
G1 X118.993 Y116.915 E0.01686
G1 X117.538 Y115.460 E0.06478
G1 X117.785 Y115.172 E0.01195
G1 X119.529 Y116.915 E0.07761
G1 X120.064 Y116.915 E0.01686
G1 X118.004 Y114.856 E0.09170
G1 X118.190 Y114.506 E0.01246
G1 X120.600 Y116.915 E0.10727
G1 X121.135 Y116.916 E0.01686
G1 X118.347 Y114.127 E0.12414
G1 X118.461 Y113.706 E0.01374
G1 X121.671 Y116.916 E0.14291
G1 X122.206 Y116.916 E0.01686
G1 X118.524 Y113.233 E0.16394
G1 X118.537 Y112.916 E0.00999
G1 X118.518 Y112.693 E0.00707
G1 X122.742 Y116.916 E0.18802
G1 X123.277 Y116.916 E0.01686
G1 X118.411 Y112.050 E0.21665
G1 X118.262 Y111.614 E0.01448
G1 X118.063 Y111.211 E0.01414
G1 X117.972 Y111.076 E0.00515
G1 X123.813 Y116.916 E0.26002
G1 X124.349 Y116.917 E0.01686
G1 X117.576 Y110.144 E0.30150
G1 X117.576 Y109.609 E0.01685
G1 X124.884 Y116.917 E0.32534
G1 X125.420 Y116.917 E0.01686
G1 X117.576 Y109.060 E0.34946
G1 X118.099 Y109.061 E0.01646
G1 X125.955 Y116.917 E0.34974
G1 X126.491 Y116.917 E0.01686
G1 X118.634 Y109.061 E0.34974
G1 X119.170 Y109.061 E0.01686
G1 X127.026 Y116.917 E0.34974
G1 X127.562 Y116.917 E0.01686
G1 X119.706 Y109.061 E0.34974
G1 X120.241 Y109.061 E0.01686
G1 X128.097 Y116.918 E0.34973
G1 X128.633 Y116.918 E0.01686
G1 X120.777 Y109.062 E0.34973
G1 X121.312 Y109.062 E0.01686
G1 X129.168 Y116.918 E0.34973
G1 X129.704 Y116.918 E0.01686
G1 X121.848 Y109.062 E0.34973
G1 X122.383 Y109.062 E0.01686
G1 X130.239 Y116.918 E0.34973
G1 X130.775 Y116.918 E0.01686
G1 X122.919 Y109.062 E0.34972
G1 X123.455 Y109.063 E0.01686
G1 X131.310 Y116.918 E0.34972
G1 X131.846 Y116.919 E0.01686
G1 X123.990 Y109.063 E0.34972
G1 X124.526 Y109.063 E0.01686
G1 X132.382 Y116.919 E0.34972
G1 X132.917 Y116.919 E0.01686
G1 X125.061 Y109.063 E0.34972
G1 X125.597 Y109.063 E0.01686
G1 X133.622 Y117.089 E0.35727
G1 F8640.000
G1 X131.295 Y114.761 E-0.76000
G1 E-0.04000 F2100.00000
G1 Z0.600 F10800.000
G1 X139.084 Y112.378
G1 Z0.200
G1 E0.80000 F2100.00000
G1 F1200.000
G1 X138.239 Y111.534 E0.03761
G1 X138.306 Y111.675 E0.00493
G1 X138.445 Y112.102 E0.01412
G1 X138.486 Y112.315 E0.00683
G1 X138.914 Y112.744 E0.01908
G1 X138.914 Y113.279 E0.01684
G1 X138.551 Y112.916 E0.01615
G1 X138.530 Y113.431 E0.01623
G1 X138.913 Y113.813 E0.01703
G1 X138.912 Y114.348 E0.01684
G1 X138.444 Y113.880 E0.02084
G1 X138.313 Y114.284 E0.01337
G1 X138.912 Y114.883 E0.02666
G1 X138.911 Y115.418 E0.01684
G1 X138.144 Y114.650 E0.03417
G1 X137.942 Y114.984 E0.01227
G1 X138.911 Y115.953 E0.04314
G1 X138.910 Y116.488 E0.01684
G1 X137.711 Y115.288 E0.05341
G1 X137.582 Y115.444 E0.00636
G1 X137.450 Y115.562 E0.00559
G1 X138.808 Y116.921 E0.06047
G1 X138.272 Y116.920 E0.01686
G1 X137.165 Y115.813 E0.04931
G1 X136.850 Y116.033 E0.01210
G1 X137.737 Y116.920 E0.03950
G1 X137.201 Y116.920 E0.01686
G1 X136.504 Y116.223 E0.03104
G1 X136.115 Y116.369 E0.01309
G1 X136.666 Y116.920 E0.02454
G1 X136.130 Y116.920 E0.01686
G1 X135.698 Y116.488 E0.01924
G1 X135.228 Y116.553 E0.01494
G1 X135.595 Y116.920 E0.01633
