; generated by PrusaSlicer 2.2.0+win64 on 2022-02-17 at 16:42:11 UTC

; 

; external perimeters extrusion width = 0.45mm
; perimeters extrusion width = 0.45mm
; infill extrusion width = 0.45mm
; solid infill extrusion width = 0.45mm
; top infill extrusion width = 0.45mm
; first layer extrusion width = 0.42mm

M73 P0 R86
M201 X9000 Y9000 Z500 E10000 ; sets maximum accelerations, mm/sec^2
M203 X500 Y500 Z12 E120 ; sets maximum feedrates, mm/sec
M204 P2000 R1500 T2000 ; sets acceleration (P, T) and retract acceleration (R), mm/sec^2
M205 X10.00 Y10.00 Z0.20 E2.50 ; sets the jerk limits, mm/sec
M205 S0 T0 ; sets the minimum extruding and travel feed rate, mm/sec
M107
M862.3 P "MK2S" ; printer model check
M862.1 P0.4 ; nozzle diameter check
M115 U3.2.3 ; tell printer latest fw version
G90 ; use absolute coordinates
M83 ; extruder relative mode
M204 S2000 T1500 ; MK2 firmware only supports the old M204 format
M104 S215 ; set extruder temp
M140 S60 ; set bed temp
M190 S60 ; wait for bed temp
M109 S215 ; wait for extruder temp
G28 W ; home all without mesh bed level
G80 ; mesh bed leveling
G1 Y-3.0 F1000.0 ; go outside print area
G92 E0.0
G1 X60.0 E9.0  F1000.0 ; intro line
M73 P0 R86
G1 X100.0 E12.5 F1000.0 ; intro line
G92 E0.0
G21 ; set units to millimeters
G90 ; use absolute coordinates
M83 ; use relative distances for extrusion
M900 K0.05 ; Filament gcode LA 1.5
M900 K30 ; Filament gcode LA 1.0
;BEFORE_LAYER_CHANGE
G92 E0.0
;0.2


G1 E-0.80000 F2100.00000
G1 Z0.400 F10800.000
;AFTER_LAYER_CHANGE
;0.2
G1 X72.106 Y51.141
G1 Z0.200
G1 E0.80000 F2100.00000
M204 S1000
G1 F1200.000
G1 X72.578 Y50.592 E0.02270
G1 X73.044 Y50.227 E0.01858
G1 X73.614 Y49.930 E0.02016
G1 X74.227 Y49.745 E0.02007
G1 X74.866 Y49.680 E0.02013
G1 X175.090 Y49.680 E3.14245
G1 X175.744 Y49.745 E0.02061
G1 X176.374 Y49.935 E0.02063
G1 X176.955 Y50.244 E0.02063
G1 X177.462 Y50.657 E0.02052
G1 X177.887 Y51.170 E0.02088
G1 X178.197 Y51.742 E0.02041
G1 X178.393 Y52.371 E0.02065
G1 X178.464 Y53.007 E0.02006
G1 X178.464 Y156.966 E3.25956
G1 X178.394 Y157.627 E0.02085
G1 X178.188 Y158.280 E0.02148
G1 X177.863 Y158.866 E0.02100
G1 X177.395 Y159.407 E0.02243
G1 X176.924 Y159.776 E0.01874
G1 X176.354 Y160.073 E0.02016
G1 X175.745 Y160.255 E0.01992
G1 X175.117 Y160.320 E0.01980
G1 X110.409 Y160.273 E2.02889
G1 X109.625 Y160.043 E0.02561
G1 X73.533 Y144.056 E1.23768
G1 X72.957 Y143.734 E0.02068
G1 X72.422 Y143.272 E0.02218
G1 X72.051 Y142.798 E0.01885
G1 X71.754 Y142.228 E0.02017
G1 X71.572 Y141.619 E0.01994
G1 X71.508 Y140.986 E0.01994
G1 X71.508 Y53.053 E2.75706
G1 X71.575 Y52.384 E0.02109
G1 X71.781 Y51.727 E0.02160
G1 X72.076 Y51.194 E0.01911
; printing object LightSensorAngled.stl id:0 copy 17
G1 F8640.000
G1 X72.578 Y50.592 E-0.18073
G1 X73.044 Y50.227 E-0.13681
G1 X73.614 Y49.930 E-0.14845
G1 X74.227 Y49.745 E-0.14781
G1 X74.857 Y49.681 E-0.14621
G1 E-0.04000 F2100.00000
G1 Z0.600 F10800.000
G1 X167.777 Y57.057
G1 Z0.200
G1 E0.80000 F2100.00000
G1 F1200.000
G1 X167.803 Y56.645 E0.01295
G1 X167.880 Y56.239 E0.01295
G1 X168.008 Y55.846 E0.01295
G1 X168.184 Y55.473 E0.01295
G1 X168.406 Y55.124 E0.01295
G1 X168.669 Y54.806 E0.01295
G1 X168.971 Y54.523 E0.01295
G1 X169.305 Y54.280 E0.01295
G1 X169.667 Y54.082 E0.01295
G1 X170.051 Y53.930 E0.01295
G1 X170.451 Y53.827 E0.01296
G1 X170.861 Y53.775 E0.01296
G1 X171.275 Y53.775 E0.01296
G1 X171.610 Y53.817 E0.01060
G1 X172.079 Y53.927 E0.01510
G1 X172.469 Y54.082 E0.01315
G1 X172.831 Y54.280 E0.01295
G1 X173.166 Y54.523 E0.01295
G1 X173.467 Y54.806 E0.01295
G1 X173.730 Y55.124 E0.01295
G1 X173.952 Y55.473 E0.01295
G1 X174.128 Y55.846 E0.01295
G1 X174.256 Y56.239 E0.01295
G1 X174.333 Y56.645 E0.01295
G1 X174.354 Y56.969 E0.01018
G1 X174.334 Y57.463 E0.01548
G1 X174.256 Y57.875 E0.01318
G1 X174.128 Y58.268 E0.01295
G1 X173.952 Y58.642 E0.01295
G1 X173.730 Y58.991 E0.01295
G1 X173.463 Y59.314 E0.01316
G1 X173.100 Y59.639 E0.01527
G1 X172.831 Y59.834 E0.01041
G1 X172.463 Y60.036 E0.01315
G1 X172.011 Y60.204 E0.01514
G1 X171.685 Y60.288 E0.01056
G1 X171.275 Y60.339 E0.01296
G1 X170.861 Y60.339 E0.01296
G1 X170.451 Y60.288 E0.01296
G1 X170.051 Y60.185 E0.01296
G1 X169.667 Y60.033 E0.01295
G1 X169.305 Y59.834 E0.01295
G1 X168.971 Y59.591 E0.01295
G1 X168.669 Y59.309 E0.01295
G1 X168.406 Y58.991 E0.01295
G1 X168.184 Y58.642 E0.01295
G1 X168.008 Y58.268 E0.01295
G1 X167.880 Y57.875 E0.01295
G1 X167.803 Y57.470 E0.01295
G1 X167.781 Y57.117 E0.01107
G1 X168.157 Y57.093 F10800.000
G1 F1200.000
G1 X168.178 Y56.692 E0.01259
G1 X168.246 Y56.333 E0.01146
G1 X168.359 Y55.986 E0.01146
G1 X168.515 Y55.655 E0.01146
G1 X168.711 Y55.346 E0.01146
G1 X168.945 Y55.065 E0.01147
G1 X169.211 Y54.814 E0.01147
G1 X169.507 Y54.600 E0.01147
G1 X169.828 Y54.423 E0.01147
G1 X170.168 Y54.289 E0.01147
G1 X170.522 Y54.198 E0.01147
G1 X170.885 Y54.152 E0.01147
G1 X171.251 Y54.152 E0.01147
G1 X171.543 Y54.189 E0.00924
G1 X171.966 Y54.288 E0.01361
G1 X172.308 Y54.423 E0.01154
G1 X172.629 Y54.600 E0.01147
G1 X172.925 Y54.814 E0.01147
G1 X173.192 Y55.065 E0.01147
G1 X173.425 Y55.346 E0.01147
G1 X173.621 Y55.655 E0.01146
G1 X173.777 Y55.986 E0.01146
G1 X173.890 Y56.333 E0.01146
G1 X173.958 Y56.692 E0.01146
G1 X173.976 Y56.974 E0.00884
G1 X173.959 Y57.420 E0.01399
G1 X173.890 Y57.781 E0.01154
G1 X173.777 Y58.129 E0.01146
G1 X173.621 Y58.460 E0.01146
G1 X173.425 Y58.768 E0.01146
G1 X173.190 Y59.052 E0.01154
G1 X172.863 Y59.345 E0.01379
G1 X172.629 Y59.515 E0.00906
G1 X172.306 Y59.692 E0.01154
G1 X171.898 Y59.844 E0.01365
G1 X171.614 Y59.917 E0.00920
G1 X171.251 Y59.962 E0.01147
G1 X170.885 Y59.962 E0.01147
G1 X170.522 Y59.917 E0.01147
G1 X170.168 Y59.826 E0.01147
G1 X169.828 Y59.691 E0.01147
G1 X169.507 Y59.515 E0.01147
G1 X169.211 Y59.300 E0.01147
G1 X168.945 Y59.050 E0.01147
G1 X168.711 Y58.768 E0.01147
G1 X168.515 Y58.460 E0.01146
G1 X168.359 Y58.129 E0.01146
G1 X168.246 Y57.781 E0.01146
G1 X168.178 Y57.422 E0.01146
G1 X168.161 Y57.153 E0.00844
G1 X167.809 Y56.896 F10800.000
G1 F8640.000
G1 X168.178 Y56.692 E-0.10650
G1 X168.246 Y56.333 E-0.08442
G1 X168.359 Y55.986 E-0.08442
G1 X168.515 Y55.655 E-0.08442
G1 X168.711 Y55.346 E-0.08443
G1 X168.945 Y55.065 E-0.08444
G1 X169.211 Y54.814 E-0.08444
G1 X169.507 Y54.600 E-0.08445
G1 X169.744 Y54.469 E-0.06248
G1 E-0.04000 F2100.00000
G1 Z0.600 F10800.000
G1 X175.152 Y61.250
G1 Z0.200
G1 E0.80000 F2100.00000
G1 F1200.000
G1 X175.033 Y61.270 E0.00379
G1 X147.004 Y61.262 E0.87883
G1 X146.928 Y61.231 E0.00257
G1 X146.870 Y61.173 E0.00256
G1 X146.831 Y61.019 E0.00500
G1 X146.839 Y53.017 E0.25090
G1 X146.870 Y52.941 E0.00255
G1 X146.928 Y52.884 E0.00256
G1 X147.084 Y52.844 E0.00503
G1 X148.625 Y52.844 E0.04833
G1 X148.625 Y54.839 E0.06255
G1 X148.335 Y55.199 E0.01448
G1 X148.124 Y55.551 E0.01289
G1 X147.944 Y55.970 E0.01430
G1 X147.832 Y56.368 E0.01295
G1 X147.771 Y56.774 E0.01287
G1 X147.761 Y57.182 E0.01282
G1 X147.796 Y57.548 E0.01152
G1 X147.894 Y57.990 E0.01421
G1 X148.036 Y58.378 E0.01296
G1 X148.224 Y58.743 E0.01288
G1 X148.456 Y59.081 E0.01283
G1 X148.697 Y59.356 E0.01149
G1 X149.036 Y59.659 E0.01423
G1 X149.378 Y59.890 E0.01297
G1 X149.745 Y60.076 E0.01288
G1 X150.130 Y60.215 E0.01284
G1 X150.486 Y60.296 E0.01144
G1 X150.938 Y60.344 E0.01428
G1 X151.352 Y60.332 E0.01298
G1 X151.758 Y60.268 E0.01288
G1 X152.152 Y60.155 E0.01284
G1 X152.485 Y60.014 E0.01136
G1 X152.883 Y59.788 E0.01433
G1 X153.211 Y59.536 E0.01298
G1 X153.504 Y59.248 E0.01288
G1 X153.757 Y58.926 E0.01284
G1 X153.944 Y58.618 E0.01129
G1 X154.135 Y58.201 E0.01438
G1 X154.254 Y57.804 E0.01299
G1 X154.322 Y57.399 E0.01287
G1 X154.339 Y56.989 E0.01287
G1 X154.305 Y56.580 E0.01287
G1 X154.220 Y56.178 E0.01287
G1 X154.086 Y55.790 E0.01287
G1 X153.903 Y55.420 E0.01294
G1 X153.660 Y55.057 E0.01370
G1 X153.378 Y54.738 E0.01334
G1 X153.378 Y52.844 E0.05938
G1 X175.113 Y52.852 E0.68147
G1 X175.189 Y52.884 E0.00257
G1 X175.247 Y52.941 E0.00256
G1 X175.286 Y53.096 E0.00500
G1 X175.286 Y61.019 E0.24841
G1 X175.266 Y61.137 E0.00377
G1 X175.203 Y61.219 E0.00324
G1 X175.442 Y61.511 F10800.000
G1 F1200.000
G1 X175.297 Y61.601 E0.00535
G1 X175.052 Y61.647 E0.00784
G1 X147.065 Y61.647 E0.87749
G1 X146.930 Y61.634 E0.00426
G1 X146.718 Y61.546 E0.00721
G1 X146.555 Y61.384 E0.00720
G1 X146.468 Y61.172 E0.00719
G1 X146.454 Y61.037 E0.00425
G1 X146.454 Y53.077 E0.24957
G1 X146.468 Y52.943 E0.00425
G1 X146.555 Y52.731 E0.00719
G1 X146.629 Y52.642 E0.00362
G1 X146.820 Y52.514 E0.00720
G1 X146.930 Y52.481 E0.00362
G1 X149.002 Y52.467 E0.06497
G1 X149.002 Y54.994 E0.07921
G1 X148.853 Y55.145 E0.00668
G1 X148.647 Y55.412 E0.01054
G1 X148.461 Y55.724 E0.01140
G1 X148.300 Y56.096 E0.01273
G1 X148.201 Y56.447 E0.01142
G1 X148.147 Y56.806 E0.01139
G1 X148.139 Y57.169 E0.01137
G1 X148.169 Y57.489 E0.01009
G1 X148.256 Y57.884 E0.01269
G1 X148.382 Y58.227 E0.01143
G1 X148.548 Y58.550 E0.01140
G1 X148.754 Y58.849 E0.01138
G1 X148.966 Y59.090 E0.01007
G1 X149.268 Y59.360 E0.01272
G1 X149.570 Y59.565 E0.01143
G1 X149.894 Y59.729 E0.01140
G1 X150.236 Y59.852 E0.01139
G1 X150.548 Y59.923 E0.01002
G1 X150.953 Y59.966 E0.01277
G1 X151.317 Y59.955 E0.01144
G1 X151.677 Y59.899 E0.01140
G1 X152.026 Y59.799 E0.01139
G1 X152.318 Y59.676 E0.00995
G1 X152.674 Y59.473 E0.01283
G1 X152.963 Y59.251 E0.01144
G1 X153.222 Y58.996 E0.01140
G1 X153.446 Y58.710 E0.01139
G1 X153.610 Y58.441 E0.00988
G1 X153.781 Y58.068 E0.01288
G1 X153.886 Y57.718 E0.01144
G1 X153.946 Y57.360 E0.01139
G1 X153.961 Y56.997 E0.01139
G1 X153.931 Y56.635 E0.01139
G1 X153.856 Y56.279 E0.01139
G1 X153.737 Y55.936 E0.01139
G1 X153.576 Y55.609 E0.01142
G1 X153.359 Y55.286 E0.01221
G1 X153.141 Y55.033 E0.01047
G1 X153.001 Y54.904 E0.00597
G1 X153.001 Y52.467 E0.07640
G1 X175.052 Y52.467 E0.69138
G1 X175.187 Y52.481 E0.00426
G1 X175.399 Y52.568 E0.00721
G1 X175.562 Y52.731 E0.00720
G1 X175.650 Y52.943 E0.00719
G1 X175.663 Y53.077 E0.00425
G1 X175.663 Y61.037 E0.24957
G1 X175.616 Y61.282 E0.00782
G1 X175.489 Y61.473 E0.00718
G1 X175.279 Y61.460 F10800.000
G1 F8640.000
G1 X175.297 Y61.601 E-0.05316
G1 X175.052 Y61.647 E-0.05774
G1 X172.241 Y61.647 E-0.64910
G1 E-0.04000 F2100.00000
G1 Z0.600 F10800.000
G1 X175.169 Y56.445
G1 Z0.200
G1 E0.80000 F2100.00000
G1 F1200.000
G1 X174.325 Y55.600 E0.03761
G1 X174.391 Y55.742 E0.00493
G1 X174.530 Y56.169 E0.01412
G1 X174.571 Y56.382 E0.00683
G1 X174.999 Y56.810 E0.01908
G1 X174.999 Y57.345 E0.01684
G1 X174.636 Y56.983 E0.01615
G1 X174.616 Y57.498 E0.01623
G1 X174.998 Y57.880 E0.01703
G1 X174.998 Y58.415 E0.01684
G1 X174.530 Y57.947 E0.02084
G1 X174.398 Y58.351 E0.01337
G1 X174.997 Y58.950 E0.02666
G1 X174.997 Y59.485 E0.01684
G1 X174.229 Y58.717 E0.03417
G1 X174.027 Y59.051 E0.01227
G1 X174.996 Y60.020 E0.04314
G1 X174.996 Y60.554 E0.01684
G1 X173.796 Y59.355 E0.05341
G1 X173.667 Y59.510 E0.00636
G1 X173.535 Y59.629 E0.00559
G1 X174.893 Y60.987 E0.06047
G1 X174.358 Y60.987 E0.01686
G1 X173.250 Y59.880 E0.04931
G1 X172.935 Y60.100 E0.01210
G1 X173.822 Y60.987 E0.03950
G1 X173.287 Y60.987 E0.01686
G1 X172.589 Y60.290 E0.03104
G1 X172.200 Y60.436 E0.01309
G1 X172.751 Y60.987 E0.02454
G1 X172.215 Y60.987 E0.01686
G1 X171.783 Y60.554 E0.01924
G1 X171.313 Y60.620 E0.01494
G1 X171.680 Y60.986 E0.01633
G1 X171.144 Y60.986 E0.01686
G1 X170.771 Y60.613 E0.01662
G1 X170.398 Y60.566 E0.01183
G1 X170.116 Y60.494 E0.00917
G1 X170.609 Y60.986 E0.02192
G1 X170.073 Y60.986 E0.01686
G1 X162.218 Y53.130 E0.34971
G1 X162.753 Y53.131 E0.01686
G1 X167.624 Y58.001 E0.21684
G1 X167.522 Y57.505 E0.01595
G1 X167.512 Y57.354 E0.00476
G1 X163.289 Y53.131 E0.18802
G1 X163.824 Y53.131 E0.01686
G1 X167.509 Y56.815 E0.16402
G1 X167.522 Y56.609 E0.00650
G1 X167.573 Y56.344 E0.00852
G1 X164.360 Y53.131 E0.14302
G1 X164.896 Y53.131 E0.01686
G1 X167.686 Y55.922 E0.12423
G1 X167.745 Y55.742 E0.00596
G1 X167.840 Y55.540 E0.00702
G1 X165.431 Y53.132 E0.10723
G1 X165.967 Y53.132 E0.01686
G1 X168.027 Y55.192 E0.09173
G1 X168.245 Y54.875 E0.01212
G1 X166.502 Y53.132 E0.07758
G1 X167.038 Y53.132 E0.01686
G1 X168.491 Y54.585 E0.06469
G1 X168.767 Y54.326 E0.01192
G1 X167.573 Y53.132 E0.05314
G1 X168.109 Y53.132 E0.01686
G1 X169.075 Y54.098 E0.04299
G1 X169.411 Y53.899 E0.01231
G1 X168.645 Y53.133 E0.03413
G1 X169.180 Y53.133 E0.01686
G1 X169.780 Y53.733 E0.02670
G1 X169.964 Y53.660 E0.00622
G1 X170.186 Y53.603 E0.00721
G1 X169.716 Y53.133 E0.02092
G1 X170.251 Y53.133 E0.01686
G1 X170.637 Y53.518 E0.01715
G1 X170.844 Y53.492 E0.00657
G1 X171.146 Y53.492 E0.00951
G1 X170.787 Y53.133 E0.01598
G1 X171.322 Y53.134 E0.01686
G1 X171.748 Y53.559 E0.01895
G1 X172.164 Y53.657 E0.01343
G1 X172.523 Y53.799 E0.01216
G1 X171.858 Y53.134 E0.02960
G1 X172.394 Y53.134 E0.01686
G1 X175.000 Y55.741 E0.11604
G1 X175.001 Y55.206 E0.01684
G1 X172.929 Y53.134 E0.09222
G1 X173.465 Y53.134 E0.01686
G1 X175.001 Y54.671 E0.06841
G1 X175.002 Y54.136 E0.01684
G1 X174.000 Y53.135 E0.04459
G1 X174.536 Y53.135 E0.01686
G1 X175.172 Y53.771 E0.02831
G1 F8640.000
G1 X174.536 Y53.135 E-0.20769
G1 X174.000 Y53.135 E-0.12367
G1 X175.002 Y54.136 E-0.32705
G1 X175.001 Y54.576 E-0.10160
G1 E-0.04000 F2100.00000
G1 Z0.600 F10800.000
G1 X169.708 Y61.156
G1 Z0.200
G1 E0.80000 F2100.00000
G1 F1200.000
G1 X161.682 Y53.130 E0.35727
G1 X161.147 Y53.130 E0.01686
G1 X169.002 Y60.986 E0.34972
G1 X168.467 Y60.986 E0.01686
G1 X160.611 Y53.130 E0.34972
G1 X160.075 Y53.130 E0.01686
G1 X167.931 Y60.985 E0.34972
G1 X167.396 Y60.985 E0.01686
G1 X159.540 Y53.129 E0.34972
G1 X159.004 Y53.129 E0.01686
G1 X166.860 Y60.985 E0.34972
G1 X166.325 Y60.985 E0.01686
G1 X158.469 Y53.129 E0.34973
G1 X157.933 Y53.129 E0.01686
G1 X165.789 Y60.985 E0.34973
G1 X165.254 Y60.985 E0.01686
G1 X157.397 Y53.129 E0.34973
G1 X156.862 Y53.128 E0.01686
G1 X164.718 Y60.985 E0.34973
G1 X164.182 Y60.984 E0.01686
G1 X156.326 Y53.128 E0.34973
G1 X155.791 Y53.128 E0.01686
G1 X163.647 Y60.984 E0.34974
G1 X163.111 Y60.984 E0.01686
G1 X155.255 Y53.128 E0.34974
G1 X154.720 Y53.128 E0.01686
G1 X162.576 Y60.984 E0.34974
G1 X162.040 Y60.984 E0.01686
G1 X154.184 Y53.127 E0.34974
G1 X153.661 Y53.127 E0.01646
G1 X161.505 Y60.984 E0.34946
G1 X160.969 Y60.983 E0.01686
G1 X153.661 Y53.675 E0.32534
G1 X153.661 Y54.211 E0.01685
G1 X160.434 Y60.983 E0.30150
G1 X159.898 Y60.983 E0.01686
G1 X154.057 Y55.142 E0.26002
G1 X154.148 Y55.278 E0.00515
G1 X154.347 Y55.681 E0.01414
G1 X154.496 Y56.116 E0.01448
G1 X159.363 Y60.983 E0.21665
G1 X158.827 Y60.983 E0.01686
G1 X154.604 Y56.759 E0.18802
G1 X154.622 Y56.983 E0.00707
G1 X154.609 Y57.300 E0.00999
G1 X158.292 Y60.983 E0.16394
G1 X157.756 Y60.983 E0.01686
G1 X154.546 Y57.772 E0.14291
G1 X154.432 Y58.194 E0.01374
G1 X157.221 Y60.982 E0.12414
G1 X156.685 Y60.982 E0.01686
G1 X154.275 Y58.573 E0.10727
G1 X154.090 Y58.922 E0.01246
G1 X156.149 Y60.982 E0.09170
G1 X155.614 Y60.982 E0.01686
G1 X153.870 Y59.239 E0.07761
G1 X153.623 Y59.527 E0.01195
G1 X155.078 Y60.982 E0.06478
G1 X154.543 Y60.982 E0.01686
G1 X153.348 Y59.787 E0.05317
G1 X153.045 Y60.020 E0.01202
G1 X154.007 Y60.982 E0.04282
G1 X153.472 Y60.981 E0.01686
G1 X152.705 Y60.215 E0.03413
G1 X152.338 Y60.383 E0.01270
G1 X152.936 Y60.981 E0.02661
G1 X152.401 Y60.981 E0.01686
G1 X151.932 Y60.513 E0.02086
G1 X151.482 Y60.598 E0.01443
G1 X151.865 Y60.981 E0.01707
G1 X151.330 Y60.981 E0.01686
G1 X150.975 Y60.626 E0.01581
G1 X150.374 Y60.561 E0.01901
G1 X150.794 Y60.981 E0.01870
G1 X150.259 Y60.980 E0.01686
G1 X149.596 Y60.318 E0.02950
G1 X149.235 Y60.134 E0.01275
G1 X148.862 Y59.882 E0.01417
G1 X148.496 Y59.556 E0.01542
G1 X148.232 Y59.255 E0.01261
G1 X147.981 Y58.889 E0.01397
G1 X147.783 Y58.504 E0.01362
G1 X147.114 Y57.836 E0.02976
G1 X147.114 Y57.301 E0.01685
G1 X147.547 Y57.734 E0.01928
G1 X147.516 Y57.592 E0.00457
G1 X147.479 Y57.131 E0.01458
G1 X147.114 Y56.765 E0.01626
G1 X147.114 Y56.230 E0.01685
G1 X147.507 Y56.623 E0.01751
G1 X147.593 Y56.173 E0.01442
G1 X147.114 Y55.694 E0.02131
G1 X147.114 Y55.159 E0.01685
G1 X147.723 Y55.768 E0.02710
G1 X147.887 Y55.397 E0.01278
G1 X147.114 Y54.624 E0.03441
G1 X147.114 Y54.088 E0.01685
G1 X148.088 Y55.062 E0.04333
G1 X148.324 Y54.762 E0.01200
G1 X147.114 Y53.553 E0.05385
