; generated by PrusaSlicer 2.3.1+win64 on 2021-09-16 at 15:21:53 UTC

; 

; external perimeters extrusion width = 0.45mm
; perimeters extrusion width = 0.45mm
; infill extrusion width = 0.45mm
; solid infill extrusion width = 0.45mm
; top infill extrusion width = 0.40mm
; support material extrusion width = 0.35mm
; first layer extrusion width = 0.42mm

M73 P0 R86
M201 X9000 Y9000 Z500 E10000 ; sets maximum accelerations, mm/sec^2
M203 X500 Y500 Z12 E120 ; sets maximum feedrates, mm/sec
M204 P2000 R1500 T2000 ; sets acceleration (P, T) and retract acceleration (R), mm/sec^2
M205 X10.00 Y10.00 Z0.20 E2.50 ; sets the jerk limits, mm/sec
M205 S0 T0 ; sets the minimum extruding and travel feed rate, mm/sec
M107
;TYPE:Custom
M862.3 P "MK2S" ; printer model check
M862.1 P0.4 ; nozzle diameter check
M115 U3.2.3 ; tell printer latest fw version
G90 ; use absolute coordinates
M83 ; extruder relative mode
M204 S2000 T1500 ; MK2 firmware only supports the old M204 format
M104 S215 ; set extruder temp
M140 S60 ; set bed temp
M190 S60 ; wait for bed temp
M109 S215 ; wait for extruder temp
G28 W ; home all without mesh bed level
G80 ; mesh bed leveling
G1 Y-3.0 F1000.0 ; go outside print area
G92 E0.0
G1 X60.0 E9.0  F1000.0 ; intro line
G1 X100.0 E12.5 F1000.0 ; intro line
G92 E0.0
G21 ; set units to millimeters
G90 ; use absolute coordinates
M83 ; use relative distances for extrusion
M900 K0.05 ; Filament gcode LA 1.5
M900 K30 ; Filament gcode LA 1.0
;LAYER_CHANGE
;Z:0.2
;HEIGHT:0.2
;BEFORE_LAYER_CHANGE
G92 E0.0
;0.2


G1 E-0.80000 F2100.000
G1 Z0.600 F10800.000
;AFTER_LAYER_CHANGE
;0.2
G1 X83.521 Y72.167
G1 Z0.200
G1 E0.80000 F2100.000
M204 S1000
;TYPE:Support material
;WIDTH:0.42
G1 F1200.000
G1 X83.521 Y67.571 E0.14410
G1 X84.275 Y67.571 E0.02365
G1 X84.275 Y71.844 E0.13399
G1 X85.030 Y71.844 E0.02365
G1 X85.030 Y67.571 E0.13399
G1 X85.784 Y67.571 E0.02365
G1 X85.784 Y71.844 E0.13399
G1 X86.538 Y71.844 E0.02365
G1 X86.538 Y67.571 E0.13399
G1 X87.292 Y67.571 E0.02365
G1 X87.292 Y105.800 E1.19864
G1 X88.046 Y105.800 E0.02365
G1 X88.046 Y67.571 E1.19864
G1 X88.800 Y67.571 E0.02365
G1 X88.800 Y105.800 E1.19864
G1 X89.555 Y105.800 E0.02365
G1 X89.555 Y67.571 E1.19864
G1 X90.309 Y67.571 E0.02365
G1 X90.309 Y105.800 E1.19864
G1 X91.063 Y105.800 E0.02365
G1 X91.063 Y67.571 E1.19864
G1 X91.817 Y67.571 E0.02365
G1 X91.817 Y105.800 E1.19864
G1 X92.571 Y105.800 E0.02365
G1 X92.571 Y67.571 E1.19864
G1 X93.325 Y67.571 E0.02365
G1 X93.325 Y105.969 E1.20396
G1 X86.538 Y105.969 F10800.000
G1 F1200.000
G1 X86.538 Y101.526 E0.13931
G1 X85.784 Y101.526 E0.02365
G1 X85.784 Y105.800 E0.13399
G1 X85.030 Y105.800 E0.02365
G1 X85.030 Y101.526 E0.13399
G1 X84.275 Y101.526 E0.02365
G1 X84.275 Y105.800 E0.13399
G1 X83.521 Y105.800 E0.02365
G1 X83.521 Y101.204 E0.14410
G1 E-0.80000 F2100.000
G1 Z0.800 F10800.000
G1 X112.179 Y105.969
G1 Z0.200
G1 E0.80000 F2100.000
G1 F1200.000
G1 X112.179 Y92.948 E0.40826
G1 X111.425 Y92.948 E0.02365
G1 X111.425 Y105.800 E0.40294
G1 X110.671 Y105.800 E0.02365
G1 X110.671 Y92.948 E0.40294
G1 X109.917 Y92.948 E0.02365
G1 X109.917 Y105.800 E0.40294
G1 X109.163 Y105.800 E0.02365
G1 X109.163 Y92.948 E0.40294
G1 X108.409 Y92.948 E0.02365
G1 X108.409 Y105.800 E0.40294
G1 X107.654 Y105.800 E0.02365
G1 X107.654 Y92.948 E0.40294
G1 X106.900 Y92.948 E0.02365
G1 X106.900 Y105.800 E0.40294
G1 X106.146 Y105.800 E0.02365
G1 X106.146 Y92.948 E0.40294
G1 X105.392 Y92.948 E0.02365
G1 X105.392 Y105.800 E0.40294
G1 X104.638 Y105.800 E0.02365
G1 X104.638 Y92.948 E0.40294
G1 X103.884 Y92.948 E0.02365
G1 X103.884 Y105.800 E0.40294
G1 X103.129 Y105.800 E0.02365
G1 X103.129 Y92.948 E0.40294
G1 X102.375 Y92.948 E0.02365
G1 X102.375 Y105.800 E0.40294
G1 X101.621 Y105.800 E0.02365
G1 X101.621 Y92.948 E0.40294
G1 X100.867 Y92.948 E0.02365
G1 X100.867 Y105.800 E0.40294
G1 X100.113 Y105.800 E0.02365
G1 X100.113 Y92.948 E0.40294
G1 X99.359 Y92.948 E0.02365
G1 X99.359 Y105.800 E0.40294
G1 X98.604 Y105.800 E0.02365
G1 X98.604 Y92.948 E0.40294
G1 X97.850 Y92.948 E0.02365
G1 X97.850 Y105.800 E0.40294
G1 X97.096 Y105.800 E0.02365
G1 X97.096 Y92.948 E0.40294
G1 X96.342 Y92.948 E0.02365
G1 X96.342 Y105.800 E0.40294
G1 X95.588 Y105.800 E0.02365
G1 X95.588 Y92.948 E0.40294
G1 X94.834 Y92.948 E0.02365
G1 X94.834 Y105.800 E0.40294
G1 X94.079 Y105.800 E0.02365
G1 X94.079 Y92.948 E0.40294
G1 X93.359 Y92.948 E0.02260
G1 X93.359 Y80.422 E0.39277
G1 X94.079 Y80.422 E0.02260
G1 X94.079 Y67.571 E0.40294
G1 X94.834 Y67.571 E0.02365
G1 X94.834 Y80.422 E0.40294
G1 X95.588 Y80.422 E0.02365
G1 X95.588 Y67.571 E0.40294
M73 P0 R85
G1 X96.342 Y67.571 E0.02365
G1 X96.342 Y80.422 E0.40294
G1 X97.096 Y80.422 E0.02365
G1 X97.096 Y67.571 E0.40294
G1 X97.850 Y67.571 E0.02365
G1 X97.850 Y80.422 E0.40294
G1 X98.604 Y80.422 E0.02365
G1 X98.604 Y67.571 E0.40294
G1 X99.359 Y67.571 E0.02365
G1 X99.359 Y80.422 E0.40294
G1 X100.113 Y80.422 E0.02365
G1 X100.113 Y67.571 E0.40294
M73 P1 R85
G1 X100.867 Y67.571 E0.02365
G1 X100.867 Y80.422 E0.40294
G1 X101.621 Y80.422 E0.02365
G1 X101.621 Y67.571 E0.40294
G1 X102.375 Y67.571 E0.02365
G1 X102.375 Y80.422 E0.40294
G1 X103.129 Y80.422 E0.02365
G1 X103.129 Y67.571 E0.40294
G1 X103.884 Y67.571 E0.02365
G1 X103.884 Y80.422 E0.40294
G1 X104.638 Y80.422 E0.02365
G1 X104.638 Y67.571 E0.40294
G1 X105.392 Y67.571 E0.02365
G1 X105.392 Y80.422 E0.40294
G1 X106.146 Y80.422 E0.02365
G1 X106.146 Y67.571 E0.40294
G1 X106.900 Y67.571 E0.02365
G1 X106.900 Y80.422 E0.40294
G1 X107.654 Y80.422 E0.02365
G1 X107.654 Y67.571 E0.40294
G1 X108.409 Y67.571 E0.02365
G1 X108.409 Y80.422 E0.40294
G1 X109.163 Y80.422 E0.02365
G1 X109.163 Y67.571 E0.40294
G1 X109.917 Y67.571 E0.02365
G1 X109.917 Y80.422 E0.40294
G1 X110.671 Y80.422 E0.02365
G1 X110.671 Y67.571 E0.40294
G1 X111.425 Y67.571 E0.02365
G1 X111.425 Y80.422 E0.40294
G1 X112.179 Y80.422 E0.02365
G1 X112.179 Y67.571 E0.40294
G1 X112.933 Y67.571 E0.02365
G1 X112.933 Y105.800 E1.19864
G1 X113.688 Y105.800 E0.02365
G1 X113.688 Y67.571 E1.19864
G1 X114.442 Y67.571 E0.02365
G1 X114.442 Y105.800 E1.19864
G1 X115.196 Y105.800 E0.02365
G1 X115.196 Y67.571 E1.19864
G1 X115.950 Y67.571 E0.02365
G1 X115.950 Y105.800 E1.19864
G1 X116.704 Y105.800 E0.02365
G1 X116.704 Y67.571 E1.19864
G1 X117.458 Y67.571 E0.02365
G1 X117.458 Y105.800 E1.19864
G1 X118.213 Y105.800 E0.02365
G1 X118.213 Y67.571 E1.19864
G1 X118.967 Y67.571 E0.02365
G1 X118.967 Y105.800 E1.19864
G1 X119.721 Y105.800 E0.02365
G1 X119.721 Y67.571 E1.19864
G1 X120.475 Y67.571 E0.02365
G1 X120.475 Y105.969 E1.20396
G1 X128.771 Y105.969 F10800.000
G1 F1200.000
G1 X128.771 Y88.334 E0.55293
G1 X128.017 Y88.334 E0.02365
G1 X128.017 Y105.800 E0.54761
G1 X127.262 Y105.800 E0.02365
G1 X127.262 Y88.334 E0.54761
G1 X126.508 Y88.334 E0.02365
G1 X126.508 Y105.800 E0.54761
G1 X125.754 Y105.800 E0.02365
G1 X125.754 Y88.334 E0.54761
G1 X125.000 Y88.334 E0.02365
G1 X125.000 Y105.800 E0.54761
G1 X124.246 Y105.800 E0.02365
G1 X124.246 Y88.334 E0.54761
G1 X123.492 Y88.334 E0.02365
G1 X123.492 Y105.800 E0.54761
G1 X122.738 Y105.800 E0.02365
G1 X122.738 Y88.334 E0.54761
G1 X121.983 Y88.334 E0.02365
G1 X121.983 Y105.800 E0.54761
G1 X121.229 Y105.800 E0.02365
G1 X121.229 Y88.334 E0.54761
G1 X121.044 Y88.334 E0.00582
G1 X121.044 Y85.036 E0.10342
G1 X121.229 Y85.036 E0.00582
G1 X121.229 Y67.571 E0.54761
G1 X121.983 Y67.571 E0.02365
G1 X121.983 Y85.036 E0.54761
G1 X122.738 Y85.036 E0.02365
G1 X122.738 Y67.571 E0.54761
G1 X123.492 Y67.571 E0.02365
G1 X123.492 Y85.036 E0.54761
G1 X124.246 Y85.036 E0.02365
G1 X124.246 Y67.571 E0.54761
G1 X125.000 Y67.571 E0.02365
G1 X125.000 Y85.036 E0.54761
G1 X125.754 Y85.036 E0.02365
G1 X125.754 Y67.571 E0.54761
G1 X126.508 Y67.571 E0.02365
G1 X126.508 Y85.036 E0.54761
G1 X127.262 Y85.036 E0.02365
G1 X127.262 Y67.571 E0.54761
G1 X128.017 Y67.571 E0.02365
G1 X128.017 Y85.036 E0.54761
M73 P2 R85
G1 X128.771 Y85.036 E0.02365
G1 X128.771 Y67.571 E0.54761
G1 X129.525 Y67.571 E0.02365
G1 X129.525 Y105.800 E1.19864
G1 X130.279 Y105.800 E0.02365
G1 X130.279 Y67.571 E1.19864
M73 P2 R84
G1 X131.033 Y67.571 E0.02365
G1 X131.033 Y105.800 E1.19864
G1 X131.787 Y105.800 E0.02365
G1 X131.787 Y67.571 E1.19864
G1 X132.542 Y67.571 E0.02365
G1 X132.542 Y105.800 E1.19864
G1 X133.296 Y105.800 E0.02365
G1 X133.296 Y67.571 E1.19864
G1 X134.050 Y67.571 E0.02365
G1 X134.050 Y105.800 E1.19864
G1 X134.804 Y105.800 E0.02365
G1 X134.804 Y67.571 E1.19864
G1 X135.558 Y67.571 E0.02365
G1 X135.558 Y105.800 E1.19864
G1 X136.312 Y105.800 E0.02365
G1 X136.312 Y67.571 E1.19864
G1 X137.067 Y67.571 E0.02365
G1 X137.067 Y105.969 E1.20396
G1 X163.462 Y101.356 F10800.000
G1 F1200.000
G1 X163.462 Y105.800 E0.13931
G1 X164.216 Y105.800 E0.02365
G1 X164.216 Y101.526 E0.13399
G1 X164.970 Y101.526 E0.02365
G1 X164.970 Y105.800 E0.13399
G1 X165.725 Y105.800 E0.02365
G1 X165.725 Y101.526 E0.13399
G1 X166.396 Y101.526 E0.02106
G1 X166.479 Y101.444 E0.00365
G1 X166.479 Y105.969 E0.14190
G1 E-0.80000 F2100.000
G1 Z0.800 F10800.000
G1 X166.479 Y72.167
G1 Z0.200
G1 E0.80000 F2100.000
G1 F1200.000
G1 X166.479 Y67.571 E0.14410
G1 X165.725 Y67.571 E0.02365
G1 X165.725 Y71.844 E0.13399
G1 X164.970 Y71.844 E0.02365
G1 X164.970 Y67.571 E0.13399
G1 X164.216 Y67.571 E0.02365
G1 X164.216 Y71.844 E0.13399
G1 X163.462 Y71.844 E0.02365
G1 X163.462 Y67.571 E0.13399
G1 X162.708 Y67.571 E0.02365
G1 X162.708 Y105.800 E1.19864
G1 X161.954 Y105.800 E0.02365
G1 X161.954 Y67.571 E1.19864
G1 X161.200 Y67.571 E0.02365
G1 X161.200 Y105.800 E1.19864
G1 X160.445 Y105.800 E0.02365
G1 X160.445 Y67.571 E1.19864
G1 X159.691 Y67.571 E0.02365
G1 X159.691 Y105.800 E1.19864
G1 X158.937 Y105.800 E0.02365
G1 X158.937 Y67.571 E1.19864
G1 X158.183 Y67.571 E0.02365
G1 X158.183 Y105.800 E1.19864
G1 X157.429 Y105.800 E0.02365
G1 X157.429 Y67.571 E1.19864
G1 X156.675 Y67.571 E0.02365
G1 X156.675 Y105.800 E1.19864
G1 X155.921 Y105.800 E0.02365
G1 X155.921 Y92.948 E0.40294
G1 X155.166 Y92.948 E0.02365
G1 X155.166 Y105.800 E0.40294
G1 X154.412 Y105.800 E0.02365
G1 X154.412 Y92.948 E0.40294
G1 X153.658 Y92.948 E0.02365
G1 X153.658 Y105.800 E0.40294
G1 X152.904 Y105.800 E0.02365
G1 X152.904 Y92.948 E0.40294
G1 X152.150 Y92.948 E0.02365
G1 X152.150 Y105.800 E0.40294
G1 X151.396 Y105.800 E0.02365
G1 X151.396 Y92.948 E0.40294
G1 X150.641 Y92.948 E0.02365
G1 X150.641 Y105.800 E0.40294
G1 X149.887 Y105.800 E0.02365
G1 X149.887 Y92.948 E0.40294
G1 X149.133 Y92.948 E0.02365
G1 X149.133 Y105.800 E0.40294
G1 X148.379 Y105.800 E0.02365
G1 X148.379 Y92.948 E0.40294
M73 P3 R84
G1 X147.625 Y92.948 E0.02365
G1 X147.625 Y105.800 E0.40294
G1 X146.871 Y105.800 E0.02365
G1 X146.871 Y92.948 E0.40294
G1 X146.116 Y92.948 E0.02365
G1 X146.116 Y105.800 E0.40294
G1 X145.362 Y105.800 E0.02365
G1 X145.362 Y92.948 E0.40294
G1 X144.608 Y92.948 E0.02365
G1 X144.608 Y105.800 E0.40294
G1 X143.854 Y105.800 E0.02365
G1 X143.854 Y92.948 E0.40294
G1 X143.100 Y92.948 E0.02365
G1 X143.100 Y105.800 E0.40294
G1 X142.346 Y105.800 E0.02365
G1 X142.346 Y92.948 E0.40294
G1 X141.591 Y92.948 E0.02365
G1 X141.591 Y105.800 E0.40294
G1 X140.837 Y105.800 E0.02365
G1 X140.837 Y92.948 E0.40294
G1 X140.083 Y92.948 E0.02365
G1 X140.083 Y105.800 E0.40294
G1 X139.329 Y105.800 E0.02365
G1 X139.329 Y92.948 E0.40294
G1 X138.575 Y92.948 E0.02365
G1 X138.575 Y105.800 E0.40294
G1 X137.821 Y105.800 E0.02365
G1 X137.821 Y92.948 E0.40294
G1 X137.193 Y92.948 E0.01967
G1 X137.193 Y80.422 E0.39277
G1 X137.821 Y80.422 E0.01967
G1 X137.821 Y67.571 E0.40294
G1 X138.575 Y67.571 E0.02365
G1 X138.575 Y80.422 E0.40294
G1 X139.329 Y80.422 E0.02365
G1 X139.329 Y67.571 E0.40294
M73 P3 R83
G1 X140.083 Y67.571 E0.02365
G1 X140.083 Y80.422 E0.40294
G1 X140.837 Y80.422 E0.02365
G1 X140.837 Y67.571 E0.40294
G1 X141.591 Y67.571 E0.02365
G1 X141.591 Y80.422 E0.40294
G1 X142.346 Y80.422 E0.02365
G1 X142.346 Y67.571 E0.40294
G1 X143.100 Y67.571 E0.02365
G1 X143.100 Y80.422 E0.40294
G1 X143.854 Y80.422 E0.02365
G1 X143.854 Y67.571 E0.40294
G1 X144.608 Y67.571 E0.02365
G1 X144.608 Y80.422 E0.40294
G1 X145.362 Y80.422 E0.02365
G1 X145.362 Y67.571 E0.40294
G1 X146.116 Y67.571 E0.02365
G1 X146.116 Y80.422 E0.40294
G1 X146.871 Y80.422 E0.02365
G1 X146.871 Y67.571 E0.40294
G1 X147.625 Y67.571 E0.02365
G1 X147.625 Y80.422 E0.40294
G1 X148.379 Y80.422 E0.02365
G1 X148.379 Y67.571 E0.40294
G1 X149.133 Y67.571 E0.02365
G1 X149.133 Y80.422 E0.40294
G1 X149.887 Y80.422 E0.02365
G1 X149.887 Y67.571 E0.40294
G1 X150.641 Y67.571 E0.02365
G1 X150.641 Y80.422 E0.40294
G1 X151.396 Y80.422 E0.02365
G1 X151.396 Y67.571 E0.40294
G1 X152.150 Y67.571 E0.02365
G1 X152.150 Y80.422 E0.40294
G1 X152.904 Y80.422 E0.02365
G1 X152.904 Y67.571 E0.40294
G1 X153.658 Y67.571 E0.02365
G1 X153.658 Y80.422 E0.40294
G1 X154.412 Y80.422 E0.02365
G1 X154.412 Y67.571 E0.40294
G1 X155.166 Y67.571 E0.02365
G1 X155.166 Y80.422 E0.40294
G1 X155.921 Y80.422 E0.02365
G1 X155.921 Y67.401 E0.40826
G1 E-0.80000 F2100.000
G1 Z0.800 F10800.000
G1 X163.749 Y100.413
G1 Z0.200
G1 E0.80000 F2100.000
;TYPE:Perimeter
G1 F1200.000
G1 X163.749 Y72.957 E0.86085
G1 X165.591 Y72.957 E0.05776
G1 X165.591 Y100.413 E0.86085
G1 X163.809 Y100.413 E0.05588
G1 X163.372 Y100.790 F10800.000
;TYPE:External perimeter
G1 F1200.000
G1 X163.372 Y72.580 E0.88450
G1 X165.968 Y72.580 E0.08140
G1 X165.968 Y100.790 E0.88450
G1 X163.432 Y100.790 E0.07952
G1 X163.384 Y100.390 F10800.000
G1 E-0.80000 F2100.000
G1 Z0.800 F10800.000
G1 X165.478 Y73.836
G1 Z0.200
G1 E0.80000 F2100.000
;TYPE:Solid infill
;WIDTH:0.421624
G1 F1200.000
G1 X164.882 Y73.240 E0.02654
G1 X164.347 Y73.240 E0.01686
G1 X165.309 Y74.202 E0.04284
G1 X165.309 Y74.738 E0.01686
G1 X164.032 Y73.461 E0.05685
G1 X164.032 Y73.997 E0.01686
G1 X165.309 Y75.273 E0.05685
G1 X165.309 Y75.809 E0.01686
G1 X164.032 Y74.532 E0.05685
G1 X164.032 Y75.068 E0.01686
G1 X165.309 Y76.344 E0.05685
G1 X165.309 Y76.880 E0.01686
G1 X164.032 Y75.603 E0.05685
G1 X164.032 Y76.139 E0.01686
G1 X165.309 Y77.415 E0.05685
G1 X165.309 Y77.951 E0.01686
G1 X164.032 Y76.674 E0.05685
G1 X164.032 Y77.210 E0.01686
G1 X165.309 Y78.487 E0.05685
G1 X165.309 Y79.022 E0.01686
G1 X164.032 Y77.746 E0.05685
G1 X164.032 Y78.281 E0.01686
G1 X165.309 Y79.558 E0.05685
G1 X165.309 Y80.093 E0.01686
G1 X164.032 Y78.817 E0.05685
G1 X164.032 Y79.352 E0.01686
G1 X165.309 Y80.629 E0.05685
G1 X165.309 Y81.164 E0.01686
G1 X164.032 Y79.888 E0.05685
G1 X164.032 Y80.423 E0.01686
G1 X165.309 Y81.700 E0.05685
G1 X165.309 Y82.236 E0.01686
G1 X164.032 Y80.959 E0.05685
G1 X164.032 Y81.495 E0.01686
G1 X165.309 Y82.771 E0.05685
G1 X165.309 Y83.307 E0.01686
G1 X164.032 Y82.030 E0.05685
G1 X164.032 Y82.566 E0.01686
G1 X165.309 Y83.842 E0.05685
G1 X165.309 Y84.378 E0.01686
G1 X164.032 Y83.101 E0.05685
G1 X164.032 Y83.637 E0.01686
G1 X165.309 Y84.913 E0.05685
G1 X165.309 Y85.449 E0.01686
G1 X164.032 Y84.172 E0.05685
G1 X164.032 Y84.708 E0.01686
G1 X165.309 Y85.985 E0.05685
G1 X165.309 Y86.520 E0.01686
G1 X164.032 Y85.244 E0.05685
G1 X164.032 Y85.779 E0.01686
G1 X165.309 Y87.056 E0.05685
G1 X165.309 Y87.591 E0.01686
G1 X164.032 Y86.315 E0.05685
G1 X164.032 Y86.850 E0.01686
G1 X165.309 Y88.127 E0.05685
G1 X165.309 Y88.662 E0.01686
G1 X164.032 Y87.386 E0.05685
G1 X164.032 Y87.921 E0.01686
G1 X165.309 Y89.198 E0.05685
G1 X165.309 Y89.733 E0.01686
G1 X164.032 Y88.457 E0.05685
G1 X164.032 Y88.992 E0.01686
G1 X165.309 Y90.269 E0.05685
G1 X165.309 Y90.805 E0.01686
G1 X164.032 Y89.528 E0.05685
G1 X164.032 Y90.064 E0.01686
G1 X165.309 Y91.340 E0.05685
G1 X165.309 Y91.876 E0.01686
G1 X164.032 Y90.599 E0.05685
G1 X164.032 Y91.135 E0.01686
G1 X165.309 Y92.411 E0.05685
G1 X165.309 Y92.947 E0.01686
G1 X164.032 Y91.670 E0.05685
G1 X164.032 Y92.206 E0.01686
G1 X165.309 Y93.482 E0.05685
G1 X165.309 Y94.018 E0.01686
G1 X164.032 Y92.741 E0.05685
G1 X164.032 Y93.277 E0.01686
G1 X165.309 Y94.554 E0.05685
G1 X165.309 Y95.089 E0.01686
G1 X164.032 Y93.813 E0.05685
G1 X164.032 Y94.348 E0.01686
G1 X165.309 Y95.625 E0.05685
G1 X165.309 Y96.160 E0.01686
G1 X164.032 Y94.884 E0.05685
G1 X164.032 Y95.419 E0.01686
G1 X165.309 Y96.696 E0.05685
G1 X165.309 Y97.231 E0.01686
G1 X164.032 Y95.955 E0.05685
G1 X164.032 Y96.490 E0.01686
