; generated by PrusaSlicer 2.3.1+win64 on 2021-09-10 at 14:56:30 UTC

; 

; external perimeters extrusion width = 0.45mm
; perimeters extrusion width = 0.45mm
; infill extrusion width = 0.45mm
; solid infill extrusion width = 0.45mm
; top infill extrusion width = 0.40mm
; support material extrusion width = 0.35mm
; first layer extrusion width = 0.42mm

M73 P0 R42
M201 X9000 Y9000 Z500 E10000 ; sets maximum accelerations, mm/sec^2
M203 X500 Y500 Z12 E120 ; sets maximum feedrates, mm/sec
M204 P2000 R1500 T2000 ; sets acceleration (P, T) and retract acceleration (R), mm/sec^2
M205 X10.00 Y10.00 Z0.20 E2.50 ; sets the jerk limits, mm/sec
M205 S0 T0 ; sets the minimum extruding and travel feed rate, mm/sec
M107
;TYPE:Custom
M862.3 P "MK2S" ; printer model check
M862.1 P0.4 ; nozzle diameter check
M115 U3.2.3 ; tell printer latest fw version
G90 ; use absolute coordinates
M83 ; extruder relative mode
M204 S2000 T1500 ; MK2 firmware only supports the old M204 format
M104 S215 ; set extruder temp
M140 S60 ; set bed temp
M190 S60 ; wait for bed temp
M109 S215 ; wait for extruder temp
G28 W ; home all without mesh bed level
G80 ; mesh bed leveling
G1 Y-3.0 F1000.0 ; go outside print area
G92 E0.0
G1 X60.0 E9.0  F1000.0 ; intro line
M73 P0 R41
G1 X100.0 E12.5 F1000.0 ; intro line
G92 E0.0
G21 ; set units to millimeters
G90 ; use absolute coordinates
M83 ; use relative distances for extrusion
M900 K0.05 ; Filament gcode LA 1.5
M900 K30 ; Filament gcode LA 1.0
;LAYER_CHANGE
;Z:0.2
;HEIGHT:0.2
;BEFORE_LAYER_CHANGE
G92 E0.0
;0.2


G1 E-0.80000 F2100.000
G1 Z0.600 F10800.000
;AFTER_LAYER_CHANGE
;0.2
G1 X93.327 Y90.811
G1 Z0.200
G1 E0.80000 F2100.000
M204 S1000
;TYPE:Support material
;WIDTH:0.42
G1 F1200.000
G1 X99.272 Y84.867 E0.26358
G1 X99.805 Y85.400 E0.02365
G1 X93.981 Y91.225 E0.25826
G1 X94.514 Y91.758 E0.02365
G1 X100.338 Y85.933 E0.25826
G1 X100.530 Y86.125 E0.00849
G1 X102.161 Y84.493 E0.07234
G1 X102.503 Y84.835 E0.01516
G1 X93.416 Y93.922 E0.40294
G1 X93.949 Y94.456 E0.02365
G1 X103.036 Y85.369 E0.40294
G1 X103.570 Y85.902 E0.02365
G1 X94.482 Y94.989 E0.40294
G1 X94.705 Y95.212 E0.00988
G1 X93.074 Y96.843 E0.07234
G1 X93.384 Y97.154 E0.01376
G1 X105.734 Y84.804 E0.54761
G1 X106.267 Y85.337 E0.02365
G1 X93.918 Y97.687 E0.54761
G1 X94.451 Y98.220 E0.02365
G1 X106.801 Y85.870 E0.54761
G1 X107.055 Y86.125 E0.01128
G1 X108.686 Y84.493 E0.07234
G1 X108.965 Y84.772 E0.01236
G1 X93.353 Y100.385 E0.69228
G1 X93.886 Y100.918 E0.02365
G1 X109.499 Y85.306 E0.69228
G1 X110.032 Y85.839 E0.02365
G1 X94.419 Y101.451 E0.69228
G1 X94.705 Y101.737 E0.01268
G1 X93.074 Y103.369 E0.07234
G1 X93.321 Y103.616 E0.01097
G1 X112.196 Y84.741 E0.83696
G1 X112.730 Y85.274 E0.02365
G1 X93.855 Y104.149 E0.83696
G1 X94.388 Y104.682 E0.02365
G1 X113.263 Y85.807 E0.83696
G1 X113.796 Y86.341 E0.02365
G1 X93.290 Y106.847 E0.90929
G1 X93.823 Y107.380 E0.02365
G1 X114.330 Y86.874 E0.90929
G1 X114.863 Y87.407 E0.02365
G1 X94.236 Y108.034 E0.91462
M73 P1 R41
G1 E-0.80000 F2100.000
G1 Z0.800 F10800.000
G1 X119.686 Y97.515
G1 Z0.200
G1 E0.80000 F2100.000
G1 F1200.000
G1 X125.591 Y91.610 E0.26185
G1 X125.058 Y91.077 E0.02365
G1 X119.856 Y96.279 E0.23068
G1 X119.856 Y95.213 E0.03344
G1 X124.525 Y90.544 E0.20703
G1 X123.992 Y90.010 E0.02365
G1 X119.856 Y94.146 E0.18338
G1 X119.856 Y94.086 E0.00187
G1 X119.548 Y93.778 E0.01366
G1 X119.157 Y93.778 E0.01224
G1 X123.458 Y89.477 E0.19072
G1 X122.925 Y88.944 E0.02365
G1 X118.091 Y93.778 E0.21436
G1 X117.024 Y93.778 E0.03344
G1 X122.392 Y88.411 E0.23801
G1 X121.858 Y87.877 E0.02365
G1 X115.958 Y93.778 E0.26166
G1 X114.891 Y93.778 E0.03344
G1 X121.325 Y87.344 E0.28530
G1 X120.792 Y86.811 E0.02365
G1 X113.824 Y93.778 E0.30895
G1 X112.758 Y93.778 E0.03344
G1 X120.259 Y86.277 E0.33259
G1 X120.106 Y86.125 E0.00677
G1 X118.475 Y87.756 E0.07234
G1 X118.094 Y87.376 E0.01688
G1 X111.691 Y93.778 E0.28390
G1 X110.625 Y93.778 E0.03344
G1 X117.561 Y86.842 E0.30755
G1 X117.027 Y86.309 E0.02365
G1 X109.558 Y93.778 E0.33120
G1 X108.817 Y93.778 E0.02324
G1 X108.509 Y94.086 E0.01366
G1 X108.509 Y94.828 E0.02324
G1 X93.258 Y110.078 E0.67624
G1 X93.791 Y110.612 E0.02365
G1 X108.509 Y95.894 E0.65259
G1 X108.509 Y96.320 E0.01335
G1 X106.354 Y98.475 E0.09554
G1 X106.675 Y98.795 E0.01421
G1 X94.325 Y111.145 E0.54761
G1 X94.705 Y111.525 E0.01688
G1 X93.074 Y113.157 E0.07234
G1 X93.227 Y113.309 E0.00677
G1 X107.208 Y99.328 E0.61995
G1 X107.741 Y99.862 E0.02365
G1 X93.760 Y113.843 E0.61995
G1 X94.293 Y114.376 E0.02365
G1 X106.643 Y102.026 E0.54761
G1 X107.176 Y102.559 E0.02365
G1 X93.195 Y116.541 E0.61995
G1 X93.728 Y117.074 E0.02365
G1 X107.710 Y103.093 E0.61995
G1 X107.985 Y103.369 E0.01224
G1 X106.354 Y105.000 E0.07234
G1 X106.611 Y105.257 E0.01141
G1 X94.262 Y117.607 E0.54761
G1 X94.705 Y118.051 E0.01967
G1 X93.074 Y119.682 E0.07234
G1 X93.164 Y119.772 E0.00397
G1 X107.145 Y105.791 E0.61995
G1 X107.678 Y106.324 E0.02365
G1 X93.697 Y120.305 E0.61995
G1 X94.230 Y120.838 E0.02365
G1 X106.580 Y108.488 E0.54761
G1 X107.113 Y109.022 E0.02365
G1 X94.763 Y121.372 E0.54761
G1 X95.297 Y121.905 E0.02365
G1 X107.646 Y109.555 E0.54761
G1 X107.985 Y109.894 E0.01503
G1 X106.354 Y111.525 E0.07234
G1 X106.548 Y111.720 E0.00861
G1 X95.830 Y122.438 E0.47527
G1 X96.363 Y122.971 E0.02365
G1 X107.082 Y112.253 E0.47527
G1 X107.615 Y112.786 E0.02365
G1 X96.896 Y123.505 E0.47527
G1 X97.430 Y124.038 E0.02365
G1 X108.148 Y113.319 E0.47527
M73 P2 R41
G1 X108.509 Y113.680 E0.01599
G1 X108.509 Y114.025 E0.01083
G1 X97.963 Y124.571 E0.46762
G1 X98.496 Y125.104 E0.02365
G1 X108.509 Y115.092 E0.44397
G1 X108.509 Y115.914 E0.02577
G1 X108.631 Y116.036 E0.00543
G1 X100.661 Y124.006 E0.35342
G1 X101.194 Y124.540 E0.02365
G1 X109.512 Y116.222 E0.36883
G1 X110.579 Y116.222 E0.03344
G1 X101.727 Y125.073 E0.39247
G1 X102.161 Y125.507 E0.01923
G1 X103.792 Y123.875 E0.07234
G1 X103.892 Y123.975 E0.00442
G1 X111.645 Y116.222 E0.34378
G1 X112.712 Y116.222 E0.03344
G1 X104.425 Y124.508 E0.36743
G1 X104.959 Y125.041 E0.02365
G1 X113.778 Y116.222 E0.39107
G1 X114.845 Y116.222 E0.03344
G1 X107.123 Y123.943 E0.34238
G1 X107.657 Y124.477 E0.02365
G1 X115.911 Y116.222 E0.36603
G1 X116.978 Y116.222 E0.03344
G1 X108.190 Y125.010 E0.38967
G1 X108.686 Y125.507 E0.02202
G1 X110.318 Y123.875 E0.07234
G1 X110.354 Y123.912 E0.00162
G1 X118.044 Y116.222 E0.34098
G1 X119.111 Y116.222 E0.03344
G1 X110.888 Y124.445 E0.36463
G1 X111.421 Y124.978 E0.02365
G1 X122.139 Y114.260 E0.47527
G1 X122.673 Y114.793 E0.02365
G1 X115.217 Y122.249 E0.33060
G1 X115.750 Y122.782 E0.02365
G1 X123.206 Y115.326 E0.33060
G1 X123.739 Y115.860 E0.02365
G1 X116.283 Y123.315 E0.33060
G1 X116.817 Y123.849 E0.02365
G1 X124.272 Y116.393 E0.33060
G1 X124.806 Y116.926 E0.02365
G1 X118.981 Y122.751 E0.25826
G1 X119.515 Y123.284 E0.02365
G1 X125.339 Y117.459 E0.25826
G1 X125.872 Y117.993 E0.02365
G1 X119.928 Y123.937 E0.26358
M73 P2 R40
G1 X119.686 Y115.647 F10800.000
G1 F1200.000
G1 X121.606 Y113.727 E0.08513
G1 X121.073 Y113.193 E0.02365
G1 X119.856 Y114.410 E0.05396
G1 X119.856 Y113.344 E0.03344
G1 X120.540 Y112.660 E0.03032
G1 X120.006 Y112.127 E0.02365
G1 X119.686 Y112.447 E0.01420
G1 E-0.80000 F2100.000
G1 Z0.800 F10800.000
G1 X129.214 Y110.385
G1 Z0.200
G1 E0.80000 F2100.000
G1 F1200.000
G1 X129.610 Y109.989 E0.01753
G1 X130.676 Y109.989 E0.03344
G1 X129.868 Y110.798 E0.03585
G1 X130.401 Y111.331 E0.02365
G1 X131.743 Y109.989 E0.05950
G1 X132.768 Y109.989 E0.03216
G1 X132.789 Y110.010 E0.00091
G1 X130.934 Y111.864 E0.08224
G1 X131.467 Y112.398 E0.02365
G1 X133.322 Y110.543 E0.08224
G1 X133.855 Y111.076 E0.02365
G1 X132.001 Y112.931 E0.08224
G1 X132.534 Y113.464 E0.02365
G1 X134.389 Y111.610 E0.08224
G1 X134.922 Y112.143 E0.02365
G1 X133.067 Y113.997 E0.08224
G1 X133.600 Y114.531 E0.02365
G1 X135.455 Y112.676 E0.08224
G1 X135.988 Y113.209 E0.02365
G1 X134.134 Y115.064 E0.08224
G1 X134.667 Y115.597 E0.02365
G1 X138.135 Y112.129 E0.15379
G1 X138.135 Y113.196 E0.03344
G1 X135.200 Y116.131 E0.13014
G1 X135.734 Y116.664 E0.02365
G1 X138.135 Y114.262 E0.10649
G1 X138.135 Y114.429 E0.00524
G1 X138.443 Y114.738 E0.01366
G1 X138.726 Y114.738 E0.00887
G1 X136.147 Y117.317 E0.11438
G1 X136.215 Y113.147 F10800.000
;TYPE:Support material interface
;WIDTH:0.35
G1 F1200.000
G1 X138.170 Y111.192 E0.07061
G1 X138.170 Y110.841 E0.00897
G1 X137.804 Y110.841 E0.00934
G1 X135.954 Y112.691 E0.06682
G1 X135.595 Y112.333 E0.01295
G1 X137.087 Y110.841 E0.05388
G1 X136.370 Y110.841 E0.01831
G1 X135.237 Y111.974 E0.04093
G1 X134.878 Y111.616 E0.01295
G1 X135.653 Y110.841 E0.02798
G1 X134.936 Y110.841 E0.01831
G1 X134.520 Y111.257 E0.01503
G1 X134.161 Y110.898 E0.01295
G1 X134.357 Y110.702 E0.00708
G1 X133.346 Y110.279 F10800.000
G1 F1200.000
G1 X133.620 Y110.005 E0.00989
G1 X134.045 Y109.820 F10800.000
;TYPE:Support material
;WIDTH:0.42
G1 F1200.000
G1 X133.824 Y110.041 E0.00982
G1 X133.824 Y110.297 E0.00803
G1 X134.025 Y110.499 E0.00893
G1 X134.433 Y110.499 E0.01278
G1 X134.942 Y109.989 E0.02258
G1 X136.009 Y109.989 E0.03344
G1 X135.500 Y110.499 E0.02258
G1 X136.566 Y110.499 E0.03344
G1 X137.075 Y109.989 E0.02258
G1 X138.135 Y109.989 E0.03323
G1 X137.463 Y110.668 E0.02996
G1 E-0.80000 F2100.000
G1 Z0.800 F10800.000
G1 X137.285 Y100.180
G1 Z0.200
G1 E0.80000 F2100.000
G1 F1200.000
G1 X137.964 Y99.501 E0.03011
G1 X136.898 Y99.501 E0.03344
G1 X136.389 Y100.011 E0.02258
G1 X135.322 Y100.011 E0.03344
G1 X135.831 Y99.501 E0.02258
G1 X134.765 Y99.501 E0.03344
G1 X134.086 Y100.180 E0.03011
G1 X134.288 Y99.298 F10800.000
;TYPE:Support material interface
;WIDTH:0.35
G1 F1200.000
G1 X136.581 Y97.005 E0.08280
G1 X136.939 Y97.363 E0.01295
G1 X135.143 Y99.159 E0.06486
G1 X135.860 Y99.159 E0.01831
G1 X137.298 Y97.722 E0.05191
G1 X137.657 Y98.080 E0.01295
G1 X136.578 Y99.159 E0.03896
G1 X137.295 Y99.159 E0.01831
G1 X138.015 Y98.439 E0.02602
G1 X138.170 Y98.594 E0.00560
G1 X138.170 Y99.001 E0.01039
G1 X137.874 Y99.298 E0.01071
G1 X137.576 Y97.756 F10800.000
;TYPE:Support material
;WIDTH:0.42
G1 F1200.000
G1 X138.135 Y97.198 E0.02478
G1 X138.135 Y96.131 E0.03344
G1 X137.163 Y97.103 E0.04310
G1 X136.630 Y96.570 E0.02365
G1 X138.484 Y94.715 E0.08224
G1 X139.018 Y95.248 E0.02365
G1 X138.834 Y95.432 E0.00814
G1 X137.005 Y92.995 F10800.000
G1 F1200.000
G1 X129.989 Y100.011 E0.31107
G1 X131.056 Y100.011 E0.03344
G1 X137.418 Y93.649 E0.28210
G1 X137.951 Y94.182 E0.02365
G1 X131.953 Y100.180 E0.26598
G1 E-0.80000 F2100.000
G1 Z0.800 F10800.000
G1 X118.743 Y115.109
G1 Z0.200
G1 E0.80000 F2100.000
;TYPE:Perimeter
G1 F1200.000
G1 X109.622 Y115.109 E0.28598
G1 X109.622 Y94.891 E0.63390
G1 X118.743 Y94.891 E0.28598
G1 X118.743 Y101.124 E0.19542
M73 P3 R40
G1 X139.248 Y101.124 E0.64294
G1 X139.248 Y96.376 E0.14888
G1 X149.543 Y96.376 E0.32280
G1 X149.543 Y113.624 E0.54083
G1 X139.248 Y113.624 E0.32280
G1 X139.248 Y108.876 E0.14888
G1 X118.743 Y108.876 E0.64294
G1 X118.743 Y115.049 E0.19353
G1 X119.120 Y115.486 F10800.000
;TYPE:External perimeter
G1 F1200.000
G1 X109.245 Y115.486 E0.30962
G1 X109.245 Y94.514 E0.65755
G1 X119.120 Y94.514 E0.30962
G1 X119.120 Y100.747 E0.19542
G1 X138.871 Y100.747 E0.61929
G1 X138.871 Y95.998 E0.14888
G1 X149.921 Y95.998 E0.34644
G1 X149.921 Y114.002 E0.56448
G1 X138.871 Y114.002 E0.34644
G1 X138.871 Y109.253 E0.14888
G1 X119.120 Y109.253 E0.61929
G1 X119.120 Y115.426 E0.19353
G1 X118.886 Y115.162 F10800.000
G1 E-0.80000 F2100.000
G1 Z0.800 F10800.000
G1 X110.499 Y114.996
G1 Z0.200
G1 E0.80000 F2100.000
;TYPE:Solid infill
;WIDTH:0.42098
G1 F1200.000
G1 X109.905 Y114.401 E0.02643
G1 X109.905 Y113.866 E0.01681
G1 X110.864 Y114.826 E0.04266
G1 X111.399 Y114.826 E0.01681
G1 X109.905 Y113.332 E0.06643
G1 X109.905 Y112.797 E0.01681
G1 X111.934 Y114.826 E0.09020
G1 X112.468 Y114.826 E0.01681
G1 X109.905 Y112.262 E0.11397
G1 X109.905 Y111.728 E0.01681
G1 X113.003 Y114.826 E0.13774
G1 X113.538 Y114.826 E0.01681
G1 X109.905 Y111.193 E0.16150
G1 X109.905 Y110.658 E0.01681
G1 X114.072 Y114.826 E0.18527
G1 X114.607 Y114.826 E0.01681
G1 X109.905 Y110.124 E0.20904
G1 X109.905 Y109.589 E0.01681
G1 X115.142 Y114.826 E0.23281
G1 X115.676 Y114.826 E0.01681
G1 X109.905 Y109.054 E0.25658
G1 X109.905 Y108.520 E0.01681
G1 X116.211 Y114.826 E0.28035
G1 X116.745 Y114.826 E0.01681
G1 X109.905 Y107.985 E0.30412
G1 X109.905 Y107.450 E0.01681
G1 X117.280 Y114.826 E0.32789
G1 X117.815 Y114.826 E0.01681
G1 X109.905 Y106.916 E0.35166
G1 X109.905 Y106.381 E0.01681
G1 X118.349 Y114.826 E0.37543
G1 X118.460 Y114.826 E0.00347
G1 X118.460 Y114.402 E0.01334
G1 X109.905 Y105.846 E0.38034
G1 X109.905 Y105.312 E0.01681
G1 X118.460 Y113.867 E0.38034
G1 X118.460 Y113.332 E0.01681
G1 X109.905 Y104.777 E0.38034
G1 X109.905 Y104.243 E0.01681
G1 X118.460 Y112.798 E0.38034
G1 X118.460 Y112.263 E0.01681
G1 X109.905 Y103.708 E0.38034
G1 X109.905 Y103.173 E0.01681
G1 X118.460 Y111.728 E0.38034
G1 X118.460 Y111.194 E0.01681
G1 X109.905 Y102.639 E0.38034
G1 X109.905 Y102.104 E0.01681
G1 X118.460 Y110.659 E0.38034
G1 X118.460 Y110.124 E0.01681
G1 X109.905 Y101.569 E0.38034
G1 X109.905 Y101.035 E0.01681
G1 X118.460 Y109.590 E0.38034
G1 X118.460 Y109.055 E0.01681
G1 X109.905 Y100.500 E0.38034
M73 P4 R40
G1 X109.905 Y99.965 E0.01681
G1 X118.533 Y108.593 E0.38358
G1 X119.068 Y108.593 E0.01681
G1 X109.905 Y99.431 E0.40735
G1 X109.905 Y98.896 E0.01681
G1 X119.602 Y108.593 E0.43112
G1 X120.137 Y108.593 E0.01681
G1 X109.905 Y98.361 E0.45489
G1 X109.905 Y97.827 E0.01681
G1 X120.671 Y108.593 E0.47866
G1 X121.206 Y108.593 E0.01681
G1 X109.905 Y97.292 E0.50243
G1 X109.905 Y96.757 E0.01681
G1 X121.741 Y108.593 E0.52620
G1 X122.275 Y108.593 E0.01681
G1 X109.905 Y96.223 E0.54997
G1 X109.905 Y95.688 E0.01681
G1 X122.810 Y108.593 E0.57374
G1 X123.345 Y108.593 E0.01681
G1 X109.925 Y95.174 E0.59658
G1 X110.460 Y95.174 E0.01681
G1 X123.879 Y108.593 E0.59658
G1 X124.414 Y108.593 E0.01681
G1 X110.995 Y95.174 E0.59658
G1 X111.529 Y95.174 E0.01681
G1 X125.118 Y108.763 E0.60413
G1 E-0.80000 F2100.000
G1 Z0.800 F10800.000
G1 X118.630 Y95.858
G1 Z0.200
G1 E0.80000 F2100.000
G1 F1200.000
G1 X117.945 Y95.174 E0.03042
G1 X117.411 Y95.174 E0.01681
G1 X118.460 Y96.223 E0.04665
G1 X118.460 Y96.758 E0.01681
G1 X116.876 Y95.174 E0.07042
G1 X116.341 Y95.174 E0.01681
G1 X118.460 Y97.293 E0.09419
G1 X118.460 Y97.827 E0.01681
G1 X115.807 Y95.174 E0.11795
G1 X115.272 Y95.174 E0.01681
G1 X118.460 Y98.362 E0.14172
G1 X118.460 Y98.897 E0.01681
G1 X114.737 Y95.174 E0.16549
G1 X114.203 Y95.174 E0.01681
G1 X118.460 Y99.431 E0.18926
G1 X118.460 Y99.966 E0.01681
G1 X113.668 Y95.174 E0.21303
G1 X113.133 Y95.174 E0.01681
G1 X118.460 Y100.501 E0.23680
G1 X118.460 Y101.035 E0.01681
G1 X112.599 Y95.174 E0.26057
G1 X112.064 Y95.174 E0.01681
G1 X125.483 Y108.593 E0.59658
G1 X126.018 Y108.593 E0.01681
G1 X118.831 Y101.407 E0.31950
G1 X119.366 Y101.407 E0.01681
G1 X126.553 Y108.593 E0.31950
G1 X127.087 Y108.593 E0.01681
G1 X119.901 Y101.407 E0.31950
G1 X120.435 Y101.407 E0.01681
G1 X127.622 Y108.593 E0.31950
G1 X128.157 Y108.593 E0.01681
G1 X120.970 Y101.407 E0.31950
G1 X121.505 Y101.407 E0.01681
G1 X128.691 Y108.593 E0.31950
G1 X129.226 Y108.593 E0.01681
G1 X122.039 Y101.407 E0.31950
G1 X122.574 Y101.407 E0.01681
G1 X129.761 Y108.593 E0.31950
G1 X130.295 Y108.593 E0.01681
G1 X123.109 Y101.407 E0.31950
G1 X123.643 Y101.407 E0.01681
G1 X130.830 Y108.593 E0.31950
G1 X131.365 Y108.593 E0.01681
G1 X124.178 Y101.407 E0.31950
G1 X124.712 Y101.407 E0.01681
G1 X131.899 Y108.593 E0.31950
G1 X132.434 Y108.593 E0.01681
G1 X125.247 Y101.407 E0.31950
G1 X125.782 Y101.407 E0.01681
G1 X132.969 Y108.593 E0.31950
G1 X133.503 Y108.593 E0.01681
G1 X126.316 Y101.407 E0.31950
M73 P4 R39
G1 X126.851 Y101.407 E0.01681
G1 X134.038 Y108.593 E0.31950
G1 X134.573 Y108.593 E0.01681
G1 X127.386 Y101.407 E0.31950
G1 X127.920 Y101.407 E0.01681
G1 X135.107 Y108.593 E0.31950
M73 P5 R39
G1 X135.642 Y108.593 E0.01681
G1 X128.455 Y101.407 E0.31950
G1 X128.990 Y101.407 E0.01681
G1 X136.177 Y108.593 E0.31950
G1 X136.711 Y108.593 E0.01681
G1 X129.524 Y101.407 E0.31950
G1 X130.059 Y101.407 E0.01681
G1 X137.246 Y108.593 E0.31950
G1 X137.781 Y108.593 E0.01681
