; generated by PrusaSlicer 2.3.1+win64 on 2021-09-22 at 16:03:38 UTC

; 

; external perimeters extrusion width = 0.45mm
; perimeters extrusion width = 0.45mm
; infill extrusion width = 0.45mm
; solid infill extrusion width = 0.45mm
; top infill extrusion width = 0.40mm
; support material extrusion width = 0.35mm
; first layer extrusion width = 0.42mm

M73 P0 R40
M201 X9000 Y9000 Z500 E10000 ; sets maximum accelerations, mm/sec^2
M203 X500 Y500 Z12 E120 ; sets maximum feedrates, mm/sec
M204 P2000 R1500 T2000 ; sets acceleration (P, T) and retract acceleration (R), mm/sec^2
M205 X10.00 Y10.00 Z0.20 E2.50 ; sets the jerk limits, mm/sec
M205 S0 T0 ; sets the minimum extruding and travel feed rate, mm/sec
M107
;TYPE:Custom
M862.3 P "MK2S" ; printer model check
M862.1 P0.4 ; nozzle diameter check
M115 U3.2.3 ; tell printer latest fw version
G90 ; use absolute coordinates
M83 ; extruder relative mode
M204 S2000 T1500 ; MK2 firmware only supports the old M204 format
M104 S215 ; set extruder temp
M140 S60 ; set bed temp
M190 S60 ; wait for bed temp
M109 S215 ; wait for extruder temp
G28 W ; home all without mesh bed level
G80 ; mesh bed leveling
G1 Y-3.0 F1000.0 ; go outside print area
G92 E0.0
G1 X60.0 E9.0  F1000.0 ; intro line
G1 X100.0 E12.5 F1000.0 ; intro line
G92 E0.0
G21 ; set units to millimeters
G90 ; use absolute coordinates
M83 ; use relative distances for extrusion
M900 K0.06 ; Filament gcode LA 1.5
M900 K30 ; Filament gcode LA 1.0
;LAYER_CHANGE
;Z:0.2
;HEIGHT:0.2
;BEFORE_LAYER_CHANGE
G92 E0.0
;0.2


G1 E-0.80000 F2100.000
G1 Z0.600 F10800.000
;AFTER_LAYER_CHANGE
;0.2
G1 X143.550 Y127.601
G1 Z0.200
G1 E0.80000 F2100.000
M204 S1000
;TYPE:Support material
;WIDTH:0.42
G1 F1200.000
G1 X142.160 Y128.991 E0.06164
G1 X142.693 Y129.524 E0.02365
G1 X144.131 Y128.086 E0.06376
G1 X144.838 Y128.446 E0.02487
G1 X143.226 Y130.058 E0.07148
G1 X143.760 Y130.591 E0.02365
G1 X145.546 Y128.805 E0.07919
G1 X145.825 Y128.947 E0.00981
G1 X146.148 Y129.269 E0.01432
G1 X144.293 Y131.124 E0.08224
G1 X144.826 Y131.657 E0.02365
G1 X146.681 Y129.803 E0.08224
G1 X147.214 Y130.336 E0.02365
G1 X145.360 Y132.191 E0.08224
G1 X145.893 Y132.724 E0.02365
G1 X151.717 Y126.900 E0.25826
G1 X152.250 Y127.433 E0.02365
G1 X146.426 Y133.257 E0.25826
G1 X146.959 Y133.790 E0.02365
G1 X152.784 Y127.966 E0.25826
G1 X153.317 Y128.499 E0.02365
G1 X147.373 Y134.444 E0.26358
G1 X147.468 Y130.302 F10800.000
;TYPE:Support material interface
;WIDTH:0.35
G1 F1200.000
G1 X149.197 Y128.572 E0.06244
G1 X148.838 Y128.214 E0.01295
G1 X147.207 Y129.845 E0.05891
G1 X146.849 Y129.487 E0.01295
G1 X148.480 Y127.855 E0.05891
G1 X148.121 Y127.497 E0.01295
G1 X146.928 Y128.690 E0.04311
G1 X147.668 Y127.233 E0.04173
G1 X147.861 Y127.040 E0.00696
G1 X146.873 Y127.477 F10800.000
;TYPE:Support material
;WIDTH:0.42
G1 F1200.000
G1 X149.584 Y124.766 E0.12019
G1 X150.117 Y125.300 E0.02365
G1 X148.263 Y127.154 E0.08224
G1 X148.796 Y127.688 E0.02365
G1 X150.651 Y125.833 E0.08224
G1 X151.184 Y126.366 E0.02365
G1 X149.209 Y128.341 E0.08756
G1 X146.150 Y125.883 F10800.000
;TYPE:Support material interface
;WIDTH:0.35
G1 F1200.000
G1 X146.426 Y125.606 E0.00999
G1 X147.076 Y126.208 F10800.000
;TYPE:Support material
;WIDTH:0.42
G1 F1200.000
G1 X149.051 Y124.233 E0.08756
G1 X148.518 Y123.700 E0.02365
G1 X146.663 Y125.555 E0.08224
G1 X146.130 Y125.021 E0.02365
G1 X148.104 Y123.047 E0.08756
G1 E-0.80000 F2100.000
G1 Z0.800 F10800.000
G1 X128.659 Y132.439
G1 Z0.200
G1 E0.80000 F2100.000
;TYPE:Perimeter
G1 F1200.000
G1 X114.261 Y125.126 E0.50634
G1 X109.988 Y133.538 E0.29583
G1 X102.585 Y129.778 E0.26036
G1 X107.231 Y120.629 E0.32172
G1 X128.296 Y131.329 E0.74080
G1 X133.731 Y120.629 E0.37625
G1 X146.102 Y126.913 E0.43506
G1 X145.728 Y127.649 E0.02589
G1 X134.093 Y121.740 E0.40917
G1 X128.686 Y132.385 E0.37437
G1 X128.824 Y132.946 F10800.000
;TYPE:External perimeter
G1 F1200.000
G1 X114.426 Y125.633 E0.50634
M73 P0 R39
G1 X111.209 Y131.966 E0.22273
G1 X112.383 Y132.562 E0.04126
G1 X111.998 Y133.319 E0.02662
G1 X110.825 Y132.723 E0.04126
G1 X110.154 Y134.045 E0.04649
G1 X102.078 Y129.943 E0.28400
G1 X102.749 Y128.621 E0.04649
G1 X101.576 Y128.026 E0.04126
G1 X101.960 Y127.269 E0.02662
G1 X103.133 Y127.865 E0.04126
G1 X107.066 Y120.122 E0.27226
G1 X128.131 Y130.822 E0.74080
G1 X133.565 Y120.122 E0.37625
G1 X146.609 Y126.747 E0.45871
M73 P1 R39
G1 X145.893 Y128.156 E0.04953
G1 X134.258 Y122.246 E0.40917
G1 X128.851 Y132.892 E0.37437
G1 X128.706 Y132.564 F10800.000
G1 E-0.80000 F2100.000
G1 Z0.800 F10800.000
G1 X114.280 Y124.672
G1 Z0.200
G1 E0.80000 F2100.000
;TYPE:Gap fill
;WIDTH:0.491454
G1 F1200.000
G1 X128.278 Y131.782 E0.58554
G1 X128.461 Y131.832 E0.00708
G1 X128.579 Y131.684 E0.00707
G1 X133.810 Y121.384 E0.43082
G1 X133.929 Y121.236 E0.00707
G1 X134.112 Y121.286 E0.00708
G1 X145.747 Y127.196 E0.48670
G1 E-0.80000 F2100.000
G1 Z0.800 F10800.000
G1 X112.022 Y132.855
G1 Z0.200
G1 E0.80000 F2100.000
;WIDTH:0.514714
G1 F1200.000
G1 X110.849 Y132.259 E0.05162
G1 E-0.80000 F2100.000
G1 Z0.800 F10800.000
G1 X114.048 Y124.878
G1 Z0.200
G1 E0.80000 F2100.000
;TYPE:Solid infill
;WIDTH:0.431126
G1 F1200.000
G1 X113.096 Y123.925 E0.04348
G1 X111.980 Y123.359 E0.04039
G1 X113.877 Y125.256 E0.08661
G1 X113.693 Y125.620 E0.01318
G1 X110.865 Y122.792 E0.12909
G1 X109.749 Y122.225 E0.04039
G1 X113.508 Y125.984 E0.17158
G1 X113.323 Y126.348 E0.01318
G1 X108.633 Y121.659 E0.21407
G1 X107.518 Y121.092 E0.04039
G1 X113.138 Y126.712 E0.25656
G1 X112.953 Y127.076 E0.01318
G1 X107.197 Y121.321 E0.26275
G1 X107.012 Y121.685 E0.01318
G1 X112.768 Y127.440 E0.26275
G1 X112.583 Y127.805 E0.01318
G1 X106.827 Y122.049 E0.26275
G1 X106.642 Y122.413 E0.01318
G1 X112.398 Y128.169 E0.26275
G1 X112.213 Y128.533 E0.01318
G1 X106.458 Y122.777 E0.26275
G1 X106.273 Y123.141 E0.01318
G1 X112.028 Y128.897 E0.26275
G1 X111.843 Y129.261 E0.01318
G1 X106.088 Y123.505 E0.26275
G1 X105.903 Y123.869 E0.01318
G1 X111.658 Y129.625 E0.26275
G1 X111.473 Y129.989 E0.01318
G1 X105.718 Y124.233 E0.26275
G1 X105.533 Y124.597 E0.01318
G1 X111.289 Y130.353 E0.26275
G1 X111.104 Y130.717 E0.01318
G1 X105.348 Y124.962 E0.26275
G1 X105.163 Y125.326 E0.01318
G1 X110.919 Y131.081 E0.26275
G1 X110.734 Y131.445 E0.01318
G1 X104.978 Y125.690 E0.26275
G1 X104.793 Y126.054 E0.01318
G1 X110.549 Y131.809 E0.26275
G1 X110.364 Y132.174 E0.01318
G1 X104.608 Y126.418 E0.26275
G1 X104.423 Y126.782 E0.01318
G1 X110.179 Y132.538 E0.26275
G1 X109.994 Y132.902 E0.01318
G1 X104.238 Y127.146 E0.26275
G1 X104.054 Y127.510 E0.01318
G1 X109.533 Y132.990 E0.25015
G1 X108.418 Y132.423 E0.04039
G1 X103.869 Y127.874 E0.20766
G1 X103.684 Y128.238 E0.01318
G1 X107.302 Y131.857 E0.16517
G1 X106.186 Y131.290 E0.04039
G1 X103.499 Y128.602 E0.12269
G1 X103.314 Y128.967 E0.01318
G1 X105.071 Y130.723 E0.08020
G1 X103.955 Y130.157 E0.04039
G1 X103.003 Y129.204 E0.04347
G1 X103.109 Y128.328 F10800.000
;TYPE:Gap fill
;WIDTH:0.514713
G1 F1200.000
G1 X101.936 Y127.733 E0.05162
G1 E-0.80000 F2100.000
G1 Z0.800 F10800.000
G1 X128.770 Y111.250
G1 Z0.200
G1 E0.80000 F2100.000
;TYPE:Perimeter
;WIDTH:0.42
G1 F1200.000
G1 X128.201 Y111.194 E0.01793
G1 X127.653 Y111.028 E0.01793
G1 X127.149 Y110.759 E0.01793
G1 X126.707 Y110.396 E0.01793
G1 X126.344 Y109.954 E0.01793
G1 X126.075 Y109.450 E0.01793
G1 X125.909 Y108.903 E0.01793
G1 X125.795 Y107.746 E0.03642
G1 X124.205 Y107.746 E0.04986
G1 X124.091 Y108.903 E0.03642
G1 X123.925 Y109.450 E0.01793
G1 X123.656 Y109.954 E0.01793
G1 X123.293 Y110.396 E0.01793
G1 X122.851 Y110.759 E0.01793
G1 X122.347 Y111.028 E0.01793
G1 X121.799 Y111.194 E0.01793
G1 X121.230 Y111.250 E0.01793
G1 X120.661 Y111.194 E0.01793
G1 X120.114 Y111.028 E0.01793
G1 X119.610 Y110.759 E0.01793
G1 X119.168 Y110.396 E0.01793
G1 X118.805 Y109.954 E0.01793
G1 X118.536 Y109.450 E0.01793
G1 X118.370 Y108.903 E0.01793
G1 X118.256 Y107.746 E0.03642
G1 X116.666 Y107.746 E0.04986
G1 X116.552 Y108.903 E0.03642
G1 X116.386 Y109.450 E0.01793
G1 X116.116 Y109.954 E0.01793
G1 X115.754 Y110.396 E0.01793
G1 X115.312 Y110.759 E0.01793
G1 X114.807 Y111.028 E0.01793
G1 X114.260 Y111.194 E0.01793
G1 X113.691 Y111.250 E0.01793
G1 X113.122 Y111.194 E0.01793
G1 X112.575 Y111.028 E0.01793
G1 X112.071 Y110.759 E0.01793
G1 X111.629 Y110.396 E0.01793
G1 X111.266 Y109.954 E0.01793
G1 X110.996 Y109.450 E0.01793
G1 X110.830 Y108.903 E0.01793
G1 X110.717 Y107.746 E0.03642
G1 X109.126 Y107.746 E0.04986
G1 X109.013 Y108.903 E0.03642
G1 X108.847 Y109.450 E0.01793
G1 X108.577 Y109.954 E0.01793
G1 X108.214 Y110.396 E0.01793
G1 X107.772 Y110.759 E0.01793
G1 X107.268 Y111.028 E0.01793
G1 X106.721 Y111.194 E0.01793
G1 X106.152 Y111.250 E0.01793
G1 X105.583 Y111.194 E0.01793
G1 X105.036 Y111.028 E0.01793
G1 X104.531 Y110.759 E0.01793
G1 X104.089 Y110.396 E0.01793
G1 X103.727 Y109.954 E0.01793
G1 X103.457 Y109.450 E0.01793
G1 X103.291 Y108.903 E0.01793
G1 X103.177 Y107.746 E0.03642
G1 X101.587 Y107.746 E0.04986
G1 X101.473 Y108.903 E0.03642
G1 X101.307 Y109.450 E0.01793
G1 X101.038 Y109.954 E0.01793
G1 X100.675 Y110.396 E0.01793
G1 X100.233 Y110.759 E0.01793
G1 X99.729 Y111.028 E0.01793
G1 X99.182 Y111.194 E0.01793
G1 X98.613 Y111.250 E0.01793
G1 X98.044 Y111.194 E0.01793
G1 X97.496 Y111.028 E0.01793
G1 X96.992 Y110.759 E0.01793
G1 X96.550 Y110.396 E0.01793
G1 X96.187 Y109.954 E0.01793
G1 X95.918 Y109.450 E0.01793
G1 X95.752 Y108.903 E0.01793
G1 X95.638 Y107.746 E0.03642
G1 X94.048 Y107.746 E0.04986
G1 X93.934 Y108.903 E0.03642
G1 X93.768 Y109.450 E0.01793
G1 X93.498 Y109.954 E0.01793
G1 X93.136 Y110.396 E0.01793
G1 X92.694 Y110.759 E0.01793
G1 X92.190 Y111.028 E0.01793
G1 X91.642 Y111.194 E0.01793
G1 X91.073 Y111.250 E0.01793
G1 X90.504 Y111.194 E0.01793
G1 X89.957 Y111.028 E0.01793
G1 X89.453 Y110.759 E0.01793
G1 X89.011 Y110.396 E0.01793
G1 X88.648 Y109.954 E0.01793
G1 X88.379 Y109.450 E0.01793
G1 X88.213 Y108.903 E0.01793
G1 X88.157 Y108.334 E0.01793
G1 X88.213 Y107.765 E0.01793
G1 X88.379 Y107.217 E0.01793
G1 X88.648 Y106.713 E0.01793
G1 X89.011 Y106.271 E0.01793
G1 X89.453 Y105.908 E0.01793
G1 X89.957 Y105.639 E0.01793
G1 X90.504 Y105.473 E0.01793
G1 X91.073 Y105.417 E0.01793
G1 X91.642 Y105.473 E0.01793
G1 X92.190 Y105.639 E0.01793
G1 X92.694 Y105.908 E0.01793
G1 X93.136 Y106.271 E0.01793
G1 X93.535 Y106.757 E0.01973
G1 X96.151 Y106.757 E0.08203
G1 X96.550 Y106.271 E0.01973
G1 X96.992 Y105.908 E0.01793
G1 X97.496 Y105.639 E0.01793
G1 X98.044 Y105.473 E0.01793
G1 X98.613 Y105.417 E0.01793
G1 X99.182 Y105.473 E0.01793
G1 X99.729 Y105.639 E0.01793
G1 X100.233 Y105.908 E0.01793
G1 X100.675 Y106.271 E0.01793
G1 X101.074 Y106.757 E0.01973
G1 X103.690 Y106.757 E0.08203
G1 X104.089 Y106.271 E0.01973
G1 X104.531 Y105.908 E0.01793
G1 X105.036 Y105.639 E0.01793
G1 X105.583 Y105.473 E0.01793
G1 X106.152 Y105.417 E0.01793
G1 X106.721 Y105.473 E0.01793
G1 X107.268 Y105.639 E0.01793
G1 X107.772 Y105.908 E0.01793
G1 X108.214 Y106.271 E0.01793
G1 X108.613 Y106.757 E0.01973
G1 X111.230 Y106.757 E0.08203
G1 X111.629 Y106.271 E0.01973
G1 X112.071 Y105.908 E0.01793
G1 X112.575 Y105.639 E0.01793
G1 X113.122 Y105.473 E0.01793
G1 X113.691 Y105.417 E0.01793
G1 X114.260 Y105.473 E0.01793
G1 X114.807 Y105.639 E0.01793
G1 X115.312 Y105.908 E0.01793
G1 X115.754 Y106.271 E0.01793
G1 X116.153 Y106.757 E0.01973
G1 X118.769 Y106.757 E0.08203
G1 X119.168 Y106.271 E0.01973
G1 X119.610 Y105.908 E0.01793
G1 X120.114 Y105.639 E0.01793
G1 X120.661 Y105.473 E0.01793
G1 X121.230 Y105.417 E0.01793
G1 X121.799 Y105.473 E0.01793
G1 X122.347 Y105.639 E0.01793
G1 X122.851 Y105.908 E0.01793
G1 X123.293 Y106.271 E0.01793
G1 X123.692 Y106.757 E0.01973
G1 X126.308 Y106.757 E0.08203
G1 X126.707 Y106.271 E0.01973
G1 X127.149 Y105.908 E0.01793
G1 X127.653 Y105.639 E0.01793
G1 X128.201 Y105.473 E0.01793
G1 X128.770 Y105.417 E0.01793
G1 X129.339 Y105.473 E0.01793
G1 X129.886 Y105.639 E0.01793
G1 X130.390 Y105.908 E0.01793
G1 X130.832 Y106.271 E0.01793
G1 X131.231 Y106.757 E0.01973
G1 X133.847 Y106.757 E0.08203
G1 X134.246 Y106.271 E0.01973
G1 X134.688 Y105.908 E0.01793
G1 X135.193 Y105.639 E0.01793
G1 X135.740 Y105.473 E0.01793
G1 X136.309 Y105.417 E0.01793
G1 X136.878 Y105.473 E0.01793
G1 X137.425 Y105.639 E0.01793
G1 X137.929 Y105.908 E0.01793
G1 X138.371 Y106.271 E0.01793
G1 X138.770 Y106.757 E0.01973
G1 X141.387 Y106.757 E0.08203
G1 X141.786 Y106.271 E0.01973
G1 X142.228 Y105.908 E0.01793
G1 X142.732 Y105.639 E0.01793
G1 X143.279 Y105.473 E0.01793
G1 X143.848 Y105.417 E0.01793
G1 X144.417 Y105.473 E0.01793
G1 X144.964 Y105.639 E0.01793
G1 X145.469 Y105.908 E0.01793
G1 X145.911 Y106.271 E0.01793
G1 X146.310 Y106.757 E0.01973
G1 X148.926 Y106.757 E0.08203
G1 X149.325 Y106.271 E0.01973
G1 X149.767 Y105.908 E0.01793
G1 X150.271 Y105.639 E0.01793
G1 X150.818 Y105.473 E0.01793
G1 X151.387 Y105.417 E0.01793
G1 X151.956 Y105.473 E0.01793
G1 X152.504 Y105.639 E0.01793
G1 X153.008 Y105.908 E0.01793
G1 X153.450 Y106.271 E0.01793
G1 X153.849 Y106.757 E0.01973
G1 X156.465 Y106.757 E0.08203
G1 X156.864 Y106.271 E0.01973
G1 X157.306 Y105.908 E0.01793
G1 X157.810 Y105.639 E0.01793
G1 X158.354 Y105.474 E0.01780
G1 X158.974 Y105.421 E0.01952
G1 X159.496 Y105.473 E0.01643
G1 X160.043 Y105.639 E0.01793
G1 X160.547 Y105.908 E0.01793
G1 X160.989 Y106.271 E0.01793
M73 P2 R39
G1 X161.352 Y106.713 E0.01793
G1 X161.621 Y107.217 E0.01793
G1 X161.787 Y107.765 E0.01793
G1 X161.843 Y108.334 E0.01793
G1 X161.787 Y108.903 E0.01793
G1 X161.621 Y109.450 E0.01793
G1 X161.352 Y109.954 E0.01793
G1 X160.989 Y110.396 E0.01793
G1 X160.547 Y110.759 E0.01793
G1 X160.043 Y111.028 E0.01793
G1 X159.496 Y111.194 E0.01793
G1 X158.927 Y111.250 E0.01793
G1 X158.358 Y111.194 E0.01793
G1 X157.810 Y111.028 E0.01793
G1 X157.306 Y110.759 E0.01793
G1 X156.864 Y110.396 E0.01793
G1 X156.501 Y109.954 E0.01793
G1 X156.232 Y109.450 E0.01793
G1 X156.066 Y108.903 E0.01793
G1 X155.952 Y107.746 E0.03642
G1 X154.362 Y107.746 E0.04986
G1 X154.248 Y108.903 E0.03642
G1 X154.082 Y109.450 E0.01793
G1 X153.813 Y109.954 E0.01793
G1 X153.450 Y110.396 E0.01793
G1 X153.008 Y110.759 E0.01793
G1 X152.504 Y111.028 E0.01793
G1 X151.956 Y111.194 E0.01793
G1 X151.387 Y111.250 E0.01793
G1 X150.818 Y111.194 E0.01793
G1 X150.271 Y111.028 E0.01793
G1 X149.767 Y110.759 E0.01793
G1 X149.325 Y110.396 E0.01793
G1 X148.962 Y109.954 E0.01793
G1 X148.693 Y109.450 E0.01793
G1 X148.527 Y108.903 E0.01793
G1 X148.413 Y107.746 E0.03642
G1 X146.823 Y107.746 E0.04986
G1 X146.709 Y108.903 E0.03642
G1 X146.543 Y109.450 E0.01793
G1 X146.273 Y109.954 E0.01793
G1 X145.911 Y110.396 E0.01793
G1 X145.469 Y110.759 E0.01793
G1 X144.964 Y111.028 E0.01793
G1 X144.417 Y111.194 E0.01793
G1 X143.848 Y111.250 E0.01793
G1 X143.279 Y111.194 E0.01793
G1 X142.732 Y111.028 E0.01793
G1 X142.228 Y110.759 E0.01793
G1 X141.786 Y110.396 E0.01793
G1 X141.423 Y109.954 E0.01793
G1 X141.153 Y109.450 E0.01793
G1 X140.987 Y108.903 E0.01793
G1 X140.874 Y107.746 E0.03642
G1 X139.283 Y107.746 E0.04986
G1 X139.170 Y108.903 E0.03642
G1 X139.004 Y109.450 E0.01793
G1 X138.734 Y109.954 E0.01793
G1 X138.371 Y110.396 E0.01793
G1 X137.929 Y110.759 E0.01793
G1 X137.425 Y111.028 E0.01793
G1 X136.878 Y111.194 E0.01793
G1 X136.309 Y111.250 E0.01793
G1 X135.740 Y111.194 E0.01793
G1 X135.193 Y111.028 E0.01793
G1 X134.688 Y110.759 E0.01793
G1 X134.246 Y110.396 E0.01793
G1 X133.884 Y109.954 E0.01793
G1 X133.614 Y109.450 E0.01793
G1 X133.448 Y108.903 E0.01793
G1 X133.334 Y107.746 E0.03642
G1 X131.744 Y107.746 E0.04986
G1 X131.630 Y108.903 E0.03642
G1 X131.464 Y109.450 E0.01793
G1 X131.195 Y109.954 E0.01793
G1 X130.832 Y110.396 E0.01793
G1 X130.390 Y110.759 E0.01793
G1 X129.886 Y111.028 E0.01793
G1 X129.339 Y111.194 E0.01793
G1 X128.829 Y111.244 E0.01605
G1 X128.770 Y111.629 F10800.000
;TYPE:External perimeter
G1 F1200.000
G1 X128.127 Y111.566 E0.02026
G1 X127.508 Y111.378 E0.02026
G1 X126.939 Y111.074 E0.02026
G1 X126.439 Y110.664 E0.02026
G1 X126.029 Y110.164 E0.02026
G1 X125.725 Y109.595 E0.02026
G1 X125.537 Y108.976 E0.02026
G1 X125.453 Y108.124 E0.02687
G1 X124.547 Y108.124 E0.02843
G1 X124.463 Y108.976 E0.02687
G1 X124.275 Y109.595 E0.02026
G1 X123.971 Y110.164 E0.02026
