; generated by PrusaSlicer 2.3.1+win64 on 2021-12-01 at 23:53:20 UTC

; 

; external perimeters extrusion width = 0.45mm
; perimeters extrusion width = 0.45mm
; infill extrusion width = 0.45mm
; solid infill extrusion width = 0.45mm
; top infill extrusion width = 0.40mm
; support material extrusion width = 0.35mm
; first layer extrusion width = 0.42mm

M73 P0 R43
M201 X9000 Y9000 Z500 E10000 ; sets maximum accelerations, mm/sec^2
M203 X500 Y500 Z12 E120 ; sets maximum feedrates, mm/sec
M204 P2000 R1500 T2000 ; sets acceleration (P, T) and retract acceleration (R), mm/sec^2
M205 X10.00 Y10.00 Z0.20 E2.50 ; sets the jerk limits, mm/sec
M205 S0 T0 ; sets the minimum extruding and travel feed rate, mm/sec
M107
;TYPE:Custom
M862.3 P "MK2S" ; printer model check
M862.1 P0.4 ; nozzle diameter check
M115 U3.2.3 ; tell printer latest fw version
G90 ; use absolute coordinates
M83 ; extruder relative mode
M204 S2000 T1500 ; MK2 firmware only supports the old M204 format
M104 S215 ; set extruder temp
M140 S60 ; set bed temp
M190 S60 ; wait for bed temp
M109 S215 ; wait for extruder temp
G28 W ; home all without mesh bed level
G80 ; mesh bed leveling
G1 Y-3.0 F1000.0 ; go outside print area
G92 E0.0
G1 X60.0 E9.0  F1000.0 ; intro line
G1 X100.0 E12.5 F1000.0 ; intro line
G92 E0.0
G21 ; set units to millimeters
G90 ; use absolute coordinates
M83 ; use relative distances for extrusion
M900 K0.06 ; Filament gcode LA 1.5
M900 K30 ; Filament gcode LA 1.0
;LAYER_CHANGE
;Z:0.2
;HEIGHT:0.2
;BEFORE_LAYER_CHANGE
G92 E0.0
;0.2


G1 E-0.80000 F2100.000
G1 Z0.600 F10800.000
;AFTER_LAYER_CHANGE
;0.2
G1 X119.200 Y99.276
G1 Z0.200
G1 E0.80000 F2100.000
M204 S1000
;TYPE:Support material
;WIDTH:0.42
G1 F1200.000
G1 X117.810 Y100.666 E0.06164
G1 X118.344 Y101.200 E0.02365
G1 X119.781 Y99.762 E0.06376
G1 X120.489 Y100.121 E0.02487
G1 X118.877 Y101.733 E0.07148
G1 X119.410 Y102.266 E0.02365
G1 X121.196 Y100.480 E0.07919
G1 X121.475 Y100.622 E0.00981
G1 X121.798 Y100.945 E0.01432
G1 X119.943 Y102.799 E0.08224
G1 X120.477 Y103.333 E0.02365
G1 X122.331 Y101.478 E0.08224
G1 X122.865 Y102.011 E0.02365
G1 X121.010 Y103.866 E0.08224
G1 X121.543 Y104.399 E0.02365
G1 X127.368 Y98.575 E0.25826
G1 X127.901 Y99.108 E0.02365
G1 X122.076 Y104.933 E0.25826
G1 X122.610 Y105.466 E0.02365
G1 X128.434 Y99.641 E0.25826
G1 X128.967 Y100.175 E0.02365
G1 X123.023 Y106.119 E0.26358
G1 X123.118 Y101.977 F10800.000
;TYPE:Support material interface
;WIDTH:0.35
G1 F1200.000
G1 X124.847 Y100.248 E0.06244
G1 X124.489 Y99.889 E0.01295
G1 X122.857 Y101.521 E0.05891
G1 X122.499 Y101.162 E0.01295
G1 X124.130 Y99.531 E0.05891
G1 X123.772 Y99.172 E0.01295
G1 X122.578 Y100.366 E0.04311
G1 X123.318 Y98.909 E0.04173
G1 X123.511 Y98.716 E0.00696
G1 X122.524 Y99.152 F10800.000
;TYPE:Support material
;WIDTH:0.42
G1 F1200.000
G1 X125.234 Y96.442 E0.12019
G1 X125.768 Y96.975 E0.02365
G1 X123.913 Y98.830 E0.08224
G1 X124.446 Y99.363 E0.02365
G1 X126.301 Y97.508 E0.08224
G1 X126.834 Y98.042 E0.02365
G1 X124.860 Y100.016 E0.08756
G1 X121.800 Y97.558 F10800.000
;TYPE:Support material interface
;WIDTH:0.35
G1 F1200.000
G1 X122.077 Y97.282 E0.00999
G1 X122.727 Y97.883 F10800.000
;TYPE:Support material
;WIDTH:0.42
G1 F1200.000
G1 X124.701 Y95.909 E0.08756
G1 X124.168 Y95.375 E0.02365
G1 X122.313 Y97.230 E0.08224
G1 X121.780 Y96.697 E0.02365
G1 X123.755 Y94.722 E0.08756
G1 E-0.80000 F2100.000
G1 Z0.800 F10800.000
G1 X104.309 Y104.114
G1 Z0.200
G1 E0.80000 F2100.000
;TYPE:Perimeter
G1 F1200.000
G1 X89.911 Y96.801 E0.50634
G1 X85.639 Y105.213 E0.29583
G1 X78.235 Y101.453 E0.26036
G1 X82.882 Y92.305 E0.32172
G1 X103.947 Y103.004 E0.74080
G1 X109.381 Y92.305 E0.37625
G1 X121.752 Y98.588 E0.43506
G1 X121.378 Y99.324 E0.02589
G1 X109.743 Y93.415 E0.40917
G1 X104.336 Y104.060 E0.37437
G1 X104.475 Y104.621 F10800.000
;TYPE:External perimeter
G1 F1200.000
G1 X90.077 Y97.308 E0.50634
G1 X86.860 Y103.642 E0.22273
G1 X88.033 Y104.237 E0.04126
M73 P0 R42
G1 X87.648 Y104.994 E0.02662
G1 X86.475 Y104.398 E0.04126
G1 X85.804 Y105.720 E0.04649
G1 X77.728 Y101.619 E0.28400
G1 X78.399 Y100.297 E0.04649
G1 X77.226 Y99.701 E0.04126
G1 X77.611 Y98.944 E0.02662
G1 X78.784 Y99.540 E0.04126
G1 X82.716 Y91.798 E0.27226
G1 X103.781 Y102.497 E0.74080
G1 X109.215 Y91.798 E0.37625
G1 X122.259 Y98.423 E0.45871
G1 X121.544 Y99.831 E0.04953
G1 X109.909 Y93.922 E0.40917
G1 X104.502 Y104.567 E0.37437
G1 X104.356 Y104.239 F10800.000
G1 E-0.80000 F2100.000
G1 Z0.800 F10800.000
G1 X89.930 Y96.348
G1 Z0.200
G1 E0.80000 F2100.000
;TYPE:Gap fill
;WIDTH:0.491454
G1 F1200.000
G1 X103.928 Y103.457 E0.58554
M73 P1 R42
G1 X104.111 Y103.507 E0.00708
G1 X104.230 Y103.359 E0.00707
G1 X109.461 Y93.060 E0.43082
G1 X109.579 Y92.912 E0.00707
G1 X109.762 Y92.961 E0.00708
G1 X121.397 Y98.871 E0.48670
G1 E-0.80000 F2100.000
G1 Z0.800 F10800.000
G1 X87.673 Y104.531
G1 Z0.200
G1 E0.80000 F2100.000
;WIDTH:0.514714
G1 F1200.000
G1 X86.499 Y103.935 E0.05162
G1 E-0.80000 F2100.000
G1 Z0.800 F10800.000
G1 X89.699 Y96.553
G1 Z0.200
G1 E0.80000 F2100.000
;TYPE:Solid infill
;WIDTH:0.431126
G1 F1200.000
G1 X88.746 Y95.601 E0.04348
G1 X87.631 Y95.034 E0.04039
G1 X89.528 Y96.931 E0.08661
G1 X89.343 Y97.295 E0.01318
G1 X86.515 Y94.467 E0.12909
G1 X85.399 Y93.901 E0.04039
G1 X89.158 Y97.659 E0.17158
G1 X88.973 Y98.023 E0.01318
G1 X84.284 Y93.334 E0.21407
G1 X83.168 Y92.767 E0.04039
G1 X88.788 Y98.388 E0.25656
G1 X88.603 Y98.752 E0.01318
G1 X82.848 Y92.996 E0.26275
G1 X82.663 Y93.360 E0.01318
G1 X88.418 Y99.116 E0.26275
G1 X88.233 Y99.480 E0.01318
G1 X82.478 Y93.724 E0.26275
G1 X82.293 Y94.088 E0.01318
G1 X88.048 Y99.844 E0.26275
G1 X87.864 Y100.208 E0.01318
G1 X82.108 Y94.452 E0.26275
G1 X81.923 Y94.816 E0.01318
G1 X87.679 Y100.572 E0.26275
G1 X87.494 Y100.936 E0.01318
G1 X81.738 Y95.181 E0.26275
G1 X81.553 Y95.545 E0.01318
G1 X87.309 Y101.300 E0.26275
G1 X87.124 Y101.664 E0.01318
G1 X81.368 Y95.909 E0.26275
G1 X81.183 Y96.273 E0.01318
G1 X86.939 Y102.028 E0.26275
G1 X86.754 Y102.393 E0.01318
G1 X80.998 Y96.637 E0.26275
G1 X80.813 Y97.001 E0.01318
G1 X86.569 Y102.757 E0.26275
G1 X86.384 Y103.121 E0.01318
G1 X80.629 Y97.365 E0.26275
G1 X80.444 Y97.729 E0.01318
G1 X86.199 Y103.485 E0.26275
G1 X86.014 Y103.849 E0.01318
G1 X80.259 Y98.093 E0.26275
G1 X80.074 Y98.457 E0.01318
G1 X85.829 Y104.213 E0.26275
G1 X85.645 Y104.577 E0.01318
G1 X79.889 Y98.821 E0.26275
G1 X79.704 Y99.185 E0.01318
G1 X85.184 Y104.665 E0.25015
G1 X84.068 Y104.099 E0.04039
G1 X79.519 Y99.550 E0.20766
G1 X79.334 Y99.914 E0.01318
G1 X82.952 Y103.532 E0.16517
G1 X81.837 Y102.965 E0.04039
G1 X79.149 Y100.278 E0.12269
G1 X78.964 Y100.642 E0.01318
G1 X80.721 Y102.399 E0.08020
G1 X79.605 Y101.832 E0.04039
G1 X78.653 Y100.880 E0.04347
G1 X78.760 Y100.004 F10800.000
;TYPE:Gap fill
;WIDTH:0.514713
G1 F1200.000
G1 X77.587 Y99.408 E0.05162
G1 E-0.80000 F2100.000
G1 Z0.800 F10800.000
G1 X121.104 Y94.380
G1 Z0.200
G1 E0.80000 F2100.000
;TYPE:Perimeter
;WIDTH:0.42
G1 F1200.000
G1 X120.860 Y94.380 E0.00767
G1 X120.380 Y94.285 E0.01534
G1 X119.928 Y94.098 E0.01534
G1 X119.521 Y93.826 E0.01534
G1 X119.175 Y93.480 E0.01534
G1 X118.904 Y93.073 E0.01534
G1 X118.716 Y92.621 E0.01534
G1 X118.621 Y92.141 E0.01534
G1 X118.621 Y91.652 E0.01534
G1 X118.716 Y91.172 E0.01534
G1 X118.904 Y90.720 E0.01534
G1 X119.175 Y90.314 E0.01534
G1 X119.521 Y89.968 E0.01534
G1 X119.928 Y89.696 E0.01534
G1 X120.380 Y89.509 E0.01534
G1 X120.855 Y89.414 E0.01519
G1 X121.395 Y89.423 E0.01693
G1 X121.829 Y89.509 E0.01386
G1 X122.281 Y89.696 E0.01534
G1 X122.687 Y89.968 E0.01534
G1 X123.033 Y90.314 E0.01534
G1 X123.305 Y90.720 E0.01534
G1 X123.492 Y91.172 E0.01534
G1 X123.588 Y91.652 E0.01534
G1 X123.588 Y92.141 E0.01534
G1 X123.492 Y92.621 E0.01534
G1 X123.305 Y93.073 E0.01534
G1 X123.033 Y93.480 E0.01534
G1 X122.687 Y93.826 E0.01534
G1 X122.281 Y94.098 E0.01534
G1 X121.829 Y94.285 E0.01534
G1 X121.349 Y94.380 E0.01534
G1 X121.164 Y94.380 E0.00579
G1 X121.104 Y94.757 F10800.000
;TYPE:External perimeter
G1 F1200.000
G1 X120.823 Y94.757 E0.00883
G1 X120.270 Y94.647 E0.01767
G1 X119.749 Y94.432 E0.01767
G1 X119.281 Y94.119 E0.01767
G1 X118.883 Y93.720 E0.01767
G1 X118.569 Y93.252 E0.01767
G1 X118.354 Y92.731 E0.01767
G1 X118.244 Y92.179 E0.01767
G1 X118.244 Y91.615 E0.01767
G1 X118.354 Y91.062 E0.01767
G1 X118.569 Y90.542 E0.01767
G1 X118.883 Y90.073 E0.01767
G1 X119.281 Y89.675 E0.01767
G1 X119.749 Y89.362 E0.01767
G1 X120.270 Y89.146 E0.01767
G1 X120.821 Y89.037 E0.01762
G1 X121.435 Y89.046 E0.01926
G1 X121.939 Y89.146 E0.01609
G1 X122.459 Y89.362 E0.01767
G1 X122.928 Y89.675 E0.01767
G1 X123.326 Y90.073 E0.01767
G1 X123.639 Y90.542 E0.01767
G1 X123.855 Y91.062 E0.01767
G1 X123.965 Y91.615 E0.01767
G1 X123.965 Y92.179 E0.01767
G1 X123.855 Y92.731 E0.01767
G1 X123.639 Y93.252 E0.01767
G1 X123.326 Y93.720 E0.01767
G1 X122.928 Y94.119 E0.01767
G1 X122.459 Y94.432 E0.01767
G1 X121.939 Y94.647 E0.01767
G1 X121.386 Y94.757 E0.01767
G1 X121.164 Y94.757 E0.00695
G1 X120.953 Y94.520 F10800.000
G1 X123.294 Y90.989
;TYPE:Solid infill
;WIDTH:0.441106
G1 F1200.000
G1 X122.462 Y90.157 E0.03896
G1 X122.147 Y89.947 E0.01255
G1 X121.746 Y89.781 E0.01435
G1 X121.467 Y89.725 E0.00944
G1 X123.276 Y91.534 E0.08472
G1 X123.305 Y91.680 E0.00492
G1 X123.303 Y92.124 E0.01471
G1 X120.877 Y89.698 E0.11359
G1 X120.416 Y89.800 E0.01564
G1 X123.201 Y92.586 E0.13042
G1 X123.029 Y92.977 E0.01415
G1 X120.024 Y89.972 E0.14071
G1 X119.702 Y90.188 E0.01284
G1 X119.689 Y90.200 E0.00059
G1 X122.801 Y93.312 E0.14572
G1 X122.520 Y93.594 E0.01318
G1 X119.408 Y90.482 E0.14572
G1 X119.179 Y90.817 E0.01342
G1 X122.185 Y93.822 E0.14071
G1 X121.793 Y93.993 E0.01415
G1 X119.008 Y91.208 E0.13042
G1 X118.906 Y91.669 E0.01564
G1 X121.332 Y94.095 E0.11359
G1 X120.888 Y94.097 E0.01471
G1 X120.742 Y94.068 E0.00492
G1 X118.933 Y92.259 E0.08471
G1 X118.988 Y92.539 E0.00943
G1 X119.154 Y92.939 E0.01435
G1 X119.365 Y93.255 E0.01257
G1 X120.197 Y94.086 E0.03894
G1 E-0.80000 F2100.000
G1 Z0.800 F10800.000
G1 X120.666 Y88.513
G1 Z0.200
G1 E0.80000 F2100.000
;TYPE:Support material
;WIDTH:0.42
G1 F1200.000
G1 X121.298 Y87.881 E0.02802
G1 X121.327 Y87.876 E0.00092
G1 X128.448 Y80.737 E0.31616
G1 X128.979 Y81.267 E0.02354
G1 X121.523 Y88.723 E0.33060
G1 X122.056 Y89.256 E0.02365
G1 X129.512 Y81.801 E0.33060
G1 X130.045 Y82.334 E0.02365
G1 X125.981 Y86.398 E0.18022
G1 X125.779 Y86.444 E0.00648
G1 X125.488 Y86.557 E0.00979
G1 X125.320 Y86.651 E0.00604
G1 X125.052 Y86.856 E0.01055
G1 X124.827 Y87.106 E0.01055
G1 X124.663 Y87.371 E0.00979
G1 X124.539 Y87.684 E0.01055
G1 X124.493 Y87.886 E0.00649
G1 X122.589 Y89.790 E0.08442
G1 X123.123 Y90.323 E0.02365
G1 X124.590 Y88.855 E0.06507
G1 X124.746 Y89.165 E0.01087
G1 X124.842 Y89.304 E0.00528
G1 X125.015 Y89.497 E0.00814
G1 X123.656 Y90.856 E0.06027
G1 X124.189 Y91.390 E0.02365
G1 X125.670 Y89.909 E0.06566
G1 X125.943 Y89.985 E0.00889
G1 X126.134 Y90.012 E0.00604
G1 X126.446 Y90.012 E0.00979
G1 X126.667 Y89.978 E0.00702
G1 X124.722 Y91.923 E0.08624
G1 X125.256 Y92.456 E0.02365
G1 X134.343 Y83.369 E0.40294
G1 X134.876 Y83.902 E0.02365
G1 X125.789 Y92.989 E0.40294
G1 X126.322 Y93.523 E0.02365
G1 X135.409 Y84.436 E0.40294
G1 X135.943 Y84.969 E0.02365
G1 X126.855 Y94.056 E0.40294
G1 X127.389 Y94.589 E0.02365
G1 X136.476 Y85.502 E0.40294
G1 X137.009 Y86.035 E0.02365
G1 X127.922 Y95.122 E0.40294
M73 P2 R42
G1 X128.450 Y95.651 E0.02342
G1 X137.542 Y86.569 E0.40294
G1 X138.076 Y87.102 E0.02365
G1 X130.620 Y94.558 E0.33060
G1 X131.153 Y95.091 E0.02365
G1 X138.609 Y87.635 E0.33060
G1 X139.142 Y88.168 E0.02365
G1 X131.566 Y95.744 E0.33592
G1 X127.816 Y88.829 F10800.000
G1 F1200.000
G1 X133.809 Y82.836 E0.26575
G1 X133.276 Y82.302 E0.02365
G1 X128.004 Y87.575 E0.23379
G1 X127.834 Y87.225 E0.01221
G1 X127.592 Y86.920 E0.01219
G1 X132.743 Y81.769 E0.22841
G1 X132.210 Y81.236 E0.02365
G1 X126.817 Y86.629 E0.23913
G1 X126.433 Y88.887 F10800.000
;TYPE:Perimeter
G1 F1200.000
G1 X126.211 Y88.897 E0.00697
G1 X126.096 Y88.876 E0.00367
G1 X125.863 Y88.760 E0.00816
G1 X125.694 Y88.576 E0.00784
G1 X125.616 Y88.405 E0.00589
G1 X125.585 Y88.254 E0.00482
G1 X125.609 Y88.001 E0.00797
G1 X125.725 Y87.768 E0.00816
G1 X125.917 Y87.593 E0.00816
G1 X126.150 Y87.502 E0.00784
G1 X126.336 Y87.491 E0.00583
G1 X126.489 Y87.516 E0.00488
G1 X126.605 Y87.561 E0.00390
G1 X126.813 Y87.718 E0.00816
G1 X126.886 Y87.815 E0.00379
G1 X126.962 Y87.982 E0.00577
G1 X126.995 Y88.136 E0.00494
G1 X126.995 Y88.260 E0.00389
G1 X126.923 Y88.511 E0.00816
G1 X126.767 Y88.718 E0.00816
G1 X126.662 Y88.797 E0.00410
G1 X126.491 Y88.871 E0.00586
G1 X126.494 Y89.262 F10800.000
;TYPE:External perimeter
G1 F1200.000
G1 X126.185 Y89.276 E0.00971
G1 X125.992 Y89.240 E0.00613
G1 X125.805 Y89.168 E0.00629
G1 X125.635 Y89.062 E0.00629
G1 X125.487 Y88.927 E0.00629
G1 X125.368 Y88.770 E0.00617
G1 X125.256 Y88.523 E0.00851
G1 X125.208 Y88.293 E0.00736
G1 X125.208 Y88.095 E0.00622
G1 X125.245 Y87.898 E0.00629
G1 X125.317 Y87.711 E0.00629
G1 X125.423 Y87.540 E0.00629
G1 X125.558 Y87.392 E0.00629
G1 X125.718 Y87.271 E0.00629
G1 X125.897 Y87.182 E0.00629
G1 X126.087 Y87.128 E0.00617
G1 X126.356 Y87.112 E0.00845
G1 X126.589 Y87.151 E0.00742
G1 X126.774 Y87.222 E0.00622
G1 X126.945 Y87.328 E0.00629
G1 X127.093 Y87.463 E0.00629
G1 X127.212 Y87.620 E0.00618
G1 X127.323 Y87.863 E0.00838
G1 X127.372 Y88.097 E0.00749
G1 X127.372 Y88.295 E0.00621
G1 X127.335 Y88.492 E0.00629
G1 X127.262 Y88.679 E0.00629
G1 X127.157 Y88.850 E0.00629
G1 X127.022 Y88.998 E0.00629
G1 X126.862 Y89.119 E0.00629
G1 X126.682 Y89.208 E0.00629
G1 X126.552 Y89.245 E0.00425
G1 X126.300 Y89.020 F10800.000
G1 X125.705 Y88.182
;TYPE:Solid infill
;WIDTH:0.447024
G1 F1200.000
G1 X126.070 Y88.547 E0.01734
G1 X126.187 Y88.605 E0.00437
G1 X126.373 Y88.607 E0.00626
G1 X126.510 Y88.553 E0.00496
G1 X126.582 Y88.487 E0.00326
G1 X125.997 Y87.903 E0.02778
G1 X126.069 Y87.837 E0.00326
G1 X126.211 Y87.782 E0.00514
G1 X126.321 Y87.775 E0.00368
G1 X126.401 Y87.788 E0.00273
G1 X126.509 Y87.842 E0.00404
G1 X126.874 Y88.208 E0.01738
G1 E-0.80000 F2100.000
G1 Z0.800 F10800.000
G1 X133.142 Y96.697
G1 Z0.200
G1 E0.80000 F2100.000
;TYPE:Perimeter
;WIDTH:0.42
G1 F1200.000
G1 X126.762 Y96.697 E0.20005
G1 X126.762 Y93.104 E0.11267
G1 X130.317 Y93.104 E0.11145
G1 X130.317 Y92.080 E0.03211
G1 X139.522 Y92.080 E0.28864
G1 X139.522 Y96.697 E0.14478
G1 X133.202 Y96.697 E0.19817
G1 X133.142 Y97.074 F10800.000
;TYPE:External perimeter
G1 F1200.000
G1 X126.385 Y97.074 E0.21187
G1 X126.385 Y92.727 E0.13632
G1 X129.939 Y92.727 E0.11145
G1 X129.939 Y91.702 E0.03211
G1 X139.899 Y91.702 E0.31229
G1 X139.899 Y97.074 E0.16843
G1 X133.202 Y97.074 E0.20999
G1 X132.870 Y96.781 F10800.000
G1 E-0.80000 F2100.000
G1 Z0.800 F10800.000
G1 X139.409 Y92.978
G1 Z0.200
G1 E0.80000 F2100.000
;TYPE:Solid infill
;WIDTH:0.43071
G1 F1200.000
G1 X138.794 Y92.362 E0.02806
G1 X138.246 Y92.362 E0.01768
G1 X139.240 Y93.356 E0.04533
G1 X139.240 Y93.905 E0.01768
G1 X137.697 Y92.362 E0.07034
G1 X137.149 Y92.362 E0.01768
G1 X139.240 Y94.453 E0.09535
G1 X139.240 Y95.002 E0.01768
G1 X136.600 Y92.362 E0.12035
G1 X136.052 Y92.362 E0.01768
G1 X139.240 Y95.550 E0.14536
G1 X139.240 Y96.098 E0.01768
G1 X135.503 Y92.362 E0.17037
G1 X134.955 Y92.362 E0.01768
G1 X139.007 Y96.414 E0.18478
G1 X138.459 Y96.414 E0.01768
G1 X134.407 Y92.362 E0.18478
G1 X133.858 Y92.362 E0.01768
G1 X137.910 Y96.414 E0.18478
G1 X137.362 Y96.414 E0.01768
G1 X133.310 Y92.362 E0.18478
G1 X132.761 Y92.362 E0.01768
G1 X136.813 Y96.414 E0.18478
G1 X136.265 Y96.414 E0.01768
G1 X132.213 Y92.362 E0.18478
G1 X131.664 Y92.362 E0.01768
G1 X135.716 Y96.414 E0.18478
G1 X135.168 Y96.414 E0.01768
G1 X131.116 Y92.362 E0.18478
G1 X130.599 Y92.362 E0.01666
G1 X130.599 Y92.394 E0.00102
G1 X134.620 Y96.414 E0.18333
G1 X134.071 Y96.414 E0.01768
G1 X130.599 Y92.942 E0.15832
G1 X130.599 Y93.386 E0.01432
G1 X130.495 Y93.386 E0.00337
G1 X133.523 Y96.414 E0.13807
G1 X132.974 Y96.414 E0.01768
G1 X129.947 Y93.386 E0.13807
G1 X129.398 Y93.386 E0.01768
G1 X132.426 Y96.414 E0.13807
G1 X131.878 Y96.414 E0.01768
G1 X128.850 Y93.386 E0.13807
G1 X128.301 Y93.386 E0.01768
