; generated by PrusaSlicer 2.3.1+win64 on 2021-09-15 at 17:42:54 UTC

; 

; external perimeters extrusion width = 0.45mm
; perimeters extrusion width = 0.45mm
; infill extrusion width = 0.45mm
; solid infill extrusion width = 0.45mm
; top infill extrusion width = 0.40mm
; support material extrusion width = 0.35mm
; first layer extrusion width = 0.42mm

M73 P0 R32
M201 X9000 Y9000 Z500 E10000 ; sets maximum accelerations, mm/sec^2
M203 X500 Y500 Z12 E120 ; sets maximum feedrates, mm/sec
M204 P2000 R1500 T2000 ; sets acceleration (P, T) and retract acceleration (R), mm/sec^2
M205 X10.00 Y10.00 Z0.20 E2.50 ; sets the jerk limits, mm/sec
M205 S0 T0 ; sets the minimum extruding and travel feed rate, mm/sec
M107
;TYPE:Custom
M862.3 P "MK2S" ; printer model check
M862.1 P0.4 ; nozzle diameter check
M115 U3.2.3 ; tell printer latest fw version
G90 ; use absolute coordinates
M83 ; extruder relative mode
M204 S2000 T1500 ; MK2 firmware only supports the old M204 format
M104 S215 ; set extruder temp
M140 S60 ; set bed temp
M190 S60 ; wait for bed temp
M109 S215 ; wait for extruder temp
G28 W ; home all without mesh bed level
G80 ; mesh bed leveling
G1 Y-3.0 F1000.0 ; go outside print area
G92 E0.0
G1 X60.0 E9.0  F1000.0 ; intro line
G1 X100.0 E12.5 F1000.0 ; intro line
G92 E0.0
G21 ; set units to millimeters
G90 ; use absolute coordinates
M83 ; use relative distances for extrusion
M900 K0.05 ; Filament gcode LA 1.5
M900 K30 ; Filament gcode LA 1.0
;LAYER_CHANGE
;Z:0.2
;HEIGHT:0.2
;BEFORE_LAYER_CHANGE
G92 E0.0
;0.2


G1 E-0.80000 F2100.000
G1 Z0.600 F10800.000
;AFTER_LAYER_CHANGE
;0.2
G1 X122.738 Y88.023
G1 Z0.200
G1 E0.80000 F2100.000
M204 S1000
;TYPE:Support material
;WIDTH:0.42
G1 F1200.000
G1 X122.738 Y98.737 E0.33592
G1 X121.983 Y98.737 E0.02365
G1 X121.983 Y88.193 E0.33060
M73 P0 R31
G1 X121.229 Y88.193 E0.02365
G1 X121.229 Y98.737 E0.33060
G1 X120.475 Y98.737 E0.02365
G1 X120.475 Y88.193 E0.33060
G1 X119.721 Y88.193 E0.02365
G1 X119.721 Y93.951 E0.18056
G1 X119.548 Y93.778 E0.00768
G1 X118.967 Y93.778 E0.01822
G1 X118.967 Y88.193 E0.17513
G1 X118.213 Y88.193 E0.02365
G1 X118.213 Y93.778 E0.17513
G1 X117.458 Y93.778 E0.02365
G1 X117.458 Y88.193 E0.17513
G1 X116.704 Y88.193 E0.02365
G1 X116.704 Y93.778 E0.17513
G1 X115.950 Y93.778 E0.02365
G1 X115.950 Y85.886 E0.24747
G1 X115.196 Y85.886 E0.02365
G1 X115.196 Y93.778 E0.24747
G1 X114.442 Y93.778 E0.02365
G1 X114.442 Y85.886 E0.24747
G1 X113.688 Y85.886 E0.02365
G1 X113.688 Y93.778 E0.24747
G1 X112.933 Y93.778 E0.02365
G1 X112.933 Y85.886 E0.24747
G1 X112.179 Y85.886 E0.02365
G1 X112.179 Y93.778 E0.24747
G1 X111.425 Y93.778 E0.02365
G1 X111.425 Y85.886 E0.24747
G1 X110.671 Y85.886 E0.02365
G1 X110.671 Y93.778 E0.24747
G1 X109.917 Y93.778 E0.02365
G1 X109.917 Y85.886 E0.24747
G1 X109.163 Y85.886 E0.02365
G1 X109.163 Y93.778 E0.24747
G1 X108.817 Y93.778 E0.01084
G1 X108.509 Y94.086 E0.01366
G1 X108.509 Y98.737 E0.14581
G1 X108.409 Y98.737 E0.00314
G1 X108.409 Y85.886 E0.40294
G1 X107.654 Y85.886 E0.02365
G1 X107.654 Y98.737 E0.40294
G1 X107.201 Y98.737 E0.01421
G1 X107.201 Y111.264 E0.39277
G1 X107.654 Y111.264 E0.01421
G1 X107.654 Y124.114 E0.40293
G1 X108.409 Y124.114 E0.02365
G1 X108.409 Y111.263 E0.40294
M73 P1 R31
G1 X108.509 Y111.263 E0.00314
G1 X108.509 Y115.914 E0.14581
G1 X108.817 Y116.222 E0.01366
G1 X109.163 Y116.222 E0.01084
G1 X109.163 Y124.114 E0.24747
G1 X109.917 Y124.114 E0.02365
G1 X109.917 Y116.222 E0.24747
G1 X110.671 Y116.222 E0.02365
G1 X110.671 Y124.114 E0.24747
G1 X111.425 Y124.114 E0.02365
G1 X111.425 Y116.222 E0.24747
G1 X112.179 Y116.222 E0.02365
G1 X112.179 Y124.114 E0.24747
G1 X112.933 Y124.114 E0.02365
G1 X112.933 Y116.222 E0.24747
G1 X113.688 Y116.222 E0.02365
G1 X113.688 Y124.114 E0.24747
G1 X114.442 Y124.114 E0.02365
G1 X114.442 Y116.222 E0.24747
G1 X115.196 Y116.222 E0.02365
G1 X115.196 Y124.114 E0.24747
G1 X115.950 Y124.114 E0.02365
G1 X115.950 Y116.222 E0.24747
G1 X116.704 Y116.222 E0.02365
G1 X116.704 Y121.807 E0.17513
G1 X117.458 Y121.807 E0.02365
G1 X117.458 Y116.222 E0.17513
G1 X118.213 Y116.222 E0.02365
G1 X118.213 Y121.807 E0.17513
G1 X118.967 Y121.807 E0.02365
G1 X118.967 Y116.222 E0.17513
G1 X119.548 Y116.222 E0.01822
G1 X119.721 Y116.049 E0.00768
G1 X119.721 Y121.807 E0.18056
G1 X120.475 Y121.807 E0.02365
G1 X120.475 Y111.263 E0.33060
G1 X121.229 Y111.263 E0.02365
G1 X121.229 Y121.807 E0.33060
G1 X121.983 Y121.807 E0.02365
G1 X121.983 Y111.263 E0.33060
G1 X122.738 Y111.263 E0.02365
G1 X122.738 Y121.977 E0.33592
G1 E-0.80000 F2100.000
G1 Z0.800 F10800.000
G1 X106.900 Y124.284
G1 Z0.200
G1 E0.80000 F2100.000
G1 F1200.000
G1 X106.900 Y85.886 E1.20396
G1 X106.146 Y85.886 E0.02365
G1 X106.146 Y124.114 E1.19864
G1 X105.392 Y124.114 E0.02365
G1 X105.392 Y85.886 E1.19864
G1 X104.638 Y85.886 E0.02365
G1 X104.638 Y124.114 E1.19864
G1 X103.884 Y124.114 E0.02365
G1 X103.884 Y85.886 E1.19864
G1 X103.129 Y85.886 E0.02365
G1 X103.129 Y124.114 E1.19864
M73 P2 R31
G1 X102.375 Y124.114 E0.02365
G1 X102.375 Y85.886 E1.19864
G1 X101.621 Y85.886 E0.02365
G1 X101.621 Y124.114 E1.19864
G1 X100.867 Y124.114 E0.02365
G1 X100.867 Y85.886 E1.19864
G1 X100.113 Y85.886 E0.02365
G1 X100.113 Y124.114 E1.19864
G1 X99.359 Y124.114 E0.02365
G1 X99.359 Y85.886 E1.19864
G1 X98.604 Y85.886 E0.02365
G1 X98.604 Y124.114 E1.19864
G1 X97.850 Y124.114 E0.02365
G1 X97.850 Y85.886 E1.19864
G1 X97.096 Y85.886 E0.02365
G1 X97.096 Y124.284 E1.20396
G1 E-0.80000 F2100.000
G1 Z0.800 F10800.000
G1 X140.837 Y115.056
G1 Z0.200
G1 E0.80000 F2100.000
G1 F1200.000
G1 X140.837 Y114.738 E0.00998
G1 X140.083 Y114.738 E0.02365
G1 X140.083 Y114.886 E0.00466
G1 X139.329 Y114.886 E0.02365
G1 X139.329 Y114.738 E0.00466
G1 X138.575 Y114.738 E0.02365
G1 X138.575 Y114.886 E0.00466
G1 X137.821 Y114.886 E0.02365
G1 X137.821 Y112.263 E0.08224
G1 X137.067 Y112.263 E0.02365
G1 X137.067 Y114.886 E0.08224
G1 X136.312 Y114.886 E0.02365
G1 X136.312 Y112.263 E0.08224
G1 X135.558 Y112.263 E0.02365
G1 X135.558 Y114.886 E0.08224
M73 P3 R31
G1 X134.804 Y114.886 E0.02365
G1 X134.804 Y112.263 E0.08224
G1 X134.050 Y112.263 E0.02365
G1 X134.050 Y114.886 E0.08224
G1 X133.296 Y114.886 E0.02365
G1 X133.296 Y112.263 E0.08224
G1 X132.542 Y112.263 E0.02365
G1 X132.542 Y114.886 E0.08224
G1 X131.787 Y114.886 E0.02365
G1 X131.787 Y112.263 E0.08224
G1 X131.579 Y112.263 E0.00653
G1 X131.579 Y109.989 E0.07130
G1 X131.033 Y109.989 E0.01711
G1 X131.033 Y114.886 E0.15354
G1 X130.279 Y114.886 E0.02365
G1 X130.279 Y109.989 E0.15354
G1 X129.525 Y109.989 E0.02365
G1 X129.525 Y115.056 E0.15886
G1 X132.099 Y112.059 F10800.000
;TYPE:Support material interface
;WIDTH:0.35
G1 F1200.000
G1 X132.099 Y109.954 E0.05375
G1 X132.606 Y109.954 E0.01295
G1 X132.606 Y111.921 E0.05022
G1 X133.113 Y111.921 E0.01295
G1 X133.113 Y109.954 E0.05022
G1 X133.620 Y109.954 E0.01295
G1 X133.620 Y111.921 E0.05022
G1 X134.127 Y111.921 E0.01295
G1 X134.127 Y109.954 E0.05022
G1 X134.635 Y109.954 E0.01295
G1 X134.635 Y111.921 E0.05022
G1 X135.142 Y111.921 E0.01295
G1 X135.142 Y109.954 E0.05022
G1 X135.649 Y109.954 E0.01295
G1 X135.649 Y111.921 E0.05022
G1 X136.156 Y111.921 E0.01295
G1 X136.156 Y109.954 E0.05022
G1 X136.663 Y109.954 E0.01295
G1 X136.663 Y111.921 E0.05022
G1 X137.170 Y111.921 E0.01295
G1 X137.170 Y109.954 E0.05022
G1 X137.677 Y109.954 E0.01295
G1 X137.677 Y112.059 E0.05375
G1 E-0.80000 F2100.000
G1 Z0.800 F10800.000
G1 X137.677 Y100.184
G1 Z0.200
G1 E0.80000 F2100.000
G1 F1200.000
G1 X137.677 Y98.079 E0.05375
G1 X137.170 Y98.079 E0.01295
G1 X137.170 Y100.046 E0.05022
G1 X136.663 Y100.046 E0.01295
G1 X136.663 Y98.079 E0.05022
G1 X136.156 Y98.079 E0.01295
G1 X136.156 Y100.046 E0.05022
G1 X135.649 Y100.046 E0.01295
G1 X135.649 Y98.079 E0.05022
G1 X135.142 Y98.079 E0.01295
G1 X135.142 Y100.046 E0.05022
G1 X134.635 Y100.046 E0.01295
G1 X134.635 Y98.079 E0.05022
G1 X134.127 Y98.079 E0.01295
G1 X134.127 Y100.046 E0.05022
G1 X133.620 Y100.046 E0.01295
G1 X133.620 Y98.079 E0.05022
G1 X133.113 Y98.079 E0.01295
G1 X133.113 Y100.046 E0.05022
G1 X132.606 Y100.046 E0.01295
G1 X132.606 Y98.079 E0.05022
G1 X132.099 Y98.079 E0.01295
G1 X132.099 Y100.184 E0.05375
G1 X129.525 Y100.180 F10800.000
;TYPE:Support material
;WIDTH:0.42
G1 F1200.000
G1 X129.525 Y95.114 E0.15886
G1 X130.279 Y95.114 E0.02365
G1 X130.279 Y100.011 E0.15354
G1 X131.033 Y100.011 E0.02365
G1 X131.033 Y95.114 E0.15354
G1 X131.787 Y95.114 E0.02365
G1 X131.787 Y97.737 E0.08224
G1 X132.542 Y97.737 E0.02365
G1 X132.542 Y95.114 E0.08224
G1 X133.296 Y95.114 E0.02365
G1 X133.296 Y97.737 E0.08224
G1 X134.050 Y97.737 E0.02365
G1 X134.050 Y95.114 E0.08224
G1 X134.804 Y95.114 E0.02365
G1 X134.804 Y97.737 E0.08224
G1 X135.558 Y97.737 E0.02365
G1 X135.558 Y95.114 E0.08224
G1 X136.312 Y95.114 E0.02365
G1 X136.312 Y97.737 E0.08224
G1 X137.067 Y97.737 E0.02365
G1 X137.067 Y95.114 E0.08224
G1 X137.821 Y95.114 E0.02365
G1 X137.821 Y97.737 E0.08224
G1 X138.135 Y97.737 E0.00986
G1 X138.135 Y95.571 E0.06792
G1 X138.443 Y95.262 E0.01366
G1 X138.575 Y95.262 E0.00412
G1 X138.575 Y95.114 E0.00466
G1 X139.329 Y95.114 E0.02365
G1 X139.329 Y95.262 E0.00466
G1 X140.083 Y95.262 E0.02365
G1 X140.083 Y95.114 E0.00466
G1 X140.837 Y95.114 E0.02365
G1 X140.837 Y95.432 E0.00998
G1 E-0.80000 F2100.000
G1 Z0.800 F10800.000
G1 X118.743 Y115.109
G1 Z0.200
G1 E0.80000 F2100.000
;TYPE:Perimeter
G1 F1200.000
G1 X109.622 Y115.109 E0.28598
G1 X109.622 Y94.891 E0.63390
G1 X118.743 Y94.891 E0.28598
M73 P3 R30
G1 X118.743 Y101.124 E0.19542
G1 X139.248 Y101.124 E0.64294
G1 X139.248 Y96.376 E0.14888
G1 X149.543 Y96.376 E0.32280
G1 X149.543 Y113.624 E0.54083
G1 X139.248 Y113.624 E0.32280
G1 X139.248 Y108.876 E0.14888
G1 X118.743 Y108.876 E0.64294
G1 X118.743 Y115.049 E0.19353
G1 X119.120 Y115.486 F10800.000
;TYPE:External perimeter
G1 F1200.000
G1 X109.245 Y115.486 E0.30962
G1 X109.245 Y94.514 E0.65755
G1 X119.120 Y94.514 E0.30962
G1 X119.120 Y100.747 E0.19542
G1 X138.871 Y100.747 E0.61929
M73 P4 R30
G1 X138.871 Y95.998 E0.14888
G1 X149.921 Y95.998 E0.34644
G1 X149.921 Y114.002 E0.56448
G1 X138.871 Y114.002 E0.34644
G1 X138.871 Y109.253 E0.14888
G1 X119.120 Y109.253 E0.61929
G1 X119.120 Y115.426 E0.19353
G1 X118.886 Y115.162 F10800.000
G1 E-0.80000 F2100.000
G1 Z0.800 F10800.000
G1 X110.499 Y114.996
G1 Z0.200
G1 E0.80000 F2100.000
;TYPE:Solid infill
;WIDTH:0.42098
G1 F1200.000
G1 X109.905 Y114.401 E0.02643
G1 X109.905 Y113.866 E0.01681
G1 X110.864 Y114.826 E0.04266
G1 X111.399 Y114.826 E0.01681
G1 X109.905 Y113.332 E0.06643
G1 X109.905 Y112.797 E0.01681
G1 X111.934 Y114.826 E0.09020
G1 X112.468 Y114.826 E0.01681
G1 X109.905 Y112.262 E0.11397
G1 X109.905 Y111.728 E0.01681
G1 X113.003 Y114.826 E0.13774
G1 X113.538 Y114.826 E0.01681
G1 X109.905 Y111.193 E0.16150
G1 X109.905 Y110.658 E0.01681
G1 X114.072 Y114.826 E0.18527
G1 X114.607 Y114.826 E0.01681
G1 X109.905 Y110.124 E0.20904
G1 X109.905 Y109.589 E0.01681
G1 X115.142 Y114.826 E0.23281
G1 X115.676 Y114.826 E0.01681
G1 X109.905 Y109.054 E0.25658
G1 X109.905 Y108.520 E0.01681
G1 X116.211 Y114.826 E0.28035
G1 X116.745 Y114.826 E0.01681
G1 X109.905 Y107.985 E0.30412
G1 X109.905 Y107.450 E0.01681
G1 X117.280 Y114.826 E0.32789
G1 X117.815 Y114.826 E0.01681
G1 X109.905 Y106.916 E0.35166
G1 X109.905 Y106.381 E0.01681
G1 X118.349 Y114.826 E0.37543
G1 X118.460 Y114.826 E0.00347
G1 X118.460 Y114.402 E0.01334
G1 X109.905 Y105.846 E0.38034
G1 X109.905 Y105.312 E0.01681
G1 X118.460 Y113.867 E0.38034
G1 X118.460 Y113.332 E0.01681
G1 X109.905 Y104.777 E0.38034
G1 X109.905 Y104.243 E0.01681
G1 X118.460 Y112.798 E0.38034
G1 X118.460 Y112.263 E0.01681
G1 X109.905 Y103.708 E0.38034
G1 X109.905 Y103.173 E0.01681
G1 X118.460 Y111.728 E0.38034
G1 X118.460 Y111.194 E0.01681
G1 X109.905 Y102.639 E0.38034
G1 X109.905 Y102.104 E0.01681
G1 X118.460 Y110.659 E0.38034
G1 X118.460 Y110.124 E0.01681
G1 X109.905 Y101.569 E0.38034
G1 X109.905 Y101.035 E0.01681
G1 X118.460 Y109.590 E0.38034
G1 X118.460 Y109.055 E0.01681
G1 X109.905 Y100.500 E0.38034
G1 X109.905 Y99.965 E0.01681
G1 X118.533 Y108.593 E0.38358
G1 X119.068 Y108.593 E0.01681
G1 X109.905 Y99.431 E0.40735
G1 X109.905 Y98.896 E0.01681
G1 X119.602 Y108.593 E0.43112
M73 P5 R30
G1 X120.137 Y108.593 E0.01681
G1 X109.905 Y98.361 E0.45489
G1 X109.905 Y97.827 E0.01681
G1 X120.671 Y108.593 E0.47866
G1 X121.206 Y108.593 E0.01681
G1 X109.905 Y97.292 E0.50243
G1 X109.905 Y96.757 E0.01681
G1 X121.741 Y108.593 E0.52620
G1 X122.275 Y108.593 E0.01681
G1 X109.905 Y96.223 E0.54997
G1 X109.905 Y95.688 E0.01681
G1 X122.810 Y108.593 E0.57374
G1 X123.345 Y108.593 E0.01681
G1 X109.925 Y95.174 E0.59658
G1 X110.460 Y95.174 E0.01681
G1 X123.879 Y108.593 E0.59658
G1 X124.414 Y108.593 E0.01681
G1 X110.995 Y95.174 E0.59658
G1 X111.529 Y95.174 E0.01681
G1 X125.118 Y108.763 E0.60413
G1 E-0.80000 F2100.000
G1 Z0.800 F10800.000
G1 X118.630 Y95.858
G1 Z0.200
G1 E0.80000 F2100.000
G1 F1200.000
G1 X117.945 Y95.174 E0.03042
G1 X117.411 Y95.174 E0.01681
G1 X118.460 Y96.223 E0.04665
G1 X118.460 Y96.758 E0.01681
G1 X116.876 Y95.174 E0.07042
G1 X116.341 Y95.174 E0.01681
G1 X118.460 Y97.293 E0.09419
G1 X118.460 Y97.827 E0.01681
G1 X115.807 Y95.174 E0.11795
G1 X115.272 Y95.174 E0.01681
G1 X118.460 Y98.362 E0.14172
G1 X118.460 Y98.897 E0.01681
G1 X114.737 Y95.174 E0.16549
G1 X114.203 Y95.174 E0.01681
G1 X118.460 Y99.431 E0.18926
G1 X118.460 Y99.966 E0.01681
G1 X113.668 Y95.174 E0.21303
G1 X113.133 Y95.174 E0.01681
G1 X118.460 Y100.501 E0.23680
G1 X118.460 Y101.035 E0.01681
G1 X112.599 Y95.174 E0.26057
G1 X112.064 Y95.174 E0.01681
G1 X125.483 Y108.593 E0.59658
G1 X126.018 Y108.593 E0.01681
G1 X118.831 Y101.407 E0.31950
G1 X119.366 Y101.407 E0.01681
G1 X126.553 Y108.593 E0.31950
G1 X127.087 Y108.593 E0.01681
G1 X119.901 Y101.407 E0.31950
G1 X120.435 Y101.407 E0.01681
G1 X127.622 Y108.593 E0.31950
G1 X128.157 Y108.593 E0.01681
G1 X120.970 Y101.407 E0.31950
G1 X121.505 Y101.407 E0.01681
G1 X128.691 Y108.593 E0.31950
G1 X129.226 Y108.593 E0.01681
G1 X122.039 Y101.407 E0.31950
G1 X122.574 Y101.407 E0.01681
G1 X129.761 Y108.593 E0.31950
G1 X130.295 Y108.593 E0.01681
G1 X123.109 Y101.407 E0.31950
G1 X123.643 Y101.407 E0.01681
G1 X130.830 Y108.593 E0.31950
M73 P6 R30
G1 X131.365 Y108.593 E0.01681
G1 X124.178 Y101.407 E0.31950
G1 X124.712 Y101.407 E0.01681
G1 X131.899 Y108.593 E0.31950
G1 X132.434 Y108.593 E0.01681
G1 X125.247 Y101.407 E0.31950
G1 X125.782 Y101.407 E0.01681
G1 X132.969 Y108.593 E0.31950
G1 X133.503 Y108.593 E0.01681
G1 X126.316 Y101.407 E0.31950
G1 X126.851 Y101.407 E0.01681
G1 X134.038 Y108.593 E0.31950
G1 X134.573 Y108.593 E0.01681
G1 X127.386 Y101.407 E0.31950
G1 X127.920 Y101.407 E0.01681
G1 X135.107 Y108.593 E0.31950
G1 X135.642 Y108.593 E0.01681
G1 X128.455 Y101.407 E0.31950
G1 X128.990 Y101.407 E0.01681
G1 X136.177 Y108.593 E0.31950
G1 X136.711 Y108.593 E0.01681
G1 X129.524 Y101.407 E0.31950
G1 X130.059 Y101.407 E0.01681
G1 X137.246 Y108.593 E0.31950
G1 X137.781 Y108.593 E0.01681
G1 X130.594 Y101.407 E0.31950
G1 X131.128 Y101.407 E0.01681
G1 X138.315 Y108.593 E0.31950
G1 X138.850 Y108.593 E0.01681
G1 X131.663 Y101.407 E0.31950
G1 X132.198 Y101.407 E0.01681
G1 X144.133 Y113.342 E0.53060
G1 X144.667 Y113.342 E0.01681
G1 X132.732 Y101.407 E0.53060
G1 X133.267 Y101.407 E0.01681
G1 X145.202 Y113.342 E0.53060
G1 X145.737 Y113.342 E0.01681
G1 X133.802 Y101.407 E0.53060
G1 X134.336 Y101.407 E0.01681
G1 X146.271 Y113.342 E0.53060
G1 X146.806 Y113.342 E0.01681
G1 X134.871 Y101.407 E0.53060
G1 X135.406 Y101.407 E0.01681
G1 X147.341 Y113.342 E0.53060
M73 P6 R29
G1 X147.875 Y113.342 E0.01681
G1 X135.940 Y101.407 E0.53060
G1 X136.475 Y101.407 E0.01681
G1 X148.410 Y113.342 E0.53060
G1 X148.945 Y113.342 E0.01681
G1 X137.010 Y101.407 E0.53060
G1 X137.544 Y101.407 E0.01681
G1 X149.261 Y113.123 E0.52088
G1 X149.261 Y112.588 E0.01681
G1 X138.079 Y101.407 E0.49711
G1 X138.614 Y101.407 E0.01681
G1 X149.261 Y112.054 E0.47334
M73 P7 R29
G1 X149.261 Y111.519 E0.01681
G1 X139.148 Y101.407 E0.44957
G1 X139.531 Y101.407 E0.01204
G1 X139.531 Y101.255 E0.00477
G1 X149.261 Y110.984 E0.43255
G1 X149.261 Y110.450 E0.01681
G1 X139.531 Y100.720 E0.43255
G1 X139.531 Y100.186 E0.01681
G1 X149.261 Y109.915 E0.43255
