; G-Code generated by Simplify3D(R) Version 4.1.2
; Dec 5, 2019 at 6:36:58 PM
; Settings Summary
;   processName,Process1
;   applyToModels,VUK diffuser,VUK diffuser(2),VUK diffuser(3),VUK diffuser(2)(2),VUK diffuser(4)
;   profileName,Prusa Research Original Prusa i3 MK2 (modified)
;   profileVersion,2019-12-04 09:48:22
;   baseProfile,
;   printMaterial,PLA
;   printQuality,Medium
;   printExtruders,
;   extruderName,Primary Extruder
;   extruderToolheadNumber,0
;   extruderDiameter,0.4
;   extruderAutoWidth,1
;   extruderWidth,0.48
;   extrusionMultiplier,1
;   extruderUseRetract,1
;   extruderRetractionDistance,1.5
;   extruderExtraRestartDistance,0
;   extruderRetractionZLift,0
;   extruderRetractionSpeed,1800
;   extruderUseCoasting,1
;   extruderCoastingDistance,0.2
;   extruderUseWipe,1
;   extruderWipeDistance,2
;   primaryExtruder,0
;   layerHeight,0.2
;   topSolidLayers,3
;   bottomSolidLayers,3
;   perimeterOutlines,2
;   printPerimetersInsideOut,1
;   startPointOption,2
;   startPointOriginX,0
;   startPointOriginY,0
;   sequentialIslands,0
;   spiralVaseMode,0
;   firstLayerHeightPercentage,150
;   firstLayerWidthPercentage,100
;   firstLayerUnderspeed,0.5
;   useRaft,0
;   raftExtruder,0
;   raftTopLayers,2
;   raftBaseLayers,2
;   raftOffset,3
;   raftSeparationDistance,0.14
;   raftTopInfill,100
;   aboveRaftSpeedMultiplier,0.3
;   useSkirt,0
;   skirtExtruder,0
;   skirtLayers,1
;   skirtOutlines,2
;   skirtOffset,4
;   usePrimePillar,0
;   primePillarExtruder,999
;   primePillarWidth,12
;   primePillarLocation,7
;   primePillarSpeedMultiplier,1
;   useOozeShield,0
;   oozeShieldExtruder,999
;   oozeShieldOffset,2
;   oozeShieldOutlines,1
;   oozeShieldSidewallShape,1
;   oozeShieldSidewallAngle,30
;   oozeShieldSpeedMultiplier,1
;   infillExtruder,0
;   internalInfillPattern,Rectilinear
;   externalInfillPattern,Rectilinear
;   infillPercentage,64
;   outlineOverlapPercentage,20
;   infillExtrusionWidthPercentage,100
;   minInfillLength,5
;   infillLayerInterval,1
;   internalInfillAngles,45,-45
;   overlapInternalInfillAngles,0
;   externalInfillAngles,45,-45
;   generateSupport,0
;   supportExtruder,0
;   supportInfillPercentage,50
;   supportExtraInflation,0
;   supportBaseLayers,2
;   denseSupportExtruder,0
;   denseSupportLayers,0
;   denseSupportInfillPercentage,70
;   supportLayerInterval,1
;   supportHorizontalPartOffset,0.3
;   supportUpperSeparationLayers,1
;   supportLowerSeparationLayers,1
;   supportType,0
;   supportGridSpacing,1
;   maxOverhangAngle,45
;   supportAngles,0
;   temperatureName,Primary Extruder,Heated Bed
;   temperatureNumber,0,0
;   temperatureSetpointCount,1,1
;   temperatureSetpointLayers,1,1
;   temperatureSetpointTemperatures,200,60
;   temperatureStabilizeAtStartup,1,1
;   temperatureHeatedBed,0,1
;   fanLayers,1,2
;   fanSpeeds,0,100
;   blipFanToFullPower,0
;   adjustSpeedForCooling,1
;   minSpeedLayerTime,15
;   minCoolingSpeedSlowdown,20
;   increaseFanForCooling,0
;   minFanLayerTime,45
;   maxCoolingFanSpeed,100
;   increaseFanForBridging,0
;   bridgingFanSpeed,100
;   use5D,1
;   relativeEdistances,0
;   allowEaxisZeroing,1
;   independentExtruderAxes,0
;   includeM10123,0
;   stickySupport,1
;   applyToolheadOffsets,0
;   gcodeXoffset,0
;   gcodeYoffset,0
;   gcodeZoffset,0
;   overrideMachineDefinition,1
;   machineTypeOverride,0
;   strokeXoverride,250
;   strokeYoverride,210
;   strokeZoverride,200
;   originOffsetXoverride,0
;   originOffsetYoverride,0
;   originOffsetZoverride,0
;   homeXdirOverride,-1
;   homeYdirOverride,-1
;   homeZdirOverride,-1
;   flipXoverride,1
;   flipYoverride,-1
;   flipZoverride,1
;   toolheadOffsets,0,0|0,0|0,0|0,0|0,0|0,0
;   overrideFirmwareConfiguration,1
;   firmwareTypeOverride,RepRap (Marlin/Repetier/Sprinter)
;   GPXconfigOverride,r2
;   baudRateOverride,250000
;   overridePrinterModels,1
;   printerModelsOverride
;   startingGcode,M115 U3.0.7 ; use the latest firmware version,G28 W ; home all axes without mesh bed leveling,G80 ; run mesh bed leveling routine,G1 Y-3.0 F1000.0 ; prepare to prime,G92 E0 ; reset extrusion distance,G1 X60.0 E9.0  F1000.0 ; priming,G1 X100.0 E12.5  F1000.0 ; priming
;   layerChangeGcode,
;   retractionGcode,
;   toolChangeGcode,
;   endingGcode,M106 S0 ; turn off cooling fan,M104 S0 ; turn off extruder,M140 S0 ; turn off bed,G1 X0 Y200 ; part removal,M84 ; disable motors
;   exportFileFormat,gcode
;   celebration,0
;   celebrationSong,Random Song
;   postProcessing,
;   defaultSpeed,2400
;   outlineUnderspeed,0.8
;   solidInfillUnderspeed,0.8
;   supportUnderspeed,0.8
;   rapidXYspeed,4800
;   rapidZspeed,1002
;   minBridgingArea,50
;   bridgingExtraInflation,0
;   bridgingExtrusionMultiplier,1
;   bridgingSpeedMultiplier,1
;   useFixedBridgingAngle,0
;   fixedBridgingAngle,0
;   applyBridgingToPerimeters,0
;   filamentDiameters,1.75|1.75|1.75|1.75|1.75|1.75
;   filamentPricesPerKg,46|46|46|46|46|46
;   filamentDensities,1.25|1.25|1.25|1.25|1.25|1.25
;   useMinPrintHeight,0
;   minPrintHeight,0
;   useMaxPrintHeight,0
;   maxPrintHeight,0
;   useDiaphragm,0
;   diaphragmLayerInterval,20
;   robustSlicing,1
;   mergeAllIntoSolid,0
;   onlyRetractWhenCrossingOutline,1
;   retractBetweenLayers,1
;   useRetractionMinTravel,0
;   retractionMinTravel,3
;   retractWhileWiping,1
;   onlyWipeOutlines,1
;   avoidCrossingOutline,0
;   maxMovementDetourFactor,3
;   toolChangeRetractionDistance,12
;   toolChangeExtraRestartDistance,-0.5
;   toolChangeRetractionSpeed,600
;   externalThinWallType,0
;   internalThinWallType,2
;   thinWallAllowedOverlapPercentage,25
;   singleExtrusionMinLength,1
;   singleExtrusionMinPrintingWidthPercentage,50
;   singleExtrusionMaxPrintingWidthPercentage,200
;   singleExtrusionEndpointExtension,0.2
;   horizontalSizeCompensation,0
G90
M82
M106 S0
M140 S60
M190 S60
M104 S200 T0
M109 S200 T0
M115 U3.0.7 ; use the latest firmware version
G28 W ; home all axes without mesh bed leveling
G80 ; run mesh bed leveling routine
G1 Y-3.0 F1000.0 ; prepare to prime
G92 E0 ; reset extrusion distance
G1 X60.0 E9.0  F1000.0 ; priming
G1 X100.0 E12.5  F1000.0 ; priming
; process Process1
; layer 1, Z = 0.300
T0
G92 E0.0000
G1 E-1.5000 F1800
; feature inner perimeter
; tool H0.300 W0.480
G1 Z0.300 F1002
G1 X4.859 Y6.817 F4800
G1 E0.0000 F1800
G92 E0.0000
G1 X106.833 Y4.676 E6.1064 F1080
G1 X107.605 Y41.469 E8.3096
G1 X31.396 Y43.068 E12.8731
G1 X32.571 Y99.048 E16.2252
G1 X6.806 Y99.589 E17.7681
G1 X4.863 Y7.017 E23.3115
G1 X4.859 Y6.817 F1080
; feature outer perimeter
G1 X4.369 Y6.347 F4800
G92 E0.0000
G1 X107.303 Y4.186 E6.1638 F960
G1 X108.095 Y41.938 E8.4245
G1 X31.886 Y43.538 E12.9880
G1 X33.061 Y99.518 E16.3402
G1 X6.336 Y100.079 E17.9405
G1 X4.373 Y6.547 E23.5414
G1 X4.369 Y6.347 F960
G1 X6.368 Y6.305 F960
; feature solid layer
G1 X7.612 Y99.188 F4800
G92 E0.0000
G1 X7.173 Y98.749 E0.0372 F960
G1 X7.158 Y98.056 E0.0787
G1 X8.276 Y99.174 E0.1734
G1 X8.941 Y99.160 E0.2132
G1 X7.144 Y97.363 E0.3654
G1 X7.129 Y96.669 E0.4069
G1 X9.606 Y99.146 E0.6166
G1 X10.271 Y99.132 E0.6564
G1 X7.114 Y95.976 E0.9237
G1 X7.100 Y95.283 E0.9652
G1 X10.936 Y99.119 E1.2900
G1 X11.601 Y99.105 E1.3298
G1 X7.085 Y94.589 E1.7121
G1 X7.071 Y93.896 E1.7536
G1 X12.266 Y99.091 E2.1935
G1 X12.930 Y99.077 E2.2333
G1 X7.056 Y93.202 E2.7306
G1 X7.042 Y92.509 E2.7722
G1 X13.595 Y99.063 E3.3270
G1 X14.260 Y99.049 E3.3668
G1 X7.027 Y91.816 E3.9792
G1 X7.013 Y91.122 E4.0208
G1 X14.925 Y99.035 E4.6907
G1 X15.590 Y99.021 E4.7305
G1 X6.998 Y90.429 E5.4580
G1 X6.983 Y89.735 E5.4995
G1 X16.255 Y99.007 E6.2844
G1 X16.920 Y98.993 E6.3243
G1 X6.969 Y89.042 E7.1668
G1 X6.954 Y88.349 E7.2083
G1 X17.584 Y98.979 E8.1083
G1 X18.249 Y98.965 E8.1481
G1 X6.940 Y87.655 E9.1057
G1 X6.925 Y86.962 E9.1472
G1 X18.914 Y98.951 E10.1622
G1 X19.579 Y98.937 E10.2021
G1 X6.911 Y86.269 E11.2747
G1 X6.896 Y85.575 E11.3162
G1 X20.244 Y98.923 E12.4463
G1 X20.909 Y98.909 E12.4861
G1 X6.882 Y84.882 E13.6737
G1 X6.867 Y84.188 E13.7153
G1 X21.574 Y98.895 E14.9604
G1 X22.239 Y98.881 E15.0002
G1 X6.852 Y83.495 E16.3029
G1 X6.838 Y82.802 E16.3445
G1 X22.903 Y98.867 E17.7047
G1 X23.568 Y98.853 E17.7445
G1 X6.823 Y82.108 E19.1622
G1 X6.809 Y81.415 E19.2037
G1 X24.233 Y98.839 E20.6790
G1 X24.898 Y98.825 E20.7188
G1 X6.794 Y80.722 E22.2516
G1 X6.780 Y80.028 E22.2931
G1 X25.563 Y98.811 E23.8834
G1 X26.228 Y98.797 E23.9233
G1 X6.765 Y79.335 E25.5711
G1 X6.751 Y78.641 E25.6126
G1 X26.893 Y98.784 E27.3180
G1 X27.557 Y98.770 E27.3578
G1 X6.736 Y77.948 E29.1207
G1 X6.721 Y77.255 E29.1622
G1 X28.222 Y98.756 E30.9826
G1 X28.887 Y98.742 E31.0224
G1 X6.707 Y76.561 E32.9003
G1 X6.692 Y75.868 E32.9419
G1 X29.552 Y98.728 E34.8773
G1 X30.217 Y98.714 E34.9171
G1 X6.678 Y75.175 E36.9101
G1 X6.663 Y74.481 E36.9516
G1 X30.882 Y98.700 E39.0021
G1 X31.547 Y98.686 E39.0420
G1 X6.649 Y73.788 E41.1500
G1 X6.634 Y73.094 E41.1915
G1 X32.179 Y98.639 E43.3543
G1 X32.164 Y97.946 E43.3958
G1 X6.620 Y72.401 E45.5585
G1 X6.605 Y71.708 E45.6001
G1 X32.149 Y97.252 E47.7628
G1 X32.135 Y96.559 E47.8044
G1 X6.590 Y71.014 E49.9671
G1 X6.576 Y70.321 E50.0086
G1 X32.120 Y95.865 E52.1714
G1 X32.106 Y95.172 E52.2129
G1 X6.561 Y69.628 E54.3757
G1 X6.547 Y68.934 E54.4172
G1 X32.091 Y94.479 E56.5800
G1 X32.077 Y93.785 E56.6215
G1 X6.532 Y68.241 E58.7842
G1 X6.518 Y67.547 E58.8258
G1 X32.062 Y93.092 E60.9885
G1 X32.048 Y92.398 E61.0300
G1 X6.503 Y66.854 E63.1928
G1 X6.489 Y66.161 E63.2343
G1 X32.033 Y91.705 E65.3971
G1 X32.018 Y91.012 E65.4386
G1 X6.474 Y65.467 E67.6014
G1 X6.459 Y64.774 E67.6429
G1 X32.004 Y90.318 E69.8056
G1 X31.989 Y89.625 E69.8472
G1 X6.445 Y64.081 E72.0099
G1 X6.430 Y63.387 E72.0514
G1 X31.975 Y88.932 E74.2142
G1 X31.960 Y88.238 E74.2557
G1 X6.416 Y62.694 E76.4185
G1 X6.401 Y62.000 E76.4600
G1 X31.946 Y87.545 E78.6228
G1 X31.931 Y86.851 E78.6643
G1 X6.387 Y61.307 E80.8270
G1 X6.372 Y60.614 E80.8686
G1 X31.917 Y86.158 E83.0313
G1 X31.902 Y85.465 E83.0729
G1 X6.358 Y59.920 E85.2356
G1 X6.343 Y59.227 E85.2771
G1 X31.887 Y84.771 E87.4399
G1 X31.873 Y84.078 E87.4814
G1 X6.328 Y58.533 E89.6442
G1 X6.314 Y57.840 E89.6857
G1 X31.858 Y83.385 E91.8485
G1 X31.844 Y82.691 E91.8900
G1 X6.299 Y57.147 E94.0527
G1 X6.285 Y56.453 E94.0943
G1 X31.829 Y81.998 E96.2570
G1 X31.815 Y81.304 E96.2985
G1 X6.270 Y55.760 E98.4613
G1 X6.256 Y55.067 E98.5028
G1 X31.800 Y80.611 E100.6656
G1 X31.786 Y79.918 E100.7071
G1 X6.241 Y54.373 E102.8699
G1 X6.227 Y53.680 E102.9114
G1 X31.771 Y79.224 E105.0741
G1 X31.756 Y78.531 E105.1157
G1 X6.212 Y52.986 E107.2784
G1 X6.197 Y52.293 E107.3199
G1 X31.742 Y77.838 E109.4827
G1 X31.727 Y77.144 E109.5242
G1 X6.183 Y51.600 E111.6870
G1 X6.168 Y50.906 E111.7285
G1 X31.713 Y76.451 E113.8913
G1 X31.698 Y75.757 E113.9328
G1 X6.154 Y50.213 E116.0955
G1 X6.139 Y49.520 E116.1371
G1 X31.684 Y75.064 E118.2998
G1 X31.669 Y74.371 E118.3414
G1 X6.125 Y48.826 E120.5041
G1 X6.110 Y48.133 E120.5456
G1 X31.655 Y73.677 E122.7084
G1 X31.640 Y72.984 E122.7499
G1 X6.096 Y47.439 E124.9127
G1 X6.081 Y46.746 E124.9542
G1 X31.625 Y72.291 E127.1170
G1 X31.611 Y71.597 E127.1585
G1 X6.066 Y46.053 E129.3212
G1 X6.052 Y45.359 E129.3628
G1 X31.596 Y70.904 E131.5255
G1 X31.582 Y70.210 E131.5670
G1 X6.037 Y44.666 E133.7298
G1 X6.023 Y43.973 E133.7713
G1 X31.567 Y69.517 E135.9341
G1 X31.553 Y68.824 E135.9756
G1 X6.008 Y43.279 E138.1384
G1 X5.994 Y42.586 E138.1799
G1 X31.538 Y68.130 E140.3426
G1 X31.524 Y67.437 E140.3842
G1 X5.979 Y41.892 E142.5469
G1 X5.965 Y41.199 E142.5884
G1 X31.509 Y66.744 E144.7512
G1 X31.494 Y66.050 E144.7927
G1 X5.950 Y40.506 E146.9555
G1 X5.935 Y39.812 E146.9970
G1 X31.480 Y65.357 E149.1598
G1 X31.465 Y64.663 E149.2013
G1 X5.921 Y39.119 E151.3641
G1 X5.906 Y38.426 E151.4056
G1 X31.451 Y63.970 E153.5683
G1 X31.436 Y63.277 E153.6099
G1 X5.892 Y37.732 E155.7726
G1 X5.877 Y37.039 E155.8141
G1 X31.422 Y62.583 E157.9769
G1 X31.407 Y61.890 E158.0184
G1 X5.863 Y36.345 E160.1812
G1 X5.848 Y35.652 E160.2227
G1 X31.393 Y61.196 E162.3855
G1 X31.378 Y60.503 E162.4270
G1 X5.834 Y34.959 E164.5897
G1 X5.819 Y34.265 E164.6313
G1 X31.363 Y59.810 E166.7940
G1 X31.349 Y59.116 E166.8355
G1 X5.804 Y33.572 E168.9983
G1 X5.790 Y32.879 E169.0398
G1 X31.334 Y58.423 E171.2026
G1 X31.320 Y57.730 E171.2441
G1 X5.775 Y32.185 E173.4069
G1 X5.761 Y31.492 E173.4484
G1 X31.305 Y57.036 E175.6111
G1 X31.291 Y56.343 E175.6527
G1 X5.746 Y30.798 E177.8154
G1 X5.732 Y30.105 E177.8570
G1 X31.276 Y55.649 E180.0197
G1 X31.262 Y54.956 E180.0612
G1 X5.717 Y29.412 E182.2240
G1 X5.703 Y28.718 E182.2655
G1 X31.247 Y54.263 E184.4283
G1 X31.232 Y53.569 E184.4698
G1 X5.688 Y28.025 E186.6326
G1 X5.673 Y27.331 E186.6741
G1 X31.218 Y52.876 E188.8368
G1 X31.203 Y52.183 E188.8784
G1 X5.659 Y26.638 E191.0411
G1 X5.644 Y25.945 E191.0826
G1 X31.189 Y51.489 E193.2454
G1 X31.174 Y50.796 E193.2869
G1 X5.630 Y25.251 E195.4497
G1 X5.615 Y24.558 E195.4912
G1 X31.160 Y50.102 E197.6540
G1 X31.145 Y49.409 E197.6955
G1 X5.601 Y23.865 E199.8582
G1 X5.586 Y23.171 E199.8998
G1 X31.131 Y48.716 E202.0625
G1 X31.116 Y48.022 E202.1041
G1 X5.572 Y22.478 E204.2668
G1 X5.557 Y21.784 E204.3083
G1 X31.101 Y47.329 E206.4711
G1 X31.087 Y46.636 E206.5126
G1 X5.542 Y21.091 E208.6754
G1 X5.528 Y20.398 E208.7169
G1 X31.072 Y45.942 E210.8797
G1 X31.058 Y45.249 E210.9212
G1 X5.513 Y19.704 E213.0839
G1 X5.499 Y19.011 E213.1255
G1 X31.043 Y44.555 E215.2882
G1 X31.029 Y43.862 E215.3297
G1 X5.484 Y18.318 E217.4925
G1 X5.470 Y17.624 E217.5340
G1 X31.014 Y43.169 E219.6968
G1 X31.004 Y42.692 E219.7253
G1 X31.212 Y42.688 E219.7378
G1 X5.455 Y16.931 E221.9185
G1 X5.441 Y16.237 E221.9601
G1 X31.877 Y42.674 E224.1984
G1 X32.542 Y42.660 E224.2382
G1 X5.426 Y15.544 E226.5340
G1 X5.411 Y14.851 E226.5755
G1 X33.207 Y42.646 E228.9289
G1 X33.872 Y42.632 E228.9687
G1 X5.397 Y14.157 E231.3796
G1 X5.382 Y13.464 E231.4211
G1 X34.537 Y42.618 E233.8895
G1 X35.202 Y42.604 E233.9293
G1 X5.368 Y12.771 E236.4552
G1 X5.353 Y12.077 E236.4968
G1 X35.866 Y42.590 E239.0802
G1 X36.531 Y42.576 E239.1200
G1 X5.339 Y11.384 E241.7610
G1 X5.324 Y10.690 E241.8025
G1 X37.196 Y42.562 E244.5010
G1 X37.861 Y42.549 E244.5408
G1 X5.310 Y9.997 E247.2968
G1 X5.295 Y9.304 E247.3384
G1 X38.526 Y42.535 E250.1519
G1 X39.191 Y42.521 E250.1917
G1 X5.280 Y8.610 E253.0628
G1 X5.266 Y7.917 E253.1043
G1 X39.856 Y42.507 E256.0329
G1 X40.521 Y42.493 E256.0727
G1 X5.251 Y7.224 E259.0588
G1 X5.251 Y7.193 E259.0607
G1 X5.886 Y7.179 E259.0987
G1 X41.185 Y42.479 E262.0874
G1 X41.850 Y42.465 E262.1272
G1 X6.551 Y7.165 E265.1159
G1 X7.216 Y7.151 E265.1557
G1 X42.515 Y42.451 E268.1444
G1 X43.180 Y42.437 E268.1842
G1 X7.881 Y7.138 E271.1729
G1 X8.545 Y7.124 E271.2127
G1 X43.845 Y42.423 E274.2013
G1 X44.510 Y42.409 E274.2412
G1 X9.210 Y7.110 E277.2298
G1 X9.875 Y7.096 E277.2696
G1 X45.175 Y42.395 E280.2583
G1 X45.839 Y42.381 E280.2981
G1 X10.540 Y7.082 E283.2868
G1 X11.205 Y7.068 E283.3266
G1 X46.504 Y42.367 E286.3153
G1 X47.169 Y42.353 E286.3551
G1 X11.870 Y7.054 E289.3438
G1 X12.535 Y7.040 E289.3836
G1 X47.834 Y42.339 E292.3723
G1 X48.499 Y42.325 E292.4121
G1 X13.200 Y7.026 E295.4008
G1 X13.864 Y7.012 E295.4406
G1 X49.164 Y42.311 E298.4292
G1 X49.829 Y42.297 E298.4691
G1 X14.529 Y6.998 E301.4577
G1 X15.194 Y6.984 E301.4975
G1 X50.493 Y42.283 E304.4862
G1 X51.158 Y42.269 E304.5260
G1 X15.859 Y6.970 E307.5147
G1 X16.524 Y6.956 E307.5545
G1 X51.823 Y42.255 E310.5432
G1 X52.488 Y42.241 E310.5830
G1 X17.189 Y6.942 E313.5717
G1 X17.854 Y6.928 E313.6115
G1 X53.153 Y42.228 E316.6002
G1 X53.818 Y42.214 E316.6400
G1 X18.518 Y6.914 E319.6286
G1 X19.183 Y6.900 E319.6685
G1 X54.483 Y42.200 E322.6571
G1 X55.148 Y42.186 E322.6969
G1 X19.848 Y6.886 E325.6856
G1 X20.513 Y6.872 E325.7254
G1 X55.812 Y42.172 E328.7141
G1 X56.477 Y42.158 E328.7539
G1 X21.178 Y6.858 E331.7426
G1 X21.843 Y6.844 E331.7824
G1 X57.142 Y42.144 E334.7711
G1 X57.807 Y42.130 E334.8109
G1 X22.508 Y6.830 E337.7996
G1 X23.173 Y6.817 E337.8394
G1 X58.472 Y42.116 E340.8281
G1 X59.137 Y42.102 E340.8679
G1 X23.837 Y6.803 E343.8565
G1 X24.502 Y6.789 E343.8964
G1 X59.802 Y42.088 E346.8850
G1 X60.466 Y42.074 E346.9248
G1 X25.167 Y6.775 E349.9135
