; generated by PrusaSlicer 2.3.1+win64 on 2021-09-03 at 18:01:54 UTC

; 

; external perimeters extrusion width = 0.45mm
; perimeters extrusion width = 0.45mm
; infill extrusion width = 0.45mm
; solid infill extrusion width = 0.45mm
; top infill extrusion width = 0.40mm
; first layer extrusion width = 0.42mm

M73 P0 R39
M201 X9000 Y9000 Z500 E10000 ; sets maximum accelerations, mm/sec^2
M203 X500 Y500 Z12 E120 ; sets maximum feedrates, mm/sec
M204 P2000 R1500 T2000 ; sets acceleration (P, T) and retract acceleration (R), mm/sec^2
M205 X10.00 Y10.00 Z0.20 E2.50 ; sets the jerk limits, mm/sec
M205 S0 T0 ; sets the minimum extruding and travel feed rate, mm/sec
M107
;TYPE:Custom
M862.3 P "MK2S" ; printer model check
M862.1 P0.4 ; nozzle diameter check
M115 U3.2.3 ; tell printer latest fw version
G90 ; use absolute coordinates
M83 ; extruder relative mode
M204 S2000 T1500 ; MK2 firmware only supports the old M204 format
M104 S215 ; set extruder temp
M140 S60 ; set bed temp
M190 S60 ; wait for bed temp
M109 S215 ; wait for extruder temp
G28 W ; home all without mesh bed level
G80 ; mesh bed leveling
G1 Y-3.0 F1000.0 ; go outside print area
G92 E0.0
G1 X60.0 E9.0  F1000.0 ; intro line
G1 X100.0 E12.5 F1000.0 ; intro line
G92 E0.0
G21 ; set units to millimeters
G90 ; use absolute coordinates
M83 ; use relative distances for extrusion
M900 K0.05 ; Filament gcode LA 1.5
M900 K30 ; Filament gcode LA 1.0
;LAYER_CHANGE
;Z:0.2
;HEIGHT:0.2
;BEFORE_LAYER_CHANGE
G92 E0.0
;0.2


G1 E-0.80000 F2100.000
G1 Z0.600 F10800.000
;AFTER_LAYER_CHANGE
;0.2
G1 X149.289 Y130.446
G1 Z0.200
G1 E0.80000 F2100.000
M204 S1000
;TYPE:Perimeter
;WIDTH:0.42
G1 F1200.000
G1 X149.459 Y130.445 E0.00534
G1 X149.603 Y130.469 E0.00457
G1 X149.869 Y130.584 E0.00909
G1 X149.988 Y130.677 E0.00473
G1 X150.162 Y130.899 E0.00884
G1 X150.222 Y131.034 E0.00463
G1 X150.259 Y131.179 E0.00469
G1 X150.273 Y131.344 E0.00520
G1 X150.273 Y137.646 E0.19758
G1 X150.259 Y137.815 E0.00534
G1 X150.223 Y137.956 E0.00454
G1 X150.162 Y138.094 E0.00476
G1 X149.985 Y138.319 E0.00896
G1 X149.870 Y138.409 E0.00457
G1 X149.603 Y138.525 E0.00912
G1 X149.459 Y138.548 E0.00457
G1 X149.289 Y138.547 E0.00534
G1 X139.048 Y137.651 E0.32231
G1 X138.874 Y137.621 E0.00556
G1 X138.622 Y137.509 E0.00865
G1 X138.502 Y137.416 E0.00476
G1 X138.325 Y137.188 E0.00905
G1 X138.231 Y136.914 E0.00909
G1 X138.217 Y136.750 E0.00515
G1 X138.217 Y132.243 E0.14131
G1 X138.231 Y132.079 E0.00517
G1 X138.325 Y131.806 E0.00906
G1 X138.408 Y131.679 E0.00474
G1 X138.615 Y131.489 E0.00883
G1 X138.880 Y131.371 E0.00910
G1 X139.047 Y131.342 E0.00532
G1 X149.229 Y130.451 E0.32046
G1 E-0.80000 F2100.000
G1 Z0.800 F10800.000
G1 X145.653 Y138.608
G1 Z0.200
G1 E0.80000 F2100.000
;TYPE:External perimeter
G1 F1200.000
G1 X138.999 Y138.026 E0.20941
G1 X138.778 Y137.987 E0.00703
G1 X138.590 Y137.921 E0.00625
G1 X138.415 Y137.826 E0.00626
G1 X138.245 Y137.694 E0.00674
G1 X138.101 Y137.535 E0.00671
G1 X137.992 Y137.367 E0.00628
G1 X137.909 Y137.177 E0.00651
G1 X137.858 Y136.976 E0.00650
G1 X137.840 Y136.766 E0.00662
G1 X137.840 Y132.228 E0.14229
G1 X137.858 Y132.017 E0.00663
G1 X137.907 Y131.822 E0.00631
G1 X137.992 Y131.626 E0.00669
G1 X138.109 Y131.447 E0.00672
G1 X138.245 Y131.299 E0.00627
G1 X138.407 Y131.172 E0.00648
G1 X138.597 Y131.069 E0.00677
G1 X138.786 Y131.004 E0.00625
G1 X138.999 Y130.968 E0.00678
G1 X149.272 Y130.069 E0.32332
G1 X149.489 Y130.068 E0.00681
G1 X149.695 Y130.101 E0.00654
G1 X149.892 Y130.168 E0.00654
G1 X150.076 Y130.267 E0.00653
G1 X150.244 Y130.398 E0.00670
G1 X150.382 Y130.548 E0.00639
G1 X150.494 Y130.718 E0.00637
G1 X150.579 Y130.910 E0.00658
G1 X150.632 Y131.116 E0.00668
G1 X150.650 Y131.328 E0.00669
G1 X150.650 Y137.661 E0.19856
G1 X150.632 Y137.878 E0.00681
G1 X150.581 Y138.080 E0.00653
G1 X150.494 Y138.276 E0.00673
G1 X150.382 Y138.445 E0.00636
G1 X150.241 Y138.598 E0.00654
G1 X150.076 Y138.726 E0.00654
G1 X149.892 Y138.825 E0.00654
G1 X149.695 Y138.892 E0.00654
G1 X149.489 Y138.925 E0.00654
G1 X149.272 Y138.924 E0.00681
G1 X145.712 Y138.613 E0.11202
G1 X145.483 Y138.245 F10800.000
G1 E-0.80000 F2100.000
G1 Z0.800 F10800.000
G1 X150.152 Y131.255
G1 Z0.200
G1 E0.80000 F2100.000
;TYPE:Solid infill
;WIDTH:0.42752
G1 F1200.000
G1 X149.713 Y130.825 E0.01965
G1 X149.523 Y130.742 E0.00663
G1 X149.437 Y130.728 E0.00278
G1 X149.099 Y130.746 E0.01081
G1 X149.990 Y131.637 E0.04028
G1 X149.990 Y132.181 E0.01739
G1 X148.599 Y130.790 E0.06290
G1 X148.099 Y130.834 E0.01606
G1 X149.990 Y132.725 E0.08552
G1 X149.990 Y133.269 E0.01739
G1 X147.599 Y130.878 E0.10814
G1 X147.099 Y130.921 E0.01606
G1 X149.990 Y133.813 E0.13076
G1 X149.990 Y134.356 E0.01739
G1 X146.599 Y130.965 E0.15338
G1 X146.099 Y131.009 E0.01606
G1 X149.990 Y134.900 E0.17600
G1 X149.990 Y135.444 E0.01739
G1 X145.598 Y131.053 E0.19862
G1 X145.098 Y131.096 E0.01606
G1 X149.990 Y135.988 E0.22124
G1 X149.990 Y136.532 E0.01739
G1 X144.598 Y131.140 E0.24386
G1 X144.098 Y131.184 E0.01606
G1 X149.990 Y137.076 E0.26648
G1 X149.990 Y137.620 E0.01739
G1 X143.598 Y131.228 E0.28910
G1 X143.098 Y131.271 E0.01606
G1 X149.854 Y138.028 E0.30557
G1 X149.725 Y138.163 E0.00600
G1 X149.530 Y138.248 E0.00678
G1 X142.598 Y131.315 E0.31354
G1 X142.097 Y131.359 E0.01606
G1 X148.974 Y138.236 E0.31102
G1 X148.378 Y138.184 E0.01913
G1 X141.597 Y131.403 E0.30668
G1 X141.097 Y131.446 E0.01606
G1 X147.782 Y138.132 E0.30234
G1 X147.186 Y138.079 E0.01913
G1 X140.597 Y131.490 E0.29801
G1 X140.097 Y131.534 E0.01606
G1 X146.590 Y138.027 E0.29367
G1 X145.994 Y137.975 E0.01913
G1 X139.597 Y131.578 E0.28933
G1 X139.097 Y131.621 E0.01606
G1 X145.398 Y137.923 E0.28499
G1 X144.802 Y137.871 E0.01913
G1 X138.713 Y131.782 E0.27537
G1 X138.581 Y131.931 E0.00638
G1 X138.514 Y132.126 E0.00660
G1 X144.206 Y137.819 E0.25744
G1 X143.610 Y137.767 E0.01913
G1 X138.500 Y132.657 E0.23110
G1 X138.500 Y133.201 E0.01739
G1 X143.014 Y137.714 E0.20414
G1 X142.418 Y137.662 E0.01913
G1 X138.500 Y133.745 E0.17718
G1 X138.500 Y134.288 E0.01739
G1 X141.822 Y137.610 E0.15023
G1 X141.226 Y137.558 E0.01913
G1 X138.500 Y134.832 E0.12327
G1 X138.500 Y135.376 E0.01739
G1 X140.630 Y137.506 E0.09631
G1 X140.034 Y137.454 E0.01913
G1 X138.500 Y135.920 E0.06936
G1 X138.500 Y136.464 E0.01739
G1 X139.438 Y137.402 E0.04240
G1 X138.957 Y137.348 E0.01547
G1 X138.768 Y137.264 E0.00661
G1 X138.339 Y136.847 E0.01915
G1 E-0.80000 F2100.000
G1 Z0.800 F10800.000
G1 X125.000 Y142.873
G1 Z0.200
G1 E0.80000 F2100.000
;TYPE:Perimeter
;WIDTH:0.42
G1 F1200.000
G1 X122.751 Y142.873 E0.07051
G1 X122.582 Y142.859 E0.00532
G1 X122.309 Y142.765 E0.00905
G1 X122.183 Y142.682 E0.00474
G1 X121.992 Y142.475 E0.00882
G1 X121.874 Y142.210 E0.00910
M73 P1 R39
G1 X121.845 Y142.043 E0.00532
G1 X120.949 Y131.801 E0.32235
G1 X120.949 Y131.631 E0.00535
G1 X120.971 Y131.492 E0.00441
G1 X121.019 Y131.348 E0.00476
G1 X121.088 Y131.220 E0.00456
G1 X121.285 Y131.005 E0.00913
G1 X121.536 Y130.869 E0.00897
G1 X121.683 Y130.831 E0.00475
G1 X121.851 Y130.817 E0.00528
G1 X128.152 Y130.817 E0.19756
G1 X128.322 Y130.832 E0.00536
G1 X128.460 Y130.867 E0.00447
G1 X128.716 Y131.006 E0.00914
G1 X128.912 Y131.220 E0.00909
G1 X129.028 Y131.486 E0.00909
G1 X129.052 Y131.636 E0.00476
G1 X129.051 Y131.801 E0.00517
G1 X128.155 Y142.043 E0.32236
G1 X128.126 Y142.210 E0.00531
G1 X128.078 Y142.347 E0.00455
G1 X127.924 Y142.583 E0.00887
G1 X127.812 Y142.687 E0.00478
G1 X127.568 Y142.819 E0.00869
G1 X127.409 Y142.860 E0.00514
G1 X125.060 Y142.873 E0.07366
G1 X125.000 Y143.250 F10800.000
;TYPE:External perimeter
G1 F1200.000
G1 X122.736 Y143.250 E0.07100
G1 X122.520 Y143.232 E0.00678
G1 X122.325 Y143.183 E0.00630
G1 X122.129 Y143.098 E0.00669
G1 X121.950 Y142.981 E0.00672
G1 X121.803 Y142.845 E0.00627
G1 X121.675 Y142.683 E0.00648
G1 X121.573 Y142.493 E0.00677
G1 X121.508 Y142.304 E0.00625
G1 X121.471 Y142.091 E0.00678
G1 X120.572 Y131.819 E0.32332
G1 X120.571 Y131.601 E0.00682
G1 X120.604 Y131.401 E0.00636
G1 X120.672 Y131.198 E0.00673
G1 X120.771 Y131.014 E0.00653
G1 X120.895 Y130.853 E0.00638
G1 X121.052 Y130.708 E0.00671
G1 X121.226 Y130.593 E0.00653
G1 X121.413 Y130.511 E0.00640
G1 X121.620 Y130.458 E0.00672
G1 X121.835 Y130.440 E0.00677
G1 X128.168 Y130.440 E0.19856
G1 X128.385 Y130.459 E0.00683
G1 X128.583 Y130.509 E0.00641
G1 X128.770 Y130.591 E0.00640
G1 X128.949 Y130.708 E0.00668
G1 X129.102 Y130.849 E0.00653
G1 X129.229 Y131.014 E0.00654
G1 X129.328 Y131.198 E0.00654
G1 X129.395 Y131.395 E0.00653
G1 X129.429 Y131.607 E0.00673
G1 X129.428 Y131.818 E0.00663
G1 X128.529 Y142.091 E0.32333
G1 X128.493 Y142.304 E0.00677
G1 X128.424 Y142.500 E0.00650
G1 X128.325 Y142.682 E0.00651
G1 X128.202 Y142.840 E0.00627
G1 X128.044 Y142.986 E0.00674
G1 X127.871 Y143.098 E0.00649
G1 X127.691 Y143.177 E0.00614
G1 X127.472 Y143.233 E0.00710
G1 X127.264 Y143.250 E0.00652
G1 X125.060 Y143.250 E0.06912
G1 X124.799 Y142.904 F10800.000
G1 E-0.80000 F2100.000
G1 Z0.800 F10800.000
G1 X128.935 Y131.623
G1 Z0.200
G1 E0.80000 F2100.000
;TYPE:Solid infill
;WIDTH:0.427544
G1 F1200.000
G1 X128.550 Y131.238 E0.01741
G1 X128.356 Y131.132 E0.00706
G1 X128.140 Y131.100 E0.00700
G1 X127.868 Y131.100 E0.00868
G1 X128.751 Y131.983 E0.03992
G1 X128.707 Y132.483 E0.01606
G1 X127.324 Y131.100 E0.06255
G1 X126.780 Y131.100 E0.01740
G1 X128.663 Y132.983 E0.08517
G1 X128.620 Y133.483 E0.01606
G1 X126.236 Y131.100 E0.10779
G1 X125.692 Y131.100 E0.01740
G1 X128.576 Y133.983 E0.13042
G1 X128.532 Y134.484 E0.01606
G1 X125.149 Y131.100 E0.15304
G1 X124.605 Y131.100 E0.01740
G1 X128.488 Y134.984 E0.17566
G1 X128.445 Y135.484 E0.01606
G1 X124.061 Y131.100 E0.19829
G1 X123.517 Y131.100 E0.01740
G1 X128.401 Y135.984 E0.22091
G1 X128.357 Y136.484 E0.01606
G1 X122.973 Y131.100 E0.24353
G1 X122.429 Y131.100 E0.01740
G1 X128.313 Y136.985 E0.26615
G1 X128.270 Y137.485 E0.01606
G1 X121.885 Y131.100 E0.28878
G1 X121.741 Y131.110 E0.00460
G1 X121.544 Y131.178 E0.00669
G1 X121.474 Y131.233 E0.00285
G1 X128.226 Y137.985 E0.30539
G1 X128.182 Y138.485 E0.01606
G1 X121.258 Y131.561 E0.31319
G1 X121.231 Y131.665 E0.00344
G1 X121.260 Y132.107 E0.01416
G1 X128.138 Y138.985 E0.31110
G1 X128.095 Y139.485 E0.01606
G1 X121.312 Y132.703 E0.30676
G1 X121.364 Y133.299 E0.01914
G1 X128.051 Y139.986 E0.30243
G1 X128.007 Y140.486 E0.01606
G1 X121.416 Y133.895 E0.29809
G1 X121.469 Y134.491 E0.01914
G1 X127.963 Y140.986 E0.29375
G1 X127.920 Y141.486 E0.01606
G1 X121.521 Y135.087 E0.28941
G1 X121.573 Y135.683 E0.01914
G1 X127.876 Y141.986 E0.28507
G1 X127.823 Y142.221 E0.00770
G1 X127.721 Y142.376 E0.00592
G1 X121.625 Y136.279 E0.27574
G1 X121.677 Y136.876 E0.01914
G1 X127.375 Y142.573 E0.25770
G1 X127.238 Y142.590 E0.00442
G1 X126.848 Y142.590 E0.01247
G1 X121.729 Y137.472 E0.23150
G1 X121.781 Y138.068 E0.01914
G1 X126.304 Y142.590 E0.20454
G1 X125.760 Y142.590 E0.01740
G1 X121.834 Y138.664 E0.17758
G1 X121.886 Y139.260 E0.01914
G1 X125.216 Y142.590 E0.15062
G1 X124.672 Y142.590 E0.01740
G1 X121.938 Y139.856 E0.12366
G1 X121.990 Y140.452 E0.01914
G1 X124.128 Y142.590 E0.09670
G1 X123.584 Y142.590 E0.01740
G1 X122.042 Y141.048 E0.06974
G1 X122.094 Y141.644 E0.01914
G1 X123.040 Y142.590 E0.04278
G1 X122.641 Y142.580 E0.01279
G1 X122.435 Y142.509 E0.00696
G1 X121.962 Y142.056 E0.02093
G1 E-0.80000 F2100.000
G1 Z0.800 F10800.000
G1 X108.572 Y142.873
G1 Z0.200
G1 E0.80000 F2100.000
;TYPE:Perimeter
;WIDTH:0.42
G1 F1200.000
G1 X105.424 Y142.873 E0.09871
G1 X105.250 Y142.858 E0.00547
G1 X104.982 Y142.766 E0.00886
G1 X104.750 Y142.586 E0.00922
G1 X104.658 Y142.466 E0.00475
G1 X104.544 Y142.203 E0.00897
G1 X104.520 Y142.059 E0.00457
G1 X104.521 Y141.889 E0.00534
G1 X105.417 Y131.647 E0.32235
G1 X105.446 Y131.480 E0.00531
G1 X105.493 Y131.343 E0.00455
G1 X105.648 Y131.107 E0.00887
G1 X105.760 Y131.003 E0.00477
G1 X105.882 Y130.924 E0.00458
G1 X106.154 Y130.831 E0.00901
G1 X106.323 Y130.817 E0.00531
G1 X110.825 Y130.817 E0.14116
G1 X110.989 Y130.831 E0.00516
G1 X111.263 Y130.925 E0.00907
G1 X111.492 Y131.102 E0.00907
G1 X111.650 Y131.342 E0.00903
G1 X111.699 Y131.487 E0.00480
G1 X111.727 Y131.647 E0.00508
G1 X112.623 Y141.889 E0.32236
G1 X112.623 Y142.059 E0.00535
G1 X112.601 Y142.198 E0.00441
G1 X112.553 Y142.342 E0.00476
G1 X112.484 Y142.470 E0.00456
G1 X112.287 Y142.685 E0.00913
G1 X112.036 Y142.821 E0.00897
G1 X111.889 Y142.859 E0.00475
G1 X111.721 Y142.873 E0.00529
G1 X108.632 Y142.873 E0.09685
G1 X108.572 Y143.250 F10800.000
;TYPE:External perimeter
G1 F1200.000
G1 X105.408 Y143.250 E0.09921
G1 X105.187 Y143.231 E0.00695
G1 X104.989 Y143.181 E0.00641
G1 X104.802 Y143.099 E0.00639
G1 X104.619 Y142.979 E0.00684
G1 X104.470 Y142.841 E0.00637
G1 X104.340 Y142.671 E0.00672
G1 X104.244 Y142.492 E0.00637
G1 X104.177 Y142.295 E0.00654
G1 X104.143 Y142.089 E0.00654
G1 X104.144 Y141.872 E0.00681
G1 X105.043 Y131.599 E0.32332
G1 X105.079 Y131.386 E0.00677
G1 X105.147 Y131.190 E0.00650
G1 X105.247 Y131.008 E0.00651
G1 X105.370 Y130.850 E0.00627
G1 X105.528 Y130.705 E0.00674
G1 X105.703 Y130.591 E0.00656
G1 X105.891 Y130.509 E0.00643
G1 X106.092 Y130.458 E0.00650
G1 X106.308 Y130.440 E0.00677
G1 X110.841 Y130.440 E0.14214
G1 X111.051 Y130.458 E0.00662
G1 X111.253 Y130.509 E0.00650
G1 X111.443 Y130.592 E0.00650
G1 X111.616 Y130.705 E0.00650
G1 X111.769 Y130.845 E0.00650
G1 X111.897 Y131.008 E0.00649
G1 X111.996 Y131.190 E0.00650
G1 X112.066 Y131.394 E0.00676
G1 X112.101 Y131.599 E0.00652
G1 X113.000 Y141.872 E0.32333
G1 X113.001 Y142.089 E0.00682
G1 X112.968 Y142.289 E0.00636
G1 X112.900 Y142.492 E0.00673
G1 X112.801 Y142.676 E0.00653
G1 X112.677 Y142.837 E0.00638
G1 X112.520 Y142.982 E0.00671
G1 X112.346 Y143.097 E0.00653
G1 X112.159 Y143.179 E0.00640
G1 X111.952 Y143.232 E0.00672
G1 X111.737 Y143.250 E0.00677
G1 X108.632 Y143.250 E0.09734
G1 X108.371 Y142.904 F10800.000
G1 E-0.80000 F2100.000
G1 Z0.800 F10800.000
G1 X111.608 Y131.624
G1 Z0.200
G1 E0.80000 F2100.000
;TYPE:Solid infill
;WIDTH:0.427688
G1 F1200.000
G1 X111.219 Y131.236 E0.01758
G1 X111.027 Y131.132 E0.00700
G1 X110.813 Y131.100 E0.00690
G1 X110.540 Y131.100 E0.00876
G1 X111.477 Y132.037 E0.04240
G1 X111.529 Y132.634 E0.01915
G1 X109.995 Y131.100 E0.06939
G1 X109.451 Y131.100 E0.01741
G1 X111.581 Y133.230 E0.09637
G1 X111.633 Y133.826 E0.01915
G1 X108.907 Y131.100 E0.12335
G1 X108.363 Y131.100 E0.01741
G1 X111.686 Y134.423 E0.15033
G1 X111.738 Y135.019 E0.01915
G1 X107.819 Y131.100 E0.17731
G1 X107.275 Y131.100 E0.01741
G1 X111.790 Y135.615 E0.20429
G1 X111.842 Y136.211 E0.01915
G1 X106.731 Y131.100 E0.23128
G1 X106.201 Y131.114 E0.01696
G1 X111.894 Y136.808 E0.25762
G1 X111.946 Y137.404 E0.01915
G1 X105.853 Y131.310 E0.27571
G1 X105.749 Y131.469 E0.00606
G1 X105.697 Y131.698 E0.00753
G1 X111.999 Y138.000 E0.28514
G1 X112.051 Y138.597 E0.01915
G1 X105.653 Y132.199 E0.28948
M73 P2 R39
G1 X105.609 Y132.699 E0.01607
G1 X112.103 Y139.193 E0.29382
G1 X112.155 Y139.789 E0.01915
G1 X105.565 Y133.200 E0.29816
G1 X105.522 Y133.700 E0.01607
G1 X112.207 Y140.386 E0.30250
G1 X112.259 Y140.982 E0.01915
G1 X105.478 Y134.200 E0.30684
G1 X105.434 Y134.701 E0.01607
G1 X112.312 Y141.578 E0.31118
G1 X112.340 Y141.902 E0.01039
G1 X112.340 Y142.025 E0.00395
G1 X112.315 Y142.126 E0.00333
G1 X105.390 Y135.201 E0.31333
M73 P2 R38
G1 X105.346 Y135.701 E0.01607
G1 X112.101 Y142.456 E0.30560
G1 X112.028 Y142.512 E0.00294
G1 X111.831 Y142.580 E0.00669
G1 X111.691 Y142.590 E0.00447
G1 X105.303 Y136.202 E0.28905
G1 X105.259 Y136.702 E0.01607
G1 X111.147 Y142.590 E0.26641
G1 X110.603 Y142.590 E0.01741
G1 X105.215 Y137.202 E0.24377
G1 X105.171 Y137.703 E0.01607
G1 X110.059 Y142.590 E0.22113
G1 X109.514 Y142.590 E0.01741
G1 X105.128 Y138.203 E0.19849
G1 X105.084 Y138.704 E0.01607
G1 X108.970 Y142.590 E0.17585
G1 X108.426 Y142.590 E0.01741
G1 X105.040 Y139.204 E0.15321
G1 X104.996 Y139.704 E0.01607
G1 X107.882 Y142.590 E0.13057
G1 X107.338 Y142.590 E0.01741
G1 X104.952 Y140.205 E0.10793
G1 X104.909 Y140.705 E0.01607
G1 X106.794 Y142.590 E0.08529
G1 X106.250 Y142.590 E0.01741
G1 X104.865 Y141.205 E0.06265
G1 X104.821 Y141.706 E0.01607
G1 X105.705 Y142.590 E0.04001
G1 X105.309 Y142.579 E0.01270
