; generated by PrusaSlicer 2.1.1+win64 on 2020-05-07 at 16:54:01 UTC

; 

; external perimeters extrusion width = 0.45mm
; perimeters extrusion width = 0.45mm
; infill extrusion width = 0.45mm
; solid infill extrusion width = 0.45mm
; top infill extrusion width = 0.40mm
; support material extrusion width = 0.35mm
; first layer extrusion width = 0.42mm

M73 P0 R122
M201 X9000 Y9000 Z500 E10000 ; sets maximum accelerations, mm/sec^2
M203 X500 Y500 Z12 E120 ; sets maximum feedrates, mm/sec
M204 P2000 R1500 T2000 ; sets acceleration (P, T) and retract acceleration (R), mm/sec^2
M205 X10.00 Y10.00 Z0.20 E2.50 ; sets the jerk limits, mm/sec
M205 S0 T0 ; sets the minimum extruding and travel feed rate, mm/sec
M107
M862.3 P "MK2S" ; printer model check
M862.1 P0.4 ; nozzle diameter check
M115 U3.2.3 ; tell printer latest fw version
G90 ; use absolute coordinates
M83 ; extruder relative mode
M204 S2000 T1500 ; MK2 firmware only supports the old M204 format
M104 S215 ; set extruder temp
M140 S60 ; set bed temp
M190 S60 ; wait for bed temp
M109 S215 ; wait for extruder temp
G28 W ; home all without mesh bed level
G80 ; mesh bed leveling
G1 Y-3.0 F1000.0 ; go outside print area
G92 E0.0
G1 X60.0 E9.0  F1000.0 ; intro line
M73 P0 R122
G1 X100.0 E12.5 F1000.0 ; intro line
G92 E0.0
G21 ; set units to millimeters
G90 ; use absolute coordinates
M83 ; use relative distances for extrusion
M900 K30 ; Filament gcode
;BEFORE_LAYER_CHANGE
G92 E0.0
;0.2


G1 E-0.80000 F2100.00000
G1 Z0.600 F10800.000
;AFTER_LAYER_CHANGE
;0.2
G1 X112.661 Y113.394
G1 Z0.200
G1 E0.80000 F2100.00000
M204 S1000
G1 F1200
G1 X103.454 Y122.601 E0.40826
G1 X103.987 Y123.134 E0.02365
G1 X113.074 Y114.047 E0.40294
G1 X113.608 Y114.581 E0.02365
G1 X104.521 Y123.668 E0.40294
G1 X105.054 Y124.201 E0.02365
G1 X114.734 Y114.521 E0.42923
G1 X114.734 Y115.587 E0.03344
G1 X105.587 Y124.734 E0.40559
G1 X106.120 Y125.267 E0.02365
G1 X114.734 Y116.654 E0.38194
G1 X114.734 Y117.720 E0.03344
G1 X106.654 Y125.801 E0.35829
G1 X107.187 Y126.334 E0.02365
G1 X114.734 Y118.787 E0.33465
G1 X114.734 Y119.854 E0.03344
G1 X107.720 Y126.867 E0.31100
G1 X108.253 Y127.401 E0.02365
G1 X115.232 Y120.422 E0.30945
G1 X116.299 Y120.422 E0.03344
G1 X108.787 Y127.934 E0.33310
G1 X109.320 Y128.467 E0.02365
G1 X117.365 Y120.422 E0.35674
G1 X118.432 Y120.422 E0.03344
G1 X109.853 Y129.000 E0.38039
G1 X110.387 Y129.534 E0.02365
G1 X119.498 Y120.422 E0.40404
G1 X120.565 Y120.422 E0.03344
G1 X110.920 Y130.067 E0.42768
G1 X111.453 Y130.600 E0.02365
G1 X121.631 Y120.422 E0.45133
G1 X122.698 Y120.422 E0.03344
G1 X111.986 Y131.133 E0.47497
G1 X112.391 Y131.538 E0.01796
G1 X114.023 Y129.907 E0.07234
G1 X114.151 Y130.035 E0.00569
G1 X123.765 Y120.422 E0.42628
G1 X124.831 Y120.422 E0.03344
G1 X114.684 Y130.569 E0.44993
G1 X115.218 Y131.102 E0.02365
G1 X125.898 Y120.422 E0.47358
G1 X126.964 Y120.422 E0.03344
G1 X115.751 Y131.635 E0.49722
G1 X116.284 Y132.168 E0.02365
G1 X128.031 Y120.422 E0.52087
G1 X129.097 Y120.422 E0.03344
G1 X116.817 Y132.702 E0.54451
G1 X117.285 Y133.170 E0.02075
G1 X118.917 Y131.538 E0.07234
G1 X118.982 Y131.604 E0.00289
G1 X130.164 Y120.422 E0.49582
G1 X131.230 Y120.422 E0.03344
G1 X119.515 Y132.137 E0.51947
G1 X120.048 Y132.670 E0.02365
G1 X132.411 Y120.308 E0.54818
G1 X132.891 Y120.186 E0.01554
G1 X133.608 Y119.881 E0.02440
G1 X134.096 Y119.577 E0.01805
G1 X134.676 Y119.077 E0.02398
G1 X135.562 Y117.914 E0.04584
G1 X135.926 Y117.323 E0.02179
G1 X136.194 Y117.591 E0.01190
G1 X123.844 Y129.941 E0.54761
G1 X124.378 Y130.474 E0.02365
G1 X136.728 Y118.124 E0.54761
G1 X137.261 Y118.657 E0.02365
G1 X124.911 Y131.007 E0.54761
G1 X125.442 Y131.538 E0.02355
G1 X137.794 Y119.191 E0.54761
G1 X138.327 Y119.724 E0.02365
G1 X132.503 Y125.548 E0.25826
G1 X133.036 Y126.082 E0.02365
G1 X138.861 Y120.257 E0.25826
G1 X139.394 Y120.791 E0.02365
G1 X133.449 Y126.735 E0.26358
G1 E-0.80000 F2100.00000
G1 Z0.800 F10800.000
G1 X129.790 Y113.388
G1 Z0.200
G1 E0.80000 F2100.00000
G1 F1200
G1 X129.317 Y113.308 E0.01502
G1 X128.887 Y113.157 E0.01431
G1 X128.490 Y112.949 E0.01406
G1 X128.278 Y112.809 E0.00795
G1 X127.896 Y112.498 E0.01546
G1 X127.540 Y112.130 E0.01606
G1 X127.210 Y111.710 E0.01673
G1 X126.898 Y111.226 E0.01807
G1 X126.611 Y110.680 E0.01932
G1 X126.427 Y110.263 E0.01429
G1 X126.185 Y109.604 E0.02201
G1 X125.975 Y108.864 E0.02414
G1 X125.767 Y107.796 E0.03410
G1 X125.669 Y106.907 E0.02804
G1 X125.633 Y106.037 E0.02730
G1 X125.657 Y105.142 E0.02808
G1 X125.742 Y104.258 E0.02784
G1 X125.931 Y103.194 E0.03390
G1 X126.219 Y102.163 E0.03357
G1 X126.494 Y101.446 E0.02408
G1 X126.813 Y100.793 E0.02278
G1 X127.161 Y100.230 E0.02076
G1 X127.392 Y99.917 E0.01221
G1 X127.771 Y99.490 E0.01787
G1 X128.261 Y99.071 E0.02024
G1 X128.696 Y98.802 E0.01602
G1 X129.141 Y98.612 E0.01517
G1 X129.635 Y98.496 E0.01591
G1 X130.083 Y98.471 E0.01408
G1 X130.732 Y98.567 E0.02057
G1 X131.243 Y98.759 E0.01712
G1 X131.980 Y99.246 E0.02769
G1 X132.365 Y99.620 E0.01681
G1 X132.822 Y100.176 E0.02257
G1 X133.208 Y100.795 E0.02287
G1 X133.738 Y101.992 E0.04106
G1 X134.084 Y103.201 E0.03941
G1 X134.310 Y104.529 E0.04225
G1 X134.382 Y106.276 E0.05482
G1 X134.275 Y107.561 E0.04041
G1 X134.209 Y108.053 E0.01558
G1 X134.026 Y108.909 E0.02742
G1 X133.740 Y109.877 E0.03165
G1 X133.191 Y111.100 E0.04205
G1 X132.791 Y111.732 E0.02343
G1 X132.488 Y112.110 E0.01520
G1 X131.786 Y112.776 E0.03035
G1 X131.397 Y113.025 E0.01449
G1 X130.951 Y113.230 E0.01538
G1 X130.362 Y113.368 E0.01896
G1 X130.021 Y113.397 E0.01073
G1 X129.850 Y113.390 E0.00538
G1 X129.828 Y113.012 F10800.000
G1 F1200
G1 X129.412 Y112.941 E0.01326
G1 X129.037 Y112.811 E0.01243
G1 X128.682 Y112.624 E0.01258
G1 X128.502 Y112.505 E0.00677
G1 X128.151 Y112.219 E0.01418
G1 X127.824 Y111.881 E0.01475
G1 X127.517 Y111.491 E0.01556
G1 X127.224 Y111.035 E0.01700
G1 X126.951 Y110.516 E0.01840
G1 X126.777 Y110.122 E0.01350
G1 X126.544 Y109.488 E0.02118
G1 X126.342 Y108.776 E0.02320
G1 X126.140 Y107.739 E0.03312
G1 X126.045 Y106.879 E0.02714
G1 X126.010 Y106.035 E0.02649
G1 X126.033 Y105.165 E0.02727
G1 X126.115 Y104.309 E0.02696
G1 X126.299 Y103.278 E0.03285
G1 X126.577 Y102.281 E0.03244
G1 X126.840 Y101.596 E0.02300
G1 X127.144 Y100.975 E0.02168
G1 X127.473 Y100.441 E0.01968
G1 X127.685 Y100.154 E0.01118
G1 X128.036 Y99.760 E0.01654
G1 X128.484 Y99.376 E0.01852
G1 X128.870 Y99.137 E0.01421
G1 X129.259 Y98.972 E0.01326
G1 X129.689 Y98.870 E0.01385
G1 X130.066 Y98.850 E0.01184
G1 X130.637 Y98.934 E0.01811
G1 X131.071 Y99.097 E0.01452
G1 X131.743 Y99.541 E0.02525
G1 X132.087 Y99.876 E0.01505
G1 X132.515 Y100.396 E0.02114
G1 X132.874 Y100.972 E0.02126
G1 X133.382 Y102.121 E0.03941
G1 X133.715 Y103.285 E0.03794
G1 X133.934 Y104.569 E0.04085
G1 X134.004 Y106.268 E0.05334
G1 X133.900 Y107.520 E0.03938
G1 X133.837 Y107.989 E0.01483
G1 X133.660 Y108.816 E0.02652
G1 X133.386 Y109.746 E0.03040
G1 X132.858 Y110.922 E0.04041
G1 X132.484 Y111.513 E0.02193
G1 X132.210 Y111.854 E0.01373
G1 X131.552 Y112.478 E0.02842
G1 X131.215 Y112.694 E0.01254
G1 X130.828 Y112.872 E0.01337
G1 X130.303 Y112.995 E0.01690
G1 X129.888 Y113.014 E0.01301
G1 X129.606 Y113.344 F10800.000
G1 E-0.80000 F2100.00000
G1 Z0.800 F10800.000
G1 X125.000 Y119.309
G1 Z0.200
G1 E0.80000 F2100.00000
G1 F1200
G1 X115.847 Y119.309 E0.28698
G1 X115.847 Y87.644 E0.99281
G1 X111.347 Y87.645 E0.14109
G1 X111.347 Y86.786 E0.02691
G1 X117.347 Y86.786 E0.18813
G1 X117.347 Y83.914 E0.09005
G1 X118.253 Y83.950 E0.02844
G1 X120.105 Y84.154 E0.05841
G1 X122.283 Y84.613 E0.06980
G1 X123.344 Y84.924 E0.03465
G1 X124.916 Y85.499 E0.05248
G1 X126.823 Y86.396 E0.06609
G1 X128.114 Y87.142 E0.04675
G1 X129.746 Y88.259 E0.06200
G1 X131.030 Y89.312 E0.05206
G1 X132.621 Y90.880 E0.07003
G1 X133.347 Y91.717 E0.03476
G1 X134.029 Y92.591 E0.03476
G1 X135.335 Y94.589 E0.07484
G1 X136.064 Y95.937 E0.04805
G1 X136.937 Y97.983 E0.06973
G1 X137.290 Y99.029 E0.03461
G1 X137.721 Y100.645 E0.05245
G1 X138.098 Y102.835 E0.06969
G1 X138.227 Y104.536 E0.05348
G1 X138.236 Y106.171 E0.05127
G1 X138.109 Y107.839 E0.05243
G1 X137.736 Y110.053 E0.07042
G1 X137.470 Y111.121 E0.03449
G1 X136.767 Y113.230 E0.06970
G1 X136.339 Y114.243 E0.03448
G1 X135.580 Y115.756 E0.05310
G1 X134.649 Y117.277 E0.05590
G1 X133.880 Y118.294 E0.03997
G1 X133.421 Y118.690 E0.01901
G1 X133.080 Y118.899 E0.01253
G1 X132.522 Y119.133 E0.01898
G1 X131.997 Y119.263 E0.01696
G1 X131.436 Y119.309 E0.01765
G1 X125.060 Y119.309 E0.19992
G1 X125.000 Y119.686 F10800.000
G1 F1200
G1 X115.470 Y119.686 E0.29881
G1 X115.470 Y88.022 E0.99281
G1 X110.970 Y88.022 E0.14109
G1 X110.970 Y86.409 E0.05055
G1 X116.970 Y86.409 E0.18813
G1 X116.970 Y83.522 E0.09053
G1 X118.281 Y83.574 E0.04115
G1 X120.165 Y83.781 E0.05941
G1 X122.375 Y84.247 E0.07083
G1 X123.462 Y84.566 E0.03550
G1 X125.061 Y85.151 E0.05340
G1 X126.998 Y86.062 E0.06711
G1 X128.315 Y86.823 E0.04770
G1 X129.972 Y87.957 E0.06297
G1 X131.282 Y89.032 E0.05311
G1 X132.896 Y90.622 E0.07103
G1 X133.638 Y91.478 E0.03553
G1 X134.336 Y92.372 E0.03556
G1 X135.660 Y94.396 E0.07583
G1 X136.404 Y95.773 E0.04909
G1 X137.290 Y97.848 E0.07073
G1 X137.651 Y98.920 E0.03545
G1 X138.090 Y100.564 E0.05337
G1 X138.472 Y102.789 E0.07078
G1 X138.604 Y104.521 E0.05445
G1 X138.614 Y106.185 E0.05217
G1 X138.484 Y107.884 E0.05345
G1 X138.105 Y110.130 E0.07141
G1 X137.832 Y111.226 E0.03541
G1 X137.120 Y113.363 E0.07061
G1 X136.682 Y114.401 E0.03533
G1 X135.910 Y115.940 E0.05398
G1 X134.960 Y117.489 E0.05698
G1 X134.157 Y118.553 E0.04180
G1 X133.644 Y118.995 E0.02122
G1 X133.253 Y119.235 E0.01439
G1 X132.641 Y119.492 E0.02082
G1 X132.058 Y119.637 E0.01883
G1 X131.451 Y119.686 E0.01909
G1 X125.060 Y119.686 E0.20039
G1 X124.799 Y119.340 F10800.000
G1 E-0.80000 F2100.00000
G1 Z0.800 F10800.000
G1 X129.017 Y113.323
G1 Z0.200
G1 E0.80000 F2100.00000
G1 F1200
G1 X133.725 Y118.030 E0.20914
G1 X133.955 Y117.726 E0.01198
G1 X129.904 Y113.675 E0.17997
G1 X130.410 Y113.648 E0.01595
G1 X134.185 Y117.422 E0.16767
G1 X134.415 Y117.117 E0.01198
G1 X130.843 Y113.546 E0.15867
G1 X131.043 Y113.499 E0.00645
G1 X131.240 Y113.409 E0.00681
G1 X134.618 Y116.786 E0.15005
G1 X134.820 Y116.455 E0.01221
G1 X131.598 Y113.232 E0.14316
G1 X131.924 Y113.024 E0.01215
G1 X135.023 Y116.123 E0.13771
G1 X135.226 Y115.792 E0.01221
G1 X132.204 Y112.770 E0.13428
G1 X132.478 Y112.510 E0.01187
G1 X135.418 Y115.449 E0.13059
G1 X135.596 Y115.093 E0.01250
G1 X132.745 Y112.242 E0.12666
G1 X132.983 Y111.946 E0.01194
G1 X135.775 Y114.737 E0.12403
G1 X135.953 Y114.382 E0.01250
G1 X133.195 Y111.623 E0.12254
G1 X133.402 Y111.296 E0.01217
G1 X136.126 Y114.020 E0.12103
G1 X136.285 Y113.645 E0.01281
G1 X133.575 Y110.935 E0.12038
G1 X133.741 Y110.566 E0.01270
G1 X136.443 Y113.269 E0.12007
G1 X136.586 Y112.877 E0.01309
G1 X133.906 Y110.197 E0.11906
G1 X134.006 Y109.975 E0.00765
G1 X134.054 Y109.811 E0.00537
G1 X136.720 Y112.477 E0.11841
G1 X136.853 Y112.076 E0.01327
G1 X134.176 Y109.399 E0.11894
G1 X134.298 Y108.986 E0.01351
G1 X136.987 Y111.675 E0.11946
G1 X137.120 Y111.274 E0.01327
G1 X134.393 Y108.547 E0.12118
G1 X134.487 Y108.107 E0.01414
G1 X137.243 Y110.862 E0.12243
G1 X137.349 Y110.435 E0.01385
G1 X134.550 Y107.636 E0.12435
G1 X134.593 Y107.145 E0.01549
G1 X137.456 Y110.007 E0.12717
G1 X137.534 Y109.551 E0.01455
G1 X134.634 Y106.651 E0.12881
G1 X134.665 Y106.282 E0.01163
G1 X134.659 Y106.142 E0.00441
G1 X137.611 Y109.093 E0.13113
G1 X137.688 Y108.636 E0.01457
G1 X134.636 Y105.585 E0.13557
G1 X134.613 Y105.027 E0.01752
G1 X137.765 Y108.179 E0.14001
G1 X137.835 Y107.715 E0.01475
G1 X134.586 Y104.466 E0.14434
G1 X134.476 Y103.822 E0.02052
G1 X137.873 Y107.218 E0.15090
G1 X137.911 Y106.722 E0.01564
G1 X134.367 Y103.178 E0.15745
G1 X134.159 Y102.436 E0.02420
G1 X137.949 Y106.226 E0.16836
G1 X137.951 Y105.694 E0.01671
G1 X133.886 Y101.629 E0.18058
G1 X133.462 Y100.670 E0.03293
G1 X138.118 Y105.327 E0.20687
G1 E-0.80000 F2100.00000
G1 Z0.800 F10800.000
G1 X136.139 Y96.402
G1 Z0.200
G1 E0.80000 F2100.00000
G1 F1200
G1 X126.112 Y86.375 E0.44549
G1 X125.103 Y85.900 E0.03501
G1 X136.215 Y97.012 E0.49367
G1 X136.613 Y97.945 E0.03184
G1 X124.212 Y85.543 E0.55096
G1 X123.369 Y85.235 E0.02819
G1 X136.904 Y98.770 E0.60132
G1 X137.019 Y99.110 E0.01130
G1 X137.131 Y99.531 E0.01368
G1 X122.601 Y85.001 E0.64551
G1 X122.214 Y84.888 E0.01268
G1 X121.884 Y84.818 E0.01060
G1 X137.326 Y100.260 E0.68602
G1 X137.445 Y100.705 E0.01449
G1 X137.488 Y100.956 E0.00798
G1 X121.207 Y84.675 E0.72329
G1 X120.530 Y84.533 E0.02174
G1 X137.598 Y101.601 E0.75830
M73 P0 R121
G1 X137.709 Y102.246 E0.02056
G1 X119.876 Y84.413 E0.79226
G1 X119.276 Y84.347 E0.01898
G1 X137.818 Y102.889 E0.82376
G1 X137.862 Y103.468 E0.01822
G1 X118.675 Y84.281 E0.85240
G1 X118.087 Y84.226 E0.01858
G1 X137.906 Y104.046 E0.88051
G1 X137.945 Y104.619 E0.01804
G1 X117.630 Y84.304 E0.90252
G1 X117.630 Y84.838 E0.01678
G1 X131.252 Y98.460 E0.60517
G1 X130.804 Y98.291 E0.01504
G1 X130.505 Y98.247 E0.00950
G1 X117.630 Y85.372 E0.57198
G1 X117.630 Y85.907 E0.01678
G1 X129.920 Y98.197 E0.54600
G1 X129.594 Y98.215 E0.01024
G1 X129.440 Y98.251 E0.00499
G1 X117.630 Y86.441 E0.52468
G1 X117.630 Y86.975 E0.01678
G1 X129.013 Y98.359 E0.50574
G1 X128.639 Y98.519 E0.01279
G1 X117.189 Y87.069 E0.50866
G1 X116.655 Y87.069 E0.01678
G1 X128.300 Y98.714 E0.51735
G1 X128.094 Y98.842 E0.00761
G1 X127.986 Y98.934 E0.00447
G1 X116.318 Y87.267 E0.51834
G1 X116.318 Y87.760 E0.01550
G1 X116.277 Y87.760 E0.00128
G1 X127.698 Y99.181 E0.50737
G1 X127.572 Y99.288 E0.00519
G1 X127.431 Y99.448 E0.00670
G1 X116.130 Y88.147 E0.50205
G1 X116.130 Y88.681 E0.01678
G1 X127.179 Y99.731 E0.49089
G1 X126.951 Y100.037 E0.01200
G1 X116.130 Y89.215 E0.48077
G1 X116.130 Y89.750 E0.01678
G1 X126.745 Y100.365 E0.47160
G1 X126.545 Y100.699 E0.01223
G1 X116.130 Y90.284 E0.46269
G1 X116.130 Y90.818 E0.01678
G1 X126.369 Y101.058 E0.45489
G1 X126.200 Y101.423 E0.01264
G1 X116.130 Y91.353 E0.44738
G1 X116.130 Y91.887 E0.01678
G1 X126.052 Y101.809 E0.44079
G1 X125.913 Y102.205 E0.01318
G1 X116.130 Y92.421 E0.43465
G1 X116.130 Y92.955 E0.01678
G1 X125.797 Y102.622 E0.42947
G1 X125.680 Y103.040 E0.01362
G1 X116.130 Y93.490 E0.42428
G1 X116.130 Y94.024 E0.01678
G1 X125.592 Y103.486 E0.42035
G1 X125.511 Y103.939 E0.01447
G1 X116.130 Y94.558 E0.41677
G1 X116.130 Y95.093 E0.01678
G1 X125.443 Y104.406 E0.41377
G1 X125.397 Y104.894 E0.01539
G1 X116.130 Y95.627 E0.41169
G1 X116.130 Y96.161 E0.01678
G1 X125.367 Y105.399 E0.41038
G1 X125.353 Y105.919 E0.01635
G1 X116.130 Y96.695 E0.40976
G1 X116.130 Y97.230 E0.01678
G1 X125.368 Y106.468 E0.41041
G1 X125.398 Y107.033 E0.01777
G1 X116.130 Y97.764 E0.41177
G1 X116.130 Y98.298 E0.01678
G1 X125.465 Y107.633 E0.41472
G1 X125.572 Y108.275 E0.02045
G1 X116.130 Y98.833 E0.41950
G1 X116.130 Y99.367 E0.01678
G1 X125.703 Y108.940 E0.42529
G1 X125.914 Y109.686 E0.02436
G1 X116.130 Y99.901 E0.43470
G1 X116.130 Y100.436 E0.01678
G1 X126.604 Y110.909 E0.46532
G1 E-0.80000 F2100.00000
G1 Z0.800 F10800.000
G1 X133.571 Y118.411
G1 Z0.200
G1 E0.80000 F2100.00000
G1 F1200
G1 X116.130 Y100.970 E0.77484
G1 X116.130 Y101.504 E0.01678
G1 X133.150 Y118.524 E0.75614
G1 X132.951 Y118.647 E0.00734
G1 X132.801 Y118.710 E0.00510
G1 X116.130 Y102.038 E0.74064
G1 X116.130 Y102.573 E0.01678
G1 X132.424 Y118.866 E0.72387
G1 X131.995 Y118.972 E0.01386
G1 X116.130 Y103.107 E0.70485
G1 X116.130 Y103.641 E0.01678
G1 X131.508 Y119.019 E0.68318
G1 X130.980 Y119.026 E0.01657
G1 X116.130 Y104.176 E0.65974
G1 X116.130 Y104.710 E0.01678
G1 X130.446 Y119.026 E0.63601
G1 X129.911 Y119.026 E0.01678
G1 X116.130 Y105.244 E0.61227
G1 X116.130 Y105.778 E0.01678
G1 X129.377 Y119.026 E0.58853
G1 X128.843 Y119.026 E0.01678
G1 X116.130 Y106.313 E0.56480
G1 X116.130 Y106.847 E0.01678
G1 X128.309 Y119.026 E0.54106
G1 X127.774 Y119.026 E0.01678
G1 X116.130 Y107.381 E0.51732
G1 X116.130 Y107.916 E0.01678
G1 X127.240 Y119.026 E0.49359
G1 X126.706 Y119.026 E0.01678
G1 X116.130 Y108.450 E0.46985
G1 X116.130 Y108.984 E0.01678
G1 X126.171 Y119.026 E0.44611
G1 X125.637 Y119.026 E0.01678
G1 X116.130 Y109.518 E0.42238
G1 X116.130 Y110.053 E0.01678
