; generated by PrusaSlicer 2.1.1+win64 on 2019-12-13 at 18:11:20 UTC

; 

; external perimeters extrusion width = 0.45mm
; perimeters extrusion width = 0.45mm
; infill extrusion width = 0.45mm
; solid infill extrusion width = 0.45mm
; top infill extrusion width = 0.40mm
; first layer extrusion width = 0.42mm

M73 P0 R65
M201 X9000 Y9000 Z500 E10000 ; sets maximum accelerations, mm/sec^2
M203 X500 Y500 Z12 E120 ; sets maximum feedrates, mm/sec
M204 P2000 R1500 T2000 ; sets acceleration (P, T) and retract acceleration (R), mm/sec^2
M205 X10.00 Y10.00 Z0.20 E2.50 ; sets the jerk limits, mm/sec
M205 S0 T0 ; sets the minimum extruding and travel feed rate, mm/sec
M107
M862.3 P "MK2S" ; printer model check
M862.1 P0.4 ; nozzle diameter check
M115 U3.2.3 ; tell printer latest fw version
G90 ; use absolute coordinates
M83 ; extruder relative mode
M204 S2000 T1500 ; MK2 firmware only supports the old M204 format
M104 S215 ; set extruder temp
M140 S60 ; set bed temp
M190 S60 ; wait for bed temp
M109 S215 ; wait for extruder temp
G28 W ; home all without mesh bed level
G80 ; mesh bed leveling
G1 Y-3.0 F1000.0 ; go outside print area
G92 E0.0
G1 X60.0 E9.0  F1000.0 ; intro line
M73 P0 R65
G1 X100.0 E12.5 F1000.0 ; intro line
G92 E0.0
G21 ; set units to millimeters
G90 ; use absolute coordinates
M83 ; use relative distances for extrusion
M900 K30 ; Filament gcode
;BEFORE_LAYER_CHANGE
G92 E0.0
;0.2


G1 E-0.80000 F2100.00000
G1 Z0.600 F10800.000
;AFTER_LAYER_CHANGE
;0.2
G1 X105.743 Y76.156
G1 Z0.200
G1 E0.80000 F2100.00000
M204 S1000
G1 F1200
G1 X106.957 Y74.894 E0.05492
G1 X108.315 Y73.912 E0.05253
G1 X109.893 Y73.155 E0.05488
G1 X111.587 Y72.696 E0.05503
G1 X113.247 Y72.552 E0.05226
G1 X137.466 Y74.259 E0.76125
G1 X138.853 Y74.464 E0.04395
G1 X139.884 Y74.756 E0.03359
G1 X140.873 Y75.159 E0.03349
G1 X141.809 Y75.668 E0.03340
G1 X142.750 Y76.331 E0.03611
G1 X143.549 Y77.045 E0.03359
G1 X144.259 Y77.838 E0.03337
G1 X144.875 Y78.701 E0.03326
G1 X145.397 Y79.638 E0.03363
G1 X145.804 Y80.605 E0.03288
G1 X146.105 Y81.621 E0.03325
G1 X146.292 Y82.662 E0.03314
G1 X146.364 Y83.716 E0.03313
G1 X146.271 Y136.695 E1.66113
G1 X146.183 Y137.297 E0.01908
G1 X145.932 Y137.851 E0.01908
G1 X145.538 Y138.315 E0.01908
G1 X145.032 Y138.652 E0.01908
G1 X144.577 Y138.812 E0.01510
G1 X144.096 Y138.869 E0.01521
G1 X106.028 Y138.868 E1.19359
G1 X105.438 Y138.772 E0.01873
G1 X104.897 Y138.520 E0.01873
G1 X104.441 Y138.127 E0.01885
G1 X104.111 Y137.629 E0.01873
G1 X103.953 Y137.182 E0.01487
G1 X103.894 Y136.712 E0.01487
G1 X103.636 Y105.945 E0.96472
G1 X103.635 Y82.153 E0.74599
G1 X103.724 Y80.859 E0.04067
G1 X104.117 Y79.155 E0.05480
G1 X104.776 Y77.619 E0.05241
G1 X105.709 Y76.206 E0.05311
G1 E-0.80000 F2100.00000
G1 Z0.800 F10800.000
G1 X113.160 Y112.576
G1 Z0.200
G1 E0.80000 F2100.00000
G1 F1200
G1 X112.500 Y112.536 E0.02073
G1 X111.847 Y112.431 E0.02073
G1 X111.208 Y112.262 E0.02073
G1 X110.588 Y112.032 E0.02073
G1 X109.994 Y111.742 E0.02073
G1 X109.432 Y111.395 E0.02073
G1 X108.905 Y110.995 E0.02073
G1 X108.421 Y110.545 E0.02073
G1 X107.983 Y110.050 E0.02073
G1 X107.596 Y109.514 E0.02073
G1 X107.263 Y108.943 E0.02073
G1 X106.988 Y108.342 E0.02073
G1 X106.773 Y107.716 E0.02073
G1 X106.620 Y107.073 E0.02073
G1 X106.531 Y106.418 E0.02073
G1 X106.507 Y105.758 E0.02073
G1 X106.547 Y105.098 E0.02073
G1 X106.652 Y104.445 E0.02073
G1 X106.821 Y103.806 E0.02073
G1 X107.051 Y103.186 E0.02073
G1 X107.341 Y102.592 E0.02073
G1 X107.688 Y102.029 E0.02073
G1 X108.088 Y101.503 E0.02073
G1 X108.538 Y101.019 E0.02073
G1 X109.033 Y100.581 E0.02073
G1 X109.569 Y100.193 E0.02073
G1 X110.140 Y99.861 E0.02073
G1 X110.741 Y99.585 E0.02073
G1 X111.366 Y99.370 E0.02073
G1 X112.010 Y99.217 E0.02073
G1 X112.665 Y99.129 E0.02073
G1 X113.321 Y99.104 E0.02061
G1 X113.985 Y99.145 E0.02085
G1 X114.638 Y99.250 E0.02072
G1 X115.277 Y99.418 E0.02073
G1 X115.897 Y99.649 E0.02073
G1 X116.491 Y99.939 E0.02073
G1 X117.054 Y100.285 E0.02073
G1 X117.580 Y100.686 E0.02073
G1 X118.064 Y101.136 E0.02073
G1 X118.502 Y101.631 E0.02073
G1 X118.889 Y102.167 E0.02073
G1 X119.222 Y102.738 E0.02073
G1 X119.497 Y103.339 E0.02073
G1 X119.712 Y103.964 E0.02073
G1 X119.865 Y104.607 E0.02073
G1 X119.954 Y105.262 E0.02073
G1 X119.979 Y105.923 E0.02073
G1 X119.938 Y106.583 E0.02073
G1 X119.833 Y107.235 E0.02073
G1 X119.664 Y107.875 E0.02073
G1 X119.434 Y108.494 E0.02073
G1 X119.144 Y109.088 E0.02073
G1 X118.797 Y109.651 E0.02073
G1 X118.397 Y110.177 E0.02073
G1 X117.947 Y110.662 E0.02073
G1 X117.452 Y111.100 E0.02073
G1 X116.916 Y111.487 E0.02073
G1 X116.345 Y111.820 E0.02073
G1 X115.744 Y112.095 E0.02073
G1 X115.119 Y112.310 E0.02073
G1 X114.476 Y112.463 E0.02073
G1 X113.821 Y112.552 E0.02073
G1 X113.220 Y112.574 E0.01885
G1 X113.155 Y112.954 F10800.000
G1 F1200
G1 X112.458 Y112.911 E0.02189
G1 X111.769 Y112.800 E0.02189
G1 X111.094 Y112.622 E0.02189
G1 X110.440 Y112.379 E0.02189
G1 X109.812 Y112.073 E0.02189
G1 X109.218 Y111.706 E0.02189
G1 X108.662 Y111.284 E0.02189
G1 X108.151 Y110.808 E0.02189
G1 X107.688 Y110.285 E0.02189
G1 X107.279 Y109.720 E0.02189
G1 X106.928 Y109.116 E0.02189
G1 X106.637 Y108.482 E0.02189
G1 X106.410 Y107.822 E0.02189
G1 X106.249 Y107.142 E0.02189
G1 X106.155 Y106.451 E0.02189
G1 X106.129 Y105.753 E0.02189
G1 X106.172 Y105.056 E0.02189
G1 X106.283 Y104.367 E0.02189
G1 X106.461 Y103.692 E0.02189
G1 X106.704 Y103.037 E0.02189
G1 X107.010 Y102.410 E0.02189
G1 X107.376 Y101.816 E0.02189
G1 X107.799 Y101.260 E0.02189
G1 X108.274 Y100.748 E0.02189
G1 X108.797 Y100.286 E0.02189
G1 X109.363 Y99.877 E0.02189
G1 X109.966 Y99.526 E0.02189
G1 X110.601 Y99.235 E0.02189
G1 X111.261 Y99.008 E0.02189
G1 X111.940 Y98.846 E0.02189
G1 X112.632 Y98.752 E0.02189
G1 X113.326 Y98.727 E0.02177
G1 X114.027 Y98.770 E0.02201
G1 X114.716 Y98.880 E0.02189
G1 X115.391 Y99.058 E0.02189
G1 X116.045 Y99.302 E0.02189
G1 X116.673 Y99.608 E0.02189
G1 X117.267 Y99.974 E0.02189
G1 X117.823 Y100.397 E0.02189
G1 X118.334 Y100.872 E0.02189
G1 X118.797 Y101.395 E0.02189
G1 X119.206 Y101.961 E0.02189
G1 X119.557 Y102.564 E0.02189
G1 X119.848 Y103.199 E0.02189
G1 X120.075 Y103.859 E0.02189
G1 X120.236 Y104.538 E0.02189
G1 X120.330 Y105.230 E0.02189
G1 X120.356 Y105.927 E0.02189
G1 X120.313 Y106.624 E0.02189
G1 X120.202 Y107.314 E0.02189
G1 X120.024 Y107.989 E0.02189
G1 X119.781 Y108.643 E0.02189
G1 X119.475 Y109.270 E0.02189
G1 X119.109 Y109.865 E0.02189
G1 X118.686 Y110.420 E0.02189
G1 X118.211 Y110.932 E0.02189
G1 X117.688 Y111.394 E0.02189
G1 X117.122 Y111.803 E0.02189
G1 X116.519 Y112.155 E0.02189
G1 X115.884 Y112.446 E0.02189
G1 X115.224 Y112.673 E0.02189
G1 X114.545 Y112.834 E0.02189
G1 X113.853 Y112.928 E0.02189
G1 X113.215 Y112.951 E0.02001
G1 X112.960 Y112.605 F10800.000
G1 X109.715 Y111.437
G1 F1200
G1 X107.636 Y109.358 E0.09277
G1 X107.082 Y108.267 F10800.000
G1 F1200
G1 X110.478 Y111.663 E0.15157
G1 X110.700 Y111.772 E0.00780
G1 X111.362 Y112.010 E0.02219
G1 X107.074 Y107.722 E0.19136
G1 X106.896 Y107.008 E0.02322
G1 X112.068 Y112.180 E0.23079
G1 X112.689 Y112.264 E0.01978
G1 X106.813 Y106.388 E0.26224
G1 X106.792 Y105.831 E0.01760
G1 X113.251 Y112.290 E0.28827
G1 X113.769 Y112.271 E0.01635
G1 X106.817 Y105.319 E0.31027
G1 X106.875 Y104.840 E0.01521
G1 X114.244 Y112.209 E0.32887
G1 X114.693 Y112.121 E0.01442
G1 X106.960 Y104.388 E0.34511
G1 X107.072 Y103.963 E0.01386
G1 X115.119 Y112.011 E0.35916
G1 X115.519 Y111.873 E0.01333
G1 X107.211 Y103.566 E0.37075
G1 X107.366 Y103.184 E0.01300
G1 X115.896 Y111.714 E0.38068
G1 X116.260 Y111.542 E0.01272
G1 X107.542 Y102.824 E0.38907
G1 X107.740 Y102.484 E0.01239
G1 X116.600 Y111.344 E0.39541
G1 X116.924 Y111.132 E0.01224
G1 X107.947 Y102.155 E0.40063
G1 X108.179 Y101.850 E0.01209
G1 X117.236 Y110.907 E0.40419
G1 X117.524 Y110.658 E0.01201
G1 X108.423 Y101.558 E0.40616
G1 X108.682 Y101.279 E0.01198
G1 X117.803 Y110.401 E0.40709
G1 X118.062 Y110.123 E0.01198
G1 X108.961 Y101.022 E0.40616
G1 X109.249 Y100.774 E0.01201
G1 X118.306 Y109.830 E0.40419
G1 X118.538 Y109.525 E0.01209
G1 X109.561 Y100.548 E0.40064
G1 X109.886 Y100.336 E0.01224
G1 X118.746 Y109.196 E0.39541
G1 X118.943 Y108.857 E0.01239
G1 X110.225 Y100.139 E0.38907
G1 X110.589 Y99.966 E0.01272
G1 X119.119 Y108.496 E0.38068
G1 X119.174 Y108.383 E0.00398
G1 X119.274 Y108.114 E0.00904
G1 X110.966 Y99.807 E0.37075
G1 X111.366 Y99.670 E0.01333
G1 X119.414 Y107.717 E0.35917
G1 X119.525 Y107.293 E0.01386
G1 X111.793 Y99.560 E0.34511
G1 X112.241 Y99.471 E0.01442
G1 X119.610 Y106.841 E0.32887
G1 X119.668 Y106.362 E0.01521
G1 X112.716 Y99.410 E0.31027
G1 X113.233 Y99.390 E0.01634
G1 X119.693 Y105.850 E0.28828
G1 X119.672 Y105.293 E0.01760
G1 X113.796 Y99.417 E0.26224
G1 X114.417 Y99.501 E0.01977
G1 X119.589 Y104.672 E0.23080
G1 X119.411 Y103.958 E0.02321
G1 X115.123 Y99.670 E0.19137
G1 X115.785 Y99.909 E0.02220
G1 X116.007 Y100.017 E0.00779
G1 X119.404 Y103.414 E0.15159
G1 X118.849 Y102.323 F10800.000
G1 F1200
G1 X116.770 Y100.244 E0.09279
G1 E-0.80000 F2100.00000
G1 Z0.800 F10800.000
G1 X113.160 Y88.896
G1 Z0.200
G1 E0.80000 F2100.00000
G1 F1200
G1 X112.500 Y88.855 E0.02073
G1 X111.847 Y88.750 E0.02073
G1 X111.208 Y88.582 E0.02073
G1 X110.588 Y88.351 E0.02073
G1 X109.994 Y88.061 E0.02073
G1 X109.432 Y87.715 E0.02073
G1 X108.905 Y87.314 E0.02073
G1 X108.421 Y86.864 E0.02073
G1 X107.983 Y86.369 E0.02073
G1 X107.596 Y85.833 E0.02073
G1 X107.263 Y85.262 E0.02073
G1 X106.988 Y84.661 E0.02073
G1 X106.773 Y84.036 E0.02073
G1 X106.620 Y83.393 E0.02073
G1 X106.531 Y82.738 E0.02073
G1 X106.507 Y82.077 E0.02073
G1 X106.547 Y81.417 E0.02073
G1 X106.652 Y80.765 E0.02073
G1 X106.821 Y80.125 E0.02073
G1 X107.051 Y79.506 E0.02073
G1 X107.341 Y78.912 E0.02073
G1 X107.688 Y78.349 E0.02073
G1 X108.088 Y77.823 E0.02073
G1 X108.538 Y77.338 E0.02073
G1 X109.033 Y76.900 E0.02073
G1 X109.569 Y76.513 E0.02073
G1 X110.140 Y76.180 E0.02073
G1 X110.741 Y75.905 E0.02073
G1 X111.366 Y75.690 E0.02073
G1 X112.010 Y75.537 E0.02073
G1 X112.665 Y75.448 E0.02073
G1 X113.321 Y75.424 E0.02061
G1 X113.985 Y75.464 E0.02085
G1 X114.638 Y75.569 E0.02072
G1 X115.277 Y75.738 E0.02073
G1 X115.897 Y75.968 E0.02073
G1 X116.491 Y76.258 E0.02073
G1 X117.054 Y76.605 E0.02073
G1 X117.580 Y77.005 E0.02073
G1 X118.064 Y77.455 E0.02073
G1 X118.502 Y77.950 E0.02073
G1 X118.889 Y78.486 E0.02073
G1 X119.222 Y79.057 E0.02073
G1 X119.497 Y79.658 E0.02073
G1 X119.712 Y80.284 E0.02073
G1 X119.865 Y80.927 E0.02073
G1 X119.954 Y81.582 E0.02073
G1 X119.979 Y82.242 E0.02073
G1 X119.938 Y82.902 E0.02073
G1 X119.833 Y83.555 E0.02073
G1 X119.664 Y84.194 E0.02073
G1 X119.434 Y84.814 E0.02073
G1 X119.144 Y85.408 E0.02073
G1 X118.797 Y85.971 E0.02073
G1 X118.397 Y86.497 E0.02073
G1 X117.947 Y86.981 E0.02073
G1 X117.452 Y87.419 E0.02073
G1 X116.916 Y87.807 E0.02073
G1 X116.345 Y88.139 E0.02073
G1 X115.744 Y88.415 E0.02073
G1 X115.119 Y88.630 E0.02073
G1 X114.476 Y88.783 E0.02073
G1 X113.821 Y88.871 E0.02073
G1 X113.220 Y88.894 E0.01885
G1 X113.155 Y89.273 F10800.000
G1 F1200
G1 X112.458 Y89.230 E0.02189
G1 X111.769 Y89.120 E0.02189
G1 X111.094 Y88.942 E0.02189
G1 X110.440 Y88.698 E0.02189
G1 X109.812 Y88.392 E0.02189
G1 X109.218 Y88.026 E0.02189
G1 X108.662 Y87.603 E0.02189
G1 X108.151 Y87.128 E0.02189
G1 X107.688 Y86.605 E0.02189
G1 X107.279 Y86.039 E0.02189
G1 X106.928 Y85.436 E0.02189
G1 X106.637 Y84.801 E0.02189
G1 X106.410 Y84.141 E0.02189
G1 X106.249 Y83.462 E0.02189
G1 X106.155 Y82.770 E0.02189
G1 X106.129 Y82.073 E0.02189
G1 X106.172 Y81.376 E0.02189
G1 X106.283 Y80.686 E0.02189
G1 X106.461 Y80.011 E0.02189
G1 X106.704 Y79.357 E0.02189
G1 X107.010 Y78.730 E0.02189
G1 X107.376 Y78.135 E0.02189
G1 X107.799 Y77.580 E0.02189
G1 X108.274 Y77.068 E0.02189
G1 X108.797 Y76.606 E0.02189
G1 X109.363 Y76.197 E0.02189
G1 X109.966 Y75.845 E0.02189
G1 X110.601 Y75.554 E0.02189
G1 X111.261 Y75.327 E0.02189
G1 X111.940 Y75.166 E0.02189
G1 X112.632 Y75.072 E0.02189
G1 X113.326 Y75.046 E0.02177
G1 X114.027 Y75.089 E0.02201
G1 X114.716 Y75.200 E0.02189
G1 X115.391 Y75.378 E0.02189
G1 X116.045 Y75.621 E0.02189
G1 X116.673 Y75.927 E0.02189
G1 X117.267 Y76.294 E0.02189
G1 X117.823 Y76.716 E0.02189
G1 X118.334 Y77.192 E0.02189
G1 X118.797 Y77.715 E0.02189
G1 X119.206 Y78.280 E0.02189
G1 X119.557 Y78.884 E0.02189
G1 X119.848 Y79.518 E0.02189
G1 X120.075 Y80.178 E0.02189
G1 X120.236 Y80.858 E0.02189
G1 X120.330 Y81.549 E0.02189
G1 X120.356 Y82.247 E0.02189
G1 X120.313 Y82.944 E0.02189
G1 X120.202 Y83.633 E0.02189
G1 X120.024 Y84.308 E0.02189
G1 X119.781 Y84.963 E0.02189
G1 X119.475 Y85.590 E0.02189
G1 X119.109 Y86.184 E0.02189
G1 X118.686 Y86.740 E0.02189
G1 X118.211 Y87.252 E0.02189
G1 X117.688 Y87.714 E0.02189
G1 X117.122 Y88.123 E0.02189
G1 X116.519 Y88.474 E0.02189
G1 X115.884 Y88.765 E0.02189
G1 X115.224 Y88.992 E0.02189
G1 X114.545 Y89.154 E0.02189
G1 X113.853 Y89.248 E0.02189
G1 X113.215 Y89.271 E0.02001
G1 X112.960 Y88.924 F10800.000
G1 X109.715 Y87.756
G1 F1200
G1 X107.636 Y85.678 E0.09277
G1 X107.082 Y84.587 F10800.000
G1 F1200
G1 X110.478 Y87.983 E0.15157
G1 X110.700 Y88.091 E0.00780
G1 X111.362 Y88.330 E0.02219
G1 X107.074 Y84.042 E0.19136
G1 X106.896 Y83.328 E0.02322
G1 X112.068 Y88.499 E0.23079
G1 X112.689 Y88.584 E0.01978
G1 X106.813 Y82.708 E0.26224
G1 X106.792 Y82.150 E0.01760
G1 X113.251 Y88.609 E0.28827
G1 X113.769 Y88.590 E0.01635
G1 X106.817 Y81.638 E0.31027
G1 X106.875 Y81.160 E0.01521
G1 X114.244 Y88.529 E0.32887
G1 X114.693 Y88.440 E0.01442
G1 X106.960 Y80.707 E0.34511
G1 X107.072 Y80.283 E0.01386
G1 X115.119 Y88.330 E0.35916
G1 X115.519 Y88.193 E0.01333
G1 X107.211 Y79.886 E0.37075
G1 X107.366 Y79.504 E0.01300
G1 X115.896 Y88.034 E0.38068
G1 X116.260 Y87.861 E0.01272
G1 X107.542 Y79.143 E0.38907
G1 X107.740 Y78.804 E0.01239
G1 X116.600 Y87.664 E0.39541
G1 X116.924 Y87.452 E0.01224
G1 X107.947 Y78.475 E0.40063
G1 X108.179 Y78.170 E0.01209
G1 X117.236 Y87.227 E0.40419
G1 X117.524 Y86.978 E0.01201
G1 X108.423 Y77.877 E0.40616
G1 X108.682 Y77.599 E0.01198
G1 X117.803 Y86.721 E0.40709
G1 X118.062 Y86.442 E0.01198
G1 X108.961 Y77.342 E0.40616
G1 X109.249 Y77.093 E0.01201
G1 X118.306 Y86.150 E0.40419
G1 X118.538 Y85.845 E0.01209
G1 X109.561 Y76.868 E0.40064
G1 X109.886 Y76.656 E0.01224
G1 X118.746 Y85.516 E0.39541
G1 X118.943 Y85.176 E0.01239
G1 X110.225 Y76.458 E0.38907
G1 X110.589 Y76.286 E0.01272
G1 X119.119 Y84.816 E0.38068
G1 X119.174 Y84.702 E0.00398
G1 X119.274 Y84.434 E0.00904
G1 X110.966 Y76.127 E0.37075
G1 X111.366 Y75.989 E0.01333
G1 X119.414 Y84.037 E0.35917
G1 X119.525 Y83.612 E0.01386
G1 X111.793 Y75.879 E0.34511
G1 X112.241 Y75.791 E0.01442
G1 X119.610 Y83.160 E0.32887
G1 X119.668 Y82.682 E0.01521
G1 X112.716 Y75.729 E0.31027
G1 X113.233 Y75.710 E0.01634
G1 X119.693 Y82.169 E0.28828
G1 X119.672 Y81.612 E0.01760
G1 X113.796 Y75.736 E0.26224
G1 X114.417 Y75.820 E0.01977
G1 X119.589 Y80.992 E0.23080
G1 X119.411 Y80.278 E0.02321
G1 X115.123 Y75.990 E0.19137
M73 P1 R64
G1 X115.785 Y76.228 E0.02220
G1 X116.007 Y76.337 E0.00779
G1 X119.404 Y79.733 E0.15159
G1 X118.849 Y78.642 F10800.000
G1 F1200
G1 X116.770 Y76.563 E0.09279
G1 E-0.80000 F2100.00000
G1 Z0.800 F10800.000
G1 X136.675 Y90.576
G1 Z0.200
G1 E0.80000 F2100.00000
G1 F1200
G1 X136.015 Y90.536 E0.02073
G1 X135.362 Y90.431 E0.02073
G1 X134.723 Y90.262 E0.02073
G1 X134.103 Y90.032 E0.02073
G1 X133.509 Y89.742 E0.02073
G1 X132.946 Y89.395 E0.02073
G1 X132.420 Y88.995 E0.02073
G1 X131.936 Y88.545 E0.02073
G1 X131.498 Y88.050 E0.02073
G1 X131.111 Y87.514 E0.02073
G1 X130.778 Y86.943 E0.02073
G1 X130.503 Y86.342 E0.02073
G1 X130.288 Y85.716 E0.02073
G1 X130.135 Y85.073 E0.02073
G1 X130.046 Y84.418 E0.02073
G1 X130.021 Y83.758 E0.02073
G1 X130.062 Y83.098 E0.02073
G1 X130.167 Y82.445 E0.02073
G1 X130.336 Y81.806 E0.02073
G1 X130.566 Y81.186 E0.02073
G1 X130.856 Y80.592 E0.02073
G1 X131.203 Y80.029 E0.02073
G1 X131.603 Y79.503 E0.02073
G1 X132.053 Y79.019 E0.02073
G1 X132.548 Y78.581 E0.02073
G1 X133.084 Y78.193 E0.02073
G1 X133.655 Y77.861 E0.02073
G1 X134.256 Y77.585 E0.02073
G1 X134.881 Y77.370 E0.02073
G1 X135.524 Y77.217 E0.02073
G1 X136.180 Y77.129 E0.02073
G1 X136.836 Y77.104 E0.02061
