; generated by PrusaSlicer 2.0.0+ on 2019-08-26 at 10:16:53

; 

; external perimeters extrusion width = 0.45mm
; perimeters extrusion width = 0.45mm
; infill extrusion width = 0.45mm
; solid infill extrusion width = 0.45mm
; top infill extrusion width = 0.40mm
; first layer extrusion width = 0.42mm

M73 P0 R101
M201 X9000 Y9000 Z500 E10000 ; sets maximum accelerations, mm/sec^2
M203 X500 Y500 Z12 E120 ; sets maximum feedrates, mm/sec
M204 P2000 R1500 T2000 ; sets acceleration (P, T) and retract acceleration (R), mm/sec^2
M205 X10.00 Y10.00 Z0.20 E2.50 ; sets the jerk limits, mm/sec
M205 S0 T0 ; sets the minimum extruding and travel feed rate, mm/sec
M107
M115 U3.2.3 ; tell printer latest fw version
G90 ; use absolute coordinates
M83 ; extruder relative mode
M204 S2000 T1500 ; MK2 firmware only supports the old M204 format
M104 S215 ; set extruder temp
M140 S60 ; set bed temp
M190 S60 ; wait for bed temp
M109 S215 ; wait for extruder temp
G28 W ; home all without mesh bed level
G80 ; mesh bed leveling
G1 Y-3.0 F1000.0 ; go outside print area
G92 E0.0
G1 X60.0 E9.0  F1000.0 ; intro line
M73 P0 R101
G1 X100.0 E12.5 F1000.0 ; intro line
G92 E0.0
M900 K30 ; Filament gcode
G21 ; set units to millimeters
G90 ; use absolute coordinates
M83 ; use relative distances for extrusion
;BEFORE_LAYER_CHANGE
G92 E0.0
;0.2


G1 E-0.80000 F2100.00000
G1 Z0.600 F10800.000
;AFTER_LAYER_CHANGE
;0.2
G1 X86.370 Y78.669
G1 Z0.200
G1 E0.80000 F2100.00000
M204 S1000
G1 F1200
G1 X86.819 Y78.206 E0.02021
G1 X102.790 Y66.227 E0.62596
G1 X103.609 Y65.854 E0.02822
G1 X104.084 Y65.801 E0.01498
G1 X145.915 Y65.801 E1.31159
G1 X146.680 Y65.940 E0.02439
G1 X147.349 Y66.339 E0.02439
G1 X162.649 Y80.376 E0.65104
G1 X163.563 Y81.405 E0.04316
G1 X163.983 Y82.705 E0.04284
G1 X164.041 Y83.201 E0.01567
G1 X164.041 Y142.015 E1.84404
G1 X163.925 Y142.715 E0.02225
G1 X163.621 Y143.300 E0.02066
G1 X163.154 Y143.770 E0.02078
G1 X162.568 Y144.079 E0.02078
G1 X161.920 Y144.198 E0.02066
G1 X120.022 Y144.199 E1.31368
G1 X119.326 Y144.083 E0.02213
G1 X102.906 Y135.570 E0.57993
G1 X86.817 Y123.509 E0.63044
G1 X86.469 Y123.176 E0.01510
G1 X86.201 Y122.772 E0.01521
G1 X86.022 Y122.291 E0.01612
G1 X85.959 Y121.780 E0.01612
G1 X85.959 Y79.938 E1.31192
G1 X86.075 Y79.242 E0.02213
G1 X86.343 Y78.722 E0.01833
G1 F8640
G1 X86.819 Y78.206 E-0.16213
G1 X88.891 Y76.653 E-0.59787
G1 E-0.04000 F2100.00000
G1 Z0.800 F10800.000
G1 X140.941 Y111.528
G1 Z0.200
G1 E0.80000 F2100.00000
G1 F1200
G1 X139.908 Y111.322 E0.03301
G1 X139.033 Y110.737 E0.03301
G1 X138.448 Y109.862 E0.03301
G1 X138.242 Y108.829 E0.03301
G1 X138.448 Y107.797 E0.03301
G1 X139.033 Y106.921 E0.03301
G1 X139.908 Y106.336 E0.03301
G1 X140.941 Y106.131 E0.03301
G1 X141.974 Y106.336 E0.03301
G1 X142.849 Y106.921 E0.03301
G1 X143.434 Y107.797 E0.03301
G1 X143.639 Y108.829 E0.03301
G1 X143.434 Y109.862 E0.03301
G1 X142.849 Y110.737 E0.03301
G1 X141.974 Y111.322 E0.03301
G1 X141.000 Y111.516 E0.03113
G1 X140.941 Y111.143 F10800.000
G1 F1200
G1 X140.055 Y110.967 E0.02831
G1 X139.305 Y110.466 E0.02831
G1 X138.803 Y109.715 E0.02831
G1 X138.627 Y108.829 E0.02831
G1 X138.803 Y107.944 E0.02831
G1 X139.305 Y107.193 E0.02831
G1 X140.055 Y106.691 E0.02831
G1 X140.941 Y106.515 E0.02831
G1 X141.826 Y106.691 E0.02831
G1 X142.577 Y107.193 E0.02831
G1 X143.079 Y107.944 E0.02831
G1 X143.255 Y108.829 E0.02831
G1 X143.079 Y109.715 E0.02831
G1 X142.577 Y110.466 E0.02831
G1 X141.826 Y110.967 E0.02831
G1 X141.000 Y111.132 E0.02643
G1 X140.741 Y111.490 F10800.000
G1 F8640
G1 X140.055 Y110.967 E-0.22135
G1 X139.305 Y110.466 E-0.20849
G1 X138.803 Y109.715 E-0.20849
G1 X138.700 Y109.198 E-0.12168
G1 E-0.04000 F2100.00000
G1 Z0.800 F10800.000
G1 X140.941 Y119.348
G1 Z0.200
G1 E0.80000 F2100.00000
G1 F1200
G1 X136.558 Y119.348 E0.13744
G1 X136.558 Y105.358 E0.43865
G1 X136.686 Y104.870 E0.01580
G1 X136.977 Y104.574 E0.01303
G1 X137.447 Y104.446 E0.01527
G1 X144.435 Y104.446 E0.21911
G1 X144.905 Y104.574 E0.01527
G1 X145.196 Y104.870 E0.01303
G1 X145.324 Y105.358 E0.01580
G1 X145.324 Y119.348 E0.43865
G1 X141.001 Y119.348 E0.13556
G1 X140.941 Y119.725 F10800.000
G1 F1200
G1 X136.180 Y119.725 E0.14926
G1 X136.180 Y105.309 E0.45201
G1 X136.347 Y104.678 E0.02046
G1 X136.779 Y104.237 E0.01936
G1 X137.396 Y104.069 E0.02005
G1 X144.485 Y104.069 E0.22228
G1 X145.102 Y104.237 E0.02005
G1 X145.535 Y104.678 E0.01936
G1 X145.701 Y105.309 E0.02046
G1 X145.701 Y119.725 E0.45201
G1 X141.001 Y119.725 E0.14738
G1 X140.618 Y119.489 F10800.000
G1 F8640
G1 X137.709 Y119.725 E-0.76000
G1 E-0.04000 F2100.00000
G1 Z0.800 F10800.000
G1 X137.447 Y119.235
G1 Z0.200
G1 E0.80000 F2100.00000
G1 F1200
G1 X136.840 Y118.628 E0.02739
G1 X136.840 Y118.085 E0.01733
G1 X137.820 Y119.065 E0.04423
G1 X138.363 Y119.065 E0.01733
G1 X136.840 Y117.542 E0.06873
G1 X136.840 Y116.999 E0.01733
G1 X138.906 Y119.065 E0.09324
G1 X139.449 Y119.065 E0.01733
G1 X136.840 Y116.457 E0.11774
G1 X136.840 Y115.914 E0.01733
G1 X139.992 Y119.065 E0.14224
G1 X140.534 Y119.065 E0.01733
G1 X136.840 Y115.371 E0.16674
G1 X136.840 Y114.828 E0.01733
G1 X141.077 Y119.065 E0.19124
G1 X141.620 Y119.065 E0.01733
G1 X136.840 Y114.285 E0.21574
G1 X136.840 Y113.742 E0.01733
G1 X142.163 Y119.065 E0.24025
G1 X142.706 Y119.065 E0.01733
G1 X136.840 Y113.200 E0.26475
G1 X136.840 Y112.657 E0.01733
G1 X143.249 Y119.065 E0.28925
G1 X143.791 Y119.065 E0.01733
G1 X136.840 Y112.114 E0.31375
G1 X136.840 Y111.571 E0.01733
G1 X144.334 Y119.065 E0.33825
G1 X144.877 Y119.065 E0.01733
G1 X136.840 Y111.028 E0.36275
G1 X136.840 Y110.485 E0.01733
G1 X145.041 Y118.687 E0.37017
G1 X145.041 Y118.144 E0.01733
G1 X136.840 Y109.943 E0.37017
G1 X136.840 Y109.400 E0.01733
G1 X145.211 Y117.771 E0.37783
G1 F8640
G1 X142.884 Y115.443 E-0.76000
G1 E-0.04000 F2100.00000
G1 Z0.800 F10800.000
G1 X145.180 Y105.254
G1 Z0.200
G1 E0.80000 F2100.00000
G1 F1200
G1 X144.751 Y104.825 E0.01937
G1 X144.397 Y104.729 E0.01170
G1 X144.112 Y104.729 E0.00911
G1 X145.041 Y105.659 E0.04197
G1 X145.041 Y106.201 E0.01733
G1 X143.569 Y104.729 E0.06647
G1 X143.026 Y104.729 E0.01733
G1 X145.041 Y106.744 E0.09097
G1 X145.041 Y107.287 E0.01733
G1 X142.483 Y104.729 E0.11548
G1 X141.940 Y104.729 E0.01733
G1 X145.041 Y107.830 E0.13998
G1 X145.041 Y108.373 E0.01733
G1 X141.397 Y104.729 E0.16448
G1 X140.855 Y104.729 E0.01733
G1 X145.041 Y108.916 E0.18898
G1 X145.041 Y109.458 E0.01733
G1 X143.807 Y108.224 E0.05570
G1 X143.928 Y108.829 E0.01968
G1 X143.918 Y108.878 E0.00158
G1 X145.041 Y110.001 E0.05070
G1 X145.041 Y110.544 E0.01733
G1 X143.828 Y109.331 E0.05477
G1 X143.738 Y109.783 E0.01473
G1 X145.041 Y111.087 E0.05883
G1 X145.041 Y111.630 E0.01733
G1 X143.574 Y110.162 E0.06625
G1 X143.356 Y110.487 E0.01249
G1 X145.041 Y112.173 E0.07606
G1 X145.041 Y112.715 E0.01733
G1 X143.139 Y110.813 E0.08588
G1 X143.053 Y110.941 E0.00493
G1 X142.856 Y111.073 E0.00756
G1 X145.041 Y113.258 E0.09864
G1 X145.041 Y113.801 E0.01733
G1 X142.531 Y111.290 E0.11333
G1 X142.205 Y111.508 E0.01249
G1 X145.041 Y114.344 E0.12801
G1 X145.041 Y114.887 E0.01733
G1 X141.800 Y111.645 E0.14631
G1 X141.347 Y111.735 E0.01473
G1 X145.041 Y115.430 E0.16674
G1 X145.041 Y115.972 E0.01733
G1 X140.871 Y111.802 E0.18822
G1 X140.194 Y111.668 E0.02205
G1 X145.041 Y116.515 E0.21881
G1 X145.041 Y117.058 E0.01733
G1 X136.840 Y108.857 E0.37017
G1 X136.840 Y108.314 E0.01733
G1 X138.103 Y109.576 E0.05697
G1 X137.968 Y108.899 E0.02205
G1 X136.840 Y107.771 E0.05089
G1 X136.840 Y107.228 E0.01733
G1 X138.035 Y108.423 E0.05392
G1 X138.125 Y107.970 E0.01473
G1 X136.840 Y106.686 E0.05798
G1 X136.840 Y106.143 E0.01733
G1 X138.262 Y107.565 E0.06419
G1 X138.480 Y107.239 E0.01249
G1 X136.840 Y105.600 E0.07400
G1 X136.840 Y105.394 E0.00657
G1 X136.911 Y105.127 E0.00881
G1 X138.697 Y106.914 E0.08065
G1 X138.829 Y106.717 E0.00756
G1 X138.957 Y106.631 E0.00493
G1 X137.147 Y104.821 E0.08172
G1 X137.485 Y104.729 E0.01117
G1 X137.598 Y104.729 E0.00361
G1 X139.283 Y106.414 E0.07606
G1 X139.608 Y106.196 E0.01249
G1 X138.140 Y104.729 E0.06625
G1 X138.683 Y104.729 E0.01733
G1 X139.987 Y106.032 E0.05883
G1 X140.439 Y105.942 E0.01473
G1 X139.226 Y104.729 E0.05477
G1 X139.769 Y104.729 E0.01733
G1 X140.892 Y105.852 E0.05070
G1 X140.941 Y105.842 E0.00158
G1 X141.546 Y105.963 E0.01968
G1 X140.142 Y104.559 E0.06336
G1 F8640
G1 X141.546 Y105.963 E-0.45836
G1 X140.941 Y105.842 E-0.14240
G1 X140.892 Y105.852 E-0.01145
G1 X140.440 Y105.399 E-0.14779
G1 E-0.04000 F2100.00000
G1 Z0.800 F10800.000
G1 X156.882 Y111.528
G1 Z0.200
G1 E0.80000 F2100.00000
G1 F1200
G1 X155.849 Y111.322 E0.03301
G1 X154.974 Y110.737 E0.03301
G1 X154.389 Y109.862 E0.03301
G1 X154.183 Y108.829 E0.03301
G1 X154.389 Y107.797 E0.03301
G1 X154.974 Y106.921 E0.03301
G1 X155.849 Y106.336 E0.03301
G1 X156.882 Y106.131 E0.03301
G1 X157.914 Y106.336 E0.03301
G1 X158.790 Y106.921 E0.03301
G1 X159.375 Y107.797 E0.03301
G1 X159.580 Y108.829 E0.03301
G1 X159.375 Y109.862 E0.03301
G1 X158.790 Y110.737 E0.03301
G1 X157.914 Y111.322 E0.03301
G1 X156.941 Y111.516 E0.03113
G1 X156.882 Y111.143 F10800.000
G1 F1200
G1 X155.996 Y110.967 E0.02831
G1 X155.245 Y110.466 E0.02831
G1 X154.744 Y109.715 E0.02831
G1 X154.568 Y108.829 E0.02831
G1 X154.744 Y107.944 E0.02831
G1 X155.245 Y107.193 E0.02831
G1 X155.996 Y106.691 E0.02831
G1 X156.882 Y106.515 E0.02831
G1 X157.767 Y106.691 E0.02831
G1 X158.518 Y107.193 E0.02831
G1 X159.020 Y107.944 E0.02831
G1 X159.196 Y108.829 E0.02831
G1 X159.020 Y109.715 E0.02831
G1 X158.518 Y110.466 E0.02831
G1 X157.767 Y110.967 E0.02831
G1 X156.941 Y111.132 E0.02643
G1 X156.682 Y111.490 F10800.000
G1 F8640
G1 X155.996 Y110.967 E-0.22135
G1 X155.245 Y110.466 E-0.20849
G1 X154.744 Y109.715 E-0.20849
G1 X154.641 Y109.198 E-0.12168
G1 E-0.04000 F2100.00000
G1 Z0.800 F10800.000
G1 X156.882 Y119.348
G1 Z0.200
G1 E0.80000 F2100.00000
G1 F1200
G1 X152.498 Y119.348 E0.13744
G1 X152.498 Y105.358 E0.43865
G1 X152.627 Y104.870 E0.01580
G1 X152.918 Y104.574 E0.01303
G1 X153.388 Y104.446 E0.01527
G1 X160.376 Y104.446 E0.21911
G1 X160.846 Y104.574 E0.01527
G1 X161.137 Y104.870 E0.01303
G1 X161.265 Y105.358 E0.01580
G1 X161.265 Y119.348 E0.43865
G1 X156.942 Y119.348 E0.13556
G1 X156.882 Y119.725 F10800.000
G1 F1200
G1 X152.121 Y119.725 E0.14926
G1 X152.121 Y105.309 E0.45201
G1 X152.287 Y104.678 E0.02046
G1 X152.720 Y104.237 E0.01936
G1 X153.337 Y104.069 E0.02005
G1 X160.426 Y104.069 E0.22228
G1 X161.043 Y104.237 E0.02005
G1 X161.476 Y104.678 E0.01936
G1 X161.642 Y105.309 E0.02046
G1 X161.642 Y119.725 E0.45201
G1 X156.942 Y119.725 E0.14738
G1 X156.559 Y119.489 F10800.000
G1 F8640
G1 X153.650 Y119.725 E-0.76000
G1 E-0.04000 F2100.00000
G1 Z0.800 F10800.000
G1 X153.388 Y119.235
G1 Z0.200
G1 E0.80000 F2100.00000
G1 F1200
G1 X152.781 Y118.628 E0.02739
G1 X152.781 Y118.085 E0.01733
G1 X153.761 Y119.065 E0.04423
G1 X154.304 Y119.065 E0.01733
G1 X152.781 Y117.542 E0.06873
G1 X152.781 Y116.999 E0.01733
G1 X154.847 Y119.065 E0.09324
G1 X155.390 Y119.065 E0.01733
G1 X152.781 Y116.457 E0.11774
G1 X152.781 Y115.914 E0.01733
G1 X155.932 Y119.065 E0.14224
G1 X156.475 Y119.065 E0.01733
G1 X152.781 Y115.371 E0.16674
G1 X152.781 Y114.828 E0.01733
G1 X157.018 Y119.065 E0.19124
G1 X157.561 Y119.065 E0.01733
G1 X152.781 Y114.285 E0.21574
G1 X152.781 Y113.742 E0.01733
G1 X158.104 Y119.065 E0.24025
G1 X158.647 Y119.065 E0.01733
G1 X152.781 Y113.200 E0.26475
G1 X152.781 Y112.657 E0.01733
G1 X159.189 Y119.065 E0.28925
G1 X159.732 Y119.065 E0.01733
G1 X152.781 Y112.114 E0.31375
G1 X152.781 Y111.571 E0.01733
G1 X160.275 Y119.065 E0.33825
G1 X160.818 Y119.065 E0.01733
G1 X152.781 Y111.028 E0.36275
G1 X152.781 Y110.485 E0.01733
G1 X160.982 Y118.687 E0.37017
G1 X160.982 Y118.144 E0.01733
G1 X152.781 Y109.943 E0.37017
G1 X152.781 Y109.400 E0.01733
G1 X161.152 Y117.771 E0.37783
G1 F8640
G1 X158.825 Y115.443 E-0.76000
G1 E-0.04000 F2100.00000
G1 Z0.800 F10800.000
G1 X161.121 Y105.254
G1 Z0.200
G1 E0.80000 F2100.00000
G1 F1200
G1 X160.692 Y104.825 E0.01937
G1 X160.338 Y104.729 E0.01170
G1 X160.052 Y104.729 E0.00911
G1 X160.982 Y105.659 E0.04197
G1 X160.982 Y106.201 E0.01733
G1 X159.510 Y104.729 E0.06647
G1 X158.967 Y104.729 E0.01733
G1 X160.982 Y106.744 E0.09097
G1 X160.982 Y107.287 E0.01733
G1 X158.424 Y104.729 E0.11548
G1 X157.881 Y104.729 E0.01733
G1 X160.982 Y107.830 E0.13998
G1 X160.982 Y108.373 E0.01733
G1 X157.338 Y104.729 E0.16448
G1 X156.795 Y104.729 E0.01733
G1 X160.982 Y108.916 E0.18898
G1 X160.982 Y109.458 E0.01733
G1 X159.748 Y108.224 E0.05570
G1 X159.869 Y108.829 E0.01968
G1 X159.859 Y108.878 E0.00158
G1 X160.982 Y110.001 E0.05070
G1 X160.982 Y110.544 E0.01733
G1 X159.769 Y109.331 E0.05477
G1 X159.679 Y109.783 E0.01473
G1 X160.982 Y111.087 E0.05883
G1 X160.982 Y111.630 E0.01733
G1 X159.515 Y110.162 E0.06625
G1 X159.297 Y110.487 E0.01249
G1 X160.982 Y112.173 E0.07606
G1 X160.982 Y112.715 E0.01733
G1 X159.080 Y110.813 E0.08588
G1 X158.994 Y110.941 E0.00493
G1 X158.797 Y111.073 E0.00756
G1 X160.982 Y113.258 E0.09864
G1 X160.982 Y113.801 E0.01733
G1 X158.472 Y111.290 E0.11333
G1 X158.146 Y111.508 E0.01249
G1 X160.982 Y114.344 E0.12801
G1 X160.982 Y114.887 E0.01733
G1 X157.741 Y111.645 E0.14631
G1 X157.288 Y111.735 E0.01473
G1 X160.982 Y115.430 E0.16674
G1 X160.982 Y115.972 E0.01733
G1 X156.812 Y111.802 E0.18822
G1 X156.135 Y111.668 E0.02205
G1 X160.982 Y116.515 E0.21881
G1 X160.982 Y117.058 E0.01733
G1 X152.781 Y108.857 E0.37017
G1 X152.781 Y108.314 E0.01733
G1 X154.043 Y109.576 E0.05697
G1 X153.909 Y108.899 E0.02205
G1 X152.781 Y107.771 E0.05089
G1 X152.781 Y107.228 E0.01733
G1 X153.976 Y108.423 E0.05392
G1 X154.066 Y107.970 E0.01473
G1 X152.781 Y106.686 E0.05798
M73 P1 R100
G1 X152.781 Y106.143 E0.01733
G1 X154.203 Y107.565 E0.06419
G1 X154.421 Y107.239 E0.01249
G1 X152.781 Y105.600 E0.07400
G1 X152.781 Y105.394 E0.00657
G1 X152.851 Y105.127 E0.00881
G1 X154.638 Y106.914 E0.08065
G1 X154.770 Y106.717 E0.00756
G1 X154.898 Y106.631 E0.00493
G1 X153.088 Y104.821 E0.08172
G1 X153.426 Y104.729 E0.01117
G1 X153.538 Y104.729 E0.00361
G1 X155.224 Y106.414 E0.07606
G1 X155.549 Y106.196 E0.01249
G1 X154.081 Y104.729 E0.06625
G1 X154.624 Y104.729 E0.01733
G1 X155.928 Y106.032 E0.05883
G1 X156.380 Y105.942 E0.01473
G1 X155.167 Y104.729 E0.05477
G1 X155.710 Y104.729 E0.01733
G1 X156.833 Y105.852 E0.05070
G1 X156.882 Y105.842 E0.00158
G1 X157.487 Y105.963 E0.01968
G1 X156.083 Y104.559 E0.06336
G1 F8640
G1 X157.487 Y105.963 E-0.45836
G1 X156.882 Y105.842 E-0.14240
G1 X156.833 Y105.852 E-0.01145
G1 X156.381 Y105.399 E-0.14779
G1 E-0.04000 F2100.00000
G1 Z0.800 F10800.000
G1 X156.882 Y133.604
G1 Z0.200
G1 E0.80000 F2100.00000
G1 F1200
G1 X155.849 Y133.398 E0.03301
G1 X154.974 Y132.813 E0.03301
G1 X154.389 Y131.938 E0.03301
G1 X154.183 Y130.905 E0.03301
G1 X154.389 Y129.873 E0.03301
G1 X154.974 Y128.997 E0.03301
G1 X155.849 Y128.412 E0.03301
G1 X156.882 Y128.207 E0.03301
G1 X157.914 Y128.412 E0.03301
G1 X158.790 Y128.997 E0.03301
G1 X159.375 Y129.873 E0.03301
G1 X159.580 Y130.905 E0.03301
G1 X159.375 Y131.938 E0.03301
G1 X158.790 Y132.813 E0.03301
G1 X157.914 Y133.398 E0.03301
G1 X156.941 Y133.592 E0.03113
G1 X156.882 Y133.219 F10800.000
G1 F1200
G1 X155.996 Y133.043 E0.02831
G1 X155.245 Y132.542 E0.02831
G1 X154.744 Y131.791 E0.02831
G1 X154.568 Y130.905 E0.02831
G1 X154.744 Y130.020 E0.02831
G1 X155.245 Y129.269 E0.02831
G1 X155.996 Y128.767 E0.02831
G1 X156.882 Y128.591 E0.02831
G1 X157.767 Y128.767 E0.02831
G1 X158.518 Y129.269 E0.02831
G1 X159.020 Y130.020 E0.02831
G1 X159.196 Y130.905 E0.02831
G1 X159.020 Y131.791 E0.02831
G1 X158.518 Y132.542 E0.02831
G1 X157.767 Y133.043 E0.02831
G1 X156.941 Y133.208 E0.02643
G1 X156.682 Y133.566 F10800.000
G1 F8640
G1 X155.996 Y133.043 E-0.22135
G1 X155.245 Y132.542 E-0.20849
G1 X154.744 Y131.791 E-0.20849
G1 X154.641 Y131.274 E-0.12168
G1 E-0.04000 F2100.00000
G1 Z0.800 F10800.000
G1 X156.882 Y141.424
G1 Z0.200
G1 E0.80000 F2100.00000
G1 F1200
G1 X152.498 Y141.424 E0.13744
G1 X152.498 Y127.434 E0.43865
G1 X152.627 Y126.946 E0.01580
G1 X152.918 Y126.650 E0.01303
G1 X153.388 Y126.522 E0.01527
G1 X160.376 Y126.522 E0.21911
G1 X160.846 Y126.650 E0.01527
G1 X161.137 Y126.946 E0.01303
