; generated by PrusaSlicer 2.1.1+win64 on 2020-01-21 at 18:25:47 UTC

; 

; external perimeters extrusion width = 0.45mm
; perimeters extrusion width = 0.45mm
; infill extrusion width = 0.45mm
; solid infill extrusion width = 0.45mm
; top infill extrusion width = 0.40mm
; first layer extrusion width = 0.42mm

M73 P0 R89
M201 X9000 Y9000 Z500 E10000 ; sets maximum accelerations, mm/sec^2
M203 X500 Y500 Z12 E120 ; sets maximum feedrates, mm/sec
M204 P2000 R1500 T2000 ; sets acceleration (P, T) and retract acceleration (R), mm/sec^2
M205 X10.00 Y10.00 Z0.20 E2.50 ; sets the jerk limits, mm/sec
M205 S0 T0 ; sets the minimum extruding and travel feed rate, mm/sec
M107
M862.3 P "MK2S" ; printer model check
M862.1 P0.4 ; nozzle diameter check
M115 U3.2.3 ; tell printer latest fw version
G90 ; use absolute coordinates
M83 ; extruder relative mode
M204 S2000 T1500 ; MK2 firmware only supports the old M204 format
M104 S215 ; set extruder temp
M140 S60 ; set bed temp
M190 S60 ; wait for bed temp
M109 S215 ; wait for extruder temp
G28 W ; home all without mesh bed level
G80 ; mesh bed leveling
G1 Y-3.0 F1000.0 ; go outside print area
G92 E0.0
G1 X60.0 E9.0  F1000.0 ; intro line
M73 P0 R89
G1 X100.0 E12.5 F1000.0 ; intro line
G92 E0.0
G21 ; set units to millimeters
G90 ; use absolute coordinates
M83 ; use relative distances for extrusion
M900 K30 ; Filament gcode
;BEFORE_LAYER_CHANGE
G92 E0.0
;0.2


G1 E-0.80000 F2100.00000
G1 Z0.600 F10800.000
;AFTER_LAYER_CHANGE
;0.2
G1 X82.053 Y63.710
G1 Z0.200
G1 E0.80000 F2100.00000
M204 S1000
G1 F1200
G1 X82.370 Y63.100 E0.02157
G1 X82.711 Y62.734 E0.01567
G1 X83.129 Y62.454 E0.01578
G1 X83.600 Y62.277 E0.01578
G1 X84.099 Y62.212 E0.01578
G1 X145.834 Y62.211 E1.93566
G1 X146.425 Y62.294 E0.01873
G1 X146.970 Y62.532 E0.01862
G1 X147.430 Y62.907 E0.01862
G1 X147.773 Y63.392 E0.01862
G1 X166.990 Y100.560 E1.31194
G1 X167.399 Y101.440 E0.03040
G1 X167.880 Y103.054 E0.05283
G1 X168.029 Y104.089 E0.03278
G1 X168.058 Y104.976 E0.02782
G1 X167.987 Y106.010 E0.03251
G1 X167.815 Y106.959 E0.03023
G1 X167.541 Y107.891 E0.03047
G1 X167.167 Y108.797 E0.03074
G1 X147.589 Y146.903 E1.34324
G1 X147.242 Y147.272 E0.01589
G1 X146.819 Y147.552 E0.01589
G1 X146.347 Y147.727 E0.01578
G1 X145.844 Y147.788 E0.01589
G1 X84.115 Y147.788 E1.93545
G1 X83.440 Y147.677 E0.02146
G1 X82.830 Y147.360 E0.02157
G1 X82.460 Y147.014 E0.01589
G1 X82.179 Y146.592 E0.01589
G1 X82.003 Y146.116 E0.01589
G1 X81.942 Y145.613 E0.01589
G1 X81.941 Y64.389 E2.54673
G1 X82.043 Y63.769 E0.01969
G1 E-0.80000 F2100.00000
G1 Z0.800 F10800.000
G1 X114.980 Y101.413
G1 Z0.200
G1 E0.80000 F2100.00000
G1 F1200
G1 X84.717 Y101.413 E0.94887
G1 X84.717 Y64.987 E1.14211
G1 X145.243 Y64.987 E1.89775
G1 X145.243 Y101.413 E1.14211
G1 X115.040 Y101.413 E0.94699
G1 X114.980 Y101.790 F10800.000
G1 F1200
G1 X84.340 Y101.790 E0.96070
G1 X84.340 Y64.610 E1.16575
G1 X145.620 Y64.610 E1.92139
G1 X145.620 Y101.790 E1.16575
G1 X115.040 Y101.790 E0.95881
G1 X114.688 Y101.516 F10800.000
G1 E-0.80000 F2100.00000
G1 Z0.800 F10800.000
G1 X84.830 Y100.537
G1 Z0.200
G1 E0.80000 F2100.00000
G1 F1200
G1 X85.423 Y101.130 E0.02631
G1 X85.957 Y101.130 E0.01674
G1 X85.000 Y100.173 E0.04245
G1 X85.000 Y99.640 E0.01674
G1 X86.490 Y101.130 E0.06612
G1 X87.024 Y101.130 E0.01674
G1 X85.000 Y99.106 E0.08979
G1 X85.000 Y98.573 E0.01674
G1 X87.557 Y101.130 E0.11347
G1 X88.091 Y101.130 E0.01674
G1 X85.000 Y98.039 E0.13714
G1 X85.000 Y97.506 E0.01674
G1 X88.624 Y101.130 E0.16081
G1 X89.158 Y101.130 E0.01674
G1 X85.000 Y96.972 E0.18448
G1 X85.000 Y96.438 E0.01674
G1 X89.692 Y101.130 E0.20815
G1 X90.225 Y101.130 E0.01674
G1 X85.000 Y95.905 E0.23182
G1 X85.000 Y95.371 E0.01674
G1 X90.759 Y101.130 E0.25550
G1 X91.292 Y101.130 E0.01674
G1 X85.000 Y94.838 E0.27917
G1 X85.000 Y94.304 E0.01674
G1 X91.826 Y101.130 E0.30284
G1 X92.359 Y101.130 E0.01674
G1 X85.000 Y93.771 E0.32651
G1 X85.000 Y93.237 E0.01674
G1 X92.893 Y101.130 E0.35018
G1 X93.427 Y101.130 E0.01674
G1 X85.000 Y92.703 E0.37386
G1 X85.000 Y92.170 E0.01674
G1 X93.960 Y101.130 E0.39753
G1 X94.494 Y101.130 E0.01674
G1 X85.000 Y91.636 E0.42120
G1 X85.000 Y91.103 E0.01674
G1 X95.027 Y101.130 E0.44487
G1 X95.561 Y101.130 E0.01674
G1 X85.000 Y90.569 E0.46854
G1 X85.000 Y90.036 E0.01674
G1 X96.094 Y101.130 E0.49222
G1 X96.628 Y101.130 E0.01674
G1 X85.000 Y89.502 E0.51589
G1 X85.000 Y88.969 E0.01674
G1 X97.161 Y101.130 E0.53956
G1 X97.695 Y101.130 E0.01674
G1 X85.000 Y88.435 E0.56323
G1 X85.000 Y87.901 E0.01674
G1 X98.229 Y101.130 E0.58690
G1 X98.762 Y101.130 E0.01674
G1 X85.000 Y87.368 E0.61058
G1 X85.000 Y86.834 E0.01674
G1 X99.296 Y101.130 E0.63425
G1 X99.829 Y101.130 E0.01674
G1 X85.000 Y86.301 E0.65792
G1 X85.000 Y85.767 E0.01674
G1 X100.363 Y101.130 E0.68159
G1 X100.896 Y101.130 E0.01674
G1 X85.000 Y85.234 E0.70526
G1 X85.000 Y84.700 E0.01674
G1 X101.430 Y101.130 E0.72893
G1 X101.964 Y101.130 E0.01674
G1 X85.000 Y84.166 E0.75261
M73 P1 R88
G1 X85.000 Y83.633 E0.01674
G1 X102.497 Y101.130 E0.77628
G1 X103.031 Y101.130 E0.01674
G1 X85.000 Y83.099 E0.79995
G1 X85.000 Y82.566 E0.01674
G1 X103.564 Y101.130 E0.82362
G1 X104.098 Y101.130 E0.01674
G1 X85.000 Y82.032 E0.84729
G1 X85.000 Y81.499 E0.01674
G1 X104.631 Y101.130 E0.87097
G1 X105.165 Y101.130 E0.01674
G1 X85.000 Y80.965 E0.89464
G1 X85.000 Y80.432 E0.01674
G1 X105.698 Y101.130 E0.91831
G1 X106.232 Y101.130 E0.01674
G1 X85.000 Y79.898 E0.94198
G1 X85.000 Y79.364 E0.01674
G1 X106.766 Y101.130 E0.96565
G1 X107.299 Y101.130 E0.01674
G1 X85.000 Y78.831 E0.98933
G1 X85.000 Y78.297 E0.01674
G1 X107.833 Y101.130 E1.01300
G1 X108.366 Y101.130 E0.01674
G1 X85.000 Y77.764 E1.03667
G1 X85.000 Y77.230 E0.01674
G1 X108.900 Y101.130 E1.06034
G1 X109.433 Y101.130 E0.01674
G1 X85.000 Y76.697 E1.08401
G1 X85.000 Y76.163 E0.01674
G1 X109.967 Y101.130 E1.10768
G1 X110.501 Y101.130 E0.01674
G1 X85.000 Y75.630 E1.13136
G1 X85.000 Y75.096 E0.01674
G1 X111.034 Y101.130 E1.15503
G1 X111.568 Y101.130 E0.01674
G1 X85.000 Y74.562 E1.17870
G1 X85.000 Y74.029 E0.01674
G1 X112.101 Y101.130 E1.20237
G1 X112.635 Y101.130 E0.01674
G1 X85.000 Y73.495 E1.22604
G1 X85.000 Y72.962 E0.01674
G1 X113.168 Y101.130 E1.24972
G1 X113.702 Y101.130 E0.01674
G1 X85.000 Y72.428 E1.27339
G1 X85.000 Y71.895 E0.01674
G1 X114.235 Y101.130 E1.29706
G1 X114.769 Y101.130 E0.01674
G1 X85.000 Y71.361 E1.32073
G1 X85.000 Y70.827 E0.01674
G1 X115.303 Y101.130 E1.34440
G1 X115.836 Y101.130 E0.01674
G1 X85.000 Y70.294 E1.36808
G1 X85.000 Y69.760 E0.01674
G1 X116.370 Y101.130 E1.39175
G1 X116.903 Y101.130 E0.01674
G1 X85.000 Y69.227 E1.41542
G1 X85.000 Y68.693 E0.01674
G1 X117.437 Y101.130 E1.43909
G1 X117.970 Y101.130 E0.01674
G1 X85.000 Y68.160 E1.46276
G1 X85.000 Y67.626 E0.01674
G1 X118.504 Y101.130 E1.48644
G1 X119.037 Y101.130 E0.01674
G1 X85.000 Y67.093 E1.51011
G1 X85.000 Y66.559 E0.01674
G1 X119.571 Y101.130 E1.53378
M73 P2 R87
G1 X120.105 Y101.130 E0.01674
G1 X85.000 Y66.025 E1.55745
G1 X85.000 Y65.492 E0.01674
G1 X120.638 Y101.130 E1.58112
G1 X121.172 Y101.130 E0.01674
G1 X85.311 Y65.270 E1.59097
G1 X85.845 Y65.270 E0.01674
G1 X121.705 Y101.130 E1.59097
G1 X122.239 Y101.130 E0.01674
G1 X86.379 Y65.270 E1.59097
G1 X86.912 Y65.270 E0.01674
G1 X122.772 Y101.130 E1.59097
G1 X123.306 Y101.130 E0.01674
G1 X87.446 Y65.270 E1.59097
G1 X87.979 Y65.270 E0.01674
G1 X123.840 Y101.130 E1.59097
G1 X124.373 Y101.130 E0.01674
G1 X88.513 Y65.270 E1.59097
G1 X89.046 Y65.270 E0.01674
G1 X124.907 Y101.130 E1.59097
G1 X125.440 Y101.130 E0.01674
G1 X89.580 Y65.270 E1.59097
G1 X90.114 Y65.270 E0.01674
G1 X125.974 Y101.130 E1.59097
G1 X126.507 Y101.130 E0.01674
G1 X90.647 Y65.270 E1.59097
G1 X91.181 Y65.270 E0.01674
G1 X127.041 Y101.130 E1.59097
G1 X127.574 Y101.130 E0.01674
G1 X91.714 Y65.270 E1.59097
G1 X92.248 Y65.270 E0.01674
G1 X128.108 Y101.130 E1.59097
G1 X128.642 Y101.130 E0.01674
G1 X92.781 Y65.270 E1.59097
G1 X93.315 Y65.270 E0.01674
G1 X129.175 Y101.130 E1.59097
G1 X129.709 Y101.130 E0.01674
G1 X93.848 Y65.270 E1.59097
G1 X94.382 Y65.270 E0.01674
G1 X130.242 Y101.130 E1.59097
G1 X130.776 Y101.130 E0.01674
G1 X94.916 Y65.270 E1.59097
G1 X95.449 Y65.270 E0.01674
G1 X131.309 Y101.130 E1.59097
G1 X131.843 Y101.130 E0.01674
G1 X95.983 Y65.270 E1.59097
G1 X96.516 Y65.270 E0.01674
G1 X132.377 Y101.130 E1.59097
M73 P3 R86
G1 X132.910 Y101.130 E0.01674
G1 X97.050 Y65.270 E1.59097
G1 X97.583 Y65.270 E0.01674
G1 X133.444 Y101.130 E1.59097
G1 X133.977 Y101.130 E0.01674
G1 X98.117 Y65.270 E1.59097
G1 X98.651 Y65.270 E0.01674
G1 X134.511 Y101.130 E1.59097
G1 X135.044 Y101.130 E0.01674
G1 X99.184 Y65.270 E1.59097
G1 X99.718 Y65.270 E0.01674
G1 X135.578 Y101.130 E1.59097
G1 X136.111 Y101.130 E0.01674
G1 X100.251 Y65.270 E1.59097
G1 X100.785 Y65.270 E0.01674
G1 X136.645 Y101.130 E1.59097
G1 X137.179 Y101.130 E0.01674
G1 X101.318 Y65.270 E1.59097
G1 X101.852 Y65.270 E0.01674
G1 X137.712 Y101.130 E1.59097
G1 X138.246 Y101.130 E0.01674
G1 X102.385 Y65.270 E1.59097
G1 X102.919 Y65.270 E0.01674
G1 X138.779 Y101.130 E1.59097
G1 X139.313 Y101.130 E0.01674
G1 X103.453 Y65.270 E1.59097
G1 X103.986 Y65.270 E0.01674
G1 X139.846 Y101.130 E1.59097
G1 X140.380 Y101.130 E0.01674
G1 X104.520 Y65.270 E1.59097
G1 X105.053 Y65.270 E0.01674
G1 X140.914 Y101.130 E1.59097
G1 X141.447 Y101.130 E0.01674
G1 X105.587 Y65.270 E1.59097
G1 X106.120 Y65.270 E0.01674
G1 X141.981 Y101.130 E1.59097
G1 X142.514 Y101.130 E0.01674
G1 X106.654 Y65.270 E1.59097
G1 X107.187 Y65.270 E0.01674
G1 X143.048 Y101.130 E1.59097
G1 X143.581 Y101.130 E0.01674
G1 X107.721 Y65.270 E1.59097
G1 X108.255 Y65.270 E0.01674
G1 X144.115 Y101.130 E1.59097
G1 X144.648 Y101.130 E0.01674
G1 X108.788 Y65.270 E1.59097
G1 X109.322 Y65.270 E0.01674
G1 X144.960 Y100.908 E1.58113
M73 P4 R85
G1 X144.960 Y100.375 E0.01674
G1 X109.855 Y65.270 E1.55746
G1 X110.389 Y65.270 E0.01674
G1 X144.960 Y99.841 E1.53378
G1 X144.960 Y99.308 E0.01674
G1 X110.922 Y65.270 E1.51011
G1 X111.456 Y65.270 E0.01674
G1 X144.960 Y98.774 E1.48644
G1 X144.960 Y98.240 E0.01674
G1 X111.990 Y65.270 E1.46277
G1 X112.523 Y65.270 E0.01674
G1 X144.960 Y97.707 E1.43910
G1 X144.960 Y97.173 E0.01674
G1 X113.057 Y65.270 E1.41542
G1 X113.590 Y65.270 E0.01674
G1 X144.960 Y96.640 E1.39175
G1 X144.960 Y96.106 E0.01674
G1 X114.124 Y65.270 E1.36808
G1 X114.657 Y65.270 E0.01674
G1 X144.960 Y95.573 E1.34441
G1 X144.960 Y95.039 E0.01674
G1 X115.191 Y65.270 E1.32074
G1 X115.724 Y65.270 E0.01674
G1 X144.960 Y94.506 E1.29706
G1 X144.960 Y93.972 E0.01674
G1 X116.258 Y65.270 E1.27339
G1 X116.792 Y65.270 E0.01674
G1 X144.960 Y93.438 E1.24972
G1 X144.960 Y92.905 E0.01674
G1 X117.325 Y65.270 E1.22605
G1 X117.859 Y65.270 E0.01674
G1 X144.960 Y92.371 E1.20238
G1 X144.960 Y91.838 E0.01674
G1 X118.392 Y65.270 E1.17870
G1 X118.926 Y65.270 E0.01674
G1 X144.960 Y91.304 E1.15503
G1 X144.960 Y90.771 E0.01674
G1 X119.459 Y65.270 E1.13136
G1 X119.993 Y65.270 E0.01674
G1 X144.960 Y90.237 E1.10769
G1 X144.960 Y89.703 E0.01674
G1 X120.527 Y65.270 E1.08402
G1 X121.060 Y65.270 E0.01674
G1 X144.960 Y89.170 E1.06035
G1 X144.960 Y88.636 E0.01674
G1 X121.594 Y65.270 E1.03667
G1 X122.127 Y65.270 E0.01674
G1 X144.960 Y88.103 E1.01300
G1 X144.960 Y87.569 E0.01674
G1 X122.661 Y65.270 E0.98933
G1 X123.194 Y65.270 E0.01674
G1 X144.960 Y87.036 E0.96566
G1 X144.960 Y86.502 E0.01674
G1 X123.728 Y65.270 E0.94199
G1 X124.261 Y65.270 E0.01674
G1 X144.960 Y85.969 E0.91831
G1 X144.960 Y85.435 E0.01674
G1 X124.795 Y65.270 E0.89464
G1 X125.329 Y65.270 E0.01674
G1 X144.960 Y84.901 E0.87097
G1 X144.960 Y84.368 E0.01674
G1 X125.862 Y65.270 E0.84730
M73 P5 R84
G1 X126.396 Y65.270 E0.01674
G1 X144.960 Y83.834 E0.82363
G1 X144.960 Y83.301 E0.01674
G1 X126.929 Y65.270 E0.79995
G1 X127.463 Y65.270 E0.01674
G1 X144.960 Y82.767 E0.77628
G1 X144.960 Y82.234 E0.01674
G1 X127.996 Y65.270 E0.75261
G1 X128.530 Y65.270 E0.01674
G1 X144.960 Y81.700 E0.72894
G1 X144.960 Y81.166 E0.01674
G1 X129.064 Y65.270 E0.70527
G1 X129.597 Y65.270 E0.01674
G1 X144.960 Y80.633 E0.68159
G1 X144.960 Y80.099 E0.01674
G1 X130.131 Y65.270 E0.65792
G1 X130.664 Y65.270 E0.01674
G1 X144.960 Y79.566 E0.63425
G1 X144.960 Y79.032 E0.01674
G1 X131.198 Y65.270 E0.61058
G1 X131.731 Y65.270 E0.01674
G1 X144.960 Y78.499 E0.58691
G1 X144.960 Y77.965 E0.01674
G1 X132.265 Y65.270 E0.56324
G1 X132.798 Y65.270 E0.01674
G1 X144.960 Y77.432 E0.53956
G1 X144.960 Y76.898 E0.01674
G1 X133.332 Y65.270 E0.51589
G1 X133.866 Y65.270 E0.01674
G1 X144.960 Y76.364 E0.49222
G1 X144.960 Y75.831 E0.01674
G1 X134.399 Y65.270 E0.46855
G1 X134.933 Y65.270 E0.01674
G1 X144.960 Y75.297 E0.44488
G1 X144.960 Y74.764 E0.01674
G1 X135.466 Y65.270 E0.42120
G1 X136.000 Y65.270 E0.01674
G1 X144.960 Y74.230 E0.39753
G1 X144.960 Y73.697 E0.01674
G1 X136.533 Y65.270 E0.37386
G1 X137.067 Y65.270 E0.01674
G1 X144.960 Y73.163 E0.35019
G1 X144.960 Y72.630 E0.01674
G1 X137.601 Y65.270 E0.32652
G1 X138.134 Y65.270 E0.01674
G1 X144.960 Y72.096 E0.30284
G1 X144.960 Y71.562 E0.01674
G1 X138.668 Y65.270 E0.27917
G1 X139.201 Y65.270 E0.01674
G1 X144.960 Y71.029 E0.25550
G1 X144.960 Y70.495 E0.01674
G1 X139.735 Y65.270 E0.23183
G1 X140.268 Y65.270 E0.01674
G1 X144.960 Y69.962 E0.20816
G1 X144.960 Y69.428 E0.01674
G1 X140.802 Y65.270 E0.18448
G1 X141.335 Y65.270 E0.01674
G1 X144.960 Y68.895 E0.16081
G1 X144.960 Y68.361 E0.01674
G1 X141.869 Y65.270 E0.13714
G1 X142.403 Y65.270 E0.01674
G1 X144.960 Y67.827 E0.11347
G1 X144.960 Y67.294 E0.01674
G1 X142.936 Y65.270 E0.08980
G1 X143.470 Y65.270 E0.01674
G1 X144.960 Y66.760 E0.06613
G1 X144.960 Y66.227 E0.01674
G1 X144.003 Y65.270 E0.04245
G1 X144.537 Y65.270 E0.01674
G1 X145.130 Y65.863 E0.02631
G1 E-0.80000 F2100.00000
G1 Z0.800 F10800.000
G1 X125.011 Y114.550
G1 Z0.200
G1 E0.80000 F2100.00000
G1 F1200
G1 X124.727 Y114.489 E0.00909
G1 X124.490 Y114.397 E0.00800
G1 X124.273 Y114.270 E0.00788
G1 X124.083 Y114.113 E0.00774
G1 X123.910 Y113.917 E0.00819
G1 X123.735 Y113.642 E0.01022
G1 X123.635 Y113.431 E0.00732
G1 X123.507 Y113.030 E0.01318
G1 X123.414 Y112.411 E0.01964
G1 X123.389 Y111.775 E0.01995
G1 X123.464 Y110.718 E0.03323
G1 X123.591 Y110.184 E0.01720
G1 X123.720 Y109.864 E0.01083
G1 X123.835 Y109.664 E0.00722
G1 X124.019 Y109.429 E0.00935
G1 X124.210 Y109.249 E0.00823
G1 X124.414 Y109.110 E0.00774
G1 X124.646 Y109.000 E0.00807
G1 X124.902 Y108.927 E0.00835
G1 X125.177 Y108.895 E0.00868
G1 X125.577 Y108.911 E0.01255
G1 X125.855 Y108.972 E0.00891
G1 X126.091 Y109.065 E0.00796
G1 X126.324 Y109.204 E0.00852
G1 X126.512 Y109.361 E0.00768
G1 X126.679 Y109.551 E0.00791
G1 X126.858 Y109.836 E0.01056
G1 X126.976 Y110.096 E0.00897
G1 X127.092 Y110.484 E0.01269
G1 X127.188 Y111.171 E0.02175
G1 X127.206 Y111.732 E0.01760
G1 X127.178 Y112.405 E0.02110
G1 X127.094 Y112.970 E0.01793
G1 X126.973 Y113.377 E0.01330
G1 X126.809 Y113.723 E0.01200
G1 X126.644 Y113.970 E0.00934
G1 X126.466 Y114.161 E0.00817
G1 X126.268 Y114.315 E0.00786
G1 X126.071 Y114.421 E0.00701
G1 X125.814 Y114.509 E0.00853
G1 X125.490 Y114.562 E0.01029
G1 X125.071 Y114.551 E0.01313
G1 X124.836 Y114.781 F10800.000
G1 E-0.80000 F2100.00000
G1 Z0.800 F10800.000
G1 X130.999 Y114.439
G1 Z0.200
G1 E0.80000 F2100.00000
G1 F1200
G1 X129.037 Y109.019 E0.18073
G1 X130.442 Y109.019 E0.04406
G1 X131.580 Y112.164 E0.10487
G1 X132.720 Y109.019 E0.10490
G1 X134.123 Y109.019 E0.04397
G1 X132.157 Y114.439 E0.18077
G1 X131.059 Y114.439 E0.03446
G1 X130.664 Y114.659 F10800.000
G1 X131.580 Y111.057
G1 F1200
G1 X130.686 Y108.587 E0.08237
G1 X132.476 Y108.587 E0.05611
G1 X131.601 Y111.001 E0.08051
G1 E-0.80000 F2100.00000
G1 Z0.800 F10800.000
G1 X131.581 Y109.845
G1 X104.574 Y109.845
G1 X104.573 Y111.057
G1 Z0.200
G1 E0.80000 F2100.00000
G1 F1200
G1 X103.680 Y108.587 E0.08236
G1 X105.469 Y108.587 E0.05611
G1 X104.594 Y111.001 E0.08051
G1 X105.151 Y114.439 F10800.000
G1 F1200
G1 X103.992 Y114.439 E0.03634
G1 X102.030 Y109.019 E0.18073
G1 X103.435 Y109.019 E0.04406
G1 X104.573 Y112.164 E0.10487
G1 X105.714 Y109.019 E0.10490
G1 X107.116 Y109.019 E0.04397
G1 X105.171 Y114.383 E0.17888
G1 X105.137 Y114.839 F10800.000
G1 E-0.80000 F2100.00000
G1 Z0.800 F10800.000
G1 X100.071 Y114.439
G1 Z0.200
