; generated by PrusaSlicer 2.3.1+win64 on 2021-09-30 at 15:23:36 UTC

; 

; external perimeters extrusion width = 0.60mm
; perimeters extrusion width = 0.43mm
; infill extrusion width = 0.45mm
; solid infill extrusion width = 0.70mm
; top infill extrusion width = 0.43mm
; first layer extrusion width = 0.42mm

M73 P0 R57
M201 X9000 Y9000 Z500 E10000 ; sets maximum accelerations, mm/sec^2
M203 X500 Y500 Z12 E120 ; sets maximum feedrates, mm/sec
M204 P2000 R1500 T2000 ; sets acceleration (P, T) and retract acceleration (R), mm/sec^2
M205 X10.00 Y10.00 Z0.20 E2.50 ; sets the jerk limits, mm/sec
M205 S0 T0 ; sets the minimum extruding and travel feed rate, mm/sec
M107
;TYPE:Custom
M862.3 P "MK2S" ; printer model check
M862.1 P0.4 ; nozzle diameter check
M115 U3.2.3 ; tell printer latest fw version
G90 ; use absolute coordinates
M83 ; extruder relative mode
M204 S2000 T1500 ; MK2 firmware only supports the old M204 format
M104 S215 ; set extruder temp
M140 S60 ; set bed temp
M190 S60 ; wait for bed temp
M109 S215 ; wait for extruder temp
G28 W ; home all without mesh bed level
G80 ; mesh bed leveling
G1 Y-3.0 F1000.0 ; go outside print area
G92 E0.0
G1 X60.0 E9.0  F1000.0 ; intro line
G1 X100.0 E12.5 F1000.0 ; intro line
G92 E0.0
G21 ; set units to millimeters
G90 ; use absolute coordinates
M83 ; use relative distances for extrusion
M900 K0.05 ; Filament gcode LA 1.5
M900 K30 ; Filament gcode LA 1.0
;LAYER_CHANGE
;Z:0.2
;HEIGHT:0.2
;BEFORE_LAYER_CHANGE
G92 E0.0
;0.2


G1 E-0.80000 F2100.000
G1 Z0.600 F10800.000
;AFTER_LAYER_CHANGE
;0.2
G1 X81.154 Y62.662
G1 Z0.200
G1 E0.80000 F2100.000
M204 S1000
;TYPE:Skirt
;WIDTH:0.42
G1 F1200.000
G1 X81.485 Y62.009 E0.02296
G1 X81.857 Y61.603 E0.01728
G1 X82.313 Y61.293 E0.01728
G1 X82.828 Y61.096 E0.01728
G1 X83.374 Y61.023 E0.01728
G1 X145.113 Y61.023 E1.93579
G1 X145.753 Y61.111 E0.02024
G1 X146.345 Y61.367 E0.02024
G1 X146.847 Y61.773 E0.02024
G1 X147.220 Y62.300 E0.02024
G1 X166.862 Y101.174 E1.36563
G1 X167.263 Y102.034 E0.02975
G1 X167.570 Y102.984 E0.03130
G1 X167.814 Y104.571 E0.05033
G1 X167.717 Y106.330 E0.05523
G1 X167.411 Y107.561 E0.03977
G1 X167.095 Y108.366 E0.02712
G1 X147.041 Y147.991 E1.39247
G1 X146.666 Y148.400 E0.01740
G1 X146.207 Y148.711 E0.01740
G1 X145.687 Y148.907 E0.01740
G1 X145.133 Y148.977 E0.01752
G1 X83.394 Y148.977 E1.93579
G1 X82.675 Y148.860 E0.02284
G1 X82.022 Y148.528 E0.02296
G1 X81.611 Y148.150 E0.01752
G1 X81.301 Y147.690 E0.01740
G1 X81.106 Y147.171 E0.01740
G1 X81.036 Y146.616 E0.01752
G1 X81.036 Y63.389 E2.60955
G1 X81.144 Y62.721 E0.02119
; printing object knob.stl id:0 copy 0
G1 E-0.80000 F2100.000
G1 Z0.800 F10800.000
G1 X155.504 Y102.648
G1 Z0.200
G1 E0.80000 F2100.000
;TYPE:Perimeter
G1 F1200.000
G1 X155.719 Y102.299 E0.01287
G1 X156.283 Y101.610 E0.02789
G1 X156.576 Y101.336 E0.01259
G1 X157.104 Y100.942 E0.02066
G1 X157.450 Y100.738 E0.01259
G1 X158.270 Y100.393 E0.02789
G1 X158.666 Y100.286 E0.01287
G1 X159.087 Y100.210 E0.01341
G1 X159.513 Y100.173 E0.01341
G1 X159.941 Y100.173 E0.01341
G1 X160.367 Y100.210 E0.01341
G1 X160.788 Y100.286 E0.01341
G1 X161.201 Y100.398 E0.01341
G1 X161.594 Y100.543 E0.01314
G1 X162.175 Y100.834 E0.02038
G1 X162.706 Y101.195 E0.02011
G1 X163.190 Y101.629 E0.02038
G1 X163.469 Y101.941 E0.01314
G1 X163.725 Y102.284 E0.01341
G1 X163.946 Y102.640 E0.01314
G1 X164.224 Y103.228 E0.02038
G1 X164.422 Y103.847 E0.02038
G1 X164.505 Y104.258 E0.01314
G1 X164.551 Y104.674 E0.01314
G1 X164.551 Y105.333 E0.02066
G1 X164.505 Y105.750 E0.01314
G1 X164.420 Y106.169 E0.01341
G1 X164.299 Y106.579 E0.01341
G1 X164.142 Y106.977 E0.01341
G1 X163.950 Y107.360 E0.01341
G1 X163.725 Y107.724 E0.01341
G1 X163.475 Y108.059 E0.01314
G1 X163.024 Y108.540 E0.02066
G1 X162.713 Y108.807 E0.01287
G1 X162.175 Y109.173 E0.02038
G1 X161.594 Y109.464 E0.02038
G1 X161.209 Y109.606 E0.01287
G1 X160.578 Y109.763 E0.02038
G1 X159.932 Y109.835 E0.02038
G1 X159.513 Y109.835 E0.01314
G1 X159.087 Y109.797 E0.01341
G1 X158.666 Y109.722 E0.01341
G1 X158.253 Y109.609 E0.01341
G1 X157.860 Y109.464 E0.01314
G1 X157.271 Y109.169 E0.02066
G1 X156.919 Y108.941 E0.01314
G1 X156.589 Y108.683 E0.01314
G1 X156.118 Y108.222 E0.02066
G1 X155.853 Y107.898 E0.01314
G1 X155.617 Y107.551 E0.01314
G1 X155.309 Y106.969 E0.02066
G1 X155.155 Y106.579 E0.01314
G1 X155.036 Y106.177 E0.01314
G1 X154.920 Y105.529 E0.02066
G1 X154.892 Y105.111 E0.01314
G1 X154.902 Y104.683 E0.01341
G1 X154.949 Y104.258 E0.01341
G1 X155.034 Y103.838 E0.01341
G1 X155.155 Y103.428 E0.01341
G1 X155.312 Y103.030 E0.01341
G1 X155.477 Y102.701 E0.01153
G1 X155.412 Y102.079 F10800.000
;TYPE:External perimeter
G1 F1200.000
G1 X156.007 Y101.352 E0.02946
G1 X156.333 Y101.046 E0.01403
G1 X156.895 Y100.627 E0.02197
G1 X157.281 Y100.400 E0.01403
G1 X158.147 Y100.036 E0.02946
G1 X158.583 Y99.917 E0.01418
G1 X159.037 Y99.836 E0.01446
G1 X159.496 Y99.795 E0.01446
G1 X159.958 Y99.795 E0.01446
G1 X160.417 Y99.836 E0.01446
G1 X160.871 Y99.917 E0.01446
G1 X161.316 Y100.038 E0.01446
G1 X161.744 Y100.197 E0.01432
G1 X162.367 Y100.509 E0.02182
G1 X162.938 Y100.897 E0.02168
G1 X163.457 Y101.362 E0.02182
G1 X163.762 Y101.702 E0.01432
G1 X164.038 Y102.071 E0.01446
G1 X164.277 Y102.460 E0.01432
G1 X164.575 Y103.089 E0.02182
G1 X164.788 Y103.752 E0.02182
G1 X164.878 Y104.200 E0.01432
G1 X164.928 Y104.653 E0.01432
G1 X164.928 Y105.354 E0.02197
G1 X164.878 Y105.808 E0.01432
G1 X164.787 Y106.260 E0.01446
G1 X164.656 Y106.702 E0.01446
G1 X164.486 Y107.131 E0.01446
G1 X164.280 Y107.544 E0.01446
G1 X164.038 Y107.936 E0.01446
G1 X163.764 Y108.302 E0.01432
G1 X163.286 Y108.813 E0.02197
G1 X162.942 Y109.107 E0.01418
G1 X162.367 Y109.499 E0.02182
G1 X161.744 Y109.811 E0.02182
G1 X161.320 Y109.967 E0.01418
G1 X160.645 Y110.135 E0.02182
G1 X159.953 Y110.212 E0.02182
G1 X159.496 Y110.212 E0.01432
G1 X159.037 Y110.171 E0.01446
G1 X158.583 Y110.090 E0.01446
G1 X158.138 Y109.969 E0.01446
G1 X157.710 Y109.811 E0.01432
G1 X157.083 Y109.497 E0.02197
G1 X156.700 Y109.248 E0.01432
G1 X156.340 Y108.967 E0.01432
G1 X155.840 Y108.477 E0.02197
G1 X155.550 Y108.124 E0.01432
G1 X155.293 Y107.746 E0.01432
G1 X154.966 Y107.127 E0.02197
G1 X154.798 Y106.702 E0.01432
G1 X154.669 Y106.264 E0.01432
G1 X154.545 Y105.575 E0.02197
G1 X154.515 Y105.119 E0.01432
G1 X154.525 Y104.658 E0.01446
G1 X154.576 Y104.200 E0.01446
G1 X154.667 Y103.747 E0.01446
G1 X154.798 Y103.305 E0.01446
G1 X154.967 Y102.876 E0.01446
G1 X155.174 Y102.464 E0.01446
G1 X155.380 Y102.130 E0.01229
G1 X155.809 Y102.120 F10800.000
G1 E-0.80000 F2100.000
G1 Z0.800 F10800.000
G1 X162.066 Y100.906
G1 Z0.200
G1 E0.80000 F2100.000
;TYPE:Solid infill
;WIDTH:0.421882
G1 F1200.000
G1 X162.998 Y101.838 E0.04155
G1 X163.250 Y102.120 E0.01192
G1 X163.491 Y102.443 E0.01269
G1 X163.697 Y102.776 E0.01232
G1 X163.963 Y103.339 E0.01963
G1 X161.395 Y100.771 E0.11443
G1 X161.115 Y100.667 E0.00941
G1 X160.633 Y100.545 E0.01566
G1 X164.184 Y104.096 E0.15824
G1 X164.225 Y104.301 E0.00660
G1 X164.268 Y104.717 E0.01315
G1 X160.015 Y100.463 E0.18956
G1 X159.476 Y100.460 E0.01699
G1 X164.268 Y105.253 E0.21358
G1 X164.219 Y105.739 E0.01540
G1 X158.994 Y100.514 E0.23282
G1 X158.553 Y100.609 E0.01421
G1 X164.123 Y106.179 E0.24818
G1 X163.993 Y106.585 E0.01343
G1 X158.156 Y100.748 E0.26010
G1 X157.779 Y100.907 E0.01290
G1 X163.833 Y106.961 E0.26981
G1 X163.648 Y107.311 E0.01249
G1 X157.420 Y101.084 E0.27752
G1 X157.099 Y101.298 E0.01218
G1 X163.437 Y107.637 E0.28247
G1 X163.202 Y107.937 E0.01203
G1 X156.792 Y101.527 E0.28564
G1 X156.512 Y101.783 E0.01195
G1 X162.943 Y108.214 E0.28658
G1 X162.667 Y108.474 E0.01195
G1 X156.268 Y102.075 E0.28517
G1 X156.026 Y102.370 E0.01200
G1 X162.361 Y108.704 E0.28229
G1 X162.042 Y108.921 E0.01216
G1 X155.810 Y102.690 E0.27771
G1 X155.751 Y102.786 E0.00356
G1 X155.624 Y103.039 E0.00894
G1 X161.686 Y109.102 E0.27016
G1 X161.315 Y109.266 E0.01280
G1 X155.464 Y103.415 E0.26072
G1 X155.334 Y103.821 E0.01342
G1 X160.904 Y109.391 E0.24822
M73 P1 R57
G1 X160.468 Y109.491 E0.01409
G1 X155.237 Y104.260 E0.23310
G1 X155.183 Y104.742 E0.01529
G1 X159.985 Y109.544 E0.21400
G1 X159.450 Y109.545 E0.01686
G1 X155.187 Y105.282 E0.18999
G1 X155.201 Y105.494 E0.00671
G1 X155.275 Y105.906 E0.01316
G1 X158.834 Y109.464 E0.15859
G1 X158.339 Y109.340 E0.01606
G1 X158.076 Y109.242 E0.00885
G1 X155.489 Y106.656 E0.11525
G1 X155.566 Y106.851 E0.00659
G1 X155.860 Y107.405 E0.01977
G1 X156.079 Y107.728 E0.01232
G1 X156.322 Y108.025 E0.01206
G1 X157.409 Y109.112 E0.04844
; stop printing object knob.stl id:0 copy 0
; printing object Mod Signal Enclosure - Case Top-1.STL id:1 copy 0
G1 E-0.80000 F2100.000
G1 Z0.800 F10800.000
G1 X125.392 Y139.961
G1 Z0.200
G1 E0.80000 F2100.000
;TYPE:External perimeter
;WIDTH:0.42
G1 F1200.000
G1 X127.498 Y145.781 E0.19407
G1 X125.667 Y145.781 E0.05742
G1 X125.092 Y144.167 E0.05372
G1 X124.964 Y143.689 E0.01551
G1 X124.894 Y143.209 E0.01521
G1 X124.790 Y142.767 E0.01424
G1 X124.670 Y142.436 E0.01105
G1 X124.550 Y142.767 E0.01105
G1 X124.446 Y143.209 E0.01424
G1 X124.375 Y143.689 E0.01522
G1 X124.247 Y144.167 E0.01551
G1 X123.671 Y145.781 E0.05372
G1 X121.842 Y145.781 E0.05733
G1 X123.952 Y139.961 E0.19411
G1 X125.332 Y139.961 E0.04325
G1 X125.728 Y139.744 F10800.000
G1 X124.670 Y144.046
;TYPE:Perimeter
G1 F1200.000
G1 X124.732 Y144.279 E0.00755
G1 X125.278 Y145.813 E0.05106
G1 X124.059 Y145.813 E0.03822
G1 X124.607 Y144.280 E0.05105
G1 X124.654 Y144.104 E0.00569
G1 E-0.80000 F2100.000
G1 Z0.800 F10800.000
G1 X133.125 Y139.961
G1 Z0.200
G1 E0.80000 F2100.000
;TYPE:External perimeter
G1 F1200.000
G1 X133.125 Y140.988 E0.03220
G1 X131.542 Y142.673 E0.07251
G1 X130.989 Y143.333 E0.02699
G1 X130.863 Y143.548 E0.00780
G1 X130.789 Y143.736 E0.00634
G1 X130.755 Y143.947 E0.00670
G1 X130.783 Y144.068 E0.00390
G1 X130.872 Y144.161 E0.00403
G1 X131.035 Y144.186 E0.00518
G1 X131.155 Y144.110 E0.00444
G1 X131.251 Y143.908 E0.00703
G1 X131.317 Y143.300 E0.01916
G1 X133.041 Y143.293 E0.05406
G1 X132.957 Y144.121 E0.02609
G1 X132.863 Y144.509 E0.01251
G1 X132.730 Y144.830 E0.01089
G1 X132.565 Y145.101 E0.00996
G1 X132.349 Y145.352 E0.01039
G1 X132.088 Y145.567 E0.01059
G1 X131.831 Y145.708 E0.00921
G1 X131.546 Y145.808 E0.00946
G1 X131.241 Y145.851 E0.00967
G1 X130.644 Y145.850 E0.01870
G1 X130.359 Y145.807 E0.00904
G1 X130.069 Y145.701 E0.00968
G1 X129.812 Y145.549 E0.00936
G1 X129.586 Y145.355 E0.00934
G1 X129.412 Y145.143 E0.00862
G1 X129.228 Y144.830 E0.01137
G1 X129.114 Y144.534 E0.00994
G1 X129.054 Y144.264 E0.00867
G1 X129.035 Y143.995 E0.00847
G1 X129.072 Y143.592 E0.01267
G1 X129.182 Y143.176 E0.01351
G1 X129.407 Y142.675 E0.01722
G1 X129.629 Y142.372 E0.01178
G1 X129.875 Y142.101 E0.01146
G1 X130.280 Y141.785 E0.01612
G1 X130.603 Y141.414 E0.01541
G1 X130.240 Y141.414 E0.01138
G1 X129.027 Y141.607 E0.03851
G1 X128.979 Y140.795 E0.02552
G1 X128.970 Y139.961 E0.02613
G1 X133.065 Y139.961 E0.12840
G1 X133.524 Y139.934 F10800.000
G1 X133.780 Y139.961
G1 F1200.000
G1 X135.497 Y139.961 E0.05385
G1 X135.497 Y144.127 E0.13064
G1 X136.356 Y144.127 E0.02693
G1 X136.589 Y144.554 E0.01526
G1 X135.801 Y145.781 E0.04571
G1 X133.780 Y145.781 E0.06337
G1 X133.780 Y140.021 E0.18060
G1 X133.735 Y139.563 F10800.000
G1 X133.403 Y141.243
;TYPE:Perimeter
G1 F1200.000
G1 X133.403 Y142.915 E0.05241
G1 X131.826 Y142.921 E0.04943
G1 X133.362 Y141.287 E0.07031
G1 X133.403 Y143.462 F10800.000
G1 F1200.000
G1 X133.403 Y145.813 E0.07373
G1 X132.378 Y145.817 E0.03214
G1 X132.614 Y145.623 E0.00959
G1 X132.871 Y145.324 E0.01237
G1 X133.068 Y145.001 E0.01185
G1 X133.223 Y144.626 E0.01272
G1 X133.329 Y144.185 E0.01424
G1 X133.397 Y143.521 E0.02091
G1 E-0.80000 F2100.000
G1 Z0.800 F10800.000
G1 X118.764 Y137.438
G1 Z0.200
G1 E0.80000 F2100.000
G1 F1200.000
G1 X118.412 Y138.195 E0.02618
G1 X117.933 Y138.879 E0.02618
G1 X117.342 Y139.469 E0.02618
G1 X116.658 Y139.948 E0.02618
G1 X115.941 Y140.283 E0.02482
G1 X115.098 Y140.517 E0.02744
G1 X114.263 Y140.590 E0.02626
G1 X113.431 Y140.517 E0.02618
G1 X112.625 Y140.301 E0.02618
G1 X111.868 Y139.948 E0.02618
G1 X111.184 Y139.469 E0.02618
G1 X110.594 Y138.879 E0.02618
G1 X110.115 Y138.195 E0.02618
G1 X109.762 Y137.438 E0.02618
G1 X109.546 Y136.632 E0.02618
G1 X109.473 Y135.800 E0.02618
G1 X109.546 Y134.968 E0.02618
G1 X109.762 Y134.162 E0.02618
G1 X110.115 Y133.405 E0.02618
G1 X110.594 Y132.721 E0.02618
G1 X111.184 Y132.131 E0.02618
G1 X111.868 Y131.652 E0.02618
G1 X112.625 Y131.299 E0.02618
G1 X113.431 Y131.083 E0.02618
G1 X114.220 Y131.014 E0.02482
G1 X115.092 Y131.082 E0.02744
G1 X115.901 Y131.299 E0.02626
G1 X116.658 Y131.652 E0.02618
G1 X117.342 Y132.131 E0.02618
G1 X117.933 Y132.721 E0.02618
G1 X118.412 Y133.405 E0.02618
G1 X118.746 Y134.122 E0.02482
G1 X118.980 Y134.966 E0.02744
G1 X119.053 Y135.800 E0.02626
G1 X118.980 Y136.632 E0.02618
G1 X118.780 Y137.380 E0.02430
G1 X118.416 Y137.283 F10800.000
;TYPE:External perimeter
G1 F1200.000
G1 X118.084 Y138.006 E0.02495
G1 X117.643 Y138.636 E0.02411
G1 X117.099 Y139.179 E0.02411
G1 X116.469 Y139.621 E0.02411
G1 X115.810 Y139.928 E0.02280
G1 X115.030 Y140.144 E0.02537
G1 X114.263 Y140.212 E0.02414
G1 X113.497 Y140.145 E0.02411
G1 X112.754 Y139.946 E0.02411
G1 X112.057 Y139.621 E0.02411
G1 X111.427 Y139.179 E0.02411
G1 X110.884 Y138.636 E0.02411
G1 X110.443 Y138.006 E0.02411
G1 X110.118 Y137.309 E0.02411
G1 X109.919 Y136.566 E0.02411
G1 X109.852 Y135.800 E0.02411
G1 X109.919 Y135.034 E0.02411
G1 X110.118 Y134.291 E0.02411
G1 X110.443 Y133.594 E0.02411
G1 X110.884 Y132.964 E0.02411
G1 X111.427 Y132.421 E0.02411
G1 X112.057 Y131.979 E0.02411
G1 X112.754 Y131.654 E0.02411
G1 X113.497 Y131.455 E0.02411
G1 X114.222 Y131.392 E0.02280
G1 X115.028 Y131.455 E0.02537
G1 X115.772 Y131.654 E0.02414
G1 X116.469 Y131.979 E0.02411
G1 X117.099 Y132.421 E0.02411
G1 X117.643 Y132.964 E0.02411
G1 X118.084 Y133.594 E0.02411
G1 X118.391 Y134.253 E0.02280
G1 X118.608 Y135.033 E0.02537
G1 X118.675 Y135.800 E0.02414
G1 X118.608 Y136.566 E0.02411
G1 X118.431 Y137.225 E0.02138
G1 X118.674 Y137.588 F10800.000
G1 E-0.80000 F2100.000
G1 Z0.800 F10800.000
G1 X114.456 Y128.087
G1 Z0.200
G1 E0.80000 F2100.000
;TYPE:Perimeter
G1 F1200.000
G1 X111.821 Y128.087 E0.08262
G1 X111.152 Y126.208 E0.06253
G1 X111.089 Y125.976 E0.00755
G1 X111.027 Y126.209 E0.00757
G1 X110.356 Y128.087 E0.06253
G1 X107.724 Y128.087 E0.08253
G1 X110.108 Y121.513 E0.21926
G1 X112.076 Y121.513 E0.06172
G1 X114.435 Y128.031 E0.21734
G1 X113.918 Y127.710 F10800.000
;TYPE:External perimeter
G1 F1200.000
G1 X112.087 Y127.710 E0.05742
G1 X111.512 Y126.096 E0.05372
G1 X111.384 Y125.618 E0.01551
G1 X111.314 Y125.138 E0.01521
G1 X111.210 Y124.696 E0.01424
G1 X111.090 Y124.365 E0.01105
G1 X110.970 Y124.696 E0.01105
G1 X110.865 Y125.138 E0.01424
G1 X110.795 Y125.619 E0.01522
G1 X110.666 Y126.096 E0.01551
G1 X110.090 Y127.710 E0.05372
G1 X108.262 Y127.710 E0.05733
G1 X110.372 Y121.890 E0.19411
G1 X111.811 Y121.890 E0.04513
G1 X113.898 Y127.654 E0.19219
G1 X113.991 Y128.103 F10800.000
G1 X115.443 Y127.371
;TYPE:Perimeter
G1 F1200.000
G1 X116.243 Y125.799 E0.05531
G1 X116.033 Y125.668 E0.00776
G1 X115.681 Y125.346 E0.01497
G1 X115.450 Y125.045 E0.01189
G1 X115.286 Y124.745 E0.01071
G1 X115.167 Y124.415 E0.01101
G1 X115.094 Y124.036 E0.01210
G1 X115.077 Y123.718 E0.00997
G1 X115.108 Y123.327 E0.01231
G1 X115.194 Y122.972 E0.01144
G1 X115.344 Y122.621 E0.01198
G1 X115.549 Y122.303 E0.01187
G1 X115.819 Y122.006 E0.01260
G1 X116.106 Y121.773 E0.01159
G1 X116.415 Y121.596 E0.01117
G1 X116.742 Y121.473 E0.01093
G1 X117.117 Y121.400 E0.01199
G1 X117.402 Y121.383 E0.00896
G1 X117.789 Y121.413 E0.01217
G1 X118.144 Y121.500 E0.01144
G1 X118.463 Y121.635 E0.01087
G1 X118.767 Y121.827 E0.01127
G1 X119.034 Y122.061 E0.01112
G1 X119.390 Y122.513 E0.01805
G1 X119.559 Y122.847 E0.01176
G1 X119.676 Y123.218 E0.01217
G1 X119.733 Y123.735 E0.01633
G1 X119.694 Y124.161 E0.01340
G1 X119.595 Y124.548 E0.01254
G1 X119.339 Y125.144 E0.02034
G1 X117.642 Y128.486 E0.11751
G1 X115.496 Y127.398 E0.07541
G1 X115.950 Y127.206 F10800.000
;TYPE:External perimeter
G1 F1200.000
G1 X116.754 Y125.625 E0.05562
