; generated by PrusaSlicer 2.2.0+win64 on 2020-07-29 at 18:03:37 UTC

; 

; external perimeters extrusion width = 0.60mm
; perimeters extrusion width = 0.43mm
; infill extrusion width = 0.45mm
; solid infill extrusion width = 0.70mm
; top infill extrusion width = 0.43mm
; first layer extrusion width = 0.42mm

M73 P0 R34
M201 X9000 Y9000 Z500 E10000 ; sets maximum accelerations, mm/sec^2
M203 X500 Y500 Z12 E120 ; sets maximum feedrates, mm/sec
M204 P2000 R1500 T2000 ; sets acceleration (P, T) and retract acceleration (R), mm/sec^2
M205 X10.00 Y10.00 Z0.20 E2.50 ; sets the jerk limits, mm/sec
M205 S0 T0 ; sets the minimum extruding and travel feed rate, mm/sec
M107
M862.3 P "MK2S" ; printer model check
M862.1 P0.4 ; nozzle diameter check
M115 U3.2.3 ; tell printer latest fw version
G90 ; use absolute coordinates
M83 ; extruder relative mode
M204 S2000 T1500 ; MK2 firmware only supports the old M204 format
M104 S215 ; set extruder temp
M140 S60 ; set bed temp
M190 S60 ; wait for bed temp
M109 S215 ; wait for extruder temp
G28 W ; home all without mesh bed level
G80 ; mesh bed leveling
G1 Y-3.0 F1000.0 ; go outside print area
G92 E0.0
G1 X60.0 E9.0  F1000.0 ; intro line
M73 P0 R34
G1 X100.0 E12.5 F1000.0 ; intro line
G92 E0.0
G21 ; set units to millimeters
G90 ; use absolute coordinates
M83 ; use relative distances for extrusion
M900 K0.06 ; Filament gcode LA 1.5
M900 K30 ; Filament gcode LA 1.0
;BEFORE_LAYER_CHANGE
G92 E0.0
;0.2


G1 E-0.80000 F2100.00000
G1 Z0.600 F10800.000
;AFTER_LAYER_CHANGE
;0.2
G1 X89.577 Y71.783
G1 Z0.200
G1 E0.80000 F2100.00000
M204 S1000
G1 F1200.000
G1 X90.957 Y70.331 E0.06281
G1 X92.480 Y69.023 E0.06293
G1 X94.124 Y67.879 E0.06281
G1 X95.876 Y66.907 E0.06281
G1 X97.717 Y66.117 E0.06282
G1 X99.629 Y65.517 E0.06281
G1 X101.606 Y65.112 E0.06329
G1 X103.691 Y64.908 E0.06567
G1 X146.301 Y64.908 E1.33600
G1 X148.520 Y65.134 E0.06996
G1 X150.378 Y65.519 E0.05947
G1 X152.282 Y66.116 E0.06258
G1 X154.120 Y66.905 E0.06270
G1 X155.780 Y67.822 E0.05947
G1 X157.608 Y69.094 E0.06984
G1 X159.045 Y70.333 E0.05947
G1 X160.422 Y71.782 E0.06270
G1 X161.644 Y73.360 E0.06258
G1 X162.648 Y74.965 E0.05935
G1 X163.631 Y76.968 E0.06996
G1 X164.287 Y78.748 E0.05947
G1 X164.783 Y80.661 E0.06198
G1 X165.091 Y82.660 E0.06341
G1 X165.192 Y84.646 E0.06234
G1 X165.193 Y125.341 E1.27597
G1 X165.100 Y127.229 E0.05928
G1 X164.787 Y129.319 E0.06627
G1 X164.250 Y131.363 E0.06627
G1 X163.589 Y133.137 E0.05935
G1 X162.762 Y134.831 E0.05911
G1 X161.664 Y136.611 E0.06555
G1 X160.423 Y138.217 E0.06365
G1 X159.037 Y139.675 E0.06305
G1 X157.514 Y140.982 E0.06293
G1 X155.777 Y142.179 E0.06615
G1 X154.016 Y143.143 E0.06295
G1 X152.283 Y143.883 E0.05909
G1 X150.485 Y144.451 E0.05911
G1 X148.424 Y144.884 E0.06603
G1 X146.488 Y145.084 E0.06102
G1 X103.566 Y145.088 E1.34578
G1 X101.476 Y144.866 E0.06591
G1 X99.626 Y144.482 E0.05923
G1 X97.823 Y143.919 E0.05923
G1 X95.877 Y143.094 E0.06627
G1 X94.048 Y142.072 E0.06567
G1 X92.469 Y140.968 E0.06043
G1 X90.874 Y139.586 E0.06618
G1 X89.578 Y138.218 E0.05909
G1 X88.424 Y136.732 E0.05899
G1 X87.350 Y135.032 E0.06304
G1 X86.414 Y133.145 E0.06603
G1 X85.716 Y131.263 E0.06293
G1 X85.212 Y129.317 E0.06305
G1 X84.905 Y127.294 E0.06413
G1 X84.807 Y125.337 E0.06146
G1 X84.807 Y84.659 E1.27541
G1 X84.902 Y82.752 E0.05988
G1 X85.213 Y80.681 E0.06567
G1 X85.750 Y78.637 E0.06627
G1 X86.411 Y76.863 E0.05935
G1 X87.238 Y75.169 E0.05911
G1 X88.336 Y73.389 E0.06555
G1 X89.540 Y71.830 E0.06177
G1 X91.980 Y73.843 F10800.000
G1 F1200.000
G1 X93.139 Y72.623 E0.05276
G1 X94.416 Y71.527 E0.05276
G1 X95.797 Y70.566 E0.05276
G1 X97.269 Y69.749 E0.05276
G1 X98.815 Y69.085 E0.05276
G1 X100.421 Y68.582 E0.05276
G1 X102.069 Y68.243 E0.05276
G1 X103.743 Y68.073 E0.05276
G1 X105.426 Y68.073 E0.05276
G1 X106.668 Y68.199 E0.03916
G1 X107.100 Y68.243 E0.01360
G1 X108.748 Y68.582 E0.05276
G1 X110.354 Y69.085 E0.05276
G1 X111.900 Y69.749 E0.05276
G1 X113.372 Y70.566 E0.05276
G1 X114.753 Y71.527 E0.05276
G1 X116.030 Y72.623 E0.05276
G1 X117.189 Y73.843 E0.05276
G1 X118.219 Y75.173 E0.05276
G1 X119.109 Y76.601 E0.05276
G1 X119.850 Y78.112 E0.05276
G1 X120.435 Y79.690 E0.05276
G1 X120.856 Y81.319 E0.05276
G1 X121.111 Y82.983 E0.05276
G1 X121.196 Y84.663 E0.05276
G1 X121.111 Y86.344 E0.05276
G1 X120.856 Y88.007 E0.05276
G1 X120.435 Y89.636 E0.05276
G1 X119.850 Y91.214 E0.05276
G1 X119.109 Y92.725 E0.05276
G1 X118.219 Y94.153 E0.05276
G1 X117.189 Y95.484 E0.05276
G1 X116.030 Y96.703 E0.05276
G1 X114.753 Y97.799 E0.05276
G1 X113.372 Y98.761 E0.05276
G1 X111.900 Y99.577 E0.05276
G1 X110.354 Y100.241 E0.05276
G1 X108.748 Y100.745 E0.05276
G1 X107.100 Y101.084 E0.05276
G1 X105.426 Y101.254 E0.05276
G1 X103.743 Y101.254 E0.05276
G1 X102.069 Y101.084 E0.05276
G1 X100.421 Y100.745 E0.05276
G1 X98.815 Y100.241 E0.05276
G1 X97.269 Y99.577 E0.05276
G1 X95.797 Y98.761 E0.05276
G1 X94.416 Y97.799 E0.05276
G1 X93.139 Y96.703 E0.05276
G1 X91.980 Y95.484 E0.05276
G1 X90.970 Y94.179 E0.05172
G1 X90.060 Y92.724 E0.05382
G1 X89.319 Y91.214 E0.05274
G1 X88.734 Y89.636 E0.05276
G1 X88.313 Y88.007 E0.05276
G1 X88.058 Y86.344 E0.05276
G1 X87.973 Y84.663 E0.05276
G1 X88.058 Y82.983 E0.05276
G1 X88.313 Y81.319 E0.05276
G1 X88.734 Y79.690 E0.05276
G1 X89.319 Y78.112 E0.05276
G1 X90.060 Y76.601 E0.05276
G1 X90.950 Y75.173 E0.05276
G1 X91.943 Y73.890 E0.05088
G1 X91.645 Y73.659 F10800.000
G1 F1200.000
G1 X92.879 Y72.349 E0.05643
G1 X94.185 Y71.228 E0.05396
G1 X95.598 Y70.245 E0.05396
G1 X97.102 Y69.410 E0.05396
G1 X98.684 Y68.731 E0.05396
G1 X100.326 Y68.216 E0.05396
G1 X102.012 Y67.870 E0.05396
G1 X103.724 Y67.695 E0.05396
G1 X105.445 Y67.695 E0.05396
G1 X107.157 Y67.870 E0.05396
G1 X108.843 Y68.216 E0.05396
G1 X110.485 Y68.731 E0.05396
G1 X112.067 Y69.410 E0.05396
G1 X113.571 Y70.245 E0.05396
G1 X114.984 Y71.228 E0.05396
G1 X116.290 Y72.349 E0.05396
G1 X117.475 Y73.597 E0.05396
G1 X118.529 Y74.958 E0.05396
G1 X119.439 Y76.418 E0.05396
G1 X120.197 Y77.963 E0.05396
G1 X120.795 Y79.577 E0.05396
G1 X121.226 Y81.243 E0.05396
G1 X121.487 Y82.944 E0.05396
G1 X121.574 Y84.663 E0.05396
G1 X121.487 Y86.382 E0.05396
G1 X121.226 Y88.083 E0.05396
G1 X120.795 Y89.749 E0.05396
G1 X120.197 Y91.363 E0.05396
G1 X119.439 Y92.908 E0.05396
G1 X118.529 Y94.369 E0.05396
G1 X117.475 Y95.730 E0.05396
G1 X116.290 Y96.977 E0.05396
G1 X114.984 Y98.098 E0.05396
G1 X113.571 Y99.081 E0.05396
G1 X112.067 Y99.916 E0.05396
G1 X110.485 Y100.595 E0.05396
G1 X108.843 Y101.110 E0.05396
G1 X107.157 Y101.457 E0.05396
G1 X105.445 Y101.631 E0.05396
G1 X103.724 Y101.631 E0.05396
G1 X102.012 Y101.457 E0.05396
G1 X100.326 Y101.110 E0.05396
G1 X98.684 Y100.595 E0.05396
G1 X97.102 Y99.916 E0.05396
G1 X95.598 Y99.081 E0.05396
G1 X94.185 Y98.098 E0.05396
G1 X92.879 Y96.977 E0.05396
G1 X91.694 Y95.730 E0.05396
G1 X90.661 Y94.395 E0.05290
G1 X89.730 Y92.908 E0.05502
G1 X88.972 Y91.363 E0.05395
G1 X88.374 Y89.749 E0.05396
G1 X87.943 Y88.083 E0.05396
G1 X87.682 Y86.382 E0.05396
G1 X87.595 Y84.663 E0.05396
G1 X87.682 Y82.944 E0.05396
G1 X87.943 Y81.243 E0.05396
G1 X88.374 Y79.577 E0.05396
G1 X88.972 Y77.963 E0.05396
G1 X89.730 Y76.418 E0.05396
G1 X90.640 Y74.958 E0.05396
G1 X91.608 Y73.707 E0.04960
G1 X92.039 Y73.732 F10800.000
G1 E-0.80000 F2100.00000
G1 Z0.800 F10800.000
G1 X117.726 Y74.722
G1 Z0.200
G1 E0.80000 F2100.00000
G1 F1200.000
G1 X115.823 Y72.819 E0.08494
G1 X114.579 Y71.751 E0.05174
G1 X113.393 Y70.925 E0.04564
G1 X118.290 Y75.823 E0.21862
G1 X118.862 Y76.739 E0.03408
G1 X119.046 Y77.115 E0.01323
G1 X112.132 Y70.201 E0.30862
G1 X111.776 Y70.003 E0.01287
G1 X111.113 Y69.719 E0.02276
G1 X119.563 Y78.169 E0.37718
G1 X119.889 Y79.032 E0.02912
G1 X110.187 Y69.329 E0.43309
G1 X109.404 Y69.084 E0.02588
G1 X120.189 Y79.868 E0.48137
G1 X120.376 Y80.592 E0.02362
G1 X108.630 Y68.846 E0.52433
G1 X107.954 Y68.707 E0.02177
G1 X120.564 Y81.317 E0.56286
G1 X120.668 Y81.958 E0.02051
G1 X107.278 Y68.568 E0.59768
G1 X107.057 Y68.523 E0.00713
G1 X106.655 Y68.482 E0.01275
G1 X120.765 Y82.592 E0.62983
G1 X120.830 Y83.011 E0.01339
G1 X120.839 Y83.203 E0.00605
G1 X106.058 Y68.421 E0.65981
G1 X105.460 Y68.360 E0.01896
G1 X120.868 Y83.768 E0.68776
G1 X120.897 Y84.334 E0.01787
G1 X104.918 Y68.355 E0.71323
G1 X104.381 Y68.355 E0.01694
G1 X120.902 Y84.876 E0.73745
G1 X120.877 Y85.387 E0.01615
G1 X103.845 Y68.355 E0.76026
G1 X103.349 Y68.397 E0.01569
G1 X120.851 Y85.898 E0.78121
G1 X120.816 Y86.401 E0.01590
G1 X102.862 Y68.446 E0.80143
G1 X102.375 Y68.496 E0.01546
G1 X120.745 Y86.866 E0.82000
G1 X120.674 Y87.332 E0.01486
G1 X101.907 Y68.565 E0.83770
G1 X101.461 Y68.656 E0.01435
G1 X120.602 Y87.797 E0.85440
G1 X120.505 Y88.237 E0.01420
G1 X101.016 Y68.748 E0.86992
G1 X100.571 Y68.839 E0.01435
G1 X120.394 Y88.663 E0.88487
G1 X120.284 Y89.089 E0.01390
G1 X100.156 Y68.961 E0.89847
G1 X99.747 Y69.089 E0.01352
G1 X120.174 Y89.516 E0.91178
G1 X120.031 Y89.910 E0.01324
G1 X99.338 Y69.218 E0.92367
G1 X98.930 Y69.346 E0.01352
G1 X119.886 Y90.302 E0.93544
G1 X119.741 Y90.694 E0.01319
G1 X98.553 Y69.506 E0.94579
G1 X98.177 Y69.667 E0.01290
G1 X119.596 Y91.086 E0.95608
M73 P3 R33
G1 X119.421 Y91.447 E0.01268
G1 X97.802 Y69.828 E0.96502
G1 X97.426 Y69.989 E0.01290
G1 X119.244 Y91.807 E0.97390
G1 X119.068 Y92.168 E0.01266
G1 X97.078 Y70.178 E0.98154
G1 X96.733 Y70.370 E0.01246
G1 X118.891 Y92.528 E0.98906
G1 X118.690 Y92.863 E0.01235
G1 X96.388 Y70.561 E0.99549
G1 X96.043 Y70.753 E0.01246
G1 X118.484 Y93.194 E1.00170
G1 X118.277 Y93.525 E0.01230
G1 X95.718 Y70.965 E1.00698
G1 X95.402 Y71.186 E0.01217
G1 X118.071 Y93.855 E1.01191
G1 X117.849 Y94.170 E0.01215
G1 X95.085 Y71.406 E1.01610
G1 X94.769 Y71.626 E0.01217
G1 X117.614 Y94.472 E1.01977
G1 X117.380 Y94.775 E0.01208
G1 X94.464 Y71.859 E1.02291
G1 X94.175 Y72.107 E0.01202
G1 X117.146 Y95.077 E1.02535
G1 X116.904 Y95.373 E0.01204
G1 X93.886 Y72.355 E1.02746
G1 X93.597 Y72.603 E0.01202
G1 X116.643 Y95.648 E1.02867
G1 X116.381 Y95.923 E0.01198
G1 X93.311 Y72.853 E1.02978
G1 X93.049 Y73.128 E0.01198
G1 X116.120 Y96.198 E1.02978
G1 X115.858 Y96.473 E0.01198
G1 X92.788 Y73.403 E1.02978
G1 X92.526 Y73.679 E0.01198
G1 X115.572 Y96.724 E1.02867
G1 X115.283 Y96.972 E0.01202
G1 X92.265 Y73.954 E1.02746
G1 X92.023 Y74.249 E0.01204
G1 X114.994 Y97.220 E1.02534
G1 X114.705 Y97.468 E0.01202
G1 X91.789 Y74.552 E1.02291
G1 X91.555 Y74.854 E0.01208
G1 X114.401 Y97.700 E1.01977
G1 X114.084 Y97.920 E0.01217
G1 X91.320 Y75.157 E1.01610
G1 X91.098 Y75.471 E0.01215
G1 X113.767 Y98.141 E1.01191
G1 X113.451 Y98.361 E0.01217
G1 X90.892 Y75.802 E1.00698
G1 X90.686 Y76.132 E0.01230
G1 X113.127 Y98.573 E1.00170
G1 X112.781 Y98.765 E0.01246
G1 X90.479 Y76.463 E0.99549
G1 X90.278 Y76.799 E0.01235
G1 X112.436 Y98.957 E0.98906
G1 X112.091 Y99.148 E0.01246
G1 X90.101 Y77.159 E0.98154
G1 X89.925 Y77.519 E0.01266
G1 X111.743 Y99.337 E0.97390
G1 X111.367 Y99.498 E0.01290
G1 X89.748 Y77.879 E0.96502
G1 X89.573 Y78.241 E0.01268
G1 X110.992 Y99.660 E0.95608
G1 X110.616 Y99.821 E0.01290
G1 X89.428 Y78.632 E0.94578
G1 X89.283 Y79.024 E0.01319
G1 X110.239 Y99.981 E0.93543
G1 X109.831 Y100.109 E0.01352
G1 X89.138 Y79.416 E0.92367
G1 X88.995 Y79.811 E0.01324
G1 X109.422 Y100.237 E0.91178
G1 X109.013 Y100.365 E0.01352
G1 X88.885 Y80.237 E0.89847
G1 X88.775 Y80.663 E0.01390
G1 X108.598 Y100.487 E0.88487
M73 P6 R32
G1 X108.153 Y100.578 E0.01435
G1 X88.664 Y81.090 E0.86992
G1 X88.567 Y81.529 E0.01420
G1 X107.708 Y100.670 E0.85439
G1 X107.262 Y100.761 E0.01435
G1 X88.495 Y81.995 E0.83770
G1 X88.424 Y82.460 E0.01486
G1 X106.794 Y100.830 E0.82000
G1 X106.307 Y100.880 E0.01546
G1 X88.353 Y82.926 E0.80143
G1 X88.318 Y83.428 E0.01590
G1 X105.820 Y100.929 E0.78121
G1 X105.324 Y100.971 E0.01569
G1 X88.292 Y83.939 E0.76025
G1 X88.267 Y84.450 E0.01615
G1 X104.788 Y100.971 E0.73745
G1 X104.251 Y100.971 E0.01694
G1 X88.272 Y84.993 E0.71322
G1 X88.301 Y85.558 E0.01787
G1 X103.709 Y100.966 E0.68776
G1 X103.111 Y100.905 E0.01896
G1 X88.330 Y86.124 E0.65981
G1 X88.340 Y86.315 E0.00605
G1 X88.404 Y86.734 E0.01339
G1 X102.514 Y100.845 E0.62983
G1 X102.112 Y100.804 E0.01275
G1 X101.891 Y100.758 E0.00713
G1 X88.501 Y87.368 E0.59768
G1 X88.605 Y88.010 E0.02051
G1 X101.215 Y100.619 E0.56285
G1 X100.539 Y100.480 E0.02177
G1 X88.793 Y88.734 E0.52432
G1 X88.981 Y89.459 E0.02362
G1 X99.765 Y100.243 E0.48137
G1 X98.982 Y99.997 E0.02588
G1 X89.280 Y90.295 E0.43309
G1 X89.606 Y91.158 E0.02913
G1 X98.056 Y99.607 E0.37717
G1 X97.393 Y99.323 E0.02275
G1 X97.037 Y99.125 E0.01287
G1 X90.123 Y92.211 E0.30861
G1 X90.307 Y92.587 E0.01320
G1 X90.886 Y93.511 E0.03441
G1 X95.776 Y98.402 E0.21831
G1 X94.590 Y97.576 E0.04564
G1 X93.345 Y96.507 E0.05176
G1 X91.443 Y94.605 E0.08492
G1 E-0.80000 F2100.00000
G1 Z0.800 F10800.000
G1 X98.815 Y109.759
G1 Z0.200
G1 E0.80000 F2100.00000
G1 F1200.000
G1 X100.421 Y109.255 E0.05276
G1 X102.069 Y108.916 E0.05276
G1 X103.743 Y108.746 E0.05276
G1 X105.426 Y108.746 E0.05276
G1 X107.100 Y108.916 E0.05276
G1 X108.748 Y109.255 E0.05276
G1 X110.354 Y109.759 E0.05276
G1 X111.900 Y110.423 E0.05276
G1 X113.372 Y111.239 E0.05276
G1 X114.753 Y112.201 E0.05276
G1 X116.030 Y113.297 E0.05276
G1 X117.189 Y114.516 E0.05276
G1 X118.219 Y115.847 E0.05276
G1 X119.109 Y117.275 E0.05276
G1 X119.850 Y118.786 E0.05276
G1 X120.435 Y120.364 E0.05276
G1 X120.856 Y121.993 E0.05276
G1 X121.111 Y123.656 E0.05276
G1 X121.196 Y125.337 E0.05276
G1 X121.111 Y127.017 E0.05276
G1 X120.856 Y128.681 E0.05276
G1 X120.435 Y130.310 E0.05276
G1 X119.850 Y131.888 E0.05276
G1 X119.109 Y133.399 E0.05276
G1 X118.219 Y134.827 E0.05276
G1 X117.189 Y136.157 E0.05276
G1 X116.030 Y137.377 E0.05276
G1 X114.753 Y138.473 E0.05276
G1 X113.372 Y139.434 E0.05276
G1 X111.900 Y140.251 E0.05276
G1 X110.354 Y140.915 E0.05276
G1 X108.748 Y141.418 E0.05276
G1 X107.100 Y141.757 E0.05276
G1 X105.426 Y141.927 E0.05276
G1 X103.743 Y141.927 E0.05276
G1 X102.069 Y141.757 E0.05276
G1 X100.421 Y141.418 E0.05276
G1 X98.815 Y140.915 E0.05276
G1 X97.269 Y140.251 E0.05276
G1 X95.797 Y139.434 E0.05276
G1 X94.416 Y138.473 E0.05276
G1 X93.139 Y137.377 E0.05276
G1 X91.980 Y136.157 E0.05276
G1 X90.970 Y134.853 E0.05172
G1 X90.060 Y133.398 E0.05382
G1 X89.319 Y131.888 E0.05274
G1 X88.734 Y130.310 E0.05276
G1 X88.313 Y128.681 E0.05276
G1 X88.058 Y127.017 E0.05276
G1 X87.973 Y125.337 E0.05276
G1 X88.058 Y123.656 E0.05276
G1 X88.313 Y121.993 E0.05276
G1 X88.734 Y120.364 E0.05276
G1 X89.319 Y118.786 E0.05276
G1 X90.060 Y117.275 E0.05276
G1 X90.950 Y115.847 E0.05276
G1 X91.980 Y114.516 E0.05276
G1 X93.139 Y113.297 E0.05276
G1 X94.416 Y112.201 E0.05276
G1 X95.797 Y111.239 E0.05276
G1 X97.269 Y110.423 E0.05276
G1 X98.760 Y109.783 E0.05088
G1 X98.611 Y109.436 F10800.000
G1 F1200.000
G1 X100.326 Y108.890 E0.05643
G1 X102.012 Y108.543 E0.05396
G1 X103.724 Y108.369 E0.05396
G1 X105.445 Y108.369 E0.05396
G1 X107.157 Y108.543 E0.05396
G1 X108.843 Y108.890 E0.05396
G1 X110.485 Y109.405 E0.05396
G1 X112.067 Y110.084 E0.05396
G1 X113.571 Y110.919 E0.05396
G1 X114.984 Y111.902 E0.05396
G1 X116.290 Y113.023 E0.05396
G1 X117.475 Y114.270 E0.05396
G1 X118.529 Y115.631 E0.05396
G1 X119.439 Y117.092 E0.05396
G1 X120.197 Y118.637 E0.05396
G1 X120.795 Y120.251 E0.05396
G1 X121.226 Y121.917 E0.05396
G1 X121.487 Y123.618 E0.05396
G1 X121.574 Y125.337 E0.05396
G1 X121.487 Y127.056 E0.05396
G1 X121.226 Y128.757 E0.05396
G1 X120.795 Y130.423 E0.05396
G1 X120.197 Y132.037 E0.05396
G1 X119.439 Y133.582 E0.05396
G1 X118.529 Y135.042 E0.05396
G1 X117.475 Y136.403 E0.05396
G1 X116.290 Y137.651 E0.05396
G1 X114.984 Y138.772 E0.05396
G1 X113.571 Y139.755 E0.05396
G1 X112.067 Y140.590 E0.05396
G1 X110.485 Y141.269 E0.05396
G1 X108.843 Y141.784 E0.05396
G1 X107.157 Y142.130 E0.05396
G1 X105.445 Y142.305 E0.05396
G1 X103.724 Y142.305 E0.05396
G1 X102.012 Y142.130 E0.05396
G1 X100.326 Y141.784 E0.05396
G1 X98.684 Y141.269 E0.05396
G1 X97.102 Y140.590 E0.05396
G1 X95.598 Y139.755 E0.05396
G1 X94.185 Y138.772 E0.05396
G1 X92.879 Y137.651 E0.05396
G1 X91.694 Y136.403 E0.05396
G1 X90.661 Y135.069 E0.05290
G1 X89.730 Y133.582 E0.05502
G1 X88.972 Y132.037 E0.05395
G1 X88.374 Y130.423 E0.05396
G1 X87.943 Y128.757 E0.05396
