; generated by PrusaSlicer 2.2.0+win64 on 2020-07-16 at 19:17:24 UTC

; 

; external perimeters extrusion width = 0.45mm
; perimeters extrusion width = 0.45mm
; infill extrusion width = 0.45mm
; solid infill extrusion width = 0.45mm
; top infill extrusion width = 0.40mm
; first layer extrusion width = 0.42mm

M73 P0 R188
M201 X9000 Y9000 Z500 E10000 ; sets maximum accelerations, mm/sec^2
M203 X500 Y500 Z12 E120 ; sets maximum feedrates, mm/sec
M204 P2000 R1500 T2000 ; sets acceleration (P, T) and retract acceleration (R), mm/sec^2
M205 X10.00 Y10.00 Z0.20 E2.50 ; sets the jerk limits, mm/sec
M205 S0 T0 ; sets the minimum extruding and travel feed rate, mm/sec
M107
M862.3 P "MK2S" ; printer model check
M862.1 P0.4 ; nozzle diameter check
M115 U3.2.3 ; tell printer latest fw version
G90 ; use absolute coordinates
M83 ; extruder relative mode
M204 S2000 T1500 ; MK2 firmware only supports the old M204 format
M104 S215 ; set extruder temp
M140 S60 ; set bed temp
M190 S60 ; wait for bed temp
M109 S215 ; wait for extruder temp
G28 W ; home all without mesh bed level
G80 ; mesh bed leveling
G1 Y-3.0 F1000.0 ; go outside print area
G92 E0.0
G1 X60.0 E9.0  F1000.0 ; intro line
M73 P0 R188
G1 X100.0 E12.5 F1000.0 ; intro line
G92 E0.0
G21 ; set units to millimeters
G90 ; use absolute coordinates
M83 ; use relative distances for extrusion
M900 K0.06 ; Filament gcode LA 1.5
M900 K30 ; Filament gcode LA 1.0
;BEFORE_LAYER_CHANGE
G92 E0.0
;0.2


G1 E-0.80000 F2100.00000
G1 Z0.600 F10800.000
;AFTER_LAYER_CHANGE
;0.2
G1 X63.754 Y60.780
G1 Z0.200
G1 E0.80000 F2100.00000
M204 S1000
G1 F1200.000
G1 X62.902 Y60.780 E0.02670
G1 X61.208 Y60.608 E0.05340
G1 X59.540 Y60.265 E0.05340
G1 X57.915 Y59.755 E0.05340
G1 X56.350 Y59.084 E0.05340
G1 X54.861 Y58.257 E0.05340
G1 X53.463 Y57.284 E0.05340
G1 X52.171 Y56.175 E0.05340
G1 X50.997 Y54.940 E0.05340
G1 X49.981 Y53.628 E0.05204
G1 X49.054 Y52.148 E0.05477
G1 X48.304 Y50.619 E0.05337
G1 X47.712 Y49.022 E0.05340
G1 X47.286 Y47.374 E0.05340
G1 X47.028 Y45.690 E0.05340
G1 X46.941 Y43.990 E0.05340
G1 X47.028 Y42.289 E0.05340
G1 X47.286 Y40.605 E0.05340
G1 X47.712 Y38.957 E0.05340
G1 X48.304 Y37.360 E0.05340
G1 X49.054 Y35.831 E0.05340
G1 X49.955 Y34.385 E0.05340
G1 X50.997 Y33.039 E0.05340
G1 X52.171 Y31.804 E0.05340
G1 X53.463 Y30.695 E0.05340
G1 X54.861 Y29.722 E0.05340
G1 X56.350 Y28.895 E0.05340
G1 X57.915 Y28.224 E0.05340
G1 X59.540 Y27.714 E0.05340
G1 X61.208 Y27.371 E0.05340
G1 X62.902 Y27.199 E0.05340
G1 X64.605 Y27.199 E0.05340
G1 X66.256 Y27.367 E0.05204
G1 X67.968 Y27.714 E0.05477
G1 X69.593 Y28.224 E0.05337
G1 X71.158 Y28.895 E0.05340
G1 X72.647 Y29.722 E0.05340
G1 X74.044 Y30.695 E0.05340
G1 X75.337 Y31.804 E0.05340
G1 X76.510 Y33.039 E0.05340
G1 X77.552 Y34.385 E0.05340
G1 X78.453 Y35.831 E0.05340
G1 X79.203 Y37.360 E0.05340
G1 X79.795 Y38.957 E0.05340
G1 X80.222 Y40.605 E0.05340
G1 X80.479 Y42.289 E0.05340
G1 X80.566 Y43.990 E0.05340
G1 X80.479 Y45.690 E0.05340
G1 X80.222 Y47.374 E0.05340
G1 X79.795 Y49.022 E0.05340
G1 X79.203 Y50.619 E0.05340
G1 X78.453 Y52.148 E0.05340
G1 X77.552 Y53.594 E0.05340
G1 X76.510 Y54.940 E0.05340
G1 X75.337 Y56.175 E0.05340
G1 X74.044 Y57.284 E0.05340
G1 X72.647 Y58.257 E0.05340
G1 X71.158 Y59.084 E0.05340
G1 X69.593 Y59.755 E0.05340
G1 X67.968 Y60.265 E0.05340
G1 X66.299 Y60.608 E0.05340
G1 X64.605 Y60.780 E0.05340
G1 X63.814 Y60.780 E0.02482
G1 X63.754 Y61.157 F10800.000
G1 F1200.000
G1 X62.883 Y61.157 E0.02730
G1 X61.151 Y60.981 E0.05460
G1 X59.445 Y60.631 E0.05460
G1 X57.784 Y60.109 E0.05460
G1 X56.183 Y59.423 E0.05460
G1 X54.661 Y58.577 E0.05460
G1 X53.232 Y57.583 E0.05460
G1 X51.910 Y56.449 E0.05460
G1 X50.711 Y55.186 E0.05460
G1 X49.672 Y53.844 E0.05322
G1 X48.724 Y52.331 E0.05597
G1 X47.957 Y50.768 E0.05459
G1 X47.352 Y49.135 E0.05460
G1 X46.916 Y47.450 E0.05460
G1 X46.652 Y45.729 E0.05460
G1 X46.564 Y43.990 E0.05460
G1 X46.652 Y42.250 E0.05460
G1 X46.916 Y40.529 E0.05460
G1 X47.352 Y38.844 E0.05460
G1 X47.957 Y37.211 E0.05460
G1 X48.724 Y35.647 E0.05460
G1 X49.645 Y34.170 E0.05460
G1 X50.711 Y32.793 E0.05460
G1 X51.910 Y31.531 E0.05460
G1 X53.232 Y30.396 E0.05460
G1 X54.661 Y29.402 E0.05460
G1 X56.183 Y28.556 E0.05460
G1 X57.784 Y27.870 E0.05460
G1 X59.445 Y27.349 E0.05460
G1 X61.151 Y26.998 E0.05460
G1 X62.883 Y26.822 E0.05460
G1 X64.624 Y26.822 E0.05460
G1 X66.313 Y26.994 E0.05322
G1 X68.062 Y27.349 E0.05597
G1 X69.724 Y27.870 E0.05459
G1 X71.324 Y28.556 E0.05460
G1 X72.846 Y29.402 E0.05460
G1 X74.276 Y30.396 E0.05460
G1 X75.597 Y31.531 E0.05460
G1 X76.796 Y32.793 E0.05460
G1 X77.862 Y34.170 E0.05460
G1 X78.783 Y35.647 E0.05460
G1 X79.550 Y37.211 E0.05460
G1 X80.155 Y38.844 E0.05460
G1 X80.591 Y40.529 E0.05460
G1 X80.855 Y42.250 E0.05460
G1 X80.943 Y43.990 E0.05460
G1 X80.855 Y45.729 E0.05460
G1 X80.591 Y47.450 E0.05460
G1 X80.155 Y49.135 E0.05460
G1 X79.550 Y50.768 E0.05460
G1 X78.783 Y52.332 E0.05460
G1 X77.862 Y53.809 E0.05460
G1 X76.796 Y55.186 E0.05460
G1 X75.597 Y56.449 E0.05460
G1 X74.276 Y57.583 E0.05460
G1 X72.846 Y58.577 E0.05460
G1 X71.324 Y59.423 E0.05460
G1 X69.724 Y60.109 E0.05460
G1 X68.062 Y60.631 E0.05460
G1 X66.357 Y60.981 E0.05460
G1 X64.624 Y61.157 E0.05460
G1 X63.814 Y61.157 E0.02542
G1 X63.546 Y60.815 F10800.000
G1 E-0.80000 F2100.00000
G1 Z0.800 F10800.000
G1 X77.045 Y33.915
G1 Z0.200
G1 E0.80000 F2100.00000
G1 F1200.000
G1 X75.129 Y31.999 E0.08559
G1 X73.871 Y30.919 E0.05236
G1 X72.690 Y30.097 E0.04546
G1 X77.617 Y35.024 E0.22010
G1 X78.206 Y35.968 E0.03512
G1 X78.381 Y36.325 E0.01254
G1 X71.421 Y29.365 E0.31083
G1 X71.033 Y29.150 E0.01403
G1 X70.395 Y28.876 E0.02193
G1 X78.898 Y37.379 E0.37978
G1 X79.231 Y38.250 E0.02945
G1 X69.461 Y28.479 E0.43641
G1 X68.678 Y28.233 E0.02591
G1 X79.538 Y39.093 E0.48507
G1 X79.726 Y39.818 E0.02365
G1 X67.895 Y27.988 E0.52840
G1 X67.222 Y27.851 E0.02172
G1 X79.913 Y40.543 E0.56688
G1 X80.025 Y41.192 E0.02081
G1 X66.548 Y27.715 E0.60198
G1 X66.214 Y27.647 E0.01076
G1 X65.912 Y27.616 E0.00958
G1 X80.123 Y41.827 E0.63471
G1 X80.204 Y42.445 E0.01971
G1 X65.314 Y27.555 E0.66507
G1 X64.716 Y27.494 E0.01898
G1 X80.233 Y43.011 E0.69306
G1 X80.262 Y43.577 E0.01789
G1 X64.166 Y27.482 E0.71890
G1 X63.629 Y27.482 E0.01696
G1 X80.276 Y44.128 E0.74351
G1 X80.250 Y44.639 E0.01617
G1 X63.092 Y27.482 E0.76635
G1 X62.588 Y27.515 E0.01595
G1 X80.224 Y45.151 E0.78769
G1 X80.198 Y45.662 E0.01617
G1 X62.101 Y27.565 E0.80831
G1 X61.613 Y27.614 E0.01548
G1 X80.126 Y46.128 E0.82690
G1 X80.055 Y46.594 E0.01488
G1 X61.136 Y27.675 E0.84501
G1 X60.691 Y27.766 E0.01437
G1 X79.984 Y47.059 E0.86172
G1 X79.895 Y47.508 E0.01443
G1 X60.245 Y27.858 E0.87765
G1 X59.799 Y27.949 E0.01437
G1 X79.784 Y47.934 E0.89262
G1 X79.674 Y48.361 E0.01392
G1 X59.375 Y28.062 E0.90664
G1 X58.966 Y28.190 E0.01353
G1 X79.563 Y48.788 E0.91997
G1 X79.430 Y49.192 E0.01344
G1 X58.557 Y28.319 E0.93230
G1 X58.148 Y28.447 E0.01353
G1 X79.285 Y49.584 E0.94407
G1 X79.140 Y49.976 E0.01320
G1 X57.762 Y28.597 E0.95487
G1 X57.386 Y28.759 E0.01292
G1 X78.995 Y50.368 E0.96517
G1 X78.829 Y50.739 E0.01285
G1 X57.010 Y28.920 E0.97457
G1 X56.634 Y29.081 E0.01292
G1 X78.653 Y51.100 E0.98346
G1 X78.476 Y51.460 E0.01268
G1 X56.276 Y29.260 E0.99157
G1 X55.930 Y29.452 E0.01248
G1 X78.299 Y51.821 E0.99910
G1 X78.108 Y52.167 E0.01249
G1 X55.585 Y29.643 E1.00601
G1 X55.239 Y29.835 E0.01248
G1 X77.902 Y52.498 E1.01223
G1 X77.696 Y52.829 E0.01231
G1 X54.904 Y30.037 E1.01801
G1 X54.587 Y30.257 E0.01219
G1 X77.490 Y53.160 E1.02295
G1 X77.278 Y53.486 E0.01227
G1 X54.270 Y30.477 E1.02766
M73 P0 R187
G1 X53.953 Y30.698 E0.01219
G1 X77.044 Y53.788 E1.03134
G1 X76.810 Y54.091 E0.01209
G1 X53.637 Y30.918 E1.03501
G1 X53.348 Y31.166 E0.01203
G1 X76.575 Y54.394 E1.03746
G1 X76.341 Y54.697 E0.01209
G1 X53.059 Y31.415 E1.03990
G1 X52.770 Y31.663 E0.01203
G1 X76.085 Y54.978 E1.04136
G1 X75.823 Y55.253 E0.01200
G1 X52.481 Y31.911 E1.04257
G1 X52.366 Y32.009 E0.00478
G1 X52.208 Y32.175 E0.00723
G1 X75.561 Y55.528 E1.04306
G1 X75.299 Y55.804 E0.01200
G1 X51.946 Y32.451 E1.04306
G1 X51.684 Y32.726 E0.01200
G1 X75.027 Y56.068 E1.04257
G1 X74.738 Y56.316 E0.01203
G1 X51.423 Y33.001 E1.04136
G1 X51.166 Y33.282 E0.01201
G1 X74.449 Y56.565 E1.03990
G1 X74.160 Y56.813 E0.01203
G1 X50.932 Y33.585 E1.03746
G1 X50.697 Y33.888 E0.01209
G1 X73.870 Y57.061 E1.03501
G1 X73.554 Y57.281 E0.01219
G1 X50.463 Y34.191 E1.03134
G1 X50.229 Y34.493 E0.01209
G1 X73.237 Y57.502 E1.02766
G1 X72.920 Y57.722 E0.01219
G1 X50.017 Y34.819 E1.02295
G1 X49.811 Y35.150 E0.01231
G1 X72.604 Y57.942 E1.01801
G1 X72.268 Y58.144 E0.01237
G1 X49.605 Y35.481 E1.01223
G1 X49.399 Y35.812 E0.01231
G1 X71.922 Y58.336 E1.00601
G1 X71.577 Y58.527 E0.01248
G1 X49.208 Y36.158 E0.99910
G1 X49.031 Y36.519 E0.01268
G1 X71.232 Y58.719 E0.99157
G1 X70.873 Y58.898 E0.01265
G1 X48.855 Y36.879 E0.98346
G1 X48.678 Y37.240 E0.01268
G1 X70.497 Y59.059 E0.97456
G1 X70.121 Y59.220 E0.01292
G1 X48.512 Y37.611 E0.96517
G1 X48.367 Y38.003 E0.01320
G1 X69.746 Y59.382 E0.95486
G1 X69.359 Y59.532 E0.01311
G1 X48.222 Y38.395 E0.94407
G1 X48.077 Y38.787 E0.01320
G1 X68.950 Y59.660 E0.93229
G1 X68.541 Y59.789 E0.01353
G1 X47.944 Y39.191 E0.91997
G1 X47.833 Y39.618 E0.01392
G1 X68.132 Y59.917 E0.90664
G1 X67.708 Y60.030 E0.01387
G1 X47.723 Y40.045 E0.89262
G1 X47.612 Y40.471 E0.01392
G1 X67.262 Y60.121 E0.87765
G1 X66.817 Y60.213 E0.01437
G1 X47.523 Y40.920 E0.86172
G1 X47.452 Y41.386 E0.01488
G1 X66.371 Y60.304 E0.84500
G1 X65.894 Y60.365 E0.01518
G1 X47.381 Y41.851 E0.82690
G1 X47.309 Y42.317 E0.01488
G1 X65.407 Y60.414 E0.80831
G1 X64.919 Y60.464 E0.01548
G1 X47.283 Y42.828 E0.78769
G1 X47.258 Y43.340 E0.01617
G1 X64.415 Y60.497 E0.76634
G1 X63.878 Y60.497 E0.01696
G1 X47.232 Y43.851 E0.74351
G1 X47.245 Y44.402 E0.01741
G1 X63.341 Y60.497 E0.71890
M73 P1 R186
G1 X62.791 Y60.485 E0.01737
G1 X47.274 Y44.968 E0.69305
G1 X47.303 Y45.534 E0.01789
G1 X62.193 Y60.424 E0.66507
G1 X61.595 Y60.363 E0.01898
G1 X47.385 Y46.152 E0.63471
G1 X47.482 Y46.787 E0.02027
G1 X60.964 Y60.269 E0.60218
G1 X60.288 Y60.130 E0.02180
G1 X47.594 Y47.436 E0.56698
G1 X47.781 Y48.161 E0.02365
G1 X59.612 Y59.991 E0.52840
G1 X58.829 Y59.746 E0.02590
G1 X47.969 Y48.886 E0.48506
G1 X48.276 Y49.730 E0.02836
G1 X58.047 Y59.500 E0.43640
G1 X57.112 Y59.103 E0.03206
G1 X48.609 Y50.600 E0.37978
G1 X49.127 Y51.655 E0.03709
G1 X56.086 Y58.614 E0.31082
G1 X55.010 Y58.017 E0.03884
G1 X54.817 Y57.882 E0.00743
G1 X49.899 Y52.964 E0.21968
G1 X50.214 Y53.466 E0.01871
G1 X51.212 Y54.756 E0.05152
G1 X52.333 Y55.935 E0.05137
G1 X53.730 Y57.333 E0.06242
G1 E-0.80000 F2100.00000
G1 Z0.800 F10800.000
G1 X63.754 Y101.454
G1 Z0.200
G1 E0.80000 F2100.00000
G1 F1200.000
G1 X62.902 Y101.454 E0.02670
G1 X61.208 Y101.281 E0.05340
G1 X59.540 Y100.939 E0.05340
G1 X57.915 Y100.429 E0.05340
G1 X56.350 Y99.757 E0.05340
G1 X54.861 Y98.931 E0.05340
G1 X53.463 Y97.958 E0.05340
G1 X52.171 Y96.849 E0.05340
G1 X50.997 Y95.614 E0.05340
G1 X49.981 Y94.302 E0.05204
G1 X49.054 Y92.821 E0.05477
G1 X48.304 Y91.293 E0.05337
G1 X47.712 Y89.696 E0.05340
G1 X47.286 Y88.047 E0.05340
G1 X47.028 Y86.364 E0.05340
G1 X46.941 Y84.663 E0.05340
G1 X47.028 Y82.962 E0.05340
G1 X47.286 Y81.279 E0.05340
G1 X47.712 Y79.630 E0.05340
G1 X48.304 Y78.033 E0.05340
G1 X49.054 Y76.504 E0.05340
G1 X49.955 Y75.059 E0.05340
G1 X50.997 Y73.712 E0.05340
G1 X52.171 Y72.478 E0.05340
G1 X53.463 Y71.369 E0.05340
G1 X54.861 Y70.396 E0.05340
G1 X56.350 Y69.569 E0.05340
G1 X57.915 Y68.898 E0.05340
G1 X59.540 Y68.388 E0.05340
G1 X61.208 Y68.045 E0.05340
G1 X62.902 Y67.873 E0.05340
G1 X64.605 Y67.873 E0.05340
G1 X66.256 Y68.040 E0.05204
G1 X67.968 Y68.388 E0.05477
G1 X69.593 Y68.898 E0.05337
G1 X71.158 Y69.569 E0.05340
G1 X72.647 Y70.396 E0.05340
G1 X74.044 Y71.369 E0.05340
G1 X75.337 Y72.478 E0.05340
G1 X76.510 Y73.712 E0.05340
G1 X77.552 Y75.059 E0.05340
G1 X78.453 Y76.504 E0.05340
G1 X79.203 Y78.033 E0.05340
G1 X79.795 Y79.630 E0.05340
G1 X80.222 Y81.279 E0.05340
G1 X80.479 Y82.962 E0.05340
G1 X80.566 Y84.663 E0.05340
G1 X80.479 Y86.364 E0.05340
G1 X80.222 Y88.047 E0.05340
G1 X79.795 Y89.696 E0.05340
G1 X79.203 Y91.293 E0.05340
G1 X78.453 Y92.822 E0.05340
G1 X77.552 Y94.267 E0.05340
G1 X76.510 Y95.614 E0.05340
G1 X75.337 Y96.849 E0.05340
G1 X74.044 Y97.958 E0.05340
G1 X72.647 Y98.931 E0.05340
G1 X71.158 Y99.757 E0.05340
G1 X69.593 Y100.429 E0.05340
G1 X67.968 Y100.939 E0.05340
G1 X66.299 Y101.281 E0.05340
G1 X64.605 Y101.454 E0.05340
G1 X63.814 Y101.454 E0.02482
G1 X63.754 Y101.831 F10800.000
G1 F1200.000
G1 X62.883 Y101.831 E0.02730
G1 X61.151 Y101.655 E0.05460
G1 X59.445 Y101.304 E0.05460
G1 X57.784 Y100.783 E0.05460
G1 X56.183 Y100.096 E0.05460
G1 X54.661 Y99.251 E0.05460
G1 X53.232 Y98.256 E0.05460
G1 X51.910 Y97.122 E0.05460
G1 X50.711 Y95.860 E0.05460
G1 X49.672 Y94.518 E0.05322
G1 X48.724 Y93.005 E0.05597
G1 X47.957 Y91.442 E0.05459
G1 X47.352 Y89.809 E0.05460
G1 X46.916 Y88.123 E0.05460
G1 X46.652 Y86.402 E0.05460
G1 X46.564 Y84.663 E0.05460
G1 X46.652 Y82.924 E0.05460
G1 X46.916 Y81.203 E0.05460
G1 X47.352 Y79.517 E0.05460
G1 X47.957 Y77.884 E0.05460
G1 X48.724 Y76.321 E0.05460
G1 X49.645 Y74.843 E0.05460
G1 X50.711 Y73.466 E0.05460
G1 X51.910 Y72.204 E0.05460
G1 X53.232 Y71.070 E0.05460
G1 X54.661 Y70.075 E0.05460
G1 X56.183 Y69.230 E0.05460
G1 X57.784 Y68.543 E0.05460
G1 X59.445 Y68.022 E0.05460
G1 X61.151 Y67.672 E0.05460
G1 X62.883 Y67.496 E0.05460
G1 X64.624 Y67.496 E0.05460
G1 X66.313 Y67.667 E0.05322
G1 X68.062 Y68.022 E0.05597
G1 X69.724 Y68.543 E0.05459
G1 X71.324 Y69.230 E0.05460
G1 X72.846 Y70.075 E0.05460
G1 X74.276 Y71.070 E0.05460
G1 X75.597 Y72.204 E0.05460
G1 X76.796 Y73.466 E0.05460
G1 X77.862 Y74.843 E0.05460
G1 X78.783 Y76.321 E0.05460
G1 X79.550 Y77.884 E0.05460
G1 X80.155 Y79.517 E0.05460
G1 X80.591 Y81.203 E0.05460
G1 X80.855 Y82.924 E0.05460
G1 X80.943 Y84.663 E0.05460
G1 X80.855 Y86.402 E0.05460
G1 X80.591 Y88.123 E0.05460
G1 X80.155 Y89.809 E0.05460
G1 X79.550 Y91.442 E0.05460
G1 X78.783 Y93.005 E0.05460
G1 X77.862 Y94.483 E0.05460
G1 X76.796 Y95.860 E0.05460
G1 X75.597 Y97.122 E0.05460
G1 X74.276 Y98.256 E0.05460
G1 X72.846 Y99.251 E0.05460
G1 X71.324 Y100.096 E0.05460
G1 X69.724 Y100.783 E0.05460
G1 X68.062 Y101.304 E0.05460
G1 X66.357 Y101.655 E0.05460
G1 X64.624 Y101.831 E0.05460
G1 X63.814 Y101.831 E0.02542
G1 X63.546 Y101.489 F10800.000
G1 E-0.80000 F2100.00000
G1 Z0.800 F10800.000
G1 X77.045 Y74.589
G1 Z0.200
G1 E0.80000 F2100.00000
G1 F1200.000
G1 X75.129 Y72.672 E0.08559
G1 X73.871 Y71.592 E0.05236
G1 X72.690 Y70.770 E0.04546
G1 X77.617 Y75.698 E0.22010
G1 X78.206 Y76.642 E0.03512
G1 X78.381 Y76.998 E0.01254
G1 X71.421 Y70.039 E0.31083
G1 X71.033 Y69.823 E0.01403
G1 X70.395 Y69.550 E0.02193
G1 X78.898 Y78.053 E0.37978
G1 X79.231 Y78.923 E0.02945
G1 X69.461 Y69.153 E0.43641
G1 X68.678 Y68.907 E0.02591
G1 X79.538 Y79.767 E0.48507
G1 X79.726 Y80.492 E0.02365
G1 X67.895 Y68.662 E0.52840
G1 X67.222 Y68.525 E0.02172
G1 X79.913 Y81.217 E0.56688
G1 X80.025 Y81.866 E0.02081
G1 X66.548 Y68.388 E0.60198
G1 X66.214 Y68.320 E0.01076
G1 X65.912 Y68.290 E0.00958
G1 X80.123 Y82.500 E0.63471
G1 X80.204 Y83.119 E0.01971
G1 X65.314 Y68.229 E0.66507
G1 X64.716 Y68.168 E0.01898
G1 X80.233 Y83.685 E0.69306
G1 X80.262 Y84.251 E0.01789
G1 X64.166 Y68.155 E0.71890
G1 X63.629 Y68.155 E0.01696
G1 X80.276 Y84.802 E0.74351
G1 X80.250 Y85.313 E0.01617
G1 X63.092 Y68.155 E0.76635
G1 X62.588 Y68.189 E0.01595
G1 X80.224 Y85.824 E0.78769
G1 X80.198 Y86.336 E0.01617
G1 X62.101 Y68.238 E0.80831
G1 X61.613 Y68.288 E0.01548
G1 X80.126 Y86.801 E0.82690
G1 X80.055 Y87.267 E0.01488
G1 X61.136 Y68.348 E0.84501
G1 X60.691 Y68.440 E0.01437
G1 X79.984 Y87.733 E0.86172
G1 X79.895 Y88.181 E0.01443
G1 X60.245 Y68.531 E0.87765
G1 X59.799 Y68.623 E0.01437
G1 X79.784 Y88.608 E0.89262
G1 X79.674 Y89.035 E0.01392
G1 X59.375 Y68.736 E0.90664
G1 X58.966 Y68.864 E0.01353
G1 X79.563 Y89.461 E0.91997
G1 X79.430 Y89.865 E0.01344
G1 X58.557 Y68.992 E0.93230
G1 X58.148 Y69.121 E0.01353
G1 X79.285 Y90.257 E0.94407
G1 X79.140 Y90.649 E0.01320
G1 X57.762 Y69.271 E0.95487
G1 X57.386 Y69.432 E0.01292
G1 X78.995 Y91.041 E0.96517
G1 X78.829 Y91.413 E0.01285
