; generated by PrusaSlicer 2.2.0+win64 on 2020-07-30 at 16:15:02 UTC

; 

; external perimeters extrusion width = 0.60mm
; perimeters extrusion width = 0.43mm
; infill extrusion width = 0.45mm
; solid infill extrusion width = 0.70mm
; top infill extrusion width = 0.43mm
; first layer extrusion width = 0.42mm

M73 P0 R101
M201 X9000 Y9000 Z500 E10000 ; sets maximum accelerations, mm/sec^2
M203 X500 Y500 Z12 E120 ; sets maximum feedrates, mm/sec
M204 P2000 R1500 T2000 ; sets acceleration (P, T) and retract acceleration (R), mm/sec^2
M205 X10.00 Y10.00 Z0.20 E2.50 ; sets the jerk limits, mm/sec
M205 S0 T0 ; sets the minimum extruding and travel feed rate, mm/sec
M107
M862.3 P "MK2S" ; printer model check
M862.1 P0.4 ; nozzle diameter check
M115 U3.2.3 ; tell printer latest fw version
G90 ; use absolute coordinates
M83 ; extruder relative mode
M204 S2000 T1500 ; MK2 firmware only supports the old M204 format
M104 S215 ; set extruder temp
M140 S60 ; set bed temp
M190 S60 ; wait for bed temp
M109 S215 ; wait for extruder temp
G28 W ; home all without mesh bed level
G80 ; mesh bed leveling
G1 Y-3.0 F1000.0 ; go outside print area
G92 E0.0
G1 X60.0 E9.0  F1000.0 ; intro line
M73 P0 R100
G1 X100.0 E12.5 F1000.0 ; intro line
G92 E0.0
G21 ; set units to millimeters
G90 ; use absolute coordinates
M83 ; use relative distances for extrusion
M900 K0.06 ; Filament gcode LA 1.5
M900 K30 ; Filament gcode LA 1.0
;BEFORE_LAYER_CHANGE
G92 E0.0
;0.2


G1 E-0.80000 F2100.00000
G1 Z0.600 F10800.000
;AFTER_LAYER_CHANGE
;0.2
G1 X71.951 Y27.124
G1 Z0.200
G1 E0.80000 F2100.00000
M204 S1000
G1 F1200.000
G1 X72.236 Y26.507 E0.02130
G1 X72.612 Y26.059 E0.01835
G1 X73.083 Y25.718 E0.01823
G1 X73.626 Y25.501 E0.01835
G1 X74.206 Y25.423 E0.01835
G1 X175.774 Y25.423 E3.18459
G1 X176.676 Y25.602 E0.02884
G1 X177.440 Y26.108 E0.02872
G1 X177.957 Y26.869 E0.02884
G1 X178.147 Y27.768 E0.02884
G1 X178.147 Y182.208 E4.84233
G1 X178.049 Y182.876 E0.02119
G1 X177.764 Y183.493 E0.02130
G1 X177.388 Y183.941 E0.01835
G1 X176.910 Y184.286 E0.01846
G1 X176.366 Y184.501 E0.01835
G1 X175.786 Y184.577 E0.01835
G1 X74.222 Y184.577 E3.18447
G1 X73.554 Y184.479 E0.02119
G1 X72.937 Y184.194 E0.02130
G1 X72.489 Y183.818 E0.01835
G1 X72.144 Y183.340 E0.01846
G1 X71.928 Y182.793 E0.01846
G1 X71.853 Y182.209 E0.01846
G1 X71.853 Y27.792 E4.84161
G1 X71.942 Y27.183 E0.01931
G1 E-0.80000 F2100.00000
G1 Z0.800 F10800.000
G1 X75.017 Y148.887
G1 Z0.200
G1 E0.80000 F2100.00000
G1 F1200.000
G1 X121.213 Y148.887 E1.44844
G1 X121.213 Y181.413 E1.01982
G1 X75.017 Y181.413 E1.44844
G1 X75.017 Y148.947 E1.01794
G1 X74.640 Y148.510 F10800.000
G1 F1200.000
G1 X121.590 Y148.510 E1.47208
G1 X121.590 Y181.790 E1.04347
G1 X74.640 Y181.790 E1.47208
G1 X74.640 Y148.570 E1.04159
G1 X75.032 Y148.592 F10800.000
G1 E-0.80000 F2100.00000
G1 Z0.800 F10800.000
G1 X121.100 Y149.767
G1 Z0.200
G1 E0.80000 F2100.00000
G1 F1200.000
G1 X120.502 Y149.170 E0.02666
G1 X119.966 Y149.170 E0.01693
G1 X120.930 Y150.134 E0.04304
G1 X120.930 Y150.671 E0.01693
G1 X119.429 Y149.170 E0.06698
G1 X118.892 Y149.170 E0.01693
G1 X120.930 Y151.208 E0.09092
G1 X120.930 Y151.744 E0.01693
G1 X118.356 Y149.170 E0.11486
G1 X117.819 Y149.170 E0.01693
G1 X120.930 Y152.281 E0.13881
G1 X120.930 Y152.817 E0.01693
G1 X117.283 Y149.170 E0.16275
G1 X116.746 Y149.170 E0.01693
G1 X120.930 Y153.354 E0.18669
G1 X120.930 Y153.891 E0.01693
G1 X116.209 Y149.170 E0.21064
G1 X115.673 Y149.170 E0.01693
G1 X120.930 Y154.427 E0.23458
G1 X120.930 Y154.964 E0.01693
G1 X115.136 Y149.170 E0.25852
G1 X114.600 Y149.170 E0.01693
G1 X120.930 Y155.500 E0.28246
G1 X120.930 Y156.037 E0.01693
G1 X114.063 Y149.170 E0.30641
G1 X113.526 Y149.170 E0.01693
G1 X120.930 Y156.574 E0.33035
G1 X120.930 Y157.110 E0.01693
G1 X112.990 Y149.170 E0.35429
G1 X112.453 Y149.170 E0.01693
G1 X120.930 Y157.647 E0.37824
G1 X120.930 Y158.183 E0.01693
G1 X111.917 Y149.170 E0.40218
G1 X111.380 Y149.170 E0.01693
G1 X120.930 Y158.720 E0.42612
G1 X120.930 Y159.257 E0.01693
G1 X110.843 Y149.170 E0.45006
G1 X110.307 Y149.170 E0.01693
G1 X120.930 Y159.793 E0.47401
G1 X120.930 Y160.330 E0.01693
G1 X109.770 Y149.170 E0.49795
G1 X109.233 Y149.170 E0.01693
G1 X120.930 Y160.867 E0.52189
G1 X120.930 Y161.403 E0.01693
G1 X108.697 Y149.170 E0.54584
G1 X108.160 Y149.170 E0.01693
G1 X120.930 Y161.940 E0.56978
G1 X120.930 Y162.476 E0.01693
G1 X107.624 Y149.170 E0.59372
G1 X107.087 Y149.170 E0.01693
M73 P1 R99
G1 X120.930 Y163.013 E0.61766
G1 X120.930 Y163.550 E0.01693
G1 X106.550 Y149.170 E0.64161
G1 X106.014 Y149.170 E0.01693
G1 X120.930 Y164.086 E0.66555
G1 X120.930 Y164.623 E0.01693
G1 X105.477 Y149.170 E0.68949
G1 X104.941 Y149.170 E0.01693
G1 X120.930 Y165.159 E0.71344
G1 X120.930 Y165.696 E0.01693
G1 X104.404 Y149.170 E0.73738
G1 X103.867 Y149.170 E0.01693
G1 X120.930 Y166.233 E0.76132
G1 X120.930 Y166.769 E0.01693
G1 X103.331 Y149.170 E0.78526
G1 X102.794 Y149.170 E0.01693
G1 X120.930 Y167.306 E0.80921
G1 X120.930 Y167.842 E0.01693
G1 X102.258 Y149.170 E0.83315
G1 X101.721 Y149.170 E0.01693
G1 X120.930 Y168.379 E0.85709
G1 X120.930 Y168.916 E0.01693
G1 X101.184 Y149.170 E0.88103
G1 X100.648 Y149.170 E0.01693
G1 X120.930 Y169.452 E0.90498
G1 X120.930 Y169.989 E0.01693
G1 X100.111 Y149.170 E0.92892
G1 X99.575 Y149.170 E0.01693
G1 X120.930 Y170.525 E0.95286
G1 X120.930 Y171.062 E0.01693
G1 X99.038 Y149.170 E0.97681
G1 X98.501 Y149.170 E0.01693
G1 X120.930 Y171.599 E1.00075
G1 X120.930 Y172.135 E0.01693
G1 X97.965 Y149.170 E1.02469
G1 X97.428 Y149.170 E0.01693
G1 X120.930 Y172.672 E1.04863
G1 X120.930 Y173.208 E0.01693
G1 X96.892 Y149.170 E1.07258
G1 X96.355 Y149.170 E0.01693
G1 X120.930 Y173.745 E1.09652
G1 X120.930 Y174.282 E0.01693
G1 X95.818 Y149.170 E1.12046
G1 X95.282 Y149.170 E0.01693
G1 X120.930 Y174.818 E1.14441
G1 X120.930 Y175.355 E0.01693
G1 X94.745 Y149.170 E1.16835
G1 X94.209 Y149.170 E0.01693
G1 X120.930 Y175.891 E1.19229
G1 X120.930 Y176.428 E0.01693
G1 X93.672 Y149.170 E1.21623
G1 X93.135 Y149.170 E0.01693
G1 X120.930 Y176.965 E1.24018
G1 X120.930 Y177.501 E0.01693
G1 X92.599 Y149.170 E1.26412
G1 X92.062 Y149.170 E0.01693
G1 X120.930 Y178.038 E1.28806
G1 X120.930 Y178.575 E0.01693
G1 X91.525 Y149.170 E1.31201
G1 X90.989 Y149.170 E0.01693
G1 X120.930 Y179.111 E1.33595
G1 X120.930 Y179.648 E0.01693
G1 X90.452 Y149.170 E1.35989
G1 X89.916 Y149.170 E0.01693
G1 X120.930 Y180.184 E1.38383
G1 X120.930 Y180.721 E0.01693
G1 X89.379 Y149.170 E1.40778
G1 X88.842 Y149.170 E0.01693
G1 X120.803 Y181.130 E1.42603
G1 X120.266 Y181.130 E0.01693
G1 X88.306 Y149.170 E1.42603
M73 P2 R98
G1 X87.769 Y149.170 E0.01693
G1 X119.729 Y181.130 E1.42603
G1 X119.193 Y181.130 E0.01693
G1 X87.233 Y149.170 E1.42603
G1 X86.696 Y149.170 E0.01693
G1 X118.656 Y181.130 E1.42603
G1 X118.120 Y181.130 E0.01693
G1 X86.159 Y149.170 E1.42603
G1 X85.623 Y149.170 E0.01693
G1 X117.583 Y181.130 E1.42603
G1 X117.046 Y181.130 E0.01693
G1 X85.086 Y149.170 E1.42603
G1 X84.550 Y149.170 E0.01693
G1 X116.510 Y181.130 E1.42603
G1 X115.973 Y181.130 E0.01693
G1 X84.013 Y149.170 E1.42603
G1 X83.476 Y149.170 E0.01693
G1 X115.437 Y181.130 E1.42603
G1 X114.900 Y181.130 E0.01693
G1 X82.940 Y149.170 E1.42603
G1 X82.403 Y149.170 E0.01693
G1 X114.363 Y181.130 E1.42603
G1 X113.827 Y181.130 E0.01693
G1 X81.867 Y149.170 E1.42603
G1 X81.330 Y149.170 E0.01693
G1 X113.290 Y181.130 E1.42603
G1 X112.754 Y181.130 E0.01693
G1 X80.793 Y149.170 E1.42603
G1 X80.257 Y149.170 E0.01693
G1 X112.217 Y181.130 E1.42603
G1 X111.680 Y181.130 E0.01693
G1 X79.720 Y149.170 E1.42603
G1 X79.184 Y149.170 E0.01693
G1 X111.144 Y181.130 E1.42603
G1 X110.607 Y181.130 E0.01693
G1 X78.647 Y149.170 E1.42603
G1 X78.110 Y149.170 E0.01693
G1 X110.071 Y181.130 E1.42603
G1 X109.534 Y181.130 E0.01693
G1 X77.574 Y149.170 E1.42603
G1 X77.037 Y149.170 E0.01693
G1 X108.997 Y181.130 E1.42603
G1 X108.461 Y181.130 E0.01693
G1 X76.500 Y149.170 E1.42603
G1 X75.964 Y149.170 E0.01693
G1 X107.924 Y181.130 E1.42603
G1 X107.388 Y181.130 E0.01693
G1 X75.427 Y149.170 E1.42603
G1 X75.300 Y149.170 E0.00402
G1 X75.300 Y149.579 E0.01291
G1 X106.851 Y181.130 E1.40778
G1 X106.314 Y181.130 E0.01693
G1 X75.300 Y150.116 E1.38383
G1 X75.300 Y150.652 E0.01693
G1 X105.778 Y181.130 E1.35989
M73 P3 R97
G1 X105.241 Y181.130 E0.01693
G1 X75.300 Y151.189 E1.33595
G1 X75.300 Y151.725 E0.01693
G1 X104.704 Y181.130 E1.31200
G1 X104.168 Y181.130 E0.01693
G1 X75.300 Y152.262 E1.28806
G1 X75.300 Y152.799 E0.01693
G1 X103.631 Y181.130 E1.26412
G1 X103.095 Y181.130 E0.01693
G1 X75.300 Y153.335 E1.24018
G1 X75.300 Y153.872 E0.01693
G1 X102.558 Y181.130 E1.21623
G1 X102.021 Y181.130 E0.01693
G1 X75.300 Y154.409 E1.19229
G1 X75.300 Y154.945 E0.01693
G1 X101.485 Y181.130 E1.16835
G1 X100.948 Y181.130 E0.01693
G1 X75.300 Y155.482 E1.14441
G1 X75.300 Y156.018 E0.01693
G1 X100.412 Y181.130 E1.12046
G1 X99.875 Y181.130 E0.01693
G1 X75.300 Y156.555 E1.09652
G1 X75.300 Y157.092 E0.01693
G1 X99.338 Y181.130 E1.07258
G1 X98.802 Y181.130 E0.01693
G1 X75.300 Y157.628 E1.04863
G1 X75.300 Y158.165 E0.01693
G1 X98.265 Y181.130 E1.02469
G1 X97.729 Y181.130 E0.01693
G1 X75.300 Y158.701 E1.00075
G1 X75.300 Y159.238 E0.01693
G1 X97.192 Y181.130 E0.97681
G1 X96.655 Y181.130 E0.01693
G1 X75.300 Y159.775 E0.95286
G1 X75.300 Y160.311 E0.01693
G1 X96.119 Y181.130 E0.92892
G1 X95.582 Y181.130 E0.01693
G1 X75.300 Y160.848 E0.90498
G1 X75.300 Y161.384 E0.01693
G1 X95.046 Y181.130 E0.88103
G1 X94.509 Y181.130 E0.01693
G1 X75.300 Y161.921 E0.85709
G1 X75.300 Y162.458 E0.01693
G1 X93.972 Y181.130 E0.83315
G1 X93.436 Y181.130 E0.01693
G1 X75.300 Y162.994 E0.80921
G1 X75.300 Y163.531 E0.01693
G1 X92.899 Y181.130 E0.78526
G1 X92.363 Y181.130 E0.01693
G1 X75.300 Y164.067 E0.76132
G1 X75.300 Y164.604 E0.01693
G1 X91.826 Y181.130 E0.73738
G1 X91.289 Y181.130 E0.01693
G1 X75.300 Y165.141 E0.71343
G1 X75.300 Y165.677 E0.01693
G1 X90.753 Y181.130 E0.68949
G1 X90.216 Y181.130 E0.01693
G1 X75.300 Y166.214 E0.66555
G1 X75.300 Y166.750 E0.01693
G1 X89.680 Y181.130 E0.64161
G1 X89.143 Y181.130 E0.01693
G1 X75.300 Y167.287 E0.61766
G1 X75.300 Y167.824 E0.01693
G1 X88.606 Y181.130 E0.59372
G1 X88.070 Y181.130 E0.01693
G1 X75.300 Y168.360 E0.56978
G1 X75.300 Y168.897 E0.01693
G1 X87.533 Y181.130 E0.54583
G1 X86.996 Y181.130 E0.01693
G1 X75.300 Y169.434 E0.52189
G1 X75.300 Y169.970 E0.01693
G1 X86.460 Y181.130 E0.49795
G1 X85.923 Y181.130 E0.01693
G1 X75.300 Y170.507 E0.47401
G1 X75.300 Y171.043 E0.01693
G1 X85.387 Y181.130 E0.45006
G1 X84.850 Y181.130 E0.01693
G1 X75.300 Y171.580 E0.42612
G1 X75.300 Y172.117 E0.01693
G1 X84.313 Y181.130 E0.40218
G1 X83.777 Y181.130 E0.01693
G1 X75.300 Y172.653 E0.37823
G1 X75.300 Y173.190 E0.01693
G1 X83.240 Y181.130 E0.35429
G1 X82.704 Y181.130 E0.01693
G1 X75.300 Y173.726 E0.33035
G1 X75.300 Y174.263 E0.01693
G1 X82.167 Y181.130 E0.30641
G1 X81.630 Y181.130 E0.01693
G1 X75.300 Y174.800 E0.28246
G1 X75.300 Y175.336 E0.01693
G1 X81.094 Y181.130 E0.25852
G1 X80.557 Y181.130 E0.01693
G1 X75.300 Y175.873 E0.23458
M73 P4 R96
G1 X75.300 Y176.409 E0.01693
G1 X80.021 Y181.130 E0.21063
G1 X79.484 Y181.130 E0.01693
G1 X75.300 Y176.946 E0.18669
G1 X75.300 Y177.483 E0.01693
G1 X78.947 Y181.130 E0.16275
G1 X78.411 Y181.130 E0.01693
G1 X75.300 Y178.019 E0.13881
G1 X75.300 Y178.556 E0.01693
G1 X77.874 Y181.130 E0.11486
G1 X77.338 Y181.130 E0.01693
G1 X75.300 Y179.092 E0.09092
G1 X75.300 Y179.629 E0.01693
G1 X76.801 Y181.130 E0.06698
G1 X76.264 Y181.130 E0.01693
G1 X75.300 Y180.166 E0.04303
G1 X75.300 Y180.702 E0.01693
G1 X75.897 Y181.300 E0.02666
G1 E-0.80000 F2100.00000
G1 Z0.800 F10800.000
G1 X75.017 Y141.313
G1 Z0.200
G1 E0.80000 F2100.00000
G1 F1200.000
G1 X75.017 Y108.787 E1.01982
G1 X121.213 Y108.787 E1.44844
G1 X121.213 Y141.313 E1.01982
G1 X75.077 Y141.313 E1.44656
G1 X74.640 Y141.690 F10800.000
G1 F1200.000
G1 X74.640 Y108.410 E1.04347
G1 X121.590 Y108.410 E1.47208
G1 X121.590 Y141.690 E1.04347
G1 X74.700 Y141.690 E1.47020
G1 X74.765 Y141.310 F10800.000
G1 E-0.80000 F2100.00000
G1 Z0.800 F10800.000
G1 X121.100 Y109.667
G1 Z0.200
G1 E0.80000 F2100.00000
G1 F1200.000
G1 X120.502 Y109.070 E0.02666
G1 X119.966 Y109.070 E0.01693
G1 X120.930 Y110.034 E0.04304
G1 X120.930 Y110.571 E0.01693
G1 X119.429 Y109.070 E0.06698
G1 X118.892 Y109.070 E0.01693
G1 X120.930 Y111.108 E0.09092
G1 X120.930 Y111.644 E0.01693
G1 X118.356 Y109.070 E0.11486
G1 X117.819 Y109.070 E0.01693
G1 X120.930 Y112.181 E0.13881
G1 X120.930 Y112.717 E0.01693
G1 X117.283 Y109.070 E0.16275
G1 X116.746 Y109.070 E0.01693
G1 X120.930 Y113.254 E0.18669
G1 X120.930 Y113.791 E0.01693
G1 X116.209 Y109.070 E0.21064
G1 X115.673 Y109.070 E0.01693
G1 X120.930 Y114.327 E0.23458
G1 X120.930 Y114.864 E0.01693
G1 X115.136 Y109.070 E0.25852
G1 X114.600 Y109.070 E0.01693
G1 X120.930 Y115.400 E0.28246
G1 X120.930 Y115.937 E0.01693
G1 X114.063 Y109.070 E0.30641
G1 X113.526 Y109.070 E0.01693
G1 X120.930 Y116.474 E0.33035
G1 X120.930 Y117.010 E0.01693
G1 X112.990 Y109.070 E0.35429
G1 X112.453 Y109.070 E0.01693
G1 X120.930 Y117.547 E0.37824
G1 X120.930 Y118.083 E0.01693
G1 X111.917 Y109.070 E0.40218
G1 X111.380 Y109.070 E0.01693
G1 X120.930 Y118.620 E0.42612
G1 X120.930 Y119.157 E0.01693
G1 X110.843 Y109.070 E0.45006
G1 X110.307 Y109.070 E0.01693
G1 X120.930 Y119.693 E0.47401
G1 X120.930 Y120.230 E0.01693
G1 X109.770 Y109.070 E0.49795
G1 X109.233 Y109.070 E0.01693
G1 X120.930 Y120.767 E0.52189
G1 X120.930 Y121.303 E0.01693
G1 X108.697 Y109.070 E0.54584
G1 X108.160 Y109.070 E0.01693
G1 X120.930 Y121.840 E0.56978
G1 X120.930 Y122.376 E0.01693
G1 X107.624 Y109.070 E0.59372
G1 X107.087 Y109.070 E0.01693
G1 X120.930 Y122.913 E0.61766
G1 X120.930 Y123.450 E0.01693
G1 X106.550 Y109.070 E0.64161
G1 X106.014 Y109.070 E0.01693
G1 X120.930 Y123.986 E0.66555
G1 X120.930 Y124.523 E0.01693
G1 X105.477 Y109.070 E0.68949
G1 X104.941 Y109.070 E0.01693
G1 X120.930 Y125.059 E0.71344
G1 X120.930 Y125.596 E0.01693
G1 X104.404 Y109.070 E0.73738
G1 X103.867 Y109.070 E0.01693
G1 X120.930 Y126.133 E0.76132
G1 X120.930 Y126.669 E0.01693
G1 X103.331 Y109.070 E0.78526
G1 X102.794 Y109.070 E0.01693
G1 X120.930 Y127.206 E0.80921
G1 X120.930 Y127.742 E0.01693
G1 X102.258 Y109.070 E0.83315
G1 X101.721 Y109.070 E0.01693
G1 X120.930 Y128.279 E0.85709
G1 X120.930 Y128.816 E0.01693
G1 X101.184 Y109.070 E0.88103
G1 X100.648 Y109.070 E0.01693
G1 X120.930 Y129.352 E0.90498
G1 X120.930 Y129.889 E0.01693
G1 X100.111 Y109.070 E0.92892
G1 X99.575 Y109.070 E0.01693
G1 X120.930 Y130.425 E0.95286
G1 X120.930 Y130.962 E0.01693
G1 X99.038 Y109.070 E0.97681
G1 X98.501 Y109.070 E0.01693
G1 X120.930 Y131.499 E1.00075
G1 X120.930 Y132.035 E0.01693
G1 X97.965 Y109.070 E1.02469
G1 X97.428 Y109.070 E0.01693
G1 X120.930 Y132.572 E1.04863
G1 X120.930 Y133.108 E0.01693
G1 X96.892 Y109.070 E1.07258
G1 X96.355 Y109.070 E0.01693
G1 X120.930 Y133.645 E1.09652
M73 P5 R95
G1 X120.930 Y134.182 E0.01693
G1 X95.818 Y109.070 E1.12046
G1 X95.282 Y109.070 E0.01693
G1 X120.930 Y134.718 E1.14441
G1 X120.930 Y135.255 E0.01693
G1 X94.745 Y109.070 E1.16835
G1 X94.209 Y109.070 E0.01693
G1 X120.930 Y135.791 E1.19229
G1 X120.930 Y136.328 E0.01693
G1 X93.672 Y109.070 E1.21623
G1 X93.135 Y109.070 E0.01693
G1 X120.930 Y136.865 E1.24018
G1 X120.930 Y137.401 E0.01693
G1 X92.599 Y109.070 E1.26412
G1 X92.062 Y109.070 E0.01693
G1 X120.930 Y137.938 E1.28806
G1 X120.930 Y138.475 E0.01693
G1 X91.525 Y109.070 E1.31201
G1 X90.989 Y109.070 E0.01693
G1 X120.930 Y139.011 E1.33595
G1 X120.930 Y139.548 E0.01693
G1 X90.452 Y109.070 E1.35989
G1 X89.916 Y109.070 E0.01693
G1 X120.930 Y140.084 E1.38383
G1 X120.930 Y140.621 E0.01693
G1 X89.379 Y109.070 E1.40778
G1 X88.842 Y109.070 E0.01693
G1 X120.803 Y141.030 E1.42603
G1 X120.266 Y141.030 E0.01693
G1 X88.306 Y109.070 E1.42603
G1 X87.769 Y109.070 E0.01693
G1 X119.729 Y141.030 E1.42603
G1 X119.193 Y141.030 E0.01693
G1 X87.233 Y109.070 E1.42603
G1 X86.696 Y109.070 E0.01693
G1 X118.656 Y141.030 E1.42603
G1 X118.120 Y141.030 E0.01693
G1 X86.159 Y109.070 E1.42603
G1 X85.623 Y109.070 E0.01693
G1 X117.583 Y141.030 E1.42603
G1 X117.046 Y141.030 E0.01693
G1 X85.086 Y109.070 E1.42603
G1 X84.550 Y109.070 E0.01693
G1 X116.510 Y141.030 E1.42603
