; generated by PrusaSlicer 2.2.0+win64 on 2020-07-30 at 16:14:48 UTC

; 

; external perimeters extrusion width = 0.60mm
; perimeters extrusion width = 0.43mm
; infill extrusion width = 0.45mm
; solid infill extrusion width = 0.70mm
; top infill extrusion width = 0.43mm
; first layer extrusion width = 0.42mm

M73 P0 R201
M201 X9000 Y9000 Z500 E10000 ; sets maximum accelerations, mm/sec^2
M203 X500 Y500 Z12 E120 ; sets maximum feedrates, mm/sec
M204 P2000 R1500 T2000 ; sets acceleration (P, T) and retract acceleration (R), mm/sec^2
M205 X10.00 Y10.00 Z0.20 E2.50 ; sets the jerk limits, mm/sec
M205 S0 T0 ; sets the minimum extruding and travel feed rate, mm/sec
M107
M862.3 P "MK2S" ; printer model check
M862.1 P0.4 ; nozzle diameter check
M115 U3.2.3 ; tell printer latest fw version
G90 ; use absolute coordinates
M83 ; extruder relative mode
M204 S2000 T1500 ; MK2 firmware only supports the old M204 format
M104 S215 ; set extruder temp
M140 S60 ; set bed temp
M190 S60 ; wait for bed temp
M109 S215 ; wait for extruder temp
G28 W ; home all without mesh bed level
G80 ; mesh bed leveling
G1 Y-3.0 F1000.0 ; go outside print area
G92 E0.0
G1 X60.0 E9.0  F1000.0 ; intro line
M73 P0 R201
G1 X100.0 E12.5 F1000.0 ; intro line
G92 E0.0
G21 ; set units to millimeters
G90 ; use absolute coordinates
M83 ; use relative distances for extrusion
M900 K0.06 ; Filament gcode LA 1.5
M900 K30 ; Filament gcode LA 1.0
;BEFORE_LAYER_CHANGE
G92 E0.0
;0.2


G1 E-0.80000 F2100.00000
G1 Z0.600 F10800.000
;AFTER_LAYER_CHANGE
;0.2
G1 X18.215 Y6.969
G1 Z0.200
G1 E0.80000 F2100.00000
M204 S1000
G1 F1200.000
G1 X18.594 Y6.277 E0.02473
G1 X18.969 Y5.899 E0.01668
G1 X19.418 Y5.614 E0.01668
G1 X19.919 Y5.435 E0.01669
G1 X20.447 Y5.373 E0.01668
G1 X175.774 Y5.373 E4.87015
G1 X176.347 Y5.444 E0.01811
G1 X176.883 Y5.649 E0.01799
G1 X177.356 Y5.980 E0.01811
G1 X177.734 Y6.411 E0.01799
G1 X231.521 Y86.636 E3.02840
G1 X231.813 Y87.253 E0.02142
G1 X231.917 Y87.929 E0.02142
G1 X231.917 Y122.065 E1.07033
G1 X231.858 Y122.575 E0.01609
G1 X231.693 Y123.057 E0.01597
G1 X177.637 Y203.722 E3.04457
G1 X177.260 Y204.102 E0.01680
G1 X176.810 Y204.387 E0.01668
G1 X176.309 Y204.565 E0.01668
G1 X175.776 Y204.627 E0.01680
G1 X20.452 Y204.627 E4.87008
G1 X19.679 Y204.495 E0.02461
G1 X18.987 Y204.116 E0.02473
G1 X18.607 Y203.739 E0.01680
G1 X18.322 Y203.289 E0.01668
G1 X18.144 Y202.784 E0.01680
G1 X18.083 Y202.255 E0.01668
G1 X18.083 Y7.742 E6.09880
G1 X18.205 Y7.028 E0.02273
G1 E-0.80000 F2100.00000
G1 Z0.800 F10800.000
G1 X182.557 Y88.737
G1 Z0.200
G1 E0.80000 F2100.00000
G1 F1200.000
G1 X228.753 Y88.737 E1.44844
G1 X228.753 Y121.263 E1.01982
G1 X182.557 Y121.263 E1.44844
G1 X182.557 Y88.797 E1.01794
G1 X182.180 Y88.360 F10800.000
G1 F1200.000
G1 X229.130 Y88.360 E1.47208
G1 X229.130 Y121.640 E1.04347
G1 X182.180 Y121.640 E1.47208
G1 X182.180 Y88.420 E1.04159
G1 X182.572 Y88.442 F10800.000
G1 E-0.80000 F2100.00000
G1 Z0.800 F10800.000
G1 X228.640 Y89.617
G1 Z0.200
G1 E0.80000 F2100.00000
G1 F1200.000
G1 X228.042 Y89.020 E0.02666
G1 X227.506 Y89.020 E0.01693
G1 X228.470 Y89.984 E0.04304
G1 X228.470 Y90.521 E0.01693
G1 X226.969 Y89.020 E0.06698
G1 X226.432 Y89.020 E0.01693
G1 X228.470 Y91.058 E0.09092
G1 X228.470 Y91.594 E0.01693
G1 X225.896 Y89.020 E0.11486
G1 X225.359 Y89.020 E0.01693
G1 X228.470 Y92.131 E0.13881
G1 X228.470 Y92.667 E0.01693
G1 X224.823 Y89.020 E0.16275
G1 X224.286 Y89.020 E0.01693
G1 X228.470 Y93.204 E0.18669
M73 P0 R200
G1 X228.470 Y93.741 E0.01693
G1 X223.749 Y89.020 E0.21064
G1 X223.213 Y89.020 E0.01693
G1 X228.470 Y94.277 E0.23458
G1 X228.470 Y94.814 E0.01693
G1 X222.676 Y89.020 E0.25852
G1 X222.140 Y89.020 E0.01693
G1 X228.470 Y95.350 E0.28246
G1 X228.470 Y95.887 E0.01693
G1 X221.603 Y89.020 E0.30641
G1 X221.066 Y89.020 E0.01693
G1 X228.470 Y96.424 E0.33035
G1 X228.470 Y96.960 E0.01693
G1 X220.530 Y89.020 E0.35429
G1 X219.993 Y89.020 E0.01693
G1 X228.470 Y97.497 E0.37824
G1 X228.470 Y98.033 E0.01693
G1 X219.457 Y89.020 E0.40218
G1 X218.920 Y89.020 E0.01693
G1 X228.470 Y98.570 E0.42612
G1 X228.470 Y99.107 E0.01693
G1 X218.383 Y89.020 E0.45006
G1 X217.847 Y89.020 E0.01693
G1 X228.470 Y99.643 E0.47401
G1 X228.470 Y100.180 E0.01693
G1 X217.310 Y89.020 E0.49795
G1 X216.773 Y89.020 E0.01693
G1 X228.470 Y100.717 E0.52189
G1 X228.470 Y101.253 E0.01693
G1 X216.237 Y89.020 E0.54584
G1 X215.700 Y89.020 E0.01693
G1 X228.470 Y101.790 E0.56978
G1 X228.470 Y102.326 E0.01693
G1 X215.164 Y89.020 E0.59372
G1 X214.627 Y89.020 E0.01693
G1 X228.470 Y102.863 E0.61766
G1 X228.470 Y103.400 E0.01693
G1 X214.090 Y89.020 E0.64161
G1 X213.554 Y89.020 E0.01693
G1 X228.470 Y103.936 E0.66555
G1 X228.470 Y104.473 E0.01693
G1 X213.017 Y89.020 E0.68949
G1 X212.481 Y89.020 E0.01693
G1 X228.470 Y105.009 E0.71344
G1 X228.470 Y105.546 E0.01693
G1 X211.944 Y89.020 E0.73738
G1 X211.407 Y89.020 E0.01693
G1 X228.470 Y106.083 E0.76132
G1 X228.470 Y106.619 E0.01693
G1 X210.871 Y89.020 E0.78526
G1 X210.334 Y89.020 E0.01693
G1 X228.470 Y107.156 E0.80921
G1 X228.470 Y107.692 E0.01693
G1 X209.798 Y89.020 E0.83315
G1 X209.261 Y89.020 E0.01693
G1 X228.470 Y108.229 E0.85709
G1 X228.470 Y108.766 E0.01693
G1 X208.724 Y89.020 E0.88103
G1 X208.188 Y89.020 E0.01693
G1 X228.470 Y109.302 E0.90498
G1 X228.470 Y109.839 E0.01693
G1 X207.651 Y89.020 E0.92892
G1 X207.115 Y89.020 E0.01693
G1 X228.470 Y110.375 E0.95286
G1 X228.470 Y110.912 E0.01693
G1 X206.578 Y89.020 E0.97681
G1 X206.041 Y89.020 E0.01693
G1 X228.470 Y111.449 E1.00075
G1 X228.470 Y111.985 E0.01693
G1 X205.505 Y89.020 E1.02469
G1 X204.968 Y89.020 E0.01693
G1 X228.470 Y112.522 E1.04863
G1 X228.470 Y113.058 E0.01693
G1 X204.432 Y89.020 E1.07258
G1 X203.895 Y89.020 E0.01693
G1 X228.470 Y113.595 E1.09652
G1 X228.470 Y114.132 E0.01693
G1 X203.358 Y89.020 E1.12046
G1 X202.822 Y89.020 E0.01693
G1 X228.470 Y114.668 E1.14441
G1 X228.470 Y115.205 E0.01693
G1 X202.285 Y89.020 E1.16835
G1 X201.749 Y89.020 E0.01693
G1 X228.470 Y115.741 E1.19229
G1 X228.470 Y116.278 E0.01693
G1 X201.212 Y89.020 E1.21623
G1 X200.675 Y89.020 E0.01693
G1 X228.470 Y116.815 E1.24018
G1 X228.470 Y117.351 E0.01693
G1 X200.139 Y89.020 E1.26412
G1 X199.602 Y89.020 E0.01693
G1 X228.470 Y117.888 E1.28806
G1 X228.470 Y118.425 E0.01693
G1 X199.065 Y89.020 E1.31201
G1 X198.529 Y89.020 E0.01693
G1 X228.470 Y118.961 E1.33595
M73 P1 R199
G1 X228.470 Y119.498 E0.01693
G1 X197.992 Y89.020 E1.35989
G1 X197.456 Y89.020 E0.01693
G1 X228.470 Y120.034 E1.38383
G1 X228.470 Y120.571 E0.01693
G1 X196.919 Y89.020 E1.40778
G1 X196.382 Y89.020 E0.01693
G1 X228.343 Y120.980 E1.42603
G1 X227.806 Y120.980 E0.01693
G1 X195.846 Y89.020 E1.42603
G1 X195.309 Y89.020 E0.01693
G1 X227.269 Y120.980 E1.42603
G1 X226.733 Y120.980 E0.01693
G1 X194.773 Y89.020 E1.42603
G1 X194.236 Y89.020 E0.01693
G1 X226.196 Y120.980 E1.42603
G1 X225.660 Y120.980 E0.01693
G1 X193.699 Y89.020 E1.42603
G1 X193.163 Y89.020 E0.01693
G1 X225.123 Y120.980 E1.42603
G1 X224.586 Y120.980 E0.01693
G1 X192.626 Y89.020 E1.42603
G1 X192.090 Y89.020 E0.01693
G1 X224.050 Y120.980 E1.42603
G1 X223.513 Y120.980 E0.01693
G1 X191.553 Y89.020 E1.42603
G1 X191.016 Y89.020 E0.01693
G1 X222.977 Y120.980 E1.42603
G1 X222.440 Y120.980 E0.01693
G1 X190.480 Y89.020 E1.42603
G1 X189.943 Y89.020 E0.01693
G1 X221.903 Y120.980 E1.42603
G1 X221.367 Y120.980 E0.01693
G1 X189.407 Y89.020 E1.42603
G1 X188.870 Y89.020 E0.01693
G1 X220.830 Y120.980 E1.42603
G1 X220.294 Y120.980 E0.01693
G1 X188.333 Y89.020 E1.42603
G1 X187.797 Y89.020 E0.01693
G1 X219.757 Y120.980 E1.42603
G1 X219.220 Y120.980 E0.01693
G1 X187.260 Y89.020 E1.42603
G1 X186.724 Y89.020 E0.01693
G1 X218.684 Y120.980 E1.42603
G1 X218.147 Y120.980 E0.01693
G1 X186.187 Y89.020 E1.42603
G1 X185.650 Y89.020 E0.01693
G1 X217.611 Y120.980 E1.42603
G1 X217.074 Y120.980 E0.01693
G1 X185.114 Y89.020 E1.42603
G1 X184.577 Y89.020 E0.01693
G1 X216.537 Y120.980 E1.42603
G1 X216.001 Y120.980 E0.01693
G1 X184.040 Y89.020 E1.42603
M73 P1 R198
G1 X183.504 Y89.020 E0.01693
G1 X215.464 Y120.980 E1.42603
G1 X214.928 Y120.980 E0.01693
G1 X182.967 Y89.020 E1.42603
G1 X182.840 Y89.020 E0.00402
G1 X182.840 Y89.429 E0.01291
G1 X214.391 Y120.980 E1.40778
G1 X213.854 Y120.980 E0.01693
G1 X182.840 Y89.966 E1.38383
G1 X182.840 Y90.502 E0.01693
G1 X213.318 Y120.980 E1.35989
G1 X212.781 Y120.980 E0.01693
G1 X182.840 Y91.039 E1.33595
G1 X182.840 Y91.576 E0.01693
G1 X212.244 Y120.980 E1.31200
G1 X211.708 Y120.980 E0.01693
G1 X182.840 Y92.112 E1.28806
G1 X182.840 Y92.649 E0.01693
G1 X211.171 Y120.980 E1.26412
G1 X210.635 Y120.980 E0.01693
G1 X182.840 Y93.185 E1.24018
G1 X182.840 Y93.722 E0.01693
G1 X210.098 Y120.980 E1.21623
G1 X209.561 Y120.980 E0.01693
G1 X182.840 Y94.259 E1.19229
G1 X182.840 Y94.795 E0.01693
G1 X209.025 Y120.980 E1.16835
G1 X208.488 Y120.980 E0.01693
G1 X182.840 Y95.332 E1.14441
G1 X182.840 Y95.868 E0.01693
G1 X207.952 Y120.980 E1.12046
G1 X207.415 Y120.980 E0.01693
G1 X182.840 Y96.405 E1.09652
G1 X182.840 Y96.942 E0.01693
G1 X206.878 Y120.980 E1.07258
G1 X206.342 Y120.980 E0.01693
G1 X182.840 Y97.478 E1.04863
G1 X182.840 Y98.015 E0.01693
G1 X205.805 Y120.980 E1.02469
G1 X205.269 Y120.980 E0.01693
G1 X182.840 Y98.551 E1.00075
G1 X182.840 Y99.088 E0.01693
G1 X204.732 Y120.980 E0.97681
G1 X204.195 Y120.980 E0.01693
G1 X182.840 Y99.625 E0.95286
G1 X182.840 Y100.161 E0.01693
G1 X203.659 Y120.980 E0.92892
G1 X203.122 Y120.980 E0.01693
G1 X182.840 Y100.698 E0.90498
G1 X182.840 Y101.234 E0.01693
G1 X202.586 Y120.980 E0.88103
G1 X202.049 Y120.980 E0.01693
G1 X182.840 Y101.771 E0.85709
G1 X182.840 Y102.308 E0.01693
G1 X201.512 Y120.980 E0.83315
G1 X200.976 Y120.980 E0.01693
G1 X182.840 Y102.844 E0.80921
G1 X182.840 Y103.381 E0.01693
G1 X200.439 Y120.980 E0.78526
G1 X199.903 Y120.980 E0.01693
G1 X182.840 Y103.917 E0.76132
G1 X182.840 Y104.454 E0.01693
G1 X199.366 Y120.980 E0.73738
G1 X198.829 Y120.980 E0.01693
G1 X182.840 Y104.991 E0.71343
G1 X182.840 Y105.527 E0.01693
G1 X198.293 Y120.980 E0.68949
G1 X197.756 Y120.980 E0.01693
G1 X182.840 Y106.064 E0.66555
G1 X182.840 Y106.600 E0.01693
G1 X197.220 Y120.980 E0.64161
G1 X196.683 Y120.980 E0.01693
G1 X182.840 Y107.137 E0.61766
M73 P2 R197
G1 X182.840 Y107.674 E0.01693
G1 X196.146 Y120.980 E0.59372
G1 X195.610 Y120.980 E0.01693
G1 X182.840 Y108.210 E0.56978
G1 X182.840 Y108.747 E0.01693
G1 X195.073 Y120.980 E0.54583
G1 X194.536 Y120.980 E0.01693
G1 X182.840 Y109.284 E0.52189
G1 X182.840 Y109.820 E0.01693
G1 X194.000 Y120.980 E0.49795
G1 X193.463 Y120.980 E0.01693
G1 X182.840 Y110.357 E0.47401
G1 X182.840 Y110.893 E0.01693
G1 X192.927 Y120.980 E0.45006
G1 X192.390 Y120.980 E0.01693
G1 X182.840 Y111.430 E0.42612
G1 X182.840 Y111.967 E0.01693
G1 X191.853 Y120.980 E0.40218
G1 X191.317 Y120.980 E0.01693
G1 X182.840 Y112.503 E0.37823
G1 X182.840 Y113.040 E0.01693
G1 X190.780 Y120.980 E0.35429
G1 X190.244 Y120.980 E0.01693
G1 X182.840 Y113.576 E0.33035
G1 X182.840 Y114.113 E0.01693
G1 X189.707 Y120.980 E0.30641
G1 X189.170 Y120.980 E0.01693
G1 X182.840 Y114.650 E0.28246
G1 X182.840 Y115.186 E0.01693
G1 X188.634 Y120.980 E0.25852
G1 X188.097 Y120.980 E0.01693
G1 X182.840 Y115.723 E0.23458
G1 X182.840 Y116.259 E0.01693
G1 X187.561 Y120.980 E0.21063
G1 X187.024 Y120.980 E0.01693
G1 X182.840 Y116.796 E0.18669
G1 X182.840 Y117.333 E0.01693
G1 X186.487 Y120.980 E0.16275
G1 X185.951 Y120.980 E0.01693
G1 X182.840 Y117.869 E0.13881
G1 X182.840 Y118.406 E0.01693
G1 X185.414 Y120.980 E0.11486
G1 X184.878 Y120.980 E0.01693
G1 X182.840 Y118.942 E0.09092
G1 X182.840 Y119.479 E0.01693
G1 X184.341 Y120.980 E0.06698
G1 X183.804 Y120.980 E0.01693
G1 X182.840 Y120.016 E0.04303
G1 X182.840 Y120.552 E0.01693
G1 X183.437 Y121.150 E0.02666
G1 E-0.80000 F2100.00000
G1 Z0.800 F10800.000
G1 X174.983 Y168.937
G1 Z0.200
G1 E0.80000 F2100.00000
G1 F1200.000
G1 X174.983 Y201.463 E1.01982
G1 X128.787 Y201.463 E1.44844
G1 X128.787 Y168.937 E1.01982
G1 X174.923 Y168.937 E1.44656
G1 X175.360 Y168.560 F10800.000
G1 F1200.000
G1 X175.360 Y201.840 E1.04347
G1 X128.410 Y201.840 E1.47208
G1 X128.410 Y168.560 E1.04347
G1 X175.300 Y168.560 E1.47020
G1 X175.235 Y168.940 F10800.000
G1 E-0.80000 F2100.00000
G1 Z0.800 F10800.000
G1 X129.667 Y201.350
G1 Z0.200
G1 E0.80000 F2100.00000
G1 F1200.000
G1 X129.070 Y200.752 E0.02666
G1 X129.070 Y200.216 E0.01693
G1 X130.034 Y201.180 E0.04303
G1 X130.571 Y201.180 E0.01693
G1 X129.070 Y199.679 E0.06698
G1 X129.070 Y199.142 E0.01693
G1 X131.108 Y201.180 E0.09092
G1 X131.644 Y201.180 E0.01693
G1 X129.070 Y198.606 E0.11486
G1 X129.070 Y198.069 E0.01693
G1 X132.181 Y201.180 E0.13881
G1 X132.717 Y201.180 E0.01693
G1 X129.070 Y197.533 E0.16275
G1 X129.070 Y196.996 E0.01693
G1 X133.254 Y201.180 E0.18669
G1 X133.791 Y201.180 E0.01693
G1 X129.070 Y196.459 E0.21063
G1 X129.070 Y195.923 E0.01693
G1 X134.327 Y201.180 E0.23458
G1 X134.864 Y201.180 E0.01693
G1 X129.070 Y195.386 E0.25852
G1 X129.070 Y194.850 E0.01693
G1 X135.400 Y201.180 E0.28246
G1 X135.937 Y201.180 E0.01693
G1 X129.070 Y194.313 E0.30641
G1 X129.070 Y193.776 E0.01693
G1 X136.474 Y201.180 E0.33035
G1 X137.010 Y201.180 E0.01693
G1 X129.070 Y193.240 E0.35429
G1 X129.070 Y192.703 E0.01693
G1 X137.547 Y201.180 E0.37823
G1 X138.083 Y201.180 E0.01693
G1 X129.070 Y192.167 E0.40218
G1 X129.070 Y191.630 E0.01693
G1 X138.620 Y201.180 E0.42612
G1 X139.157 Y201.180 E0.01693
G1 X129.070 Y191.093 E0.45006
G1 X129.070 Y190.557 E0.01693
G1 X139.693 Y201.180 E0.47401
G1 X140.230 Y201.180 E0.01693
G1 X129.070 Y190.020 E0.49795
G1 X129.070 Y189.484 E0.01693
G1 X140.766 Y201.180 E0.52189
G1 X141.303 Y201.180 E0.01693
G1 X129.070 Y188.947 E0.54583
G1 X129.070 Y188.410 E0.01693
G1 X141.840 Y201.180 E0.56978
G1 X142.376 Y201.180 E0.01693
G1 X129.070 Y187.874 E0.59372
G1 X129.070 Y187.337 E0.01693
G1 X142.913 Y201.180 E0.61766
G1 X143.450 Y201.180 E0.01693
G1 X129.070 Y186.800 E0.64161
G1 X129.070 Y186.264 E0.01693
G1 X143.986 Y201.180 E0.66555
G1 X144.523 Y201.180 E0.01693
G1 X129.070 Y185.727 E0.68949
G1 X129.070 Y185.191 E0.01693
G1 X145.059 Y201.180 E0.71343
G1 X145.596 Y201.180 E0.01693
G1 X129.070 Y184.654 E0.73738
G1 X129.070 Y184.117 E0.01693
G1 X146.133 Y201.180 E0.76132
G1 X146.669 Y201.180 E0.01693
G1 X129.070 Y183.581 E0.78526
G1 X129.070 Y183.044 E0.01693
G1 X147.206 Y201.180 E0.80921
G1 X147.742 Y201.180 E0.01693
G1 X129.070 Y182.508 E0.83315
G1 X129.070 Y181.971 E0.01693
G1 X148.279 Y201.180 E0.85709
G1 X148.816 Y201.180 E0.01693
G1 X129.070 Y181.434 E0.88103
G1 X129.070 Y180.898 E0.01693
G1 X149.352 Y201.180 E0.90498
G1 X149.889 Y201.180 E0.01693
G1 X129.070 Y180.361 E0.92892
M73 P2 R196
G1 X129.070 Y179.825 E0.01693
G1 X150.425 Y201.180 E0.95286
G1 X150.962 Y201.180 E0.01693
G1 X129.070 Y179.288 E0.97681
G1 X129.070 Y178.751 E0.01693
G1 X151.499 Y201.180 E1.00075
G1 X152.035 Y201.180 E0.01693
G1 X129.070 Y178.215 E1.02469
G1 X129.070 Y177.678 E0.01693
G1 X152.572 Y201.180 E1.04863
G1 X153.108 Y201.180 E0.01693
G1 X129.070 Y177.142 E1.07258
G1 X129.070 Y176.605 E0.01693
G1 X153.645 Y201.180 E1.09652
G1 X154.182 Y201.180 E0.01693
G1 X129.070 Y176.068 E1.12046
G1 X129.070 Y175.532 E0.01693
G1 X154.718 Y201.180 E1.14441
G1 X155.255 Y201.180 E0.01693
G1 X129.070 Y174.995 E1.16835
G1 X129.070 Y174.459 E0.01693
G1 X155.791 Y201.180 E1.19229
G1 X156.328 Y201.180 E0.01693
G1 X129.070 Y173.922 E1.21623
G1 X129.070 Y173.385 E0.01693
G1 X156.865 Y201.180 E1.24018
G1 X157.401 Y201.180 E0.01693
G1 X129.070 Y172.849 E1.26412
G1 X129.070 Y172.312 E0.01693
G1 X157.938 Y201.180 E1.28806
G1 X158.474 Y201.180 E0.01693
G1 X129.070 Y171.775 E1.31200
G1 X129.070 Y171.239 E0.01693
G1 X159.011 Y201.180 E1.33595
G1 X159.548 Y201.180 E0.01693
G1 X129.070 Y170.702 E1.35989
G1 X129.070 Y170.166 E0.01693
G1 X160.084 Y201.180 E1.38383
G1 X160.621 Y201.180 E0.01693
G1 X129.070 Y169.629 E1.40778
G1 X129.070 Y169.220 E0.01291
G1 X129.197 Y169.220 E0.00402
G1 X161.158 Y201.180 E1.42603
G1 X161.694 Y201.180 E0.01693
G1 X129.734 Y169.220 E1.42603
G1 X130.270 Y169.220 E0.01693
G1 X162.231 Y201.180 E1.42603
G1 X162.767 Y201.180 E0.01693
G1 X130.807 Y169.220 E1.42603
G1 X131.344 Y169.220 E0.01693
G1 X163.304 Y201.180 E1.42603
G1 X163.841 Y201.180 E0.01693
