; generated by PrusaSlicer 2.2.0+win64 on 2020-07-17 at 18:42:21 UTC

; 

; external perimeters extrusion width = 0.60mm
; perimeters extrusion width = 0.43mm
; infill extrusion width = 0.45mm
; solid infill extrusion width = 0.70mm
; top infill extrusion width = 0.43mm
; first layer extrusion width = 0.42mm

M73 P0 R209
M201 X9000 Y9000 Z500 E10000 ; sets maximum accelerations, mm/sec^2
M203 X500 Y500 Z12 E120 ; sets maximum feedrates, mm/sec
M204 P2000 R1500 T2000 ; sets acceleration (P, T) and retract acceleration (R), mm/sec^2
M205 X10.00 Y10.00 Z0.20 E2.50 ; sets the jerk limits, mm/sec
M205 S0 T0 ; sets the minimum extruding and travel feed rate, mm/sec
M107
M862.3 P "MK2S" ; printer model check
M862.1 P0.4 ; nozzle diameter check
M115 U3.2.3 ; tell printer latest fw version
G90 ; use absolute coordinates
M83 ; extruder relative mode
M204 S2000 T1500 ; MK2 firmware only supports the old M204 format
M104 S215 ; set extruder temp
M140 S60 ; set bed temp
M190 S60 ; wait for bed temp
M109 S215 ; wait for extruder temp
G28 W ; home all without mesh bed level
G80 ; mesh bed leveling
G1 Y-3.0 F1000.0 ; go outside print area
G92 E0.0
G1 X60.0 E9.0  F1000.0 ; intro line
M73 P0 R209
G1 X100.0 E12.5 F1000.0 ; intro line
G92 E0.0
G21 ; set units to millimeters
G90 ; use absolute coordinates
M83 ; use relative distances for extrusion
M900 K0.06 ; Filament gcode LA 1.5
M900 K30 ; Filament gcode LA 1.0
;BEFORE_LAYER_CHANGE
G92 E0.0
;0.2


G1 E-0.80000 F2100.00000
G1 Z0.600 F10800.000
;AFTER_LAYER_CHANGE
;0.2
G1 X46.232 Y51.288
G1 Z0.200
G1 E0.80000 F2100.00000
M204 S1000
G1 F1200.000
G1 X46.781 Y50.893 E0.02119
G1 X100.600 Y23.226 E1.89738
G1 X101.287 Y23.123 E0.02178
G1 X139.905 Y23.123 E1.21084
G1 X140.456 Y23.189 E0.01740
G1 X140.980 Y23.382 E0.01752
G1 X194.416 Y50.894 E1.88446
G1 X195.118 Y51.452 E0.02813
G1 X195.563 Y52.231 E0.02813
G1 X195.691 Y52.998 E0.02437
G1 X195.691 Y184.504 E4.12328
G1 X195.611 Y185.110 E0.01917
G1 X195.380 Y185.676 E0.01917
G1 X195.006 Y186.170 E0.01941
G1 X194.514 Y186.552 E0.01953
G1 X193.940 Y186.793 E0.01953
G1 X193.327 Y186.877 E0.01941
G1 X47.877 Y186.877 E4.56047
G1 X47.271 Y186.797 E0.01917
G1 X46.705 Y186.566 E0.01917
G1 X46.211 Y186.192 E0.01941
G1 X45.829 Y185.700 E0.01953
G1 X45.589 Y185.130 E0.01941
G1 X45.504 Y184.516 E0.01941
G1 X45.504 Y52.996 E4.12372
G1 X45.583 Y52.390 E0.01917
G1 X45.815 Y51.824 E0.01917
G1 X46.195 Y51.335 E0.01942
G1 E-0.80000 F2100.00000
G1 Z0.800 F10800.000
G1 X49.894 Y55.013
G1 Z0.200
G1 E0.80000 F2100.00000
G1 F1200.000
G1 X83.968 Y55.013 E1.06837
G1 X83.968 Y72.487 E0.54789
G1 X49.894 Y72.487 E1.06837
G1 X49.894 Y55.073 E0.54601
G1 X50.271 Y55.390 F10800.000
G1 F1200.000
G1 X83.591 Y55.390 E1.04473
G1 X83.591 Y72.110 E0.52424
G1 X50.271 Y72.110 E1.04473
G1 X50.271 Y55.450 E0.52236
G1 X50.127 Y55.017 F10800.000
G1 X48.668 Y53.787
G1 F1200.000
G1 X85.264 Y53.787 E1.14744
G1 X85.264 Y73.713 E0.62476
G1 X48.668 Y73.713 E1.14744
G1 X48.668 Y53.847 E0.62288
G1 X48.291 Y53.410 F10800.000
G1 F1200.000
G1 X85.641 Y53.410 E1.17108
G1 X85.641 Y74.090 E0.64841
G1 X48.291 Y74.090 E1.17108
G1 X48.291 Y53.470 E0.64653
G1 X48.685 Y53.477 F10800.000
G1 E-0.80000 F2100.00000
G1 Z0.800 F10800.000
G1 X49.781 Y72.231
G1 Z0.200
G1 E0.80000 F2100.00000
G1 F1200.000
G1 X48.951 Y71.401 E0.03690
G1 X48.951 Y70.866 E0.01681
G1 X49.611 Y71.526 E0.02936
G1 X49.611 Y70.992 E0.01681
G1 X48.951 Y70.332 E0.02936
G1 X48.951 Y69.797 E0.01681
G1 X49.611 Y70.457 E0.02936
G1 X49.611 Y69.922 E0.01681
G1 X48.951 Y69.262 E0.02936
G1 X48.951 Y68.727 E0.01681
G1 X49.611 Y69.388 E0.02936
G1 X49.611 Y68.853 E0.01681
G1 X48.951 Y68.193 E0.02936
G1 X48.951 Y67.658 E0.01681
G1 X49.611 Y68.318 E0.02936
G1 X49.611 Y67.784 E0.01681
G1 X48.951 Y67.123 E0.02936
G1 X48.951 Y66.589 E0.01681
G1 X49.611 Y67.249 E0.02936
G1 X49.611 Y66.714 E0.01681
G1 X48.951 Y66.054 E0.02936
G1 X48.951 Y65.519 E0.01681
G1 X49.611 Y66.179 E0.02936
G1 X49.611 Y65.645 E0.01681
G1 X48.951 Y64.984 E0.02936
G1 X48.951 Y64.450 E0.01681
G1 X49.611 Y65.110 E0.02936
G1 X49.611 Y64.575 E0.01681
G1 X48.951 Y63.915 E0.02936
G1 X48.951 Y63.380 E0.01681
G1 X49.611 Y64.041 E0.02936
G1 X49.611 Y63.506 E0.01681
G1 X48.951 Y62.846 E0.02936
G1 X48.951 Y62.311 E0.01681
G1 X49.611 Y62.971 E0.02936
G1 X49.611 Y62.436 E0.01681
G1 X48.951 Y61.776 E0.02936
G1 X48.951 Y61.241 E0.01681
G1 X49.611 Y61.902 E0.02936
G1 X49.611 Y61.367 E0.01681
G1 X48.951 Y60.707 E0.02936
G1 X48.951 Y60.172 E0.01681
G1 X49.611 Y60.832 E0.02936
G1 X49.611 Y60.298 E0.01681
G1 X48.951 Y59.637 E0.02936
G1 X48.951 Y59.103 E0.01681
G1 X49.611 Y59.763 E0.02936
G1 X49.611 Y59.228 E0.01681
G1 X48.951 Y58.568 E0.02936
G1 X48.951 Y58.033 E0.01681
G1 X49.611 Y58.693 E0.02936
G1 X49.611 Y58.159 E0.01681
G1 X48.951 Y57.498 E0.02936
G1 X48.951 Y56.964 E0.01681
G1 X49.611 Y57.624 E0.02936
G1 X49.611 Y57.089 E0.01681
G1 X48.951 Y56.429 E0.02936
G1 X48.951 Y55.894 E0.01681
G1 X49.611 Y56.555 E0.02936
G1 X49.611 Y56.020 E0.01681
G1 X48.951 Y55.360 E0.02936
G1 X48.951 Y54.825 E0.01681
G1 X49.611 Y55.485 E0.02936
G1 X49.611 Y54.950 E0.01681
G1 X48.951 Y54.290 E0.02936
G1 X48.951 Y54.070 E0.00693
G1 X49.265 Y54.070 E0.00988
G1 X49.925 Y54.730 E0.02936
G1 X50.460 Y54.730 E0.01681
G1 X49.800 Y54.070 E0.02936
G1 X50.335 Y54.070 E0.01681
G1 X50.995 Y54.730 E0.02936
G1 X51.529 Y54.730 E0.01681
G1 X50.869 Y54.070 E0.02936
G1 X51.404 Y54.070 E0.01681
G1 X52.064 Y54.730 E0.02936
G1 X52.599 Y54.730 E0.01681
G1 X51.939 Y54.070 E0.02936
G1 X52.473 Y54.070 E0.01681
G1 X53.134 Y54.730 E0.02936
G1 X53.668 Y54.730 E0.01681
G1 X53.008 Y54.070 E0.02936
G1 X53.543 Y54.070 E0.01681
G1 X54.203 Y54.730 E0.02936
G1 X54.738 Y54.730 E0.01681
G1 X54.077 Y54.070 E0.02936
G1 X54.612 Y54.070 E0.01681
G1 X55.272 Y54.730 E0.02936
G1 X55.807 Y54.730 E0.01681
G1 X55.147 Y54.070 E0.02936
G1 X55.682 Y54.070 E0.01681
G1 X56.342 Y54.730 E0.02936
G1 X56.877 Y54.730 E0.01681
G1 X56.216 Y54.070 E0.02936
G1 X56.751 Y54.070 E0.01681
G1 X57.411 Y54.730 E0.02936
G1 X57.946 Y54.730 E0.01681
G1 X57.286 Y54.070 E0.02936
G1 X57.820 Y54.070 E0.01681
G1 X58.481 Y54.730 E0.02936
G1 X59.015 Y54.730 E0.01681
G1 X58.355 Y54.070 E0.02936
G1 X58.890 Y54.070 E0.01681
G1 X59.550 Y54.730 E0.02936
G1 X60.085 Y54.730 E0.01681
G1 X59.425 Y54.070 E0.02936
G1 X59.959 Y54.070 E0.01681
G1 X60.620 Y54.730 E0.02936
G1 X61.154 Y54.730 E0.01681
G1 X60.494 Y54.070 E0.02936
G1 X61.029 Y54.070 E0.01681
G1 X61.689 Y54.730 E0.02936
G1 X62.224 Y54.730 E0.01681
G1 X61.563 Y54.070 E0.02936
G1 X62.098 Y54.070 E0.01681
G1 X62.758 Y54.730 E0.02936
G1 X63.293 Y54.730 E0.01681
G1 X62.633 Y54.070 E0.02936
G1 X63.168 Y54.070 E0.01681
G1 X63.828 Y54.730 E0.02936
G1 X64.363 Y54.730 E0.01681
G1 X63.702 Y54.070 E0.02936
G1 X64.237 Y54.070 E0.01681
G1 X64.897 Y54.730 E0.02936
G1 X65.432 Y54.730 E0.01681
G1 X64.772 Y54.070 E0.02936
G1 X65.306 Y54.070 E0.01681
M73 P0 R208
G1 X65.967 Y54.730 E0.02936
G1 X66.501 Y54.730 E0.01681
G1 X65.841 Y54.070 E0.02936
G1 X66.376 Y54.070 E0.01681
G1 X67.036 Y54.730 E0.02936
G1 X67.571 Y54.730 E0.01681
G1 X66.911 Y54.070 E0.02936
G1 X67.445 Y54.070 E0.01681
G1 X68.105 Y54.730 E0.02936
G1 X68.640 Y54.730 E0.01681
G1 X67.980 Y54.070 E0.02936
G1 X68.515 Y54.070 E0.01681
G1 X69.175 Y54.730 E0.02936
G1 X69.710 Y54.730 E0.01681
G1 X69.049 Y54.070 E0.02936
G1 X69.584 Y54.070 E0.01681
G1 X70.244 Y54.730 E0.02936
G1 X70.779 Y54.730 E0.01681
G1 X70.119 Y54.070 E0.02936
G1 X70.653 Y54.070 E0.01681
G1 X71.314 Y54.730 E0.02936
G1 X71.848 Y54.730 E0.01681
G1 X71.188 Y54.070 E0.02936
G1 X71.723 Y54.070 E0.01681
G1 X72.383 Y54.730 E0.02936
G1 X72.918 Y54.730 E0.01681
G1 X72.258 Y54.070 E0.02936
G1 X72.792 Y54.070 E0.01681
G1 X73.453 Y54.730 E0.02936
G1 X73.987 Y54.730 E0.01681
G1 X73.327 Y54.070 E0.02936
G1 X73.862 Y54.070 E0.01681
G1 X74.522 Y54.730 E0.02936
G1 X75.057 Y54.730 E0.01681
G1 X74.396 Y54.070 E0.02936
G1 X74.931 Y54.070 E0.01681
G1 X75.591 Y54.730 E0.02936
G1 X76.126 Y54.730 E0.01681
G1 X75.466 Y54.070 E0.02936
G1 X76.001 Y54.070 E0.01681
G1 X76.661 Y54.730 E0.02936
G1 X77.196 Y54.730 E0.01681
G1 X76.535 Y54.070 E0.02936
G1 X77.070 Y54.070 E0.01681
G1 X77.730 Y54.730 E0.02936
G1 X78.265 Y54.730 E0.01681
G1 X77.605 Y54.070 E0.02936
G1 X78.139 Y54.070 E0.01681
G1 X78.800 Y54.730 E0.02936
G1 X79.334 Y54.730 E0.01681
G1 X78.674 Y54.070 E0.02936
G1 X79.209 Y54.070 E0.01681
G1 X79.869 Y54.730 E0.02936
G1 X80.404 Y54.730 E0.01681
G1 X79.744 Y54.070 E0.02936
G1 X80.278 Y54.070 E0.01681
G1 X80.939 Y54.730 E0.02936
G1 X81.473 Y54.730 E0.01681
G1 X80.813 Y54.070 E0.02936
G1 X81.348 Y54.070 E0.01681
G1 X82.008 Y54.730 E0.02936
G1 X82.543 Y54.730 E0.01681
G1 X81.882 Y54.070 E0.02936
G1 X82.417 Y54.070 E0.01681
G1 X83.077 Y54.730 E0.02936
G1 X83.612 Y54.730 E0.01681
G1 X82.952 Y54.070 E0.02936
G1 X83.487 Y54.070 E0.01681
G1 X84.981 Y55.564 E0.06645
G1 X84.981 Y55.030 E0.01681
G1 X84.021 Y54.070 E0.04267
G1 X84.556 Y54.070 E0.01681
G1 X85.151 Y54.665 E0.02644
G1 X85.151 Y56.269 F10800.000
G1 F1200.000
G1 X84.251 Y55.369 E0.04001
G1 X84.251 Y55.904 E0.01681
G1 X84.981 Y56.634 E0.03247
G1 X84.981 Y57.168 E0.01681
G1 X84.251 Y56.438 E0.03247
G1 X84.251 Y56.973 E0.01681
G1 X84.981 Y57.703 E0.03247
G1 X84.981 Y58.238 E0.01681
G1 X84.251 Y57.508 E0.03247
G1 X84.251 Y58.042 E0.01681
G1 X84.981 Y58.773 E0.03247
G1 X84.981 Y59.307 E0.01681
G1 X84.251 Y58.577 E0.03247
G1 X84.251 Y59.112 E0.01681
G1 X84.981 Y59.842 E0.03247
G1 X84.981 Y60.377 E0.01681
G1 X84.251 Y59.646 E0.03247
G1 X84.251 Y60.181 E0.01681
G1 X84.981 Y60.911 E0.03247
G1 X84.981 Y61.446 E0.01681
G1 X84.251 Y60.716 E0.03247
G1 X84.251 Y61.251 E0.01681
G1 X84.981 Y61.981 E0.03247
G1 X84.981 Y62.516 E0.01681
G1 X84.251 Y61.785 E0.03247
G1 X84.251 Y62.320 E0.01681
G1 X84.981 Y63.050 E0.03247
G1 X84.981 Y63.585 E0.01681
G1 X84.251 Y62.855 E0.03247
G1 X84.251 Y63.389 E0.01681
G1 X84.981 Y64.120 E0.03247
G1 X84.981 Y64.654 E0.01681
G1 X84.251 Y63.924 E0.03247
G1 X84.251 Y64.459 E0.01681
G1 X84.981 Y65.189 E0.03247
G1 X84.981 Y65.724 E0.01681
G1 X84.251 Y64.994 E0.03247
G1 X84.251 Y65.528 E0.01681
G1 X84.981 Y66.259 E0.03247
G1 X84.981 Y66.793 E0.01681
G1 X84.251 Y66.063 E0.03247
G1 X84.251 Y66.598 E0.01681
G1 X84.981 Y67.328 E0.03247
G1 X84.981 Y67.863 E0.01681
G1 X84.251 Y67.132 E0.03247
G1 X84.251 Y67.667 E0.01681
G1 X84.981 Y68.397 E0.03247
G1 X84.981 Y68.932 E0.01681
G1 X84.251 Y68.202 E0.03247
G1 X84.251 Y68.737 E0.01681
G1 X84.981 Y69.467 E0.03247
G1 X84.981 Y70.002 E0.01681
G1 X84.251 Y69.271 E0.03247
G1 X84.251 Y69.806 E0.01681
G1 X84.981 Y70.536 E0.03247
G1 X84.981 Y71.071 E0.01681
G1 X84.251 Y70.341 E0.03247
G1 X84.251 Y70.875 E0.01681
G1 X84.981 Y71.606 E0.03247
G1 X84.981 Y72.140 E0.01681
G1 X84.251 Y71.410 E0.03247
G1 X84.251 Y71.945 E0.01681
G1 X84.981 Y72.675 E0.03247
G1 X84.981 Y73.210 E0.01681
G1 X84.251 Y72.480 E0.03247
G1 X84.251 Y72.770 E0.00913
G1 X84.006 Y72.770 E0.00768
G1 X84.667 Y73.430 E0.02936
G1 X84.132 Y73.430 E0.01681
G1 X83.472 Y72.770 E0.02936
G1 X82.937 Y72.770 E0.01681
G1 X83.597 Y73.430 E0.02936
G1 X83.063 Y73.430 E0.01681
G1 X82.402 Y72.770 E0.02936
G1 X81.868 Y72.770 E0.01681
G1 X82.528 Y73.430 E0.02936
G1 X81.993 Y73.430 E0.01681
G1 X81.333 Y72.770 E0.02936
G1 X80.798 Y72.770 E0.01681
G1 X81.458 Y73.430 E0.02936
G1 X80.924 Y73.430 E0.01681
G1 X80.263 Y72.770 E0.02936
G1 X79.729 Y72.770 E0.01681
G1 X80.389 Y73.430 E0.02936
G1 X79.854 Y73.430 E0.01681
G1 X79.194 Y72.770 E0.02936
G1 X78.659 Y72.770 E0.01681
G1 X79.320 Y73.430 E0.02936
G1 X78.785 Y73.430 E0.01681
G1 X78.125 Y72.770 E0.02936
G1 X77.590 Y72.770 E0.01681
G1 X78.250 Y73.430 E0.02936
G1 X77.715 Y73.430 E0.01681
G1 X77.055 Y72.770 E0.02936
G1 X76.520 Y72.770 E0.01681
G1 X77.181 Y73.430 E0.02936
G1 X76.646 Y73.430 E0.01681
G1 X75.986 Y72.770 E0.02936
G1 X75.451 Y72.770 E0.01681
G1 X76.111 Y73.430 E0.02936
G1 X75.577 Y73.430 E0.01681
G1 X74.916 Y72.770 E0.02936
G1 X74.382 Y72.770 E0.01681
G1 X75.042 Y73.430 E0.02936
G1 X74.507 Y73.430 E0.01681
G1 X73.847 Y72.770 E0.02936
G1 X73.312 Y72.770 E0.01681
G1 X73.972 Y73.430 E0.02936
G1 X73.438 Y73.430 E0.01681
G1 X72.777 Y72.770 E0.02936
G1 X72.243 Y72.770 E0.01681
G1 X72.903 Y73.430 E0.02936
G1 X72.368 Y73.430 E0.01681
G1 X71.708 Y72.770 E0.02936
G1 X71.173 Y72.770 E0.01681
G1 X71.834 Y73.430 E0.02936
G1 X71.299 Y73.430 E0.01681
G1 X70.639 Y72.770 E0.02936
G1 X70.104 Y72.770 E0.01681
G1 X70.764 Y73.430 E0.02936
G1 X70.229 Y73.430 E0.01681
G1 X69.569 Y72.770 E0.02936
G1 X69.035 Y72.770 E0.01681
G1 X69.695 Y73.430 E0.02936
G1 X69.160 Y73.430 E0.01681
G1 X68.500 Y72.770 E0.02936
G1 X67.965 Y72.770 E0.01681
G1 X68.625 Y73.430 E0.02936
G1 X68.091 Y73.430 E0.01681
G1 X67.430 Y72.770 E0.02936
G1 X66.896 Y72.770 E0.01681
G1 X67.556 Y73.430 E0.02936
G1 X67.021 Y73.430 E0.01681
G1 X66.361 Y72.770 E0.02936
G1 X65.826 Y72.770 E0.01681
G1 X66.486 Y73.430 E0.02936
G1 X65.952 Y73.430 E0.01681
G1 X65.292 Y72.770 E0.02936
G1 X64.757 Y72.770 E0.01681
G1 X65.417 Y73.430 E0.02936
G1 X64.882 Y73.430 E0.01681
G1 X64.222 Y72.770 E0.02936
G1 X63.687 Y72.770 E0.01681
G1 X64.348 Y73.430 E0.02936
G1 X63.813 Y73.430 E0.01681
G1 X63.153 Y72.770 E0.02936
G1 X62.618 Y72.770 E0.01681
G1 X63.278 Y73.430 E0.02936
G1 X62.744 Y73.430 E0.01681
G1 X62.083 Y72.770 E0.02936
G1 X61.549 Y72.770 E0.01681
G1 X62.209 Y73.430 E0.02936
G1 X61.674 Y73.430 E0.01681
G1 X61.014 Y72.770 E0.02936
G1 X60.479 Y72.770 E0.01681
G1 X61.139 Y73.430 E0.02936
G1 X60.605 Y73.430 E0.01681
G1 X59.944 Y72.770 E0.02936
G1 X59.410 Y72.770 E0.01681
G1 X60.070 Y73.430 E0.02936
G1 X59.535 Y73.430 E0.01681
G1 X58.875 Y72.770 E0.02936
G1 X58.340 Y72.770 E0.01681
G1 X59.001 Y73.430 E0.02936
G1 X58.466 Y73.430 E0.01681
G1 X57.806 Y72.770 E0.02936
G1 X57.271 Y72.770 E0.01681
G1 X57.931 Y73.430 E0.02936
G1 X57.396 Y73.430 E0.01681
G1 X56.736 Y72.770 E0.02936
G1 X56.201 Y72.770 E0.01681
G1 X56.862 Y73.430 E0.02936
G1 X56.327 Y73.430 E0.01681
G1 X55.667 Y72.770 E0.02936
G1 X55.132 Y72.770 E0.01681
G1 X55.792 Y73.430 E0.02936
G1 X55.258 Y73.430 E0.01681
G1 X54.597 Y72.770 E0.02936
G1 X54.063 Y72.770 E0.01681
G1 X54.723 Y73.430 E0.02936
G1 X54.188 Y73.430 E0.01681
G1 X53.528 Y72.770 E0.02936
G1 X52.993 Y72.770 E0.01681
G1 X53.653 Y73.430 E0.02936
G1 X53.119 Y73.430 E0.01681
G1 X52.459 Y72.770 E0.02936
G1 X51.924 Y72.770 E0.01681
G1 X52.584 Y73.430 E0.02936
G1 X52.049 Y73.430 E0.01681
G1 X51.389 Y72.770 E0.02936
G1 X50.854 Y72.770 E0.01681
G1 X51.515 Y73.430 E0.02936
G1 X50.980 Y73.430 E0.01681
G1 X50.150 Y72.600 E0.03690
G1 X50.615 Y73.600 F10800.000
G1 F1200.000
G1 X48.951 Y71.936 E0.07399
G1 X48.951 Y72.470 E0.01681
G1 X49.910 Y73.430 E0.04267
G1 X49.376 Y73.430 E0.01681
G1 X48.781 Y72.835 E0.02644
G1 E-0.80000 F2100.00000
G1 Z0.800 F10800.000
G1 X49.894 Y82.513
G1 Z0.200
G1 E0.80000 F2100.00000
G1 F1200.000
G1 X83.968 Y82.513 E1.06837
G1 X83.968 Y99.987 E0.54789
G1 X49.894 Y99.987 E1.06837
G1 X49.894 Y82.573 E0.54601
G1 X50.271 Y82.890 F10800.000
G1 F1200.000
G1 X83.591 Y82.890 E1.04473
G1 X83.591 Y99.610 E0.52424
G1 X50.271 Y99.610 E1.04473
G1 X50.271 Y82.950 E0.52236
G1 X50.127 Y82.517 F10800.000
G1 X48.668 Y81.287
G1 F1200.000
G1 X85.264 Y81.287 E1.14744
G1 X85.264 Y101.213 E0.62476
G1 X48.668 Y101.213 E1.14744
G1 X48.668 Y81.347 E0.62288
G1 X48.291 Y80.910 F10800.000
G1 F1200.000
G1 X85.641 Y80.910 E1.17108
G1 X85.641 Y101.590 E0.64841
G1 X48.291 Y101.590 E1.17108
G1 X48.291 Y80.970 E0.64653
G1 X48.685 Y80.977 F10800.000
G1 E-0.80000 F2100.00000
G1 Z0.800 F10800.000
G1 X49.781 Y99.731
G1 Z0.200
G1 E0.80000 F2100.00000
G1 F1200.000
G1 X48.951 Y98.901 E0.03690
G1 X48.951 Y98.366 E0.01681
G1 X49.611 Y99.026 E0.02936
G1 X49.611 Y98.492 E0.01681
G1 X48.951 Y97.832 E0.02936
G1 X48.951 Y97.297 E0.01681
G1 X49.611 Y97.957 E0.02936
G1 X49.611 Y97.422 E0.01681
G1 X48.951 Y96.762 E0.02936
G1 X48.951 Y96.227 E0.01681
G1 X49.611 Y96.888 E0.02936
G1 X49.611 Y96.353 E0.01681
G1 X48.951 Y95.693 E0.02936
G1 X48.951 Y95.158 E0.01681
G1 X49.611 Y95.818 E0.02936
G1 X49.611 Y95.284 E0.01681
G1 X48.951 Y94.623 E0.02936
G1 X48.951 Y94.089 E0.01681
G1 X49.611 Y94.749 E0.02936
G1 X49.611 Y94.214 E0.01681
G1 X48.951 Y93.554 E0.02936
