; generated by PrusaSlicer 2.2.0+win64 on 2020-07-17 at 18:42:05 UTC

; 

; external perimeters extrusion width = 0.60mm
; perimeters extrusion width = 0.43mm
; infill extrusion width = 0.45mm
; solid infill extrusion width = 0.70mm
; top infill extrusion width = 0.43mm
; first layer extrusion width = 0.42mm

M73 P0 R105
M201 X9000 Y9000 Z500 E10000 ; sets maximum accelerations, mm/sec^2
M203 X500 Y500 Z12 E120 ; sets maximum feedrates, mm/sec
M204 P2000 R1500 T2000 ; sets acceleration (P, T) and retract acceleration (R), mm/sec^2
M205 X10.00 Y10.00 Z0.20 E2.50 ; sets the jerk limits, mm/sec
M205 S0 T0 ; sets the minimum extruding and travel feed rate, mm/sec
M107
M862.3 P "MK2S" ; printer model check
M862.1 P0.4 ; nozzle diameter check
M115 U3.2.3 ; tell printer latest fw version
G90 ; use absolute coordinates
M83 ; extruder relative mode
M204 S2000 T1500 ; MK2 firmware only supports the old M204 format
M104 S215 ; set extruder temp
M140 S60 ; set bed temp
M190 S60 ; wait for bed temp
M109 S215 ; wait for extruder temp
G28 W ; home all without mesh bed level
G80 ; mesh bed leveling
G1 Y-3.0 F1000.0 ; go outside print area
G92 E0.0
G1 X60.0 E9.0  F1000.0 ; intro line
M73 P0 R105
G1 X100.0 E12.5 F1000.0 ; intro line
G92 E0.0
G21 ; set units to millimeters
G90 ; use absolute coordinates
M83 ; use relative distances for extrusion
M900 K0.06 ; Filament gcode LA 1.5
M900 K30 ; Filament gcode LA 1.0
;BEFORE_LAYER_CHANGE
G92 E0.0
;0.2


G1 E-0.80000 F2100.00000
G1 Z0.600 F10800.000
;AFTER_LAYER_CHANGE
;0.2
G1 X72.362 Y52.165
G1 Z0.200
G1 E0.80000 F2100.00000
M204 S1000
G1 F1200.000
G1 X72.789 Y51.445 E0.02626
G1 X73.159 Y51.100 E0.01585
G1 X73.590 Y50.842 E0.01574
G1 X74.065 Y50.681 E0.01574
G1 X74.567 Y50.623 E0.01585
G1 X166.611 Y50.623 E2.88599
G1 X167.514 Y50.802 E0.02884
G1 X168.277 Y51.308 E0.02872
G1 X168.793 Y52.065 E0.02872
G1 X168.984 Y52.961 E0.02872
G1 X168.985 Y157.011 E3.26243
G1 X168.833 Y157.835 E0.02626
G1 X168.406 Y158.555 E0.02626
G1 X168.036 Y158.900 E0.01585
G1 X167.598 Y159.161 E0.01597
G1 X167.119 Y159.321 E0.01585
G1 X166.613 Y159.377 E0.01597
G1 X74.572 Y159.377 E2.88587
G1 X73.752 Y159.226 E0.02614
G1 X73.032 Y158.798 E0.02626
G1 X72.687 Y158.428 E0.01585
G1 X72.426 Y157.991 E0.01597
G1 X72.266 Y157.511 E0.01585
G1 X72.210 Y157.005 E0.01597
G1 X72.210 Y52.989 E3.26136
G1 X72.351 Y52.224 E0.02437
G1 E-0.80000 F2100.00000
G1 Z0.800 F10800.000
G1 X76.600 Y137.513
G1 Z0.200
G1 E0.80000 F2100.00000
G1 F1200.000
G1 X110.674 Y137.513 E1.06837
G1 X110.674 Y154.987 E0.54789
G1 X76.600 Y154.987 E1.06837
G1 X76.600 Y137.573 E0.54601
G1 X76.977 Y137.890 F10800.000
G1 F1200.000
G1 X110.297 Y137.890 E1.04473
G1 X110.297 Y154.610 E0.52424
G1 X76.977 Y154.610 E1.04473
G1 X76.977 Y137.950 E0.52236
G1 X76.833 Y137.517 F10800.000
G1 X75.374 Y136.287
G1 F1200.000
G1 X111.970 Y136.287 E1.14744
G1 X111.970 Y156.213 E0.62476
G1 X75.374 Y156.213 E1.14744
G1 X75.374 Y136.347 E0.62288
G1 X74.997 Y135.910 F10800.000
G1 F1200.000
G1 X112.347 Y135.910 E1.17108
G1 X112.347 Y156.590 E0.64841
G1 X74.997 Y156.590 E1.17108
G1 X74.997 Y135.970 E0.64653
G1 X75.392 Y135.977 F10800.000
G1 E-0.80000 F2100.00000
G1 Z0.800 F10800.000
G1 X76.487 Y154.731
G1 Z0.200
G1 E0.80000 F2100.00000
G1 F1200.000
G1 X75.657 Y153.901 E0.03690
G1 X75.657 Y153.366 E0.01681
G1 X76.317 Y154.026 E0.02936
G1 X76.317 Y153.492 E0.01681
G1 X75.657 Y152.832 E0.02936
G1 X75.657 Y152.297 E0.01681
G1 X76.317 Y152.957 E0.02936
G1 X76.317 Y152.422 E0.01681
G1 X75.657 Y151.762 E0.02936
G1 X75.657 Y151.227 E0.01681
G1 X76.317 Y151.888 E0.02936
G1 X76.317 Y151.353 E0.01681
G1 X75.657 Y150.693 E0.02936
G1 X75.657 Y150.158 E0.01681
G1 X76.317 Y150.818 E0.02936
G1 X76.317 Y150.284 E0.01681
G1 X75.657 Y149.623 E0.02936
G1 X75.657 Y149.089 E0.01681
G1 X76.317 Y149.749 E0.02936
G1 X76.317 Y149.214 E0.01681
G1 X75.657 Y148.554 E0.02936
G1 X75.657 Y148.019 E0.01681
G1 X76.317 Y148.679 E0.02936
G1 X76.317 Y148.145 E0.01681
G1 X75.657 Y147.484 E0.02936
G1 X75.657 Y146.950 E0.01681
G1 X76.317 Y147.610 E0.02936
G1 X76.317 Y147.075 E0.01681
G1 X75.657 Y146.415 E0.02936
G1 X75.657 Y145.880 E0.01681
G1 X76.317 Y146.541 E0.02936
G1 X76.317 Y146.006 E0.01681
G1 X75.657 Y145.346 E0.02936
G1 X75.657 Y144.811 E0.01681
G1 X76.317 Y145.471 E0.02936
G1 X76.317 Y144.936 E0.01681
G1 X75.657 Y144.276 E0.02936
G1 X75.657 Y143.741 E0.01681
G1 X76.317 Y144.402 E0.02936
G1 X76.317 Y143.867 E0.01681
G1 X75.657 Y143.207 E0.02936
G1 X75.657 Y142.672 E0.01681
G1 X76.317 Y143.332 E0.02936
G1 X76.317 Y142.798 E0.01681
G1 X75.657 Y142.137 E0.02936
G1 X75.657 Y141.603 E0.01681
G1 X76.317 Y142.263 E0.02936
G1 X76.317 Y141.728 E0.01681
G1 X75.657 Y141.068 E0.02936
G1 X75.657 Y140.533 E0.01681
G1 X76.317 Y141.193 E0.02936
G1 X76.317 Y140.659 E0.01681
G1 X75.657 Y139.998 E0.02936
G1 X75.657 Y139.464 E0.01681
G1 X76.317 Y140.124 E0.02936
G1 X76.317 Y139.589 E0.01681
G1 X75.657 Y138.929 E0.02936
G1 X75.657 Y138.394 E0.01681
G1 X76.317 Y139.055 E0.02936
G1 X76.317 Y138.520 E0.01681
G1 X75.657 Y137.860 E0.02936
G1 X75.657 Y137.325 E0.01681
G1 X76.317 Y137.985 E0.02936
G1 X76.317 Y137.450 E0.01681
G1 X75.657 Y136.790 E0.02936
G1 X75.657 Y136.570 E0.00693
G1 X75.971 Y136.570 E0.00988
G1 X76.632 Y137.230 E0.02936
G1 X77.166 Y137.230 E0.01681
G1 X76.506 Y136.570 E0.02936
G1 X77.041 Y136.570 E0.01681
G1 X77.701 Y137.230 E0.02936
G1 X78.236 Y137.230 E0.01681
G1 X77.576 Y136.570 E0.02936
G1 X78.110 Y136.570 E0.01681
G1 X78.771 Y137.230 E0.02936
G1 X79.305 Y137.230 E0.01681
G1 X78.645 Y136.570 E0.02936
G1 X79.180 Y136.570 E0.01681
G1 X79.840 Y137.230 E0.02936
G1 X80.375 Y137.230 E0.01681
G1 X79.714 Y136.570 E0.02936
G1 X80.249 Y136.570 E0.01681
G1 X80.909 Y137.230 E0.02936
G1 X81.444 Y137.230 E0.01681
G1 X80.784 Y136.570 E0.02936
G1 X81.319 Y136.570 E0.01681
G1 X81.979 Y137.230 E0.02936
G1 X82.514 Y137.230 E0.01681
G1 X81.853 Y136.570 E0.02936
G1 X82.388 Y136.570 E0.01681
G1 X83.048 Y137.230 E0.02936
G1 X83.583 Y137.230 E0.01681
G1 X82.923 Y136.570 E0.02936
G1 X83.457 Y136.570 E0.01681
G1 X84.118 Y137.230 E0.02936
G1 X84.652 Y137.230 E0.01681
G1 X83.992 Y136.570 E0.02936
G1 X84.527 Y136.570 E0.01681
G1 X85.187 Y137.230 E0.02936
G1 X85.722 Y137.230 E0.01681
G1 X85.062 Y136.570 E0.02936
G1 X85.596 Y136.570 E0.01681
G1 X86.256 Y137.230 E0.02936
G1 X86.791 Y137.230 E0.01681
G1 X86.131 Y136.570 E0.02936
G1 X86.666 Y136.570 E0.01681
G1 X87.326 Y137.230 E0.02936
G1 X87.861 Y137.230 E0.01681
G1 X87.200 Y136.570 E0.02936
G1 X87.735 Y136.570 E0.01681
G1 X88.395 Y137.230 E0.02936
G1 X88.930 Y137.230 E0.01681
G1 X88.270 Y136.570 E0.02936
G1 X88.805 Y136.570 E0.01681
G1 X89.465 Y137.230 E0.02936
G1 X89.999 Y137.230 E0.01681
G1 X89.339 Y136.570 E0.02936
G1 X89.874 Y136.570 E0.01681
G1 X90.534 Y137.230 E0.02936
G1 X91.069 Y137.230 E0.01681
G1 X90.409 Y136.570 E0.02936
G1 X90.943 Y136.570 E0.01681
G1 X91.604 Y137.230 E0.02936
G1 X92.138 Y137.230 E0.01681
G1 X91.478 Y136.570 E0.02936
G1 X92.013 Y136.570 E0.01681
G1 X92.673 Y137.230 E0.02936
G1 X93.208 Y137.230 E0.01681
G1 X92.547 Y136.570 E0.02936
G1 X93.082 Y136.570 E0.01681
G1 X93.742 Y137.230 E0.02936
G1 X94.277 Y137.230 E0.01681
G1 X93.617 Y136.570 E0.02936
G1 X94.152 Y136.570 E0.01681
G1 X94.812 Y137.230 E0.02936
G1 X95.347 Y137.230 E0.01681
G1 X94.686 Y136.570 E0.02936
G1 X95.221 Y136.570 E0.01681
G1 X95.881 Y137.230 E0.02936
G1 X96.416 Y137.230 E0.01681
G1 X95.756 Y136.570 E0.02936
G1 X96.290 Y136.570 E0.01681
G1 X96.951 Y137.230 E0.02936
G1 X97.485 Y137.230 E0.01681
G1 X96.825 Y136.570 E0.02936
G1 X97.360 Y136.570 E0.01681
G1 X98.020 Y137.230 E0.02936
G1 X98.555 Y137.230 E0.01681
G1 X97.895 Y136.570 E0.02936
G1 X98.429 Y136.570 E0.01681
G1 X99.090 Y137.230 E0.02936
G1 X99.624 Y137.230 E0.01681
G1 X98.964 Y136.570 E0.02936
G1 X99.499 Y136.570 E0.01681
G1 X100.159 Y137.230 E0.02936
G1 X100.694 Y137.230 E0.01681
G1 X100.033 Y136.570 E0.02936
G1 X100.568 Y136.570 E0.01681
G1 X101.228 Y137.230 E0.02936
G1 X101.763 Y137.230 E0.01681
G1 X101.103 Y136.570 E0.02936
G1 X101.638 Y136.570 E0.01681
G1 X102.298 Y137.230 E0.02936
G1 X102.833 Y137.230 E0.01681
G1 X102.172 Y136.570 E0.02936
G1 X102.707 Y136.570 E0.01681
G1 X103.367 Y137.230 E0.02936
G1 X103.902 Y137.230 E0.01681
G1 X103.242 Y136.570 E0.02936
G1 X103.776 Y136.570 E0.01681
G1 X104.437 Y137.230 E0.02936
G1 X104.971 Y137.230 E0.01681
G1 X104.311 Y136.570 E0.02936
G1 X104.846 Y136.570 E0.01681
G1 X105.506 Y137.230 E0.02936
G1 X106.041 Y137.230 E0.01681
G1 X105.381 Y136.570 E0.02936
G1 X105.915 Y136.570 E0.01681
G1 X106.575 Y137.230 E0.02936
G1 X107.110 Y137.230 E0.01681
G1 X106.450 Y136.570 E0.02936
G1 X106.985 Y136.570 E0.01681
G1 X107.645 Y137.230 E0.02936
G1 X108.180 Y137.230 E0.01681
G1 X107.519 Y136.570 E0.02936
G1 X108.054 Y136.570 E0.01681
G1 X108.714 Y137.230 E0.02936
G1 X109.249 Y137.230 E0.01681
G1 X108.589 Y136.570 E0.02936
G1 X109.123 Y136.570 E0.01681
G1 X109.784 Y137.230 E0.02936
G1 X110.318 Y137.230 E0.01681
G1 X109.658 Y136.570 E0.02936
G1 X110.193 Y136.570 E0.01681
G1 X111.687 Y138.064 E0.06645
G1 X111.687 Y137.530 E0.01681
G1 X110.728 Y136.570 E0.04267
G1 X111.262 Y136.570 E0.01681
G1 X111.857 Y137.165 E0.02644
G1 X111.857 Y138.769 F10800.000
G1 F1200.000
G1 X110.957 Y137.869 E0.04001
G1 X110.957 Y138.404 E0.01681
G1 X111.687 Y139.134 E0.03247
G1 X111.687 Y139.668 E0.01681
G1 X110.957 Y138.938 E0.03247
G1 X110.957 Y139.473 E0.01681
G1 X111.687 Y140.203 E0.03247
G1 X111.687 Y140.738 E0.01681
G1 X110.957 Y140.008 E0.03247
G1 X110.957 Y140.542 E0.01681
G1 X111.687 Y141.273 E0.03247
G1 X111.687 Y141.807 E0.01681
G1 X110.957 Y141.077 E0.03247
G1 X110.957 Y141.612 E0.01681
G1 X111.687 Y142.342 E0.03247
G1 X111.687 Y142.877 E0.01681
G1 X110.957 Y142.146 E0.03247
G1 X110.957 Y142.681 E0.01681
G1 X111.687 Y143.411 E0.03247
G1 X111.687 Y143.946 E0.01681
G1 X110.957 Y143.216 E0.03247
G1 X110.957 Y143.751 E0.01681
G1 X111.687 Y144.481 E0.03247
G1 X111.687 Y145.016 E0.01681
G1 X110.957 Y144.285 E0.03247
G1 X110.957 Y144.820 E0.01681
G1 X111.687 Y145.550 E0.03247
G1 X111.687 Y146.085 E0.01681
G1 X110.957 Y145.355 E0.03247
G1 X110.957 Y145.889 E0.01681
G1 X111.687 Y146.620 E0.03247
G1 X111.687 Y147.154 E0.01681
G1 X110.957 Y146.424 E0.03247
G1 X110.957 Y146.959 E0.01681
G1 X111.687 Y147.689 E0.03247
G1 X111.687 Y148.224 E0.01681
G1 X110.957 Y147.494 E0.03247
G1 X110.957 Y148.028 E0.01681
G1 X111.687 Y148.759 E0.03247
G1 X111.687 Y149.293 E0.01681
G1 X110.957 Y148.563 E0.03247
G1 X110.957 Y149.098 E0.01681
G1 X111.687 Y149.828 E0.03247
G1 X111.687 Y150.363 E0.01681
G1 X110.957 Y149.632 E0.03247
G1 X110.957 Y150.167 E0.01681
G1 X111.687 Y150.897 E0.03247
G1 X111.687 Y151.432 E0.01681
G1 X110.957 Y150.702 E0.03247
G1 X110.957 Y151.237 E0.01681
G1 X111.687 Y151.967 E0.03247
G1 X111.687 Y152.502 E0.01681
G1 X110.957 Y151.771 E0.03247
G1 X110.957 Y152.306 E0.01681
G1 X111.687 Y153.036 E0.03247
G1 X111.687 Y153.571 E0.01681
G1 X110.957 Y152.841 E0.03247
G1 X110.957 Y153.375 E0.01681
G1 X111.687 Y154.106 E0.03247
G1 X111.687 Y154.640 E0.01681
G1 X110.957 Y153.910 E0.03247
G1 X110.957 Y154.445 E0.01681
G1 X111.687 Y155.175 E0.03247
G1 X111.687 Y155.710 E0.01681
G1 X110.957 Y154.980 E0.03247
G1 X110.957 Y155.270 E0.00913
G1 X110.713 Y155.270 E0.00768
G1 X111.373 Y155.930 E0.02936
G1 X110.838 Y155.930 E0.01681
G1 X110.178 Y155.270 E0.02936
G1 X109.643 Y155.270 E0.01681
G1 X110.304 Y155.930 E0.02936
G1 X109.769 Y155.930 E0.01681
G1 X109.109 Y155.270 E0.02936
G1 X108.574 Y155.270 E0.01681
G1 X109.234 Y155.930 E0.02936
G1 X108.699 Y155.930 E0.01681
G1 X108.039 Y155.270 E0.02936
G1 X107.505 Y155.270 E0.01681
G1 X108.165 Y155.930 E0.02936
G1 X107.630 Y155.930 E0.01681
G1 X106.970 Y155.270 E0.02936
G1 X106.435 Y155.270 E0.01681
G1 X107.095 Y155.930 E0.02936
G1 X106.561 Y155.930 E0.01681
G1 X105.900 Y155.270 E0.02936
G1 X105.366 Y155.270 E0.01681
G1 X106.026 Y155.930 E0.02936
G1 X105.491 Y155.930 E0.01681
G1 X104.831 Y155.270 E0.02936
G1 X104.296 Y155.270 E0.01681
G1 X104.956 Y155.930 E0.02936
G1 X104.422 Y155.930 E0.01681
G1 X103.762 Y155.270 E0.02936
G1 X103.227 Y155.270 E0.01681
G1 X103.887 Y155.930 E0.02936
G1 X103.352 Y155.930 E0.01681
G1 X102.692 Y155.270 E0.02936
G1 X102.157 Y155.270 E0.01681
G1 X102.818 Y155.930 E0.02936
G1 X102.283 Y155.930 E0.01681
G1 X101.623 Y155.270 E0.02936
G1 X101.088 Y155.270 E0.01681
G1 X101.748 Y155.930 E0.02936
G1 X101.214 Y155.930 E0.01681
G1 X100.553 Y155.270 E0.02936
G1 X100.019 Y155.270 E0.01681
G1 X100.679 Y155.930 E0.02936
G1 X100.144 Y155.930 E0.01681
G1 X99.484 Y155.270 E0.02936
G1 X98.949 Y155.270 E0.01681
G1 X99.609 Y155.930 E0.02936
G1 X99.075 Y155.930 E0.01681
G1 X98.414 Y155.270 E0.02936
G1 X97.880 Y155.270 E0.01681
G1 X98.540 Y155.930 E0.02936
G1 X98.005 Y155.930 E0.01681
G1 X97.345 Y155.270 E0.02936
G1 X96.810 Y155.270 E0.01681
G1 X97.471 Y155.930 E0.02936
G1 X96.936 Y155.930 E0.01681
G1 X96.276 Y155.270 E0.02936
G1 X95.741 Y155.270 E0.01681
G1 X96.401 Y155.930 E0.02936
G1 X95.866 Y155.930 E0.01681
G1 X95.206 Y155.270 E0.02936
G1 X94.671 Y155.270 E0.01681
M73 P1 R104
G1 X95.332 Y155.930 E0.02936
G1 X94.797 Y155.930 E0.01681
G1 X94.137 Y155.270 E0.02936
G1 X93.602 Y155.270 E0.01681
G1 X94.262 Y155.930 E0.02936
G1 X93.728 Y155.930 E0.01681
G1 X93.067 Y155.270 E0.02936
G1 X92.533 Y155.270 E0.01681
G1 X93.193 Y155.930 E0.02936
G1 X92.658 Y155.930 E0.01681
G1 X91.998 Y155.270 E0.02936
G1 X91.463 Y155.270 E0.01681
G1 X92.123 Y155.930 E0.02936
G1 X91.589 Y155.930 E0.01681
G1 X90.929 Y155.270 E0.02936
G1 X90.394 Y155.270 E0.01681
G1 X91.054 Y155.930 E0.02936
G1 X90.519 Y155.930 E0.01681
G1 X89.859 Y155.270 E0.02936
G1 X89.324 Y155.270 E0.01681
G1 X89.985 Y155.930 E0.02936
G1 X89.450 Y155.930 E0.01681
G1 X88.790 Y155.270 E0.02936
G1 X88.255 Y155.270 E0.01681
G1 X88.915 Y155.930 E0.02936
G1 X88.380 Y155.930 E0.01681
G1 X87.720 Y155.270 E0.02936
G1 X87.186 Y155.270 E0.01681
G1 X87.846 Y155.930 E0.02936
G1 X87.311 Y155.930 E0.01681
G1 X86.651 Y155.270 E0.02936
G1 X86.116 Y155.270 E0.01681
G1 X86.776 Y155.930 E0.02936
G1 X86.242 Y155.930 E0.01681
G1 X85.581 Y155.270 E0.02936
G1 X85.047 Y155.270 E0.01681
G1 X85.707 Y155.930 E0.02936
G1 X85.172 Y155.930 E0.01681
G1 X84.512 Y155.270 E0.02936
G1 X83.977 Y155.270 E0.01681
G1 X84.638 Y155.930 E0.02936
G1 X84.103 Y155.930 E0.01681
G1 X83.443 Y155.270 E0.02936
G1 X82.908 Y155.270 E0.01681
G1 X83.568 Y155.930 E0.02936
G1 X83.033 Y155.930 E0.01681
G1 X82.373 Y155.270 E0.02936
G1 X81.838 Y155.270 E0.01681
G1 X82.499 Y155.930 E0.02936
G1 X81.964 Y155.930 E0.01681
G1 X81.304 Y155.270 E0.02936
G1 X80.769 Y155.270 E0.01681
G1 X81.429 Y155.930 E0.02936
G1 X80.895 Y155.930 E0.01681
G1 X80.234 Y155.270 E0.02936
G1 X79.700 Y155.270 E0.01681
G1 X80.360 Y155.930 E0.02936
G1 X79.825 Y155.930 E0.01681
G1 X79.165 Y155.270 E0.02936
G1 X78.630 Y155.270 E0.01681
G1 X79.290 Y155.930 E0.02936
G1 X78.756 Y155.930 E0.01681
G1 X78.095 Y155.270 E0.02936
G1 X77.561 Y155.270 E0.01681
G1 X78.221 Y155.930 E0.02936
G1 X77.686 Y155.930 E0.01681
G1 X76.856 Y155.100 E0.03690
G1 X77.321 Y156.100 F10800.000
G1 F1200.000
G1 X75.657 Y154.436 E0.07399
G1 X75.657 Y154.970 E0.01681
G1 X76.617 Y155.930 E0.04267
G1 X76.082 Y155.930 E0.01681
G1 X75.487 Y155.335 E0.02644
G1 E-0.80000 F2100.00000
G1 Z0.800 F10800.000
G1 X76.600 Y127.487
G1 Z0.200
G1 E0.80000 F2100.00000
G1 F1200.000
G1 X76.600 Y110.013 E0.54789
G1 X110.674 Y110.013 E1.06837
G1 X110.674 Y127.487 E0.54789
G1 X76.660 Y127.487 E1.06649
G1 X76.977 Y127.110 F10800.000
G1 F1200.000
G1 X76.977 Y110.390 E0.52424
G1 X110.297 Y110.390 E1.04473
G1 X110.297 Y127.110 E0.52424
G1 X77.037 Y127.110 E1.04284
G1 X76.582 Y127.172 F10800.000
G1 X75.374 Y128.713
G1 F1200.000
G1 X75.374 Y108.787 E0.62476
G1 X111.970 Y108.787 E1.14744
G1 X111.970 Y128.713 E0.62476
G1 X75.434 Y128.713 E1.14556
G1 X74.997 Y129.090 F10800.000
G1 F1200.000
G1 X74.997 Y108.410 E0.64841
G1 X112.347 Y108.410 E1.17108
G1 X112.347 Y129.090 E0.64841
G1 X75.057 Y129.090 E1.16920
G1 X75.136 Y128.715 F10800.000
G1 X75.487 Y127.835
G1 F1200.000
G1 X76.082 Y128.430 E0.02644
G1 X76.617 Y128.430 E0.01681
G1 X75.657 Y127.470 E0.04267
G1 X75.657 Y126.936 E0.01681
