; generated by PrusaSlicer 2.2.0+win64 on 2020-07-17 at 18:41:52 UTC

; 

; external perimeters extrusion width = 0.60mm
; perimeters extrusion width = 0.43mm
; infill extrusion width = 0.45mm
; solid infill extrusion width = 0.70mm
; top infill extrusion width = 0.43mm
; first layer extrusion width = 0.42mm

M73 P0 R53
M201 X9000 Y9000 Z500 E10000 ; sets maximum accelerations, mm/sec^2
M203 X500 Y500 Z12 E120 ; sets maximum feedrates, mm/sec
M204 P2000 R1500 T2000 ; sets acceleration (P, T) and retract acceleration (R), mm/sec^2
M205 X10.00 Y10.00 Z0.20 E2.50 ; sets the jerk limits, mm/sec
M205 S0 T0 ; sets the minimum extruding and travel feed rate, mm/sec
M107
M862.3 P "MK2S" ; printer model check
M862.1 P0.4 ; nozzle diameter check
M115 U3.2.3 ; tell printer latest fw version
G90 ; use absolute coordinates
M83 ; extruder relative mode
M204 S2000 T1500 ; MK2 firmware only supports the old M204 format
M104 S215 ; set extruder temp
M140 S60 ; set bed temp
M190 S60 ; wait for bed temp
M109 S215 ; wait for extruder temp
G28 W ; home all without mesh bed level
G80 ; mesh bed leveling
G1 Y-3.0 F1000.0 ; go outside print area
G92 E0.0
G1 X60.0 E9.0  F1000.0 ; intro line
M73 P0 R53
G1 X100.0 E12.5 F1000.0 ; intro line
G92 E0.0
G21 ; set units to millimeters
G90 ; use absolute coordinates
M83 ; use relative distances for extrusion
M900 K0.06 ; Filament gcode LA 1.5
M900 K30 ; Filament gcode LA 1.0
;BEFORE_LAYER_CHANGE
G92 E0.0
;0.2


G1 E-0.80000 F2100.00000
G1 Z0.600 F10800.000
;AFTER_LAYER_CHANGE
;0.2
G1 X72.933 Y78.793
G1 Z0.200
G1 E0.80000 F2100.00000
M204 S1000
G1 F1200.000
G1 X73.430 Y78.424 E0.01941
G1 X73.987 Y78.200 E0.01882
G1 X74.579 Y78.123 E0.01870
G1 X166.611 Y78.123 E2.88563
G1 X167.510 Y78.301 E0.02872
G1 X168.272 Y78.803 E0.02860
G1 X168.789 Y79.555 E0.02860
G1 X168.984 Y80.449 E0.02872
G1 X168.984 Y129.557 E1.53974
G1 X168.890 Y130.165 E0.01929
G1 X168.643 Y130.729 E0.01929
G1 X168.259 Y131.210 E0.01929
G1 X167.765 Y131.576 E0.01929
G1 X167.208 Y131.800 E0.01882
G1 X166.616 Y131.877 E0.01870
G1 X74.564 Y131.877 E2.88622
G1 X73.944 Y131.788 E0.01965
G1 X73.372 Y131.543 E0.01953
G1 X72.883 Y131.157 E0.01953
G1 X72.511 Y130.657 E0.01953
G1 X72.288 Y130.104 E0.01870
G1 X72.210 Y129.513 E0.01870
G1 X72.211 Y80.458 E1.53807
G1 X72.302 Y79.846 E0.01941
G1 X72.548 Y79.278 E0.01941
G1 X72.896 Y78.840 E0.01753
G1 E-0.80000 F2100.00000
G1 Z0.800 F10800.000
G1 X76.600 Y82.513
G1 Z0.200
G1 E0.80000 F2100.00000
G1 F1200.000
G1 X110.674 Y82.513 E1.06837
G1 X110.674 Y99.987 E0.54789
G1 X76.600 Y99.987 E1.06837
G1 X76.600 Y82.573 E0.54601
G1 X76.977 Y82.890 F10800.000
G1 F1200.000
G1 X110.297 Y82.890 E1.04473
G1 X110.297 Y99.610 E0.52424
G1 X76.977 Y99.610 E1.04473
G1 X76.977 Y82.950 E0.52236
G1 X76.833 Y82.517 F10800.000
G1 X75.374 Y81.287
G1 F1200.000
G1 X111.970 Y81.287 E1.14744
G1 X111.970 Y101.213 E0.62476
G1 X75.374 Y101.213 E1.14744
G1 X75.374 Y81.347 E0.62288
G1 X74.997 Y80.910 F10800.000
G1 F1200.000
G1 X112.347 Y80.910 E1.17108
G1 X112.347 Y101.590 E0.64841
G1 X74.997 Y101.590 E1.17108
G1 X74.997 Y80.970 E0.64653
G1 X75.392 Y80.977 F10800.000
G1 E-0.80000 F2100.00000
G1 Z0.800 F10800.000
G1 X76.487 Y99.731
G1 Z0.200
G1 E0.80000 F2100.00000
G1 F1200.000
G1 X75.657 Y98.901 E0.03690
G1 X75.657 Y98.366 E0.01681
G1 X76.317 Y99.026 E0.02936
G1 X76.317 Y98.492 E0.01681
G1 X75.657 Y97.832 E0.02936
G1 X75.657 Y97.297 E0.01681
G1 X76.317 Y97.957 E0.02936
G1 X76.317 Y97.422 E0.01681
G1 X75.657 Y96.762 E0.02936
G1 X75.657 Y96.227 E0.01681
G1 X76.317 Y96.888 E0.02936
G1 X76.317 Y96.353 E0.01681
G1 X75.657 Y95.693 E0.02936
G1 X75.657 Y95.158 E0.01681
G1 X76.317 Y95.818 E0.02936
G1 X76.317 Y95.284 E0.01681
G1 X75.657 Y94.623 E0.02936
G1 X75.657 Y94.089 E0.01681
G1 X76.317 Y94.749 E0.02936
G1 X76.317 Y94.214 E0.01681
G1 X75.657 Y93.554 E0.02936
G1 X75.657 Y93.019 E0.01681
G1 X76.317 Y93.679 E0.02936
G1 X76.317 Y93.145 E0.01681
G1 X75.657 Y92.484 E0.02936
G1 X75.657 Y91.950 E0.01681
G1 X76.317 Y92.610 E0.02936
G1 X76.317 Y92.075 E0.01681
G1 X75.657 Y91.415 E0.02936
G1 X75.657 Y90.880 E0.01681
G1 X76.317 Y91.541 E0.02936
G1 X76.317 Y91.006 E0.01681
G1 X75.657 Y90.346 E0.02936
G1 X75.657 Y89.811 E0.01681
G1 X76.317 Y90.471 E0.02936
G1 X76.317 Y89.936 E0.01681
G1 X75.657 Y89.276 E0.02936
G1 X75.657 Y88.741 E0.01681
G1 X76.317 Y89.402 E0.02936
G1 X76.317 Y88.867 E0.01681
G1 X75.657 Y88.207 E0.02936
G1 X75.657 Y87.672 E0.01681
G1 X76.317 Y88.332 E0.02936
G1 X76.317 Y87.798 E0.01681
G1 X75.657 Y87.137 E0.02936
G1 X75.657 Y86.603 E0.01681
G1 X76.317 Y87.263 E0.02936
G1 X76.317 Y86.728 E0.01681
G1 X75.657 Y86.068 E0.02936
G1 X75.657 Y85.533 E0.01681
G1 X76.317 Y86.193 E0.02936
G1 X76.317 Y85.659 E0.01681
G1 X75.657 Y84.998 E0.02936
G1 X75.657 Y84.464 E0.01681
G1 X76.317 Y85.124 E0.02936
G1 X76.317 Y84.589 E0.01681
G1 X75.657 Y83.929 E0.02936
G1 X75.657 Y83.394 E0.01681
G1 X76.317 Y84.055 E0.02936
G1 X76.317 Y83.520 E0.01681
G1 X75.657 Y82.860 E0.02936
G1 X75.657 Y82.325 E0.01681
G1 X76.317 Y82.985 E0.02936
G1 X76.317 Y82.450 E0.01681
G1 X75.657 Y81.790 E0.02936
G1 X75.657 Y81.570 E0.00693
G1 X75.971 Y81.570 E0.00988
G1 X76.632 Y82.230 E0.02936
G1 X77.166 Y82.230 E0.01681
G1 X76.506 Y81.570 E0.02936
G1 X77.041 Y81.570 E0.01681
G1 X77.701 Y82.230 E0.02936
G1 X78.236 Y82.230 E0.01681
G1 X77.576 Y81.570 E0.02936
G1 X78.110 Y81.570 E0.01681
G1 X78.771 Y82.230 E0.02936
G1 X79.305 Y82.230 E0.01681
G1 X78.645 Y81.570 E0.02936
G1 X79.180 Y81.570 E0.01681
G1 X79.840 Y82.230 E0.02936
G1 X80.375 Y82.230 E0.01681
G1 X79.714 Y81.570 E0.02936
G1 X80.249 Y81.570 E0.01681
G1 X80.909 Y82.230 E0.02936
G1 X81.444 Y82.230 E0.01681
G1 X80.784 Y81.570 E0.02936
G1 X81.319 Y81.570 E0.01681
G1 X81.979 Y82.230 E0.02936
G1 X82.514 Y82.230 E0.01681
G1 X81.853 Y81.570 E0.02936
G1 X82.388 Y81.570 E0.01681
G1 X83.048 Y82.230 E0.02936
G1 X83.583 Y82.230 E0.01681
G1 X82.923 Y81.570 E0.02936
G1 X83.457 Y81.570 E0.01681
G1 X84.118 Y82.230 E0.02936
G1 X84.652 Y82.230 E0.01681
G1 X83.992 Y81.570 E0.02936
G1 X84.527 Y81.570 E0.01681
G1 X85.187 Y82.230 E0.02936
G1 X85.722 Y82.230 E0.01681
G1 X85.062 Y81.570 E0.02936
G1 X85.596 Y81.570 E0.01681
G1 X86.256 Y82.230 E0.02936
G1 X86.791 Y82.230 E0.01681
G1 X86.131 Y81.570 E0.02936
G1 X86.666 Y81.570 E0.01681
G1 X87.326 Y82.230 E0.02936
G1 X87.861 Y82.230 E0.01681
G1 X87.200 Y81.570 E0.02936
G1 X87.735 Y81.570 E0.01681
G1 X88.395 Y82.230 E0.02936
G1 X88.930 Y82.230 E0.01681
G1 X88.270 Y81.570 E0.02936
G1 X88.805 Y81.570 E0.01681
G1 X89.465 Y82.230 E0.02936
G1 X89.999 Y82.230 E0.01681
G1 X89.339 Y81.570 E0.02936
G1 X89.874 Y81.570 E0.01681
G1 X90.534 Y82.230 E0.02936
G1 X91.069 Y82.230 E0.01681
G1 X90.409 Y81.570 E0.02936
G1 X90.943 Y81.570 E0.01681
G1 X91.604 Y82.230 E0.02936
G1 X92.138 Y82.230 E0.01681
G1 X91.478 Y81.570 E0.02936
G1 X92.013 Y81.570 E0.01681
G1 X92.673 Y82.230 E0.02936
G1 X93.208 Y82.230 E0.01681
G1 X92.547 Y81.570 E0.02936
G1 X93.082 Y81.570 E0.01681
G1 X93.742 Y82.230 E0.02936
G1 X94.277 Y82.230 E0.01681
G1 X93.617 Y81.570 E0.02936
G1 X94.152 Y81.570 E0.01681
G1 X94.812 Y82.230 E0.02936
G1 X95.347 Y82.230 E0.01681
G1 X94.686 Y81.570 E0.02936
G1 X95.221 Y81.570 E0.01681
G1 X95.881 Y82.230 E0.02936
G1 X96.416 Y82.230 E0.01681
G1 X95.756 Y81.570 E0.02936
G1 X96.290 Y81.570 E0.01681
G1 X96.951 Y82.230 E0.02936
G1 X97.485 Y82.230 E0.01681
G1 X96.825 Y81.570 E0.02936
G1 X97.360 Y81.570 E0.01681
G1 X98.020 Y82.230 E0.02936
G1 X98.555 Y82.230 E0.01681
G1 X97.895 Y81.570 E0.02936
G1 X98.429 Y81.570 E0.01681
G1 X99.090 Y82.230 E0.02936
G1 X99.624 Y82.230 E0.01681
G1 X98.964 Y81.570 E0.02936
G1 X99.499 Y81.570 E0.01681
G1 X100.159 Y82.230 E0.02936
G1 X100.694 Y82.230 E0.01681
G1 X100.033 Y81.570 E0.02936
G1 X100.568 Y81.570 E0.01681
G1 X101.228 Y82.230 E0.02936
G1 X101.763 Y82.230 E0.01681
G1 X101.103 Y81.570 E0.02936
G1 X101.638 Y81.570 E0.01681
G1 X102.298 Y82.230 E0.02936
G1 X102.833 Y82.230 E0.01681
G1 X102.172 Y81.570 E0.02936
G1 X102.707 Y81.570 E0.01681
G1 X103.367 Y82.230 E0.02936
G1 X103.902 Y82.230 E0.01681
G1 X103.242 Y81.570 E0.02936
G1 X103.776 Y81.570 E0.01681
G1 X104.437 Y82.230 E0.02936
G1 X104.971 Y82.230 E0.01681
G1 X104.311 Y81.570 E0.02936
G1 X104.846 Y81.570 E0.01681
G1 X105.506 Y82.230 E0.02936
G1 X106.041 Y82.230 E0.01681
G1 X105.381 Y81.570 E0.02936
G1 X105.915 Y81.570 E0.01681
G1 X106.575 Y82.230 E0.02936
G1 X107.110 Y82.230 E0.01681
G1 X106.450 Y81.570 E0.02936
G1 X106.985 Y81.570 E0.01681
G1 X107.645 Y82.230 E0.02936
G1 X108.180 Y82.230 E0.01681
G1 X107.519 Y81.570 E0.02936
G1 X108.054 Y81.570 E0.01681
G1 X108.714 Y82.230 E0.02936
G1 X109.249 Y82.230 E0.01681
G1 X108.589 Y81.570 E0.02936
G1 X109.123 Y81.570 E0.01681
G1 X109.784 Y82.230 E0.02936
G1 X110.318 Y82.230 E0.01681
G1 X109.658 Y81.570 E0.02936
G1 X110.193 Y81.570 E0.01681
G1 X111.687 Y83.064 E0.06645
G1 X111.687 Y82.530 E0.01681
G1 X110.728 Y81.570 E0.04267
G1 X111.262 Y81.570 E0.01681
G1 X111.857 Y82.165 E0.02644
G1 X111.857 Y83.769 F10800.000
G1 F1200.000
G1 X110.957 Y82.869 E0.04001
G1 X110.957 Y83.404 E0.01681
G1 X111.687 Y84.134 E0.03247
G1 X111.687 Y84.668 E0.01681
G1 X110.957 Y83.938 E0.03247
G1 X110.957 Y84.473 E0.01681
G1 X111.687 Y85.203 E0.03247
G1 X111.687 Y85.738 E0.01681
G1 X110.957 Y85.008 E0.03247
G1 X110.957 Y85.542 E0.01681
G1 X111.687 Y86.273 E0.03247
G1 X111.687 Y86.807 E0.01681
G1 X110.957 Y86.077 E0.03247
G1 X110.957 Y86.612 E0.01681
G1 X111.687 Y87.342 E0.03247
G1 X111.687 Y87.877 E0.01681
G1 X110.957 Y87.146 E0.03247
G1 X110.957 Y87.681 E0.01681
G1 X111.687 Y88.411 E0.03247
G1 X111.687 Y88.946 E0.01681
G1 X110.957 Y88.216 E0.03247
G1 X110.957 Y88.751 E0.01681
G1 X111.687 Y89.481 E0.03247
G1 X111.687 Y90.016 E0.01681
G1 X110.957 Y89.285 E0.03247
G1 X110.957 Y89.820 E0.01681
G1 X111.687 Y90.550 E0.03247
G1 X111.687 Y91.085 E0.01681
G1 X110.957 Y90.355 E0.03247
G1 X110.957 Y90.889 E0.01681
G1 X111.687 Y91.620 E0.03247
G1 X111.687 Y92.154 E0.01681
G1 X110.957 Y91.424 E0.03247
G1 X110.957 Y91.959 E0.01681
G1 X111.687 Y92.689 E0.03247
G1 X111.687 Y93.224 E0.01681
G1 X110.957 Y92.494 E0.03247
G1 X110.957 Y93.028 E0.01681
G1 X111.687 Y93.759 E0.03247
G1 X111.687 Y94.293 E0.01681
G1 X110.957 Y93.563 E0.03247
G1 X110.957 Y94.098 E0.01681
G1 X111.687 Y94.828 E0.03247
G1 X111.687 Y95.363 E0.01681
G1 X110.957 Y94.632 E0.03247
G1 X110.957 Y95.167 E0.01681
G1 X111.687 Y95.897 E0.03247
G1 X111.687 Y96.432 E0.01681
G1 X110.957 Y95.702 E0.03247
G1 X110.957 Y96.237 E0.01681
G1 X111.687 Y96.967 E0.03247
G1 X111.687 Y97.502 E0.01681
G1 X110.957 Y96.771 E0.03247
G1 X110.957 Y97.306 E0.01681
G1 X111.687 Y98.036 E0.03247
G1 X111.687 Y98.571 E0.01681
G1 X110.957 Y97.841 E0.03247
G1 X110.957 Y98.375 E0.01681
G1 X111.687 Y99.106 E0.03247
G1 X111.687 Y99.640 E0.01681
G1 X110.957 Y98.910 E0.03247
G1 X110.957 Y99.445 E0.01681
G1 X111.687 Y100.175 E0.03247
G1 X111.687 Y100.710 E0.01681
G1 X110.957 Y99.980 E0.03247
G1 X110.957 Y100.270 E0.00913
G1 X110.713 Y100.270 E0.00768
G1 X111.373 Y100.930 E0.02936
G1 X110.838 Y100.930 E0.01681
G1 X110.178 Y100.270 E0.02936
G1 X109.643 Y100.270 E0.01681
G1 X110.304 Y100.930 E0.02936
G1 X109.769 Y100.930 E0.01681
G1 X109.109 Y100.270 E0.02936
G1 X108.574 Y100.270 E0.01681
G1 X109.234 Y100.930 E0.02936
G1 X108.699 Y100.930 E0.01681
G1 X108.039 Y100.270 E0.02936
G1 X107.505 Y100.270 E0.01681
G1 X108.165 Y100.930 E0.02936
G1 X107.630 Y100.930 E0.01681
G1 X106.970 Y100.270 E0.02936
G1 X106.435 Y100.270 E0.01681
G1 X107.095 Y100.930 E0.02936
G1 X106.561 Y100.930 E0.01681
G1 X105.900 Y100.270 E0.02936
G1 X105.366 Y100.270 E0.01681
G1 X106.026 Y100.930 E0.02936
G1 X105.491 Y100.930 E0.01681
G1 X104.831 Y100.270 E0.02936
G1 X104.296 Y100.270 E0.01681
G1 X104.956 Y100.930 E0.02936
G1 X104.422 Y100.930 E0.01681
G1 X103.762 Y100.270 E0.02936
G1 X103.227 Y100.270 E0.01681
G1 X103.887 Y100.930 E0.02936
G1 X103.352 Y100.930 E0.01681
G1 X102.692 Y100.270 E0.02936
G1 X102.157 Y100.270 E0.01681
G1 X102.818 Y100.930 E0.02936
G1 X102.283 Y100.930 E0.01681
G1 X101.623 Y100.270 E0.02936
G1 X101.088 Y100.270 E0.01681
G1 X101.748 Y100.930 E0.02936
G1 X101.214 Y100.930 E0.01681
G1 X100.553 Y100.270 E0.02936
G1 X100.019 Y100.270 E0.01681
G1 X100.679 Y100.930 E0.02936
G1 X100.144 Y100.930 E0.01681
G1 X99.484 Y100.270 E0.02936
G1 X98.949 Y100.270 E0.01681
G1 X99.609 Y100.930 E0.02936
G1 X99.075 Y100.930 E0.01681
G1 X98.414 Y100.270 E0.02936
G1 X97.880 Y100.270 E0.01681
G1 X98.540 Y100.930 E0.02936
G1 X98.005 Y100.930 E0.01681
G1 X97.345 Y100.270 E0.02936
G1 X96.810 Y100.270 E0.01681
G1 X97.471 Y100.930 E0.02936
G1 X96.936 Y100.930 E0.01681
G1 X96.276 Y100.270 E0.02936
G1 X95.741 Y100.270 E0.01681
G1 X96.401 Y100.930 E0.02936
G1 X95.866 Y100.930 E0.01681
G1 X95.206 Y100.270 E0.02936
G1 X94.671 Y100.270 E0.01681
G1 X95.332 Y100.930 E0.02936
G1 X94.797 Y100.930 E0.01681
G1 X94.137 Y100.270 E0.02936
G1 X93.602 Y100.270 E0.01681
G1 X94.262 Y100.930 E0.02936
G1 X93.728 Y100.930 E0.01681
G1 X93.067 Y100.270 E0.02936
G1 X92.533 Y100.270 E0.01681
G1 X93.193 Y100.930 E0.02936
G1 X92.658 Y100.930 E0.01681
G1 X91.998 Y100.270 E0.02936
G1 X91.463 Y100.270 E0.01681
G1 X92.123 Y100.930 E0.02936
G1 X91.589 Y100.930 E0.01681
G1 X90.929 Y100.270 E0.02936
G1 X90.394 Y100.270 E0.01681
G1 X91.054 Y100.930 E0.02936
G1 X90.519 Y100.930 E0.01681
G1 X89.859 Y100.270 E0.02936
G1 X89.324 Y100.270 E0.01681
G1 X89.985 Y100.930 E0.02936
G1 X89.450 Y100.930 E0.01681
G1 X88.790 Y100.270 E0.02936
G1 X88.255 Y100.270 E0.01681
G1 X88.915 Y100.930 E0.02936
G1 X88.380 Y100.930 E0.01681
G1 X87.720 Y100.270 E0.02936
G1 X87.186 Y100.270 E0.01681
G1 X87.846 Y100.930 E0.02936
G1 X87.311 Y100.930 E0.01681
G1 X86.651 Y100.270 E0.02936
G1 X86.116 Y100.270 E0.01681
G1 X86.776 Y100.930 E0.02936
G1 X86.242 Y100.930 E0.01681
G1 X85.581 Y100.270 E0.02936
G1 X85.047 Y100.270 E0.01681
G1 X85.707 Y100.930 E0.02936
G1 X85.172 Y100.930 E0.01681
G1 X84.512 Y100.270 E0.02936
G1 X83.977 Y100.270 E0.01681
G1 X84.638 Y100.930 E0.02936
G1 X84.103 Y100.930 E0.01681
G1 X83.443 Y100.270 E0.02936
G1 X82.908 Y100.270 E0.01681
G1 X83.568 Y100.930 E0.02936
G1 X83.033 Y100.930 E0.01681
G1 X82.373 Y100.270 E0.02936
G1 X81.838 Y100.270 E0.01681
G1 X82.499 Y100.930 E0.02936
G1 X81.964 Y100.930 E0.01681
G1 X81.304 Y100.270 E0.02936
G1 X80.769 Y100.270 E0.01681
G1 X81.429 Y100.930 E0.02936
G1 X80.895 Y100.930 E0.01681
G1 X80.234 Y100.270 E0.02936
G1 X79.700 Y100.270 E0.01681
G1 X80.360 Y100.930 E0.02936
G1 X79.825 Y100.930 E0.01681
G1 X79.165 Y100.270 E0.02936
G1 X78.630 Y100.270 E0.01681
G1 X79.290 Y100.930 E0.02936
G1 X78.756 Y100.930 E0.01681
G1 X78.095 Y100.270 E0.02936
G1 X77.561 Y100.270 E0.01681
G1 X78.221 Y100.930 E0.02936
G1 X77.686 Y100.930 E0.01681
G1 X76.856 Y100.100 E0.03690
G1 X77.321 Y101.100 F10800.000
G1 F1200.000
G1 X75.657 Y99.436 E0.07399
G1 X75.657 Y99.970 E0.01681
G1 X76.617 Y100.930 E0.04267
G1 X76.082 Y100.930 E0.01681
G1 X75.487 Y100.335 E0.02644
G1 E-0.80000 F2100.00000
G1 Z0.800 F10800.000
G1 X76.600 Y110.013
G1 Z0.200
G1 E0.80000 F2100.00000
G1 F1200.000
G1 X110.674 Y110.013 E1.06837
G1 X110.674 Y127.487 E0.54789
M73 P2 R52
G1 X76.600 Y127.487 E1.06837
G1 X76.600 Y110.073 E0.54601
G1 X76.977 Y110.390 F10800.000
G1 F1200.000
G1 X110.297 Y110.390 E1.04473
G1 X110.297 Y127.110 E0.52424
G1 X76.977 Y127.110 E1.04473
G1 X76.977 Y110.450 E0.52236
G1 X76.833 Y110.017 F10800.000
G1 X75.374 Y108.787
G1 F1200.000
G1 X111.970 Y108.787 E1.14744
G1 X111.970 Y128.713 E0.62476
G1 X75.374 Y128.713 E1.14744
G1 X75.374 Y108.847 E0.62288
G1 X74.997 Y108.410 F10800.000
G1 F1200.000
G1 X112.347 Y108.410 E1.17108
G1 X112.347 Y129.090 E0.64841
G1 X74.997 Y129.090 E1.17108
G1 X74.997 Y108.470 E0.64653
G1 X75.392 Y108.477 F10800.000
G1 E-0.80000 F2100.00000
G1 Z0.800 F10800.000
G1 X76.487 Y127.231
G1 Z0.200
G1 E0.80000 F2100.00000
G1 F1200.000
G1 X75.657 Y126.401 E0.03690
G1 X75.657 Y125.866 E0.01681
G1 X76.317 Y126.526 E0.02936
G1 X76.317 Y125.992 E0.01681
G1 X75.657 Y125.332 E0.02936
G1 X75.657 Y124.797 E0.01681
G1 X76.317 Y125.457 E0.02936
G1 X76.317 Y124.922 E0.01681
G1 X75.657 Y124.262 E0.02936
G1 X75.657 Y123.727 E0.01681
G1 X76.317 Y124.388 E0.02936
