; generated by PrusaSlicer 2.2.0+win64 on 2020-07-30 at 16:15:59 UTC

; 

; external perimeters extrusion width = 0.60mm
; perimeters extrusion width = 0.43mm
; infill extrusion width = 0.45mm
; solid infill extrusion width = 0.70mm
; top infill extrusion width = 0.43mm
; first layer extrusion width = 0.42mm

M73 P0 R103
M201 X9000 Y9000 Z500 E10000 ; sets maximum accelerations, mm/sec^2
M203 X500 Y500 Z12 E120 ; sets maximum feedrates, mm/sec
M204 P2000 R1500 T2000 ; sets acceleration (P, T) and retract acceleration (R), mm/sec^2
M205 X10.00 Y10.00 Z0.20 E2.50 ; sets the jerk limits, mm/sec
M205 S0 T0 ; sets the minimum extruding and travel feed rate, mm/sec
M107
M862.3 P "MK2S" ; printer model check
M862.1 P0.4 ; nozzle diameter check
M115 U3.2.3 ; tell printer latest fw version
G90 ; use absolute coordinates
M83 ; extruder relative mode
M204 S2000 T1500 ; MK2 firmware only supports the old M204 format
M104 S215 ; set extruder temp
M140 S60 ; set bed temp
M190 S60 ; wait for bed temp
M109 S215 ; wait for extruder temp
G28 W ; home all without mesh bed level
G80 ; mesh bed leveling
G1 Y-3.0 F1000.0 ; go outside print area
G92 E0.0
G1 X60.0 E9.0  F1000.0 ; intro line
M73 P0 R103
G1 X100.0 E12.5 F1000.0 ; intro line
G92 E0.0
G21 ; set units to millimeters
G90 ; use absolute coordinates
M83 ; use relative distances for extrusion
M900 K0.06 ; Filament gcode LA 1.5
M900 K30 ; Filament gcode LA 1.0
;BEFORE_LAYER_CHANGE
G92 E0.0
;0.2


G1 E-0.80000 F2100.00000
G1 Z0.600 F10800.000
;AFTER_LAYER_CHANGE
;0.2
G1 X72.356 Y39.664
G1 Z0.200
G1 E0.80000 F2100.00000
M204 S1000
G1 F1200.000
G1 X72.672 Y39.033 E0.02213
G1 X73.047 Y38.614 E0.01763
G1 X73.507 Y38.297 E0.01752
G1 X74.032 Y38.096 E0.01763
G1 X74.590 Y38.023 E0.01763
G1 X166.641 Y38.023 E2.88618
G1 X167.440 Y38.163 E0.02543
G1 X168.145 Y38.563 E0.02543
G1 X168.675 Y39.177 E0.02543
G1 X168.967 Y39.930 E0.02532
G1 X178.139 Y95.203 E1.75676
G1 X178.147 Y169.611 E2.33301
G1 X178.035 Y170.320 E0.02249
G1 X177.715 Y170.966 E0.02260
G1 X177.337 Y171.387 E0.01775
G1 X176.874 Y171.705 E0.01763
G1 X176.344 Y171.907 E0.01775
G1 X175.783 Y171.977 E0.01775
G1 X74.219 Y171.977 E3.18447
G1 X73.510 Y171.865 E0.02249
G1 X72.864 Y171.545 E0.02260
G1 X72.443 Y171.167 E0.01775
G1 X72.123 Y170.700 E0.01775
G1 X71.922 Y170.171 E0.01775
G1 X71.853 Y169.605 E0.01787
G1 X71.853 Y95.383 E2.32717
G1 X72.240 Y40.364 E1.72513
G1 X72.346 Y39.723 E0.02037
G1 E-0.80000 F2100.00000
G1 Z0.800 F10800.000
G1 X128.787 Y136.287
G1 Z0.200
G1 E0.80000 F2100.00000
G1 F1200.000
G1 X174.983 Y136.287 E1.44844
G1 X174.983 Y168.813 E1.01982
G1 X128.787 Y168.813 E1.44844
G1 X128.787 Y136.347 E1.01794
G1 X128.410 Y135.910 F10800.000
G1 F1200.000
G1 X175.360 Y135.910 E1.47208
G1 X175.360 Y169.190 E1.04347
G1 X128.410 Y169.190 E1.47208
G1 X128.410 Y135.970 E1.04159
G1 X128.802 Y135.992 F10800.000
G1 E-0.80000 F2100.00000
G1 Z0.800 F10800.000
G1 X174.870 Y137.167
G1 Z0.200
G1 E0.80000 F2100.00000
G1 F1200.000
G1 X174.272 Y136.570 E0.02666
G1 X173.736 Y136.570 E0.01693
G1 X174.700 Y137.534 E0.04304
G1 X174.700 Y138.071 E0.01693
G1 X173.199 Y136.570 E0.06698
G1 X172.662 Y136.570 E0.01693
G1 X174.700 Y138.608 E0.09092
G1 X174.700 Y139.144 E0.01693
G1 X172.126 Y136.570 E0.11486
G1 X171.589 Y136.570 E0.01693
G1 X174.700 Y139.681 E0.13881
G1 X174.700 Y140.217 E0.01693
G1 X171.053 Y136.570 E0.16275
G1 X170.516 Y136.570 E0.01693
G1 X174.700 Y140.754 E0.18669
G1 X174.700 Y141.291 E0.01693
G1 X169.979 Y136.570 E0.21064
G1 X169.443 Y136.570 E0.01693
G1 X174.700 Y141.827 E0.23458
G1 X174.700 Y142.364 E0.01693
G1 X168.906 Y136.570 E0.25852
G1 X168.370 Y136.570 E0.01693
G1 X174.700 Y142.900 E0.28246
G1 X174.700 Y143.437 E0.01693
G1 X167.833 Y136.570 E0.30641
G1 X167.296 Y136.570 E0.01693
G1 X174.700 Y143.974 E0.33035
G1 X174.700 Y144.510 E0.01693
G1 X166.760 Y136.570 E0.35429
G1 X166.223 Y136.570 E0.01693
G1 X174.700 Y145.047 E0.37824
G1 X174.700 Y145.583 E0.01693
G1 X165.687 Y136.570 E0.40218
G1 X165.150 Y136.570 E0.01693
G1 X174.700 Y146.120 E0.42612
G1 X174.700 Y146.657 E0.01693
G1 X164.613 Y136.570 E0.45006
G1 X164.077 Y136.570 E0.01693
G1 X174.700 Y147.193 E0.47401
G1 X174.700 Y147.730 E0.01693
G1 X163.540 Y136.570 E0.49795
G1 X163.003 Y136.570 E0.01693
G1 X174.700 Y148.267 E0.52189
G1 X174.700 Y148.803 E0.01693
G1 X162.467 Y136.570 E0.54584
G1 X161.930 Y136.570 E0.01693
G1 X174.700 Y149.340 E0.56978
G1 X174.700 Y149.876 E0.01693
G1 X161.394 Y136.570 E0.59372
G1 X160.857 Y136.570 E0.01693
G1 X174.700 Y150.413 E0.61766
G1 X174.700 Y150.950 E0.01693
G1 X160.320 Y136.570 E0.64161
G1 X159.784 Y136.570 E0.01693
G1 X174.700 Y151.486 E0.66555
M73 P1 R102
G1 X174.700 Y152.023 E0.01693
G1 X159.247 Y136.570 E0.68949
G1 X158.711 Y136.570 E0.01693
G1 X174.700 Y152.559 E0.71344
G1 X174.700 Y153.096 E0.01693
G1 X158.174 Y136.570 E0.73738
G1 X157.637 Y136.570 E0.01693
G1 X174.700 Y153.633 E0.76132
G1 X174.700 Y154.169 E0.01693
G1 X157.101 Y136.570 E0.78526
G1 X156.564 Y136.570 E0.01693
G1 X174.700 Y154.706 E0.80921
G1 X174.700 Y155.242 E0.01693
G1 X156.028 Y136.570 E0.83315
G1 X155.491 Y136.570 E0.01693
G1 X174.700 Y155.779 E0.85709
G1 X174.700 Y156.316 E0.01693
G1 X154.954 Y136.570 E0.88103
G1 X154.418 Y136.570 E0.01693
G1 X174.700 Y156.852 E0.90498
G1 X174.700 Y157.389 E0.01693
G1 X153.881 Y136.570 E0.92892
G1 X153.345 Y136.570 E0.01693
G1 X174.700 Y157.925 E0.95286
G1 X174.700 Y158.462 E0.01693
G1 X152.808 Y136.570 E0.97681
G1 X152.271 Y136.570 E0.01693
G1 X174.700 Y158.999 E1.00075
G1 X174.700 Y159.535 E0.01693
G1 X151.735 Y136.570 E1.02469
G1 X151.198 Y136.570 E0.01693
G1 X174.700 Y160.072 E1.04863
G1 X174.700 Y160.608 E0.01693
G1 X150.662 Y136.570 E1.07258
G1 X150.125 Y136.570 E0.01693
G1 X174.700 Y161.145 E1.09652
G1 X174.700 Y161.682 E0.01693
G1 X149.588 Y136.570 E1.12046
G1 X149.052 Y136.570 E0.01693
G1 X174.700 Y162.218 E1.14441
G1 X174.700 Y162.755 E0.01693
G1 X148.515 Y136.570 E1.16835
G1 X147.979 Y136.570 E0.01693
G1 X174.700 Y163.291 E1.19229
G1 X174.700 Y163.828 E0.01693
G1 X147.442 Y136.570 E1.21623
G1 X146.905 Y136.570 E0.01693
G1 X174.700 Y164.365 E1.24018
G1 X174.700 Y164.901 E0.01693
G1 X146.369 Y136.570 E1.26412
G1 X145.832 Y136.570 E0.01693
G1 X174.700 Y165.438 E1.28806
G1 X174.700 Y165.975 E0.01693
G1 X145.295 Y136.570 E1.31201
G1 X144.759 Y136.570 E0.01693
G1 X174.700 Y166.511 E1.33595
G1 X174.700 Y167.048 E0.01693
G1 X144.222 Y136.570 E1.35989
G1 X143.686 Y136.570 E0.01693
G1 X174.700 Y167.584 E1.38383
G1 X174.700 Y168.121 E0.01693
G1 X143.149 Y136.570 E1.40778
G1 X142.612 Y136.570 E0.01693
G1 X174.573 Y168.530 E1.42603
G1 X174.036 Y168.530 E0.01693
G1 X142.076 Y136.570 E1.42603
G1 X141.539 Y136.570 E0.01693
G1 X173.499 Y168.530 E1.42603
G1 X172.963 Y168.530 E0.01693
G1 X141.003 Y136.570 E1.42603
M73 P2 R101
G1 X140.466 Y136.570 E0.01693
G1 X172.426 Y168.530 E1.42603
G1 X171.890 Y168.530 E0.01693
G1 X139.929 Y136.570 E1.42603
G1 X139.393 Y136.570 E0.01693
G1 X171.353 Y168.530 E1.42603
G1 X170.816 Y168.530 E0.01693
G1 X138.856 Y136.570 E1.42603
G1 X138.320 Y136.570 E0.01693
G1 X170.280 Y168.530 E1.42603
G1 X169.743 Y168.530 E0.01693
G1 X137.783 Y136.570 E1.42603
G1 X137.246 Y136.570 E0.01693
G1 X169.207 Y168.530 E1.42603
G1 X168.670 Y168.530 E0.01693
G1 X136.710 Y136.570 E1.42603
G1 X136.173 Y136.570 E0.01693
G1 X168.133 Y168.530 E1.42603
G1 X167.597 Y168.530 E0.01693
G1 X135.637 Y136.570 E1.42603
G1 X135.100 Y136.570 E0.01693
G1 X167.060 Y168.530 E1.42603
G1 X166.524 Y168.530 E0.01693
G1 X134.563 Y136.570 E1.42603
G1 X134.027 Y136.570 E0.01693
G1 X165.987 Y168.530 E1.42603
G1 X165.450 Y168.530 E0.01693
G1 X133.490 Y136.570 E1.42603
G1 X132.954 Y136.570 E0.01693
G1 X164.914 Y168.530 E1.42603
G1 X164.377 Y168.530 E0.01693
G1 X132.417 Y136.570 E1.42603
G1 X131.880 Y136.570 E0.01693
G1 X163.841 Y168.530 E1.42603
G1 X163.304 Y168.530 E0.01693
G1 X131.344 Y136.570 E1.42603
G1 X130.807 Y136.570 E0.01693
G1 X162.767 Y168.530 E1.42603
G1 X162.231 Y168.530 E0.01693
G1 X130.270 Y136.570 E1.42603
G1 X129.734 Y136.570 E0.01693
G1 X161.694 Y168.530 E1.42603
G1 X161.158 Y168.530 E0.01693
G1 X129.197 Y136.570 E1.42603
G1 X129.070 Y136.570 E0.00402
G1 X129.070 Y136.979 E0.01291
G1 X160.621 Y168.530 E1.40778
G1 X160.084 Y168.530 E0.01693
G1 X129.070 Y137.516 E1.38383
G1 X129.070 Y138.052 E0.01693
G1 X159.548 Y168.530 E1.35989
G1 X159.011 Y168.530 E0.01693
G1 X129.070 Y138.589 E1.33595
G1 X129.070 Y139.125 E0.01693
G1 X158.474 Y168.530 E1.31200
M73 P3 R100
G1 X157.938 Y168.530 E0.01693
G1 X129.070 Y139.662 E1.28806
G1 X129.070 Y140.199 E0.01693
G1 X157.401 Y168.530 E1.26412
G1 X156.865 Y168.530 E0.01693
G1 X129.070 Y140.735 E1.24018
G1 X129.070 Y141.272 E0.01693
G1 X156.328 Y168.530 E1.21623
G1 X155.791 Y168.530 E0.01693
G1 X129.070 Y141.809 E1.19229
G1 X129.070 Y142.345 E0.01693
G1 X155.255 Y168.530 E1.16835
G1 X154.718 Y168.530 E0.01693
G1 X129.070 Y142.882 E1.14441
G1 X129.070 Y143.418 E0.01693
G1 X154.182 Y168.530 E1.12046
G1 X153.645 Y168.530 E0.01693
G1 X129.070 Y143.955 E1.09652
G1 X129.070 Y144.492 E0.01693
G1 X153.108 Y168.530 E1.07258
G1 X152.572 Y168.530 E0.01693
G1 X129.070 Y145.028 E1.04863
G1 X129.070 Y145.565 E0.01693
G1 X152.035 Y168.530 E1.02469
G1 X151.499 Y168.530 E0.01693
G1 X129.070 Y146.101 E1.00075
G1 X129.070 Y146.638 E0.01693
G1 X150.962 Y168.530 E0.97681
G1 X150.425 Y168.530 E0.01693
G1 X129.070 Y147.175 E0.95286
G1 X129.070 Y147.711 E0.01693
G1 X149.889 Y168.530 E0.92892
G1 X149.352 Y168.530 E0.01693
G1 X129.070 Y148.248 E0.90498
G1 X129.070 Y148.784 E0.01693
G1 X148.816 Y168.530 E0.88103
G1 X148.279 Y168.530 E0.01693
G1 X129.070 Y149.321 E0.85709
G1 X129.070 Y149.858 E0.01693
G1 X147.742 Y168.530 E0.83315
G1 X147.206 Y168.530 E0.01693
G1 X129.070 Y150.394 E0.80921
G1 X129.070 Y150.931 E0.01693
G1 X146.669 Y168.530 E0.78526
G1 X146.133 Y168.530 E0.01693
G1 X129.070 Y151.467 E0.76132
G1 X129.070 Y152.004 E0.01693
G1 X145.596 Y168.530 E0.73738
G1 X145.059 Y168.530 E0.01693
G1 X129.070 Y152.541 E0.71343
G1 X129.070 Y153.077 E0.01693
G1 X144.523 Y168.530 E0.68949
G1 X143.986 Y168.530 E0.01693
G1 X129.070 Y153.614 E0.66555
G1 X129.070 Y154.150 E0.01693
G1 X143.450 Y168.530 E0.64161
G1 X142.913 Y168.530 E0.01693
G1 X129.070 Y154.687 E0.61766
G1 X129.070 Y155.224 E0.01693
G1 X142.376 Y168.530 E0.59372
G1 X141.840 Y168.530 E0.01693
G1 X129.070 Y155.760 E0.56978
G1 X129.070 Y156.297 E0.01693
G1 X141.303 Y168.530 E0.54583
G1 X140.766 Y168.530 E0.01693
G1 X129.070 Y156.834 E0.52189
G1 X129.070 Y157.370 E0.01693
G1 X140.230 Y168.530 E0.49795
G1 X139.693 Y168.530 E0.01693
G1 X129.070 Y157.907 E0.47401
G1 X129.070 Y158.443 E0.01693
G1 X139.157 Y168.530 E0.45006
G1 X138.620 Y168.530 E0.01693
G1 X129.070 Y158.980 E0.42612
G1 X129.070 Y159.517 E0.01693
G1 X138.083 Y168.530 E0.40218
G1 X137.547 Y168.530 E0.01693
G1 X129.070 Y160.053 E0.37823
G1 X129.070 Y160.590 E0.01693
G1 X137.010 Y168.530 E0.35429
G1 X136.474 Y168.530 E0.01693
G1 X129.070 Y161.126 E0.33035
G1 X129.070 Y161.663 E0.01693
G1 X135.937 Y168.530 E0.30641
G1 X135.400 Y168.530 E0.01693
G1 X129.070 Y162.200 E0.28246
G1 X129.070 Y162.736 E0.01693
G1 X134.864 Y168.530 E0.25852
G1 X134.327 Y168.530 E0.01693
G1 X129.070 Y163.273 E0.23458
G1 X129.070 Y163.809 E0.01693
G1 X133.791 Y168.530 E0.21063
G1 X133.254 Y168.530 E0.01693
G1 X129.070 Y164.346 E0.18669
G1 X129.070 Y164.883 E0.01693
G1 X132.717 Y168.530 E0.16275
G1 X132.181 Y168.530 E0.01693
G1 X129.070 Y165.419 E0.13881
G1 X129.070 Y165.956 E0.01693
G1 X131.644 Y168.530 E0.11486
G1 X131.108 Y168.530 E0.01693
G1 X129.070 Y166.492 E0.09092
G1 X129.070 Y167.029 E0.01693
G1 X130.571 Y168.530 E0.06698
G1 X130.034 Y168.530 E0.01693
G1 X129.070 Y167.566 E0.04303
G1 X129.070 Y168.102 E0.01693
G1 X129.667 Y168.700 E0.02666
G1 E-0.80000 F2100.00000
G1 Z0.800 F10800.000
G1 X128.787 Y128.713
G1 Z0.200
G1 E0.80000 F2100.00000
G1 F1200.000
G1 X128.787 Y96.187 E1.01982
M73 P4 R99
G1 X174.983 Y96.187 E1.44844
G1 X174.983 Y128.713 E1.01982
G1 X128.847 Y128.713 E1.44656
G1 X128.410 Y129.090 F10800.000
G1 F1200.000
G1 X128.410 Y95.810 E1.04347
G1 X175.360 Y95.810 E1.47208
G1 X175.360 Y129.090 E1.04347
G1 X128.470 Y129.090 E1.47020
G1 X128.535 Y128.710 F10800.000
G1 E-0.80000 F2100.00000
G1 Z0.800 F10800.000
G1 X174.870 Y97.067
G1 Z0.200
G1 E0.80000 F2100.00000
G1 F1200.000
G1 X174.272 Y96.470 E0.02666
G1 X173.736 Y96.470 E0.01693
G1 X174.700 Y97.434 E0.04304
G1 X174.700 Y97.971 E0.01693
G1 X173.199 Y96.470 E0.06698
G1 X172.662 Y96.470 E0.01693
G1 X174.700 Y98.508 E0.09092
G1 X174.700 Y99.044 E0.01693
G1 X172.126 Y96.470 E0.11486
G1 X171.589 Y96.470 E0.01693
G1 X174.700 Y99.581 E0.13881
G1 X174.700 Y100.117 E0.01693
G1 X171.053 Y96.470 E0.16275
G1 X170.516 Y96.470 E0.01693
G1 X174.700 Y100.654 E0.18669
G1 X174.700 Y101.191 E0.01693
G1 X169.979 Y96.470 E0.21064
G1 X169.443 Y96.470 E0.01693
G1 X174.700 Y101.727 E0.23458
G1 X174.700 Y102.264 E0.01693
G1 X168.906 Y96.470 E0.25852
G1 X168.370 Y96.470 E0.01693
G1 X174.700 Y102.800 E0.28246
G1 X174.700 Y103.337 E0.01693
G1 X167.833 Y96.470 E0.30641
G1 X167.296 Y96.470 E0.01693
G1 X174.700 Y103.874 E0.33035
G1 X174.700 Y104.410 E0.01693
G1 X166.760 Y96.470 E0.35429
G1 X166.223 Y96.470 E0.01693
G1 X174.700 Y104.947 E0.37824
G1 X174.700 Y105.483 E0.01693
G1 X165.687 Y96.470 E0.40218
G1 X165.150 Y96.470 E0.01693
G1 X174.700 Y106.020 E0.42612
G1 X174.700 Y106.557 E0.01693
G1 X164.613 Y96.470 E0.45006
G1 X164.077 Y96.470 E0.01693
G1 X174.700 Y107.093 E0.47401
G1 X174.700 Y107.630 E0.01693
G1 X163.540 Y96.470 E0.49795
G1 X163.003 Y96.470 E0.01693
G1 X174.700 Y108.167 E0.52189
G1 X174.700 Y108.703 E0.01693
G1 X162.467 Y96.470 E0.54584
G1 X161.930 Y96.470 E0.01693
G1 X174.700 Y109.240 E0.56978
G1 X174.700 Y109.776 E0.01693
G1 X161.394 Y96.470 E0.59372
G1 X160.857 Y96.470 E0.01693
G1 X174.700 Y110.313 E0.61766
G1 X174.700 Y110.850 E0.01693
G1 X160.320 Y96.470 E0.64161
G1 X159.784 Y96.470 E0.01693
G1 X174.700 Y111.386 E0.66555
G1 X174.700 Y111.923 E0.01693
G1 X159.247 Y96.470 E0.68949
G1 X158.711 Y96.470 E0.01693
G1 X174.700 Y112.459 E0.71344
G1 X174.700 Y112.996 E0.01693
G1 X158.174 Y96.470 E0.73738
G1 X157.637 Y96.470 E0.01693
G1 X174.700 Y113.533 E0.76132
G1 X174.700 Y114.069 E0.01693
G1 X157.101 Y96.470 E0.78526
G1 X156.564 Y96.470 E0.01693
G1 X174.700 Y114.606 E0.80921
G1 X174.700 Y115.142 E0.01693
G1 X156.028 Y96.470 E0.83315
G1 X155.491 Y96.470 E0.01693
G1 X174.700 Y115.679 E0.85709
G1 X174.700 Y116.216 E0.01693
G1 X154.954 Y96.470 E0.88103
G1 X154.418 Y96.470 E0.01693
G1 X174.700 Y116.752 E0.90498
G1 X174.700 Y117.289 E0.01693
G1 X153.881 Y96.470 E0.92892
G1 X153.345 Y96.470 E0.01693
G1 X174.700 Y117.825 E0.95286
G1 X174.700 Y118.362 E0.01693
G1 X152.808 Y96.470 E0.97681
G1 X152.271 Y96.470 E0.01693
G1 X174.700 Y118.899 E1.00075
G1 X174.700 Y119.435 E0.01693
G1 X151.735 Y96.470 E1.02469
G1 X151.198 Y96.470 E0.01693
G1 X174.700 Y119.972 E1.04863
G1 X174.700 Y120.508 E0.01693
G1 X150.662 Y96.470 E1.07258
G1 X150.125 Y96.470 E0.01693
G1 X174.700 Y121.045 E1.09652
G1 X174.700 Y121.582 E0.01693
G1 X149.588 Y96.470 E1.12046
G1 X149.052 Y96.470 E0.01693
G1 X174.700 Y122.118 E1.14441
M73 P4 R98
G1 X174.700 Y122.655 E0.01693
G1 X148.515 Y96.470 E1.16835
G1 X147.979 Y96.470 E0.01693
G1 X174.700 Y123.191 E1.19229
G1 X174.700 Y123.728 E0.01693
G1 X147.442 Y96.470 E1.21623
G1 X146.905 Y96.470 E0.01693
G1 X174.700 Y124.265 E1.24018
G1 X174.700 Y124.801 E0.01693
G1 X146.369 Y96.470 E1.26412
G1 X145.832 Y96.470 E0.01693
G1 X174.700 Y125.338 E1.28806
G1 X174.700 Y125.875 E0.01693
G1 X145.295 Y96.470 E1.31201
G1 X144.759 Y96.470 E0.01693
G1 X174.700 Y126.411 E1.33595
G1 X174.700 Y126.948 E0.01693
G1 X144.222 Y96.470 E1.35989
G1 X143.686 Y96.470 E0.01693
G1 X174.700 Y127.484 E1.38383
G1 X174.700 Y128.021 E0.01693
G1 X143.149 Y96.470 E1.40778
G1 X142.612 Y96.470 E0.01693
G1 X174.573 Y128.430 E1.42603
G1 X174.036 Y128.430 E0.01693
G1 X142.076 Y96.470 E1.42603
G1 X141.539 Y96.470 E0.01693
G1 X173.499 Y128.430 E1.42603
G1 X172.963 Y128.430 E0.01693
G1 X141.003 Y96.470 E1.42603
G1 X140.466 Y96.470 E0.01693
G1 X172.426 Y128.430 E1.42603
G1 X171.890 Y128.430 E0.01693
G1 X139.929 Y96.470 E1.42603
