; generated by PrusaSlicer 2.1.1+win64 on 2020-06-17 at 23:32:50 UTC

; 

; external perimeters extrusion width = 0.45mm
; perimeters extrusion width = 0.45mm
; infill extrusion width = 0.45mm
; solid infill extrusion width = 0.45mm
; top infill extrusion width = 0.40mm
; support material extrusion width = 0.35mm
; first layer extrusion width = 0.42mm

M73 P0 R87
M201 X9000 Y9000 Z500 E10000 ; sets maximum accelerations, mm/sec^2
M203 X500 Y500 Z12 E120 ; sets maximum feedrates, mm/sec
M204 P2000 R1500 T2000 ; sets acceleration (P, T) and retract acceleration (R), mm/sec^2
M205 X10.00 Y10.00 Z0.20 E2.50 ; sets the jerk limits, mm/sec
M205 S0 T0 ; sets the minimum extruding and travel feed rate, mm/sec
M107
M862.3 P "MK2S" ; printer model check
M862.1 P0.4 ; nozzle diameter check
M115 U3.2.3 ; tell printer latest fw version
G90 ; use absolute coordinates
M83 ; extruder relative mode
M204 S2000 T1500 ; MK2 firmware only supports the old M204 format
M104 S215 ; set extruder temp
M140 S60 ; set bed temp
M190 S60 ; wait for bed temp
M109 S215 ; wait for extruder temp
G28 W ; home all without mesh bed level
G80 ; mesh bed leveling
G1 Y-3.0 F1000.0 ; go outside print area
G92 E0.0
G1 X60.0 E9.0  F1000.0 ; intro line
M73 P0 R87
G1 X100.0 E12.5 F1000.0 ; intro line
G92 E0.0
G21 ; set units to millimeters
G90 ; use absolute coordinates
M83 ; use relative distances for extrusion
M900 K30 ; Filament gcode
;BEFORE_LAYER_CHANGE
G92 E0.0
;0.2


G1 E-0.80000 F2100.00000
G1 Z0.600 F10800.000
;AFTER_LAYER_CHANGE
;0.2
G1 X102.950 Y96.645
G1 Z0.200
G1 E0.80000 F2100.00000
M204 S1000
G1 F1200
G1 X98.492 Y101.103 E0.19769
G1 X98.272 Y101.541 E0.01537
G1 X97.888 Y102.658 E0.03703
G1 X97.859 Y102.803 E0.00464
G1 X104.302 Y96.360 E0.28571
G1 X105.591 Y96.137 E0.04102
G1 X97.636 Y104.092 E0.35274
G1 X97.576 Y104.994 E0.02834
G1 X97.590 Y105.205 E0.00662
G1 X106.704 Y96.091 E0.40412
G1 X107.684 Y96.177 E0.03086
G1 X97.660 Y106.201 E0.44449
G1 X97.839 Y107.089 E0.02839
G1 X108.574 Y96.354 E0.47600
G1 X109.002 Y96.449 E0.01374
G1 X109.399 Y96.596 E0.01326
G1 X98.087 Y107.908 E0.50159
G1 X98.272 Y108.446 E0.01787
G1 X98.387 Y108.674 E0.00799
G1 X110.171 Y96.890 E0.52255
G1 X110.869 Y97.258 E0.02475
G1 X98.743 Y109.385 E0.53772
G1 X98.801 Y109.502 E0.00412
G1 X99.162 Y110.032 E0.02010
G1 X111.523 Y97.671 E0.54813
G1 X112.143 Y98.118 E0.02396
G1 X99.615 Y110.646 E0.55553
G1 X100.118 Y111.209 E0.02368
G1 X105.240 Y106.087 E0.22711
G1 X104.922 Y105.770 E0.01408
G1 X107.255 Y103.437 E0.10342
G1 X107.572 Y103.755 E0.01408
G1 X112.695 Y98.633 E0.22714
G1 X112.980 Y98.899 E0.01224
G1 X113.212 Y99.182 E0.01147
G1 X100.674 Y111.720 E0.55598
G1 X101.149 Y112.128 E0.01964
G1 X101.260 Y112.200 E0.00416
G1 X113.693 Y99.767 E0.55127
G1 X114.106 Y100.420 E0.02424
G1 X101.907 Y112.620 E0.54093
G1 X102.140 Y112.771 E0.00870
G1 X102.603 Y112.990 E0.01607
G1 X114.483 Y101.110 E0.52679
G1 X114.814 Y101.846 E0.02530
G1 X103.340 Y113.320 E0.50876
G1 X104.148 Y113.579 E0.02659
G1 X112.969 Y104.757 E0.39118
G1 X112.969 Y105.506 E0.02349
G1 X112.934 Y105.858 E0.01110
G1 X105.030 Y113.763 E0.35051
G1 X105.493 Y113.847 E0.01477
G1 X105.990 Y113.869 E0.01560
G1 X113.489 Y106.370 E0.33252
G1 X114.556 Y106.370 E0.03344
G1 X107.060 Y113.866 E0.33238
G1 X107.849 Y113.797 E0.02484
G1 X108.296 Y113.697 E0.01435
G1 X115.198 Y106.795 E0.30605
G1 X115.171 Y106.963 E0.00535
G1 X114.835 Y108.095 E0.03703
G1 X114.729 Y108.330 E0.00808
G1 X109.537 Y113.522 E0.23024
G1 E-0.80000 F2100.00000
G1 Z0.800 F10800.000
G1 X113.939 Y103.788
G1 Z0.200
G1 E0.80000 F2100.00000
G1 F1200
G1 X115.064 Y102.663 E0.04988
G1 X115.171 Y103.025 E0.01185
G1 X115.253 Y103.540 E0.01635
G1 X115.005 Y103.788 E0.01097
G1 E-0.80000 F2100.00000
G1 Z0.800 F10800.000
G1 X106.697 Y115.015
G1 Z0.200
G1 E0.80000 F2100.00000
G1 F1200
G1 X105.369 Y114.955 E0.04166
G1 X104.061 Y114.720 E0.04166
G1 X102.796 Y114.314 E0.04166
G1 X101.596 Y113.745 E0.04166
G1 X100.481 Y113.021 E0.04166
G1 X99.472 Y112.156 E0.04166
G1 X98.586 Y111.166 E0.04166
G1 X97.839 Y110.067 E0.04166
G1 X97.244 Y108.879 E0.04166
G1 X96.811 Y107.622 E0.04166
G1 X96.555 Y106.349 E0.04072
G1 X96.461 Y104.995 E0.04257
G1 X96.549 Y103.668 E0.04169
G1 X96.811 Y102.366 E0.04166
G1 X97.244 Y101.109 E0.04166
G1 X97.839 Y99.921 E0.04166
G1 X98.586 Y98.822 E0.04166
G1 X99.472 Y97.832 E0.04166
G1 X100.481 Y96.967 E0.04166
G1 X101.596 Y96.243 E0.04166
G1 X102.796 Y95.674 E0.04166
G1 X104.061 Y95.268 E0.04166
G1 X105.369 Y95.033 E0.04166
G1 X106.667 Y94.974 E0.04072
G1 X108.020 Y95.089 E0.04257
G1 X109.317 Y95.379 E0.04169
G1 X110.564 Y95.839 E0.04166
G1 X111.713 Y96.445 E0.04072
G1 X112.822 Y97.228 E0.04257
G1 X113.794 Y98.136 E0.04169
G1 X114.637 Y99.163 E0.04166
G1 X115.336 Y100.292 E0.04166
G1 X115.880 Y101.505 E0.04166
G1 X116.259 Y102.778 E0.04166
G1 X116.568 Y104.731 E0.06198
G1 X114.083 Y104.731 E0.07792
G1 X114.083 Y105.257 E0.01649
G1 X116.568 Y105.257 E0.07792
G1 X116.259 Y107.210 E0.06198
G1 X115.889 Y108.454 E0.04072
G1 X115.337 Y109.695 E0.04257
G1 X114.637 Y110.825 E0.04169
G1 X113.794 Y111.852 E0.04166
G1 X112.822 Y112.759 E0.04166
G1 X111.739 Y113.529 E0.04166
G1 X110.564 Y114.149 E0.04166
G1 X109.317 Y114.609 E0.04166
G1 X108.020 Y114.899 E0.04166
G1 X106.757 Y115.010 E0.03978
G1 X106.689 Y114.637 F10800.000
G1 F1200
G1 X105.411 Y114.580 E0.04009
G1 X104.153 Y114.353 E0.04009
G1 X102.935 Y113.963 E0.04009
G1 X101.780 Y113.415 E0.04009
G1 X100.707 Y112.718 E0.04009
G1 X99.736 Y111.886 E0.04009
G1 X98.884 Y110.933 E0.04009
G1 X98.165 Y109.876 E0.04009
G1 X97.592 Y108.732 E0.04009
G1 X97.176 Y107.523 E0.04009
G1 X96.929 Y106.299 E0.03917
G1 X96.839 Y104.994 E0.04100
G1 X96.923 Y103.718 E0.04010
G1 X97.176 Y102.465 E0.04009
G1 X97.592 Y101.256 E0.04009
G1 X98.165 Y100.112 E0.04009
G1 X98.884 Y99.055 E0.04009
G1 X99.736 Y98.102 E0.04009
G1 X100.707 Y97.270 E0.04009
G1 X101.780 Y96.573 E0.04009
G1 X102.935 Y96.025 E0.04009
G1 X104.153 Y95.634 E0.04009
G1 X105.411 Y95.408 E0.04009
G1 X106.659 Y95.352 E0.03917
G1 X107.962 Y95.462 E0.04100
G1 X109.210 Y95.742 E0.04010
G1 X110.410 Y96.184 E0.04009
G1 X111.515 Y96.767 E0.03917
G1 X112.583 Y97.522 E0.04100
G1 X113.518 Y98.394 E0.04010
G1 X114.329 Y99.383 E0.04009
G1 X115.003 Y100.470 E0.04009
G1 X115.526 Y101.636 E0.04009
G1 X115.891 Y102.862 E0.04009
G1 X116.126 Y104.354 E0.04736
G1 X113.705 Y104.354 E0.07591
G1 X113.705 Y105.634 E0.04013
G1 X116.126 Y105.634 E0.07591
G1 X115.891 Y107.126 E0.04736
G1 X115.535 Y108.323 E0.03917
G1 X115.003 Y109.518 E0.04100
G1 X114.329 Y110.605 E0.04010
G1 X113.518 Y111.594 E0.04009
G1 X112.583 Y112.466 E0.04009
G1 X111.541 Y113.207 E0.04009
G1 X110.410 Y113.804 E0.04009
G1 X109.210 Y114.246 E0.04009
G1 X107.963 Y114.525 E0.04009
G1 X106.748 Y114.632 E0.03821
G1 X106.496 Y114.988 F10800.000
G1 X106.142 Y118.271
G1 F1200
G1 X104.779 Y118.165 E0.04287
G1 X103.433 Y117.920 E0.04287
G1 X102.121 Y117.538 E0.04287
G1 X100.854 Y117.023 E0.04287
G1 X99.647 Y116.380 E0.04287
G1 X98.512 Y115.617 E0.04287
G1 X97.462 Y114.741 E0.04287
G1 X96.508 Y113.762 E0.04287
G1 X95.659 Y112.689 E0.04287
G1 X94.926 Y111.536 E0.04287
G1 X94.314 Y110.313 E0.04287
G1 X93.832 Y109.033 E0.04287
G1 X93.484 Y107.711 E0.04287
G1 X93.273 Y106.360 E0.04287
G1 X93.203 Y104.994 E0.04287
G1 X93.273 Y103.628 E0.04287
G1 X93.484 Y102.277 E0.04287
G1 X93.832 Y100.955 E0.04287
G1 X94.314 Y99.675 E0.04287
G1 X94.926 Y98.452 E0.04287
G1 X95.659 Y97.299 E0.04287
G1 X96.508 Y96.226 E0.04287
G1 X97.462 Y95.247 E0.04287
G1 X98.512 Y94.371 E0.04287
G1 X99.647 Y93.608 E0.04287
G1 X100.854 Y92.965 E0.04287
G1 X102.121 Y92.450 E0.04287
G1 X103.433 Y92.068 E0.04287
G1 X104.779 Y91.823 E0.04287
G1 X106.142 Y91.717 E0.04287
G1 X107.448 Y91.751 E0.04098
G1 X108.866 Y91.928 E0.04480
G1 X110.196 Y92.242 E0.04283
G1 X111.487 Y92.691 E0.04287
G1 X112.726 Y93.271 E0.04287
G1 X113.898 Y93.975 E0.04287
G1 X114.992 Y94.796 E0.04287
G1 X115.995 Y95.724 E0.04287
G1 X116.898 Y96.752 E0.04287
G1 X117.690 Y97.866 E0.04287
G1 X118.364 Y99.056 E0.04287
G1 X118.911 Y100.309 E0.04287
G1 X119.327 Y101.612 E0.04287
G1 X119.607 Y102.950 E0.04287
G1 X119.748 Y104.310 E0.04287
G1 X119.748 Y105.678 E0.04287
G1 X119.607 Y107.038 E0.04287
G1 X119.327 Y108.376 E0.04287
G1 X118.911 Y109.679 E0.04287
G1 X118.364 Y110.932 E0.04287
G1 X117.690 Y112.122 E0.04287
G1 X116.898 Y113.236 E0.04287
G1 X115.995 Y114.264 E0.04287
G1 X115.036 Y115.151 E0.04098
G1 X113.897 Y116.014 E0.04480
G1 X112.726 Y116.717 E0.04283
G1 X111.487 Y117.297 E0.04287
G1 X110.196 Y117.746 E0.04287
G1 X108.865 Y118.060 E0.04287
G1 X107.509 Y118.236 E0.04287
G1 X106.202 Y118.269 E0.04099
G1 X106.132 Y118.648 F10800.000
G1 F1200
G1 X104.730 Y118.540 E0.04409
G1 X103.347 Y118.288 E0.04409
G1 X101.996 Y117.895 E0.04409
G1 X100.694 Y117.365 E0.04409
G1 X99.453 Y116.704 E0.04409
G1 X98.286 Y115.919 E0.04409
G1 X97.206 Y115.018 E0.04409
G1 X96.224 Y114.011 E0.04409
G1 X95.352 Y112.908 E0.04409
G1 X94.597 Y111.722 E0.04409
G1 X93.968 Y110.464 E0.04409
G1 X93.472 Y109.148 E0.04409
G1 X93.114 Y107.788 E0.04409
G1 X92.898 Y106.398 E0.04409
G1 X92.825 Y104.994 E0.04409
G1 X92.898 Y103.590 E0.04409
G1 X93.114 Y102.200 E0.04409
G1 X93.472 Y100.840 E0.04409
G1 X93.968 Y99.524 E0.04409
G1 X94.597 Y98.266 E0.04409
G1 X95.352 Y97.080 E0.04409
G1 X96.224 Y95.977 E0.04409
G1 X97.206 Y94.970 E0.04409
G1 X98.286 Y94.069 E0.04409
G1 X99.453 Y93.284 E0.04409
G1 X100.694 Y92.623 E0.04409
G1 X101.996 Y92.093 E0.04409
G1 X103.347 Y91.700 E0.04409
G1 X104.730 Y91.448 E0.04409
G1 X106.132 Y91.340 E0.04409
G1 X107.477 Y91.374 E0.04217
G1 X108.933 Y91.557 E0.04602
G1 X110.301 Y91.879 E0.04408
G1 X111.630 Y92.341 E0.04409
G1 X112.903 Y92.938 E0.04409
G1 X114.109 Y93.662 E0.04409
G1 X115.234 Y94.506 E0.04409
G1 X116.266 Y95.461 E0.04409
G1 X117.194 Y96.517 E0.04409
G1 X118.009 Y97.663 E0.04409
G1 X118.702 Y98.887 E0.04409
G1 X119.265 Y100.176 E0.04409
G1 X119.692 Y101.515 E0.04409
G1 X119.980 Y102.892 E0.04409
G1 X120.125 Y104.291 E0.04409
G1 X120.125 Y105.697 E0.04409
G1 X119.980 Y107.096 E0.04409
G1 X119.692 Y108.473 E0.04409
G1 X119.265 Y109.812 E0.04409
G1 X118.702 Y111.101 E0.04409
G1 X118.009 Y112.325 E0.04409
G1 X117.194 Y113.471 E0.04409
G1 X116.266 Y114.527 E0.04409
G1 X115.279 Y115.441 E0.04217
G1 X114.109 Y116.327 E0.04602
G1 X112.903 Y117.050 E0.04408
G1 X111.630 Y117.647 E0.04409
G1 X110.301 Y118.109 E0.04409
G1 X108.933 Y118.432 E0.04409
G1 X107.538 Y118.612 E0.04409
G1 X106.192 Y118.647 E0.04221
G1 X105.941 Y118.297 F10800.000
G1 X105.560 Y118.112
G1 F1200
G1 X101.406 Y113.959 E0.18661
G1 X102.094 Y114.106 F10800.000
G1 F1200
G1 X105.961 Y117.973 E0.17373
G1 X106.149 Y117.988 E0.00600
G1 X106.507 Y117.979 E0.01136
G1 X103.302 Y114.773 E0.14400
G1 X104.079 Y115.011 E0.02583
G1 X107.034 Y117.965 E0.13273
G1 X107.554 Y117.945 E0.01653
G1 X104.738 Y115.129 E0.12650
G1 X105.388 Y115.239 E0.02096
G1 X108.032 Y117.883 E0.11878
G1 X108.510 Y117.821 E0.01532
G1 X105.954 Y115.265 E0.11484
G1 X106.520 Y115.290 E0.01800
G1 X108.974 Y117.744 E0.11024
G1 X109.411 Y117.641 E0.01427
G1 X107.039 Y115.269 E0.10656
G1 X107.536 Y115.225 E0.01584
G1 X109.848 Y117.538 E0.10388
G1 X110.271 Y117.420 E0.01395
G1 X108.033 Y115.182 E0.10058
G1 X108.478 Y115.086 E0.01446
G1 X110.672 Y117.281 E0.09860
G1 X111.073 Y117.141 E0.01348
G1 X108.919 Y114.988 E0.09677
G1 X109.361 Y114.889 E0.01437
G1 X111.466 Y116.994 E0.09461
G1 X111.834 Y116.822 E0.01291
G1 X109.759 Y114.747 E0.09323
G1 X110.154 Y114.602 E0.01337
G1 X112.202 Y116.650 E0.09202
G1 X112.570 Y116.478 E0.01291
G1 X110.549 Y114.456 E0.09082
G1 X110.916 Y114.283 E0.01290
G1 X112.910 Y116.277 E0.08957
G1 X113.247 Y116.074 E0.01251
G1 X111.270 Y114.097 E0.08884
G1 X111.624 Y113.910 E0.01270
G1 X113.585 Y115.871 E0.08812
G1 X113.906 Y115.652 E0.01235
G1 X111.968 Y113.714 E0.08709
G1 X112.284 Y113.489 E0.01231
G1 X114.214 Y115.419 E0.08672
G1 X114.521 Y115.187 E0.01225
G1 X112.599 Y113.265 E0.08635
G1 X112.915 Y113.040 E0.01231
G1 X114.829 Y114.954 E0.08598
G1 X115.112 Y114.696 E0.01215
G1 X113.204 Y112.789 E0.08569
G1 X113.484 Y112.528 E0.01215
G1 X115.392 Y114.436 E0.08574
G1 X115.673 Y114.177 E0.01215
G1 X113.763 Y112.267 E0.08579
G1 X114.037 Y112.001 E0.01214
G1 X115.938 Y113.901 E0.08537
G1 X116.190 Y113.613 E0.01216
G1 X114.281 Y111.704 E0.08578
G1 X114.525 Y111.407 E0.01220
G1 X116.443 Y113.326 E0.08619
G1 X116.694 Y113.036 E0.01217
G1 X114.768 Y111.111 E0.08651
G1 X114.990 Y110.792 E0.01233
G1 X116.918 Y112.720 E0.08663
G1 X117.143 Y112.404 E0.01231
G1 X115.196 Y110.458 E0.08744
G1 X115.403 Y110.125 E0.01247
G1 X117.367 Y112.089 E0.08824
G1 X117.573 Y111.755 E0.01247
G1 X115.605 Y109.787 E0.08842
G1 X115.772 Y109.413 E0.01300
G1 X117.769 Y111.410 E0.08971
G1 X117.964 Y111.065 E0.01260
G1 X115.938 Y109.039 E0.09101
G1 X116.105 Y108.665 E0.01300
G1 X118.152 Y110.712 E0.09196
G1 X118.316 Y110.336 E0.01304
G1 X116.241 Y108.261 E0.09320
G1 X116.365 Y107.845 E0.01380
G1 X118.480 Y109.960 E0.09501
G1 X118.644 Y109.584 E0.01304
G1 X116.489 Y107.429 E0.09683
G1 X116.536 Y107.272 E0.00518
G1 X116.582 Y106.981 E0.00937
G1 X118.776 Y109.175 E0.09857
G1 X118.906 Y108.765 E0.01366
G1 X116.655 Y106.514 E0.10113
G1 X116.729 Y106.047 E0.01501
G1 X119.037 Y108.355 E0.10370
G1 X119.054 Y108.304 E0.00171
G1 X119.135 Y107.913 E0.01269
G1 X116.803 Y105.581 E0.10479
G1 X116.819 Y105.480 E0.00323
G1 X117.000 Y105.238 E0.00962
G1 X119.229 Y107.466 E0.10011
G1 X119.322 Y107.019 E0.01451
G1 X116.820 Y104.518 E0.11240
G1 X116.719 Y103.876 E0.02064
G1 X119.375 Y106.532 E0.11933
G1 X119.426 Y106.042 E0.01564
G1 X116.618 Y103.234 E0.12616
G1 X116.536 Y102.716 E0.01668
G1 X116.492 Y102.568 E0.00489
G1 X119.465 Y105.541 E0.13357
G1 X119.465 Y105.001 E0.01717
G1 X116.263 Y101.799 E0.14385
G1 X116.146 Y101.406 E0.01302
G1 X115.931 Y100.927 E0.01670
G1 X119.635 Y104.630 E0.16640
G1 X116.792 Y105.044 F10800.000
G1 F1200
G1 X116.725 Y104.994 E0.00104
G1 X114.271 Y104.994 E0.03035
G1 E-0.80000 F2100.00000
G1 Z0.800 F10800.000
G1 X114.871 Y99.326
G1 Z0.200
G1 E0.80000 F2100.00000
G1 F1200
G1 X119.418 Y103.874 E0.20430
G1 X119.356 Y103.271 E0.01925
G1 X108.217 Y92.132 E0.50046
G1 X108.837 Y92.212 E0.01987
G1 X119.250 Y102.625 E0.46784
G1 X119.107 Y101.942 E0.02217
G1 X109.544 Y92.379 E0.42965
G1 X110.117 Y92.514 E0.01868
G1 X110.275 Y92.569 E0.00532
G1 X118.896 Y101.190 E0.38733
G1 X118.640 Y100.393 E0.02658
G1 X111.103 Y92.857 E0.33860
G1 X111.381 Y92.954 E0.00933
G1 X112.056 Y93.270 E0.02370
G1 X118.549 Y99.763 E0.29171
G1 X118.040 Y98.713 F10800.000
G1 F1200
G1 X112.736 Y93.409 E0.23830
G1 X114.240 Y94.373 F10800.000
G1 F1200
G1 X117.105 Y97.238 E0.12871
G1 X112.184 Y96.639 F10800.000
G1 F1200
G1 X107.599 Y92.055 E0.20598
G1 X107.427 Y92.033 E0.00551
G1 X107.027 Y92.023 E0.01271
G1 X110.528 Y95.524 E0.15731
G1 X109.673 Y95.209 E0.02896
G1 X106.473 Y92.009 E0.14380
G1 X106.149 Y92.000 E0.01027
G1 X105.940 Y92.016 E0.00667
G1 X108.926 Y95.002 E0.13413
G1 X108.229 Y94.846 E0.02266
G1 X105.439 Y92.055 E0.12539
G1 X104.937 Y92.094 E0.01598
G1 X107.614 Y94.771 E0.12026
G1 X107.023 Y94.721 E0.01882
G1 X104.469 Y92.167 E0.11475
G1 X104.012 Y92.250 E0.01476
G1 X106.463 Y94.700 E0.11010
G1 X105.946 Y94.724 E0.01644
G1 X103.555 Y92.333 E0.10741
G1 X103.132 Y92.450 E0.01395
G1 X105.429 Y94.747 E0.10320
G1 X104.960 Y94.819 E0.01506
G1 X102.713 Y92.572 E0.10095
G1 X102.295 Y92.694 E0.01385
G1 X104.502 Y94.901 E0.09918
G1 X104.044 Y94.984 E0.01478
G1 X101.904 Y92.843 E0.09616
G1 X101.520 Y93.000 E0.01317
G1 X103.630 Y95.109 E0.09479
G1 X103.221 Y95.241 E0.01365
G1 X101.136 Y93.156 E0.09367
G1 X100.770 Y93.330 E0.01288
G1 X102.812 Y95.372 E0.09173
G1 X102.433 Y95.533 E0.01308
G1 X100.417 Y93.518 E0.09054
G1 X100.065 Y93.706 E0.01269
G1 X102.066 Y95.707 E0.08992
G1 X101.700 Y95.881 E0.01289
G1 X99.719 Y93.900 E0.08900
G1 X99.396 Y94.117 E0.01237
G1 X101.346 Y96.068 E0.08764
G1 X101.019 Y96.281 E0.01241
G1 X99.073 Y94.335 E0.08743
G1 X98.750 Y94.552 E0.01237
G1 X100.691 Y96.493 E0.08722
G1 X100.364 Y96.706 E0.01241
G1 X98.449 Y94.792 E0.08600
G1 X98.155 Y95.038 E0.01219
G1 X100.067 Y96.950 E0.08590
