; generated by PrusaSlicer 2.1.1+win64 on 2020-06-17 at 23:33:23 UTC

; 

; external perimeters extrusion width = 0.45mm
; perimeters extrusion width = 0.45mm
; infill extrusion width = 0.45mm
; solid infill extrusion width = 0.45mm
; top infill extrusion width = 0.40mm
; support material extrusion width = 0.35mm
; first layer extrusion width = 0.42mm

M73 P0 R101
M201 X9000 Y9000 Z500 E10000 ; sets maximum accelerations, mm/sec^2
M203 X500 Y500 Z12 E120 ; sets maximum feedrates, mm/sec
M204 P2000 R1500 T2000 ; sets acceleration (P, T) and retract acceleration (R), mm/sec^2
M205 X10.00 Y10.00 Z0.20 E2.50 ; sets the jerk limits, mm/sec
M205 S0 T0 ; sets the minimum extruding and travel feed rate, mm/sec
M107
M862.3 P "MK2S" ; printer model check
M862.1 P0.4 ; nozzle diameter check
M115 U3.2.3 ; tell printer latest fw version
G90 ; use absolute coordinates
M83 ; extruder relative mode
M204 S2000 T1500 ; MK2 firmware only supports the old M204 format
M104 S215 ; set extruder temp
M140 S60 ; set bed temp
M190 S60 ; wait for bed temp
M109 S215 ; wait for extruder temp
G28 W ; home all without mesh bed level
G80 ; mesh bed leveling
G1 Y-3.0 F1000.0 ; go outside print area
G92 E0.0
G1 X60.0 E9.0  F1000.0 ; intro line
M73 P0 R101
G1 X100.0 E12.5 F1000.0 ; intro line
G92 E0.0
G21 ; set units to millimeters
G90 ; use absolute coordinates
M83 ; use relative distances for extrusion
M900 K30 ; Filament gcode
;BEFORE_LAYER_CHANGE
G92 E0.0
;0.2


G1 E-0.80000 F2100.00000
G1 Z0.600 F10800.000
;AFTER_LAYER_CHANGE
;0.2
G1 X124.986 Y93.116
G1 Z0.200
G1 E0.80000 F2100.00000
M204 S1000
G1 F1200
G1 X123.663 Y93.000 E0.04165
G1 X122.394 Y92.660 E0.04119
G1 X121.176 Y92.095 E0.04209
G1 X120.087 Y91.333 E0.04167
G1 X119.148 Y90.393 E0.04165
G1 X118.386 Y89.305 E0.04165
G1 X117.824 Y88.101 E0.04165
G1 X117.481 Y86.818 E0.04165
G1 X117.365 Y85.495 E0.04165
G1 X117.481 Y84.171 E0.04165
G1 X117.824 Y82.888 E0.04165
G1 X118.386 Y81.684 E0.04165
G1 X119.148 Y80.596 E0.04165
G1 X120.087 Y79.656 E0.04165
G1 X121.176 Y78.894 E0.04165
G1 X122.380 Y78.333 E0.04165
G1 X123.663 Y77.989 E0.04165
G1 X124.972 Y77.874 E0.04119
G1 X126.309 Y77.989 E0.04209
G1 X127.593 Y78.333 E0.04167
G1 X128.797 Y78.894 E0.04165
G1 X129.885 Y79.656 E0.04165
G1 X130.825 Y80.596 E0.04165
G1 X131.587 Y81.684 E0.04165
G1 X132.148 Y82.888 E0.04165
G1 X132.492 Y84.171 E0.04165
G1 X132.608 Y85.495 E0.04165
G1 X132.492 Y86.818 E0.04165
G1 X132.148 Y88.101 E0.04165
G1 X131.587 Y89.305 E0.04165
G1 X130.825 Y90.393 E0.04165
G1 X129.885 Y91.333 E0.04165
G1 X128.797 Y92.095 E0.04165
G1 X127.593 Y92.656 E0.04165
G1 X126.310 Y93.000 E0.04165
G1 X125.046 Y93.111 E0.03977
G1 X124.986 Y92.737 F10800.000
G1 F1200
G1 X123.729 Y92.627 E0.03959
G1 X122.523 Y92.304 E0.03914
G1 X121.365 Y91.767 E0.04002
G1 X120.331 Y91.043 E0.03959
G1 X119.438 Y90.150 E0.03959
G1 X118.714 Y89.116 E0.03959
G1 X118.180 Y87.972 E0.03959
G1 X117.853 Y86.752 E0.03959
G1 X117.743 Y85.495 E0.03959
G1 X117.853 Y84.237 E0.03959
G1 X118.180 Y83.017 E0.03959
G1 X118.714 Y81.873 E0.03959
G1 X119.438 Y80.839 E0.03959
G1 X120.331 Y79.946 E0.03959
G1 X121.365 Y79.222 E0.03959
G1 X122.509 Y78.688 E0.03959
G1 X123.729 Y78.362 E0.03959
G1 X124.972 Y78.253 E0.03914
G1 X126.244 Y78.362 E0.04002
G1 X127.463 Y78.688 E0.03959
G1 X128.608 Y79.222 E0.03959
G1 X129.642 Y79.946 E0.03959
G1 X130.535 Y80.839 E0.03959
G1 X131.259 Y81.873 E0.03959
G1 X131.792 Y83.017 E0.03959
G1 X132.119 Y84.237 E0.03959
G1 X132.229 Y85.495 E0.03959
G1 X132.119 Y86.752 E0.03959
G1 X131.792 Y87.972 E0.03959
G1 X131.259 Y89.116 E0.03959
G1 X130.535 Y90.150 E0.03959
G1 X129.642 Y91.043 E0.03959
G1 X128.608 Y91.767 E0.03959
G1 X127.463 Y92.301 E0.03959
G1 X126.244 Y92.627 E0.03959
G1 X125.046 Y92.732 E0.03770
G1 X124.786 Y93.084 F10800.000
G1 E-0.80000 F2100.00000
G1 Z0.800 F10800.000
G1 X101.479 Y88.291
G1 Z0.200
G1 E0.80000 F2100.00000
G1 F1200
G1 X100.986 Y88.334 E0.01552
G1 X100.493 Y88.291 E0.01552
G1 X100.015 Y88.163 E0.01552
G1 X99.567 Y87.953 E0.01552
G1 X99.161 Y87.670 E0.01552
G1 X98.811 Y87.320 E0.01552
G1 X98.527 Y86.914 E0.01552
G1 X98.318 Y86.466 E0.01552
G1 X98.190 Y85.988 E0.01552
G1 X98.147 Y85.495 E0.01552
G1 X98.190 Y85.001 E0.01552
G1 X98.318 Y84.523 E0.01552
G1 X98.527 Y84.075 E0.01552
G1 X98.811 Y83.669 E0.01552
G1 X99.161 Y83.319 E0.01552
G1 X99.567 Y83.036 E0.01552
G1 X100.015 Y82.826 E0.01552
G1 X100.493 Y82.698 E0.01552
G1 X100.964 Y82.657 E0.01483
G1 X101.477 Y82.698 E0.01612
G1 X101.957 Y82.826 E0.01559
G1 X102.406 Y83.036 E0.01552
G1 X102.811 Y83.319 E0.01552
G1 X103.161 Y83.669 E0.01552
G1 X103.445 Y84.075 E0.01552
G1 X103.654 Y84.523 E0.01552
G1 X103.782 Y85.001 E0.01552
G1 X103.826 Y85.495 E0.01552
G1 X103.782 Y85.988 E0.01552
G1 X103.654 Y86.466 E0.01552
G1 X103.445 Y86.914 E0.01552
G1 X103.161 Y87.320 E0.01552
G1 X102.811 Y87.670 E0.01552
G1 X102.406 Y87.953 E0.01552
G1 X101.957 Y88.163 E0.01552
G1 X101.537 Y88.275 E0.01364
G1 X101.414 Y87.918 F10800.000
G1 F1200
G1 X100.986 Y87.955 E0.01345
G1 X100.559 Y87.918 E0.01345
G1 X100.145 Y87.807 E0.01345
G1 X99.756 Y87.626 E0.01345
G1 X99.404 Y87.380 E0.01345
G1 X99.101 Y87.076 E0.01345
G1 X98.855 Y86.725 E0.01345
G1 X98.674 Y86.336 E0.01345
G1 X98.563 Y85.922 E0.01345
G1 X98.525 Y85.495 E0.01345
G1 X98.563 Y85.067 E0.01345
G1 X98.674 Y84.653 E0.01345
G1 X98.855 Y84.264 E0.01345
G1 X99.101 Y83.913 E0.01345
G1 X99.404 Y83.609 E0.01345
G1 X99.756 Y83.363 E0.01345
G1 X100.145 Y83.182 E0.01345
G1 X100.559 Y83.071 E0.01345
G1 X100.966 Y83.035 E0.01281
G1 X101.413 Y83.071 E0.01406
G1 X101.828 Y83.182 E0.01348
G1 X102.217 Y83.363 E0.01345
G1 X102.568 Y83.609 E0.01345
G1 X102.871 Y83.913 E0.01345
G1 X103.117 Y84.264 E0.01345
G1 X103.299 Y84.653 E0.01345
G1 X103.410 Y85.067 E0.01345
G1 X103.447 Y85.495 E0.01345
G1 X103.410 Y85.922 E0.01345
G1 X103.299 Y86.336 E0.01345
G1 X103.117 Y86.725 E0.01345
G1 X102.871 Y87.076 E0.01345
G1 X102.568 Y87.380 E0.01345
G1 X102.217 Y87.626 E0.01345
G1 X101.828 Y87.807 E0.01345
G1 X101.471 Y87.902 E0.01157
G1 X101.277 Y88.294 F10800.000
G1 E-0.80000 F2100.00000
G1 Z0.800 F10800.000
G1 X148.493 Y88.291
G1 Z0.200
G1 E0.80000 F2100.00000
G1 F1200
G1 X148.015 Y88.163 E0.01552
G1 X147.567 Y87.953 E0.01552
G1 X147.161 Y87.670 E0.01552
G1 X146.811 Y87.320 E0.01552
G1 X146.527 Y86.914 E0.01552
G1 X146.318 Y86.466 E0.01552
G1 X146.190 Y85.988 E0.01552
G1 X146.147 Y85.495 E0.01552
G1 X146.190 Y85.001 E0.01552
G1 X146.318 Y84.523 E0.01552
G1 X146.527 Y84.075 E0.01552
G1 X146.811 Y83.669 E0.01552
G1 X147.161 Y83.319 E0.01552
G1 X147.567 Y83.036 E0.01552
G1 X148.015 Y82.826 E0.01552
G1 X148.493 Y82.698 E0.01552
G1 X148.964 Y82.657 E0.01483
G1 X149.477 Y82.698 E0.01612
G1 X149.957 Y82.826 E0.01559
G1 X150.406 Y83.036 E0.01552
G1 X150.811 Y83.319 E0.01552
G1 X151.161 Y83.669 E0.01552
G1 X151.445 Y84.075 E0.01552
G1 X151.654 Y84.523 E0.01552
G1 X151.782 Y85.001 E0.01552
G1 X151.826 Y85.495 E0.01552
G1 X151.782 Y85.988 E0.01552
G1 X151.654 Y86.466 E0.01552
G1 X151.445 Y86.914 E0.01552
G1 X151.161 Y87.320 E0.01552
G1 X150.811 Y87.670 E0.01552
G1 X150.406 Y87.953 E0.01552
G1 X149.957 Y88.163 E0.01552
G1 X149.479 Y88.291 E0.01552
G1 X148.986 Y88.334 E0.01552
G1 X148.553 Y88.296 E0.01364
G1 X148.559 Y87.918 F10800.000
G1 F1200
G1 X148.145 Y87.807 E0.01345
G1 X147.756 Y87.626 E0.01345
G1 X147.404 Y87.380 E0.01345
G1 X147.101 Y87.076 E0.01345
G1 X146.855 Y86.725 E0.01345
G1 X146.674 Y86.336 E0.01345
G1 X146.563 Y85.922 E0.01345
G1 X146.525 Y85.495 E0.01345
G1 X146.563 Y85.067 E0.01345
G1 X146.674 Y84.653 E0.01345
G1 X146.855 Y84.264 E0.01345
G1 X147.101 Y83.913 E0.01345
G1 X147.404 Y83.609 E0.01345
G1 X147.756 Y83.363 E0.01345
G1 X148.145 Y83.182 E0.01345
G1 X148.559 Y83.071 E0.01345
G1 X148.966 Y83.035 E0.01281
G1 X149.413 Y83.071 E0.01406
G1 X149.828 Y83.182 E0.01348
G1 X150.217 Y83.363 E0.01345
G1 X150.568 Y83.609 E0.01345
G1 X150.871 Y83.913 E0.01345
G1 X151.117 Y84.264 E0.01345
G1 X151.299 Y84.653 E0.01345
G1 X151.410 Y85.067 E0.01345
G1 X151.447 Y85.495 E0.01345
G1 X151.410 Y85.922 E0.01345
G1 X151.299 Y86.336 E0.01345
G1 X151.117 Y86.725 E0.01345
G1 X150.871 Y87.076 E0.01345
G1 X150.568 Y87.380 E0.01345
G1 X150.217 Y87.626 E0.01345
G1 X149.828 Y87.807 E0.01345
G1 X149.414 Y87.918 E0.01345
G1 X148.986 Y87.955 E0.01345
G1 X148.619 Y87.923 E0.01157
G1 X148.302 Y88.224 F10800.000
G1 E-0.80000 F2100.00000
G1 Z0.800 F10800.000
G1 X124.986 Y101.406
G1 Z0.200
G1 E0.80000 F2100.00000
G1 F1200
G1 X123.068 Y101.290 E0.06025
G1 X121.178 Y100.944 E0.06025
G1 X119.344 Y100.372 E0.06025
G1 X117.592 Y99.584 E0.06025
G1 X115.946 Y98.589 E0.06029
G1 X114.487 Y97.456 E0.05792
G1 X98.562 Y88.234 E0.57698
G1 X98.144 Y87.801 E0.01888
G1 X97.789 Y87.277 E0.01985
G1 X97.529 Y86.699 E0.01986
G1 X97.374 Y86.086 E0.01986
G1 X97.326 Y85.454 E0.01985
G1 X97.387 Y84.824 E0.01986
G1 X97.557 Y84.214 E0.01985
G1 X97.829 Y83.642 E0.01986
G1 X98.195 Y83.125 E0.01986
G1 X98.621 Y82.704 E0.01878
G1 X99.189 Y82.303 E0.02179
G1 X114.486 Y73.533 E0.55285
G1 X115.946 Y72.400 E0.05796
G1 X117.592 Y71.405 E0.06029
G1 X119.344 Y70.617 E0.06025
G1 X121.178 Y70.045 E0.06025
G1 X123.068 Y69.699 E0.06025
G1 X124.986 Y69.583 E0.06025
G1 X126.855 Y69.696 E0.05871
G1 X128.795 Y70.045 E0.06180
G1 X130.629 Y70.617 E0.06022
G1 X132.381 Y71.405 E0.06025
G1 X134.026 Y72.400 E0.06029
G1 X135.486 Y73.533 E0.05792
G1 X151.410 Y82.755 E0.57698
G1 X151.829 Y83.188 E0.01888
G1 X152.184 Y83.712 E0.01986
G1 X152.443 Y84.290 E0.01986
G1 X152.599 Y84.904 E0.01985
G1 X152.647 Y85.535 E0.01986
G1 X152.585 Y86.165 E0.01986
G1 X152.425 Y86.742 E0.01878
G1 X152.142 Y87.349 E0.02099
G1 X151.777 Y87.864 E0.01978
G1 X151.327 Y88.309 E0.01986
G1 X150.786 Y88.685 E0.02066
G1 X135.487 Y97.456 E0.55293
G1 X134.026 Y98.589 E0.05796
G1 X132.381 Y99.584 E0.06029
G1 X130.629 Y100.372 E0.06025
G1 X128.794 Y100.944 E0.06025
G1 X126.904 Y101.290 E0.06025
G1 X125.046 Y101.403 E0.05836
G1 X124.986 Y101.784 F10800.000
G1 F1200
G1 X123.023 Y101.665 E0.06168
G1 X121.088 Y101.311 E0.06168
G1 X119.210 Y100.726 E0.06168
G1 X117.416 Y99.918 E0.06168
G1 X115.732 Y98.900 E0.06169
G1 X114.276 Y97.770 E0.05781
G1 X98.328 Y88.534 E0.57783
G1 X97.850 Y88.040 E0.02156
G1 X97.458 Y87.461 E0.02191
G1 X97.172 Y86.824 E0.02191
G1 X97.000 Y86.147 E0.02191
G1 X96.947 Y85.450 E0.02191
G1 X97.015 Y84.754 E0.02191
G1 X97.202 Y84.081 E0.02191
G1 X97.502 Y83.450 E0.02191
G1 X97.907 Y82.880 E0.02191
G1 X98.378 Y82.414 E0.02078
G1 X98.986 Y81.985 E0.02333
G1 X114.275 Y73.219 E0.55259
G1 X115.732 Y72.089 E0.05783
G1 X117.416 Y71.071 E0.06169
G1 X119.210 Y70.263 E0.06168
G1 X121.088 Y69.678 E0.06168
G1 X123.023 Y69.324 E0.06168
G1 X124.986 Y69.205 E0.06168
G1 X126.900 Y69.321 E0.06012
G1 X128.885 Y69.678 E0.06323
G1 X130.763 Y70.263 E0.06167
G1 X132.556 Y71.071 E0.06168
G1 X134.240 Y72.089 E0.06169
G1 X135.697 Y73.219 E0.05781
G1 X151.645 Y82.455 E0.57783
G1 X152.123 Y82.949 E0.02156
G1 X152.514 Y83.528 E0.02191
G1 X152.800 Y84.165 E0.02191
G1 X152.972 Y84.842 E0.02191
G1 X153.025 Y85.539 E0.02191
G1 X152.957 Y86.235 E0.02191
G1 X152.780 Y86.873 E0.02078
G1 X152.469 Y87.539 E0.02304
G1 X152.066 Y88.109 E0.02188
G1 X151.569 Y88.600 E0.02191
G1 X150.988 Y89.004 E0.02219
G1 X135.697 Y97.770 E0.55261
G1 X134.240 Y98.900 E0.05783
G1 X132.556 Y99.918 E0.06169
G1 X130.763 Y100.726 E0.06168
G1 X128.885 Y101.311 E0.06168
G1 X126.950 Y101.665 E0.06168
G1 X125.046 Y101.781 E0.05980
G1 X124.786 Y101.438 F10800.000
G1 X128.800 Y100.824
G1 F1200
G1 X106.445 Y78.469 E0.99555
G1 X106.105 Y78.664 E0.01236
G1 X128.205 Y100.764 E0.98422
G1 X127.753 Y100.847 E0.01449
G1 X105.765 Y78.859 E0.97922
G1 X105.424 Y79.054 E0.01236
G1 X127.300 Y100.930 E0.97422
G1 X126.845 Y101.011 E0.01456
G1 X105.084 Y79.249 E0.96911
G1 X104.743 Y79.445 E0.01236
G1 X126.340 Y101.041 E0.96178
G1 X125.835 Y101.072 E0.01593
G1 X104.403 Y79.640 E0.95445
G1 X104.062 Y79.835 E0.01236
G1 X125.330 Y101.102 E0.94712
G1 X124.986 Y101.123 E0.01084
G1 X124.804 Y101.112 E0.00575
G1 X103.722 Y80.030 E0.93886
G1 X103.382 Y80.225 E0.01236
G1 X124.234 Y101.078 E0.92864
G1 X123.664 Y101.043 E0.01798
G1 X103.041 Y80.420 E0.91841
G1 X102.701 Y80.615 E0.01236
G1 X123.093 Y101.007 E0.90812
G1 X122.437 Y100.887 E0.02099
G1 X102.360 Y80.811 E0.89408
G1 X102.020 Y81.006 E0.01236
G1 X121.781 Y100.767 E0.88004
G1 X121.246 Y100.669 E0.01713
G1 X121.103 Y100.624 E0.00473
G1 X101.679 Y81.201 E0.86499
G1 X101.339 Y81.396 E0.01236
G1 X120.325 Y100.382 E0.84550
G1 X119.547 Y100.139 E0.02566
G1 X103.953 Y84.546 E0.69444
G1 X104.062 Y84.952 E0.01325
G1 X104.085 Y85.213 E0.00825
G1 X118.599 Y99.727 E0.64635
G1 X117.723 Y99.333 E0.03023
G1 X117.586 Y99.250 E0.00505
G1 X104.087 Y85.751 E0.60117
G1 X104.062 Y86.037 E0.00904
G1 X104.015 Y86.214 E0.00577
G1 X116.733 Y98.933 E0.56641
G1 X114.895 Y97.630 F10800.000
G1 F1200
G1 X103.891 Y86.626 E0.49005
G1 X103.721 Y86.992 E0.01269
G1 X113.461 Y96.732 E0.43376
G1 X112.189 Y95.995 F10800.000
G1 F1200
G1 X103.509 Y87.316 E0.38652
G1 X103.379 Y87.502 E0.00717
G1 X103.270 Y87.611 E0.00486
G1 X110.916 Y95.258 E0.34053
G1 X109.644 Y94.521 F10800.000
G1 F1200
G1 X103.002 Y87.879 E0.29579
G1 X102.688 Y88.101 E0.01210
G1 X108.371 Y93.784 E0.25309
G1 X107.099 Y93.047 F10800.000
G1 F1200
G1 X102.345 Y88.294 E0.21169
G1 X101.968 Y88.452 E0.01288
G1 X105.826 Y92.310 E0.17180
G1 X104.554 Y91.573 F10800.000
G1 F1200
G1 X101.546 Y88.566 E0.13395
G1 X101.056 Y88.612 E0.01549
G1 X103.281 Y90.836 E0.09908
G1 X102.009 Y90.099 F10800.000
G1 F1200
G1 X100.402 Y88.493 E0.07156
M73 P1 R100
G1 X100.205 Y88.673 F10800.000
G1 F1200
G1 X99.862 Y88.529 E0.01140
G1 X99.366 Y88.269 E0.01721
G1 X98.891 Y87.963 E0.01978
G1 X98.486 Y87.567 E0.02069
G1 X98.149 Y87.076 E0.02177
G1 X97.927 Y86.587 E0.01961
G1 X97.792 Y86.077 E0.01929
G1 X97.738 Y85.459 E0.02269
G1 X97.790 Y84.911 E0.02009
G1 X97.928 Y84.402 E0.01929
G1 X98.182 Y83.853 E0.02209
G1 X98.509 Y83.392 E0.02067
G1 X98.885 Y83.018 E0.01935
G1 X99.346 Y82.692 E0.02065
G1 X99.411 Y82.652 E0.00286
G1 X99.978 Y82.358 E0.02566
G1 X100.193 Y81.857 F10800.000
G1 F1200
G1 X100.730 Y82.394 E0.02389
G1 X100.963 Y82.373 E0.00737
G1 X101.269 Y82.398 E0.00967
G1 X100.658 Y81.786 E0.02722
G1 X100.999 Y81.591 E0.01236
G1 X102.241 Y82.834 E0.05535
G1 E-0.80000 F2100.00000
G1 Z0.800 F10800.000
G1 X120.355 Y70.420
G1 Z0.200
G1 E0.80000 F2100.00000
G1 F1200
G1 X128.274 Y78.338 E0.35263
G1 X127.690 Y78.066 E0.02028
G1 X127.384 Y77.984 E0.00998
G1 X120.083 Y70.683 E0.32515
G1 X119.674 Y70.810 E0.01347
G1 X126.652 Y77.788 E0.31076
G1 X126.358 Y77.709 E0.00959
G1 X126.008 Y77.679 E0.01107
G1 X119.283 Y70.954 E0.29949
G1 X118.914 Y71.120 E0.01275
G1 X125.422 Y77.629 E0.28985
G1 X124.971 Y77.591 E0.01425
G1 X124.858 Y77.600 E0.00358
G1 X118.544 Y71.287 E0.28118
G1 X118.175 Y71.453 E0.01275
G1 X124.365 Y77.644 E0.27569
G1 X123.873 Y77.687 E0.01557
G1 X117.805 Y71.619 E0.27021
G1 X117.464 Y71.813 E0.01237
G1 X123.414 Y77.763 E0.26497
G1 X122.991 Y77.876 E0.01377
G1 X117.130 Y72.015 E0.26102
G1 X116.796 Y72.217 E0.01228
G1 X122.569 Y77.989 E0.25708
G1 X122.282 Y78.066 E0.00934
G1 X122.165 Y78.121 E0.00409
G1 X116.462 Y72.418 E0.25395
G1 X116.129 Y72.620 E0.01228
G1 X121.800 Y78.291 E0.25255
G1 X121.434 Y78.461 E0.01269
G1 X115.825 Y72.852 E0.24981
G1 X115.523 Y73.086 E0.01202
G1 X121.069 Y78.632 E0.24697
G1 X120.749 Y78.847 E0.01215
G1 X115.222 Y73.320 E0.24616
G1 X114.920 Y73.554 E0.01202
G1 X120.434 Y79.068 E0.24556
G1 X120.119 Y79.289 E0.01211
G1 X114.616 Y73.785 E0.24510
G1 X114.275 Y73.980 E0.01236
G1 X119.819 Y79.524 E0.24690
G1 X119.551 Y79.792 E0.01193
G1 X113.935 Y74.175 E0.25014
G1 X113.594 Y74.370 E0.01236
G1 X119.284 Y80.060 E0.25337
G1 X119.016 Y80.328 E0.01193
G1 X113.254 Y74.566 E0.25661
G1 X112.913 Y74.761 E0.01236
G1 X118.780 Y80.628 E0.26127
G1 X118.560 Y80.943 E0.01211
G1 X112.573 Y74.956 E0.26661
G1 X112.233 Y75.151 E0.01236
G1 X118.339 Y81.258 E0.27195
G1 X118.123 Y81.578 E0.01215
G1 X111.892 Y75.346 E0.27750
G1 X111.552 Y75.541 E0.01236
G1 X117.953 Y81.943 E0.28508
G1 X117.783 Y82.308 E0.01269
G1 X111.211 Y75.737 E0.29265
G1 X110.871 Y75.932 E0.01236
G1 X117.612 Y82.673 E0.30023
