; G-Code generated by Simplify3D(R) Version 4.1.1
; Aug 17, 2019 at 11:16:17 AM
; Settings Summary
;   processName,Process1
;   applyToModels,CanStandoff,CanStandoff(2),CanStandoff(3)
;   profileName,Prusa Research Original Prusa i3 MK2
;   profileVersion,2019-08-15 13:59:00
;   baseProfile,
;   printMaterial,PLA
;   printQuality,Medium
;   printExtruders,
;   extruderName,Primary Extruder
;   extruderToolheadNumber,0
;   extruderDiameter,0.4
;   extruderAutoWidth,1
;   extruderWidth,0.48
;   extrusionMultiplier,1
;   extruderUseRetract,1
;   extruderRetractionDistance,1.5
;   extruderExtraRestartDistance,0
;   extruderRetractionZLift,0
;   extruderRetractionSpeed,1800
;   extruderUseCoasting,1
;   extruderCoastingDistance,0.2
;   extruderUseWipe,1
;   extruderWipeDistance,2
;   primaryExtruder,0
;   layerHeight,0.2
;   topSolidLayers,3
;   bottomSolidLayers,3
;   perimeterOutlines,2
;   printPerimetersInsideOut,1
;   startPointOption,2
;   startPointOriginX,0
;   startPointOriginY,0
;   sequentialIslands,0
;   spiralVaseMode,0
;   firstLayerHeightPercentage,150
;   firstLayerWidthPercentage,100
;   firstLayerUnderspeed,0.5
;   useRaft,0
;   raftExtruder,0
;   raftTopLayers,3
;   raftBaseLayers,2
;   raftOffset,3
;   raftSeparationDistance,0.14
;   raftTopInfill,100
;   aboveRaftSpeedMultiplier,0.3
;   useSkirt,0
;   skirtExtruder,0
;   skirtLayers,1
;   skirtOutlines,2
;   skirtOffset,4
;   usePrimePillar,0
;   primePillarExtruder,999
;   primePillarWidth,12
;   primePillarLocation,7
;   primePillarSpeedMultiplier,1
;   useOozeShield,0
;   oozeShieldExtruder,999
;   oozeShieldOffset,2
;   oozeShieldOutlines,1
;   oozeShieldSidewallShape,1
;   oozeShieldSidewallAngle,30
;   oozeShieldSpeedMultiplier,1
;   infillExtruder,0
;   internalInfillPattern,Rectilinear
;   externalInfillPattern,Rectilinear
;   infillPercentage,15
;   outlineOverlapPercentage,20
;   infillExtrusionWidthPercentage,100
;   minInfillLength,5
;   infillLayerInterval,1
;   internalInfillAngles,45,-45
;   overlapInternalInfillAngles,0
;   externalInfillAngles,45,-45
;   generateSupport,1
;   supportExtruder,0
;   supportInfillPercentage,30
;   supportExtraInflation,0
;   supportBaseLayers,2
;   denseSupportExtruder,0
;   denseSupportLayers,0
;   denseSupportInfillPercentage,70
;   supportLayerInterval,1
;   supportHorizontalPartOffset,0.3
;   supportUpperSeparationLayers,1
;   supportLowerSeparationLayers,1
;   supportType,0
;   supportGridSpacing,1
;   maxOverhangAngle,45
;   supportAngles,0
;   temperatureName,Primary Extruder,Heated Bed
;   temperatureNumber,0,0
;   temperatureSetpointCount,1,1
;   temperatureSetpointLayers,1,1
;   temperatureSetpointTemperatures,200,60
;   temperatureStabilizeAtStartup,1,1
;   temperatureHeatedBed,0,1
;   fanLayers,1,2
;   fanSpeeds,0,100
;   blipFanToFullPower,0
;   adjustSpeedForCooling,1
;   minSpeedLayerTime,15
;   minCoolingSpeedSlowdown,20
;   increaseFanForCooling,0
;   minFanLayerTime,45
;   maxCoolingFanSpeed,100
;   increaseFanForBridging,0
;   bridgingFanSpeed,100
;   use5D,1
;   relativeEdistances,0
;   allowEaxisZeroing,1
;   independentExtruderAxes,0
;   includeM10123,0
;   stickySupport,1
;   applyToolheadOffsets,0
;   gcodeXoffset,0
;   gcodeYoffset,0
;   gcodeZoffset,0
;   overrideMachineDefinition,1
;   machineTypeOverride,0
;   strokeXoverride,250
;   strokeYoverride,210
;   strokeZoverride,200
;   originOffsetXoverride,0
;   originOffsetYoverride,0
;   originOffsetZoverride,0
;   homeXdirOverride,-1
;   homeYdirOverride,-1
;   homeZdirOverride,-1
;   flipXoverride,1
;   flipYoverride,-1
;   flipZoverride,1
;   toolheadOffsets,0,0|0,0|0,0|0,0|0,0|0,0
;   overrideFirmwareConfiguration,1
;   firmwareTypeOverride,RepRap (Marlin/Repetier/Sprinter)
;   GPXconfigOverride,r2
;   baudRateOverride,250000
;   overridePrinterModels,1
;   printerModelsOverride
;   startingGcode,M115 U3.0.7 ; use the latest firmware version,G28 W ; home all axes without mesh bed leveling,G80 ; run mesh bed leveling routine,G1 Y-3.0 F1000.0 ; prepare to prime,G92 E0 ; reset extrusion distance,G1 X60.0 E9.0  F1000.0 ; priming,G1 X100.0 E12.5  F1000.0 ; priming
;   layerChangeGcode,
;   retractionGcode,
;   toolChangeGcode,
;   endingGcode,M106 S0 ; turn off cooling fan,M104 S0 ; turn off extruder,M140 S0 ; turn off bed,G1 X0 Y200 ; part removal,M84 ; disable motors
;   exportFileFormat,gcode
;   celebration,0
;   celebrationSong,Random Song
;   postProcessing,
;   defaultSpeed,2400
;   outlineUnderspeed,0.8
;   solidInfillUnderspeed,0.8
;   supportUnderspeed,0.8
;   rapidXYspeed,4800
;   rapidZspeed,1002
;   minBridgingArea,50
;   bridgingExtraInflation,0
;   bridgingExtrusionMultiplier,1
;   bridgingSpeedMultiplier,1
;   useFixedBridgingAngle,0
;   fixedBridgingAngle,0
;   applyBridgingToPerimeters,0
;   filamentDiameters,1.75|1.75|1.75|1.75|1.75|1.75
;   filamentPricesPerKg,46|46|46|46|46|46
;   filamentDensities,1.25|1.25|1.25|1.25|1.25|1.25
;   useMinPrintHeight,0
;   minPrintHeight,0
;   useMaxPrintHeight,0
;   maxPrintHeight,0
;   useDiaphragm,0
;   diaphragmLayerInterval,20
;   robustSlicing,1
;   mergeAllIntoSolid,0
;   onlyRetractWhenCrossingOutline,1
;   retractBetweenLayers,1
;   useRetractionMinTravel,0
;   retractionMinTravel,3
;   retractWhileWiping,1
;   onlyWipeOutlines,1
;   avoidCrossingOutline,0
;   maxMovementDetourFactor,3
;   toolChangeRetractionDistance,12
;   toolChangeExtraRestartDistance,-0.5
;   toolChangeRetractionSpeed,600
;   externalThinWallType,0
;   internalThinWallType,2
;   thinWallAllowedOverlapPercentage,25
;   singleExtrusionMinLength,1
;   singleExtrusionMinPrintingWidthPercentage,50
;   singleExtrusionMaxPrintingWidthPercentage,200
;   singleExtrusionEndpointExtension,0.2
;   horizontalSizeCompensation,0
G90
M82
M106 S0
M140 S60
M190 S60
M104 S200 T0
M109 S200 T0
M115 U3.0.7 ; use the latest firmware version
G28 W ; home all axes without mesh bed leveling
G80 ; run mesh bed leveling routine
G1 Y-3.0 F1000.0 ; prepare to prime
G92 E0 ; reset extrusion distance
G1 X60.0 E9.0  F1000.0 ; priming
G1 X100.0 E12.5  F1000.0 ; priming
; process Process1
; layer 1, Z = 0.300
T0
G92 E0.0000
G1 E-1.5000 F1800
; feature inner perimeter
; tool H0.300 W0.480
G1 Z0.300 F1002
G1 X80.278 Y63.612 F4800
G1 E0.0000 F1800
G92 E0.0000
G1 X81.859 Y61.858 E0.1414 F1080
G1 X83.559 Y60.317 E0.2787
G1 X85.402 Y58.950 E0.4161
G1 X87.370 Y57.770 E0.5535
G1 X89.445 Y56.789 E0.6909
G1 X91.606 Y56.016 E0.8283
G1 X93.832 Y55.458 E0.9657
G1 X96.102 Y55.121 E1.1031
G1 X98.394 Y55.009 E1.2405
G1 X100.686 Y55.121 E1.3779
G1 X102.956 Y55.458 E1.5153
G1 X105.182 Y56.016 E1.6527
G1 X107.343 Y56.789 E1.7901
G1 X109.418 Y57.770 E1.9274
G1 X111.386 Y58.950 E2.0648
G1 X113.229 Y60.317 E2.2022
G1 X114.930 Y61.858 E2.3396
G1 X116.471 Y63.559 E2.4770
G1 X117.838 Y65.402 E2.6144
G1 X119.018 Y67.370 E2.7518
G1 X119.999 Y69.445 E2.8892
G1 X120.772 Y71.606 E3.0266
G1 X121.330 Y73.832 E3.1640
G1 X121.667 Y76.102 E3.3014
G1 X121.779 Y78.394 E3.4388
G1 X121.667 Y80.686 E3.5761
G1 X121.330 Y82.956 E3.7135
G1 X120.772 Y85.182 E3.8509
G1 X119.999 Y87.343 E3.9883
G1 X119.018 Y89.418 E4.1257
G1 X117.838 Y91.386 E4.2631
G1 X116.471 Y93.229 E4.4005
G1 X114.930 Y94.930 E4.5379
G1 X113.229 Y96.471 E4.6753
G1 X111.386 Y97.838 E4.8127
G1 X109.418 Y99.018 E4.9501
G1 X107.343 Y99.999 E5.0875
G1 X105.182 Y100.772 E5.2249
G1 X102.956 Y101.330 E5.3622
G1 X100.686 Y101.667 E5.4996
G1 X98.394 Y101.779 E5.6370
G1 X96.102 Y101.667 E5.7744
G1 X93.832 Y101.330 E5.9118
G1 X91.606 Y100.772 E6.0492
G1 X89.445 Y99.999 E6.1866
G1 X87.370 Y99.018 E6.3240
G1 X85.402 Y97.838 E6.4614
G1 X83.559 Y96.471 E6.5988
G1 X81.858 Y94.930 E6.7362
G1 X80.317 Y93.229 E6.8736
G1 X78.950 Y91.386 E7.0109
G1 X77.770 Y89.418 E7.1483
G1 X76.789 Y87.343 E7.2857
G1 X76.016 Y85.182 E7.4231
G1 X75.458 Y82.956 E7.5605
G1 X75.121 Y80.686 E7.6979
G1 X75.009 Y78.394 E7.8353
G1 X75.121 Y76.102 E7.9727
G1 X75.458 Y73.832 E8.1101
G1 X76.016 Y71.606 E8.2475
G1 X76.789 Y69.445 E8.3849
G1 X77.770 Y67.370 E8.5223
G1 X78.950 Y65.402 E8.6597
G1 X80.158 Y63.772 E8.7811
G1 X80.278 Y63.612 F1080
; feature outer perimeter
G1 X79.906 Y63.308 F4800
G92 E0.0000
G1 X81.519 Y61.518 E0.1442 F960
G1 X83.254 Y59.946 E0.2844
G1 X85.135 Y58.550 E0.4246
G1 X87.144 Y57.346 E0.5648
G1 X89.261 Y56.345 E0.7051
G1 X91.466 Y55.556 E0.8453
G1 X93.738 Y54.987 E0.9855
G1 X96.055 Y54.643 E1.1257
G1 X98.394 Y54.528 E1.2659
G1 X100.733 Y54.643 E1.4062
G1 X103.050 Y54.987 E1.5464
G1 X105.322 Y55.556 E1.6866
G1 X107.527 Y56.345 E1.8268
G1 X109.644 Y57.346 E1.9670
G1 X111.653 Y58.550 E2.1072
G1 X113.534 Y59.946 E2.2474
G1 X115.270 Y61.518 E2.3877
G1 X116.842 Y63.254 E2.5279
G1 X118.238 Y65.135 E2.6681
G1 X119.442 Y67.144 E2.8083
G1 X120.443 Y69.261 E2.9485
G1 X121.232 Y71.466 E3.0887
G1 X121.801 Y73.738 E3.2290
G1 X122.145 Y76.055 E3.3692
G1 X122.260 Y78.394 E3.5094
G1 X122.145 Y80.733 E3.6496
G1 X121.801 Y83.050 E3.7898
G1 X121.232 Y85.322 E3.9300
G1 X120.443 Y87.527 E4.0702
G1 X119.442 Y89.644 E4.2105
G1 X118.238 Y91.653 E4.3507
G1 X116.842 Y93.534 E4.4909
G1 X115.270 Y95.270 E4.6311
G1 X113.534 Y96.842 E4.7713
G1 X111.653 Y98.238 E4.9115
G1 X109.644 Y99.442 E5.0518
G1 X107.527 Y100.443 E5.1920
G1 X105.322 Y101.232 E5.3322
G1 X103.050 Y101.801 E5.4724
G1 X100.733 Y102.145 E5.6126
G1 X98.394 Y102.260 E5.7528
G1 X96.055 Y102.145 E5.8931
G1 X93.738 Y101.801 E6.0333
G1 X91.466 Y101.232 E6.1735
G1 X89.261 Y100.443 E6.3137
G1 X87.144 Y99.442 E6.4539
G1 X85.135 Y98.238 E6.5941
G1 X83.254 Y96.842 E6.7343
G1 X81.518 Y95.270 E6.8746
G1 X79.946 Y93.534 E7.0148
G1 X78.550 Y91.653 E7.1550
G1 X77.346 Y89.644 E7.2952
G1 X76.345 Y87.527 E7.4354
G1 X75.556 Y85.322 E7.5756
G1 X74.987 Y83.050 E7.7159
G1 X74.643 Y80.733 E7.8561
G1 X74.528 Y78.394 E7.9963
G1 X74.643 Y76.055 E8.1365
G1 X74.987 Y73.738 E8.2767
G1 X75.556 Y71.466 E8.4169
G1 X76.345 Y69.261 E8.5571
G1 X77.346 Y67.144 E8.6974
G1 X78.550 Y65.135 E8.8376
G1 X79.787 Y63.468 E8.9618
G1 X79.906 Y63.308 F960
G1 X81.245 Y61.822 F960
; feature inner perimeter
G1 X85.764 Y65.764 F4800
G92 E0.0000
G1 X84.587 Y67.063 E0.1049 F1080
G1 X83.543 Y68.471 E0.2099
G1 X82.642 Y69.974 E0.3148
G1 X81.892 Y71.559 E0.4198
G1 X81.302 Y73.209 E0.5247
G1 X80.876 Y74.910 E0.6296
G1 X80.619 Y76.643 E0.7346
G1 X80.533 Y78.394 E0.8395
G1 X80.619 Y80.145 E0.9444
G1 X80.876 Y81.878 E1.0494
G1 X81.302 Y83.579 E1.1543
G1 X81.892 Y85.229 E1.2593
G1 X82.642 Y86.814 E1.3642
G1 X83.543 Y88.317 E1.4691
G1 X84.587 Y89.725 E1.5741
G1 X85.764 Y91.024 E1.6790
G1 X87.063 Y92.201 E1.7839
G1 X88.471 Y93.245 E1.8889
G1 X89.974 Y94.146 E1.9938
G1 X91.559 Y94.896 E2.0988
G1 X93.209 Y95.486 E2.2037
G1 X94.909 Y95.912 E2.3086
G1 X96.643 Y96.169 E2.4136
G1 X98.394 Y96.255 E2.5185
G1 X100.145 Y96.169 E2.6235
G1 X101.879 Y95.912 E2.7284
G1 X103.579 Y95.486 E2.8333
G1 X105.229 Y94.896 E2.9383
G1 X106.814 Y94.146 E3.0432
G1 X108.317 Y93.245 E3.1481
G1 X109.725 Y92.201 E3.2531
G1 X111.024 Y91.024 E3.3580
G1 X112.201 Y89.725 E3.4630
G1 X113.245 Y88.317 E3.5679
G1 X114.146 Y86.814 E3.6728
G1 X114.896 Y85.229 E3.7778
G1 X115.486 Y83.579 E3.8827
G1 X115.912 Y81.878 E3.9876
G1 X116.169 Y80.145 E4.0926
G1 X116.255 Y78.394 E4.1975
G1 X116.169 Y76.643 E4.3025
G1 X115.912 Y74.909 E4.4074
G1 X115.486 Y73.209 E4.5123
G1 X114.896 Y71.559 E4.6173
G1 X114.146 Y69.974 E4.7222
G1 X113.245 Y68.471 E4.8271
G1 X112.201 Y67.063 E4.9321
G1 X111.024 Y65.764 E5.0370
G1 X109.725 Y64.587 E5.1420
G1 X108.317 Y63.543 E5.2469
G1 X106.814 Y62.642 E5.3518
G1 X105.229 Y61.892 E5.4568
G1 X103.579 Y61.302 E5.5617
G1 X101.879 Y60.876 E5.6667
G1 X100.145 Y60.619 E5.7716
G1 X98.394 Y60.533 E5.8765
G1 X96.643 Y60.619 E5.9815
G1 X94.909 Y60.876 E6.0864
G1 X93.209 Y61.302 E6.1914
G1 X91.559 Y61.892 E6.2963
G1 X89.974 Y62.642 E6.4012
G1 X88.471 Y63.543 E6.5062
G1 X87.063 Y64.587 E6.6111
G1 X85.912 Y65.630 E6.7041
G1 X85.764 Y65.764 F1080
; feature outer perimeter
G1 X86.104 Y66.104 F4800
G92 E0.0000
G1 X84.959 Y67.368 E0.1021 F960
G1 X83.942 Y68.738 E0.2042
G1 X83.066 Y70.201 E0.3063
G1 X82.336 Y71.743 E0.4085
G1 X81.762 Y73.349 E0.5106
G1 X81.347 Y75.003 E0.6127
G1 X81.097 Y76.690 E0.7148
G1 X81.013 Y78.394 E0.8169
G1 X81.097 Y80.098 E0.9190
G1 X81.347 Y81.785 E1.0211
G1 X81.762 Y83.439 E1.1233
G1 X82.336 Y85.045 E1.2254
G1 X83.066 Y86.587 E1.3275
G1 X83.943 Y88.050 E1.4296
G1 X84.959 Y89.420 E1.5317
G1 X86.104 Y90.684 E1.6338
G1 X87.368 Y91.829 E1.7359
G1 X88.738 Y92.845 E1.8381
G1 X90.201 Y93.722 E1.9402
G1 X91.743 Y94.452 E2.0423
G1 X93.349 Y95.026 E2.1444
G1 X95.003 Y95.441 E2.2465
G1 X96.690 Y95.691 E2.3486
G1 X98.394 Y95.775 E2.4507
G1 X100.098 Y95.691 E2.5529
G1 X101.785 Y95.441 E2.6550
G1 X103.439 Y95.026 E2.7571
G1 X105.045 Y94.452 E2.8592
G1 X106.587 Y93.722 E2.9613
G1 X108.050 Y92.845 E3.0634
G1 X109.420 Y91.829 E3.1656
G1 X110.684 Y90.684 E3.2677
G1 X111.829 Y89.420 E3.3698
G1 X112.845 Y88.050 E3.4719
G1 X113.722 Y86.587 E3.5740
G1 X114.452 Y85.045 E3.6761
G1 X115.026 Y83.439 E3.7782
G1 X115.441 Y81.785 E3.8804
G1 X115.691 Y80.098 E3.9825
G1 X115.775 Y78.394 E4.0846
G1 X115.691 Y76.690 E4.1867
G1 X115.441 Y75.003 E4.2888
G1 X115.026 Y73.349 E4.3909
G1 X114.452 Y71.743 E4.4930
G1 X113.722 Y70.201 E4.5952
G1 X112.845 Y68.738 E4.6973
G1 X111.829 Y67.368 E4.7994
G1 X110.684 Y66.104 E4.9015
G1 X109.420 Y64.959 E5.0036
G1 X108.050 Y63.943 E5.1057
G1 X106.587 Y63.066 E5.2078
G1 X105.045 Y62.336 E5.3100
G1 X103.439 Y61.762 E5.4121
G1 X101.785 Y61.347 E5.5142
G1 X100.098 Y61.097 E5.6163
G1 X98.394 Y61.013 E5.7184
G1 X96.690 Y61.097 E5.8205
G1 X95.003 Y61.347 E5.9226
G1 X93.349 Y61.762 E6.0248
G1 X91.743 Y62.336 E6.1269
G1 X90.201 Y63.066 E6.2290
G1 X88.738 Y63.943 E6.3311
G1 X87.368 Y64.959 E6.4332
G1 X86.252 Y65.970 E6.5234
G1 X86.104 Y66.104 F960
G92 E0.0000
G1 X85.567 Y66.697 E-1.5000 F960
G1 X84.959 Y67.368 F960
G1 X84.783 Y67.604
; feature solid layer
G1 X85.578 Y91.374 F4800
G1 E0.0000 F1800
G92 E0.0000
G1 X95.375 Y101.171 E0.8295 F960
G1 X96.140 Y101.284 E0.8757
G1 X96.169 Y101.285 E0.8775
G1 X88.734 Y93.851 E1.5070
G1 X89.793 Y94.485 E1.5809
G1 X90.276 Y94.714 E1.6129
G1 X96.883 Y101.320 E2.1722
G1 X97.597 Y101.356 E2.2150
G1 X91.537 Y95.296 E2.7281
G1 X92.594 Y95.674 E2.7953
G1 X98.311 Y101.391 E3.2793
G1 X98.394 Y101.395 E3.2843
G1 X98.965 Y101.367 E3.3186
G1 X93.572 Y95.973 E3.7752
G1 X94.477 Y96.200 E3.8311
G1 X99.612 Y101.335 E4.2659
G1 X100.260 Y101.303 E4.3047
G1 X95.317 Y96.361 E4.7231
G1 X96.114 Y96.479 E4.7714
G1 X100.884 Y101.249 E5.1752
G1 X101.475 Y101.161 E5.2110
G1 X96.879 Y96.565 E5.6001
G1 X97.593 Y96.600 E5.6429
G1 X102.067 Y101.074 E6.0217
G1 X102.658 Y100.986 E6.0574
G1 X98.307 Y96.635 E6.4258
G1 X98.394 Y96.640 E6.4310
G1 X98.962 Y96.612 E6.4651
G1 X103.219 Y100.868 E6.8254
G1 X103.762 Y100.732 E6.8589
G1 X99.609 Y96.580 E7.2105
G1 X100.182 Y96.552 E7.2448
G1 X100.250 Y96.542 E7.2489
G1 X104.304 Y100.596 E7.5922
G1 X104.847 Y100.460 E7.6257
G1 X100.841 Y96.454 E7.9649
G1 X101.432 Y96.366 E8.0007
G1 X105.365 Y100.299 E8.3336
G1 X105.865 Y100.120 E8.3654
G1 X102.018 Y96.273 E8.6911
G1 X102.561 Y96.137 E8.7246
G1 X106.365 Y99.941 E9.0467
G1 X106.865 Y99.762 E9.0785
G1 X103.103 Y96.001 E9.3970
G1 X103.646 Y95.865 E9.4305
G1 X107.351 Y99.570 E9.7442
G1 X107.812 Y99.352 E9.7747
G1 X104.150 Y95.690 E10.0848
G1 X104.650 Y95.511 E10.1166
G1 X108.273 Y99.134 E10.4234
G1 X108.734 Y98.916 E10.4539
G1 X105.150 Y95.332 E10.7574
G1 X105.376 Y95.251 E10.7718
G1 X105.628 Y95.132 E10.7885
G1 X109.195 Y98.698 E11.0905
G1 X109.236 Y98.679 E11.0932
G1 X109.623 Y98.447 E11.1202
G1 X106.089 Y94.914 E11.4194
G1 X106.550 Y94.696 E11.4499
G1 X110.047 Y98.193 E11.7460
G1 X110.471 Y97.939 E11.7756
G1 X107.009 Y94.477 E12.0687
G1 X107.434 Y94.222 E12.0983
G1 X110.896 Y97.684 E12.3914
G1 X111.172 Y97.518 E12.4107
G1 X111.308 Y97.418 E12.4209
G1 X107.858 Y93.968 E12.7130
G1 X108.283 Y93.713 E12.7426
G1 X111.698 Y97.129 E13.0317
G1 X112.088 Y96.840 E13.0608
G1 X108.693 Y93.445 E13.3482
G1 X109.083 Y93.155 E13.3773
G1 X112.478 Y96.550 E13.6647
G1 X112.867 Y96.261 E13.6938
G1 X109.472 Y92.866 E13.9812
G1 X109.862 Y92.577 E14.0103
G1 X113.234 Y95.949 E14.2957
