; generated by Slic3r Prusa Edition 1.42.0-alpha3+ on 2019-05-03 at 12:07:21

; 

; external perimeters extrusion width = 0.45mm
; perimeters extrusion width = 0.45mm
; infill extrusion width = 0.45mm
; solid infill extrusion width = 0.45mm
; top infill extrusion width = 0.40mm
; first layer extrusion width = 0.42mm

M201 X9000 Y9000 Z500 E10000 ; sets maximum accelerations, mm/sec^2
M203 X500 Y500 Z12 E120 ; sets maximum feedrates, mm/sec
M204 P2000 R1500 T2000 ; sets acceleration (P, T) and retract acceleration (R), mm/sec^2
M205 X10.00 Y10.00 Z0.20 E2.50 ; sets the jerk limits, mm/sec
M205 S0 T0 ; sets the minimum extruding and travel feed rate, mm/sec
M107
M115 U3.1.0 ; tell printer latest fw version
M83  ; extruder relative mode
M204 S2000 T1500 ; MK2 firmware only supports the old M204 format
M104 S215 ; set extruder temp
M140 S60 ; set bed temp
M190 S60 ; wait for bed temp
M109 S215 ; wait for extruder temp
G28 W ; home all without mesh bed level
G80 ; mesh bed leveling
G1 Y-3.0 F1000.0 ; go outside print area
G92 E0.0
G1 X60.0 E9.0  F1000.0 ; intro line
G1 X100.0 E12.5  F1000.0 ; intro line
G92 E0.0
M900 K30; Filament gcode
G21 ; set units to millimeters
G90 ; use absolute coordinates
M83 ; use relative distances for extrusion
;BEFORE_LAYER_CHANGE
G92 E0.0
;0.2


G1 E-0.80000 F2100.00000
G1 Z0.600 F10800.000
;AFTER_LAYER_CHANGE
;0.2
G1 X107.100 Y82.800
G1 Z0.200
G1 E0.80000 F2100.00000
M204 S1000
G1 F1200
G1 X108.030 Y81.746 E0.04408
G1 X109.207 Y80.848 E0.04644
G1 X110.541 Y80.203 E0.04646
G1 X111.940 Y79.844 E0.04527
G1 X113.379 Y79.764 E0.04518
G1 X114.768 Y79.958 E0.04399
G1 X116.098 Y80.412 E0.04405
G1 X117.290 Y81.091 E0.04302
G1 X118.468 Y82.119 E0.04902
G1 X119.009 Y82.820 E0.02776
G1 X119.968 Y81.744 E0.04520
G1 X121.147 Y80.846 E0.04647
G1 X122.483 Y80.201 E0.04650
G1 X123.878 Y79.844 E0.04515
G1 X125.283 Y79.763 E0.04412
G1 X126.751 Y79.969 E0.04649
G1 X128.111 Y80.447 E0.04521
G1 X129.323 Y81.160 E0.04407
G1 X130.377 Y82.089 E0.04405
G1 X130.948 Y82.822 E0.02914
G1 X131.962 Y81.692 E0.04757
G1 X133.086 Y80.845 E0.04414
G1 X134.383 Y80.215 E0.04522
G1 X135.780 Y79.849 E0.04526
G1 X137.185 Y79.762 E0.04415
G1 X138.689 Y79.969 E0.04760
G1 X140.051 Y80.448 E0.04528
G1 X141.323 Y81.205 E0.04641
G1 X142.366 Y82.145 E0.04401
G1 X143.194 Y83.236 E0.04294
G1 X143.833 Y84.533 E0.04532
G1 X144.224 Y86.043 E0.04892
G1 X144.294 Y87.486 E0.04530
G1 X144.082 Y88.915 E0.04528
G1 X143.611 Y90.241 E0.04413
G1 X142.897 Y91.453 E0.04411
G1 X141.939 Y92.531 E0.04523
G1 X141.250 Y93.062 E0.02727
G1 X142.315 Y94.013 E0.04476
G1 X143.213 Y95.189 E0.04638
G1 X143.832 Y96.453 E0.04414
G1 X144.205 Y97.848 E0.04527
G1 X144.296 Y99.366 E0.04769
G1 X144.092 Y100.797 E0.04531
G1 X143.613 Y102.159 E0.04529
G1 X142.876 Y103.403 E0.04533
G1 X141.940 Y104.453 E0.04412
G1 X141.250 Y104.985 E0.02730
G1 X142.316 Y105.936 E0.04479
G1 X143.213 Y107.112 E0.04636
G1 X143.831 Y108.373 E0.04404
G1 X144.198 Y109.729 E0.04404
G1 X144.297 Y111.285 E0.04891
G1 X144.093 Y112.717 E0.04533
G1 X143.615 Y114.079 E0.04526
G1 X142.900 Y115.293 E0.04418
G1 X141.941 Y116.375 E0.04533
G1 X141.247 Y116.910 E0.02747
G1 X142.340 Y117.884 E0.04591
G1 X143.193 Y119.003 E0.04410
G1 X143.830 Y120.295 E0.04517
G1 X144.204 Y121.688 E0.04524
G1 X144.299 Y123.132 E0.04536
G1 X144.092 Y124.642 E0.04778
G1 X143.597 Y126.040 E0.04651
G1 X142.878 Y127.247 E0.04405
G1 X141.941 Y128.297 E0.04411
G1 X140.727 Y129.208 E0.04761
G1 X139.457 Y129.813 E0.04410
G1 X138.094 Y130.166 E0.04413
G1 X136.692 Y130.253 E0.04405
G1 X135.260 Y130.064 E0.04528
G1 X133.856 Y129.582 E0.04655
G1 X132.549 Y128.807 E0.04765
G1 X131.531 Y127.894 E0.04287
G1 X130.991 Y127.197 E0.02765
G1 X130.003 Y128.298 E0.04637
G1 X128.820 Y129.189 E0.04643
G1 X127.554 Y129.800 E0.04408
G1 X126.159 Y130.165 E0.04520
G1 X124.683 Y130.251 E0.04637
G1 X123.293 Y130.057 E0.04402
G1 X121.996 Y129.617 E0.04294
G1 X120.679 Y128.857 E0.04765
G1 X119.624 Y127.927 E0.04410
G1 X119.052 Y127.193 E0.02918
G1 X118.070 Y128.294 E0.04626
G1 X116.949 Y129.149 E0.04420
G1 X115.583 Y129.813 E0.04762
G1 X114.224 Y130.165 E0.04403
G1 X112.820 Y130.253 E0.04408
G1 X111.314 Y130.047 E0.04766
G1 X110.018 Y129.598 E0.04301
G1 X108.800 Y128.899 E0.04404
G1 X107.660 Y127.897 E0.04758
G1 X106.746 Y126.681 E0.04771
G1 X106.142 Y125.411 E0.04408
G1 X105.783 Y124.013 E0.04527
G1 X105.703 Y122.608 E0.04412
G1 X105.891 Y121.214 E0.04412
G1 X106.373 Y119.810 E0.04652
G1 X107.147 Y118.503 E0.04766
G1 X108.062 Y117.483 E0.04294
G1 X108.750 Y116.953 E0.02725
G1 X107.657 Y115.971 E0.04607
G1 X106.765 Y114.788 E0.04646
G1 X106.140 Y113.485 E0.04532
G1 X105.777 Y112.051 E0.04638
G1 X105.704 Y110.649 E0.04403
G1 X105.891 Y109.291 E0.04295
G1 X106.340 Y107.959 E0.04407
G1 X107.122 Y106.614 E0.04879
G1 X108.029 Y105.591 E0.04288
G1 X108.749 Y105.030 E0.02863
G1 X107.657 Y104.050 E0.04600
G1 X106.785 Y102.899 E0.04526
G1 X106.141 Y101.564 E0.04651
G1 X105.782 Y100.163 E0.04532
G1 X105.706 Y98.684 E0.04644
G1 X105.900 Y97.328 E0.04294
G1 X106.356 Y96.001 E0.04401
G1 X107.099 Y94.723 E0.04634
G1 X108.028 Y93.670 E0.04404
G1 X108.753 Y93.104 E0.02882
G1 X107.661 Y92.131 E0.04588
G1 X106.806 Y91.010 E0.04420
G1 X106.141 Y89.641 E0.04771
G1 X105.788 Y88.279 E0.04410
G1 X105.701 Y86.879 E0.04400
G1 X105.908 Y85.376 E0.04757
G1 X106.386 Y84.013 E0.04527
G1 X107.069 Y82.852 E0.04225
G1 X107.395 Y83.036 F10800.000
G1 F1200
G1 X108.300 Y82.010 E0.04290
G1 X109.420 Y81.160 E0.04409
G1 X110.654 Y80.563 E0.04298
G1 X111.981 Y80.219 E0.04297
G1 X113.346 Y80.140 E0.04289
G1 X114.665 Y80.321 E0.04173
G1 X115.927 Y80.748 E0.04178
G1 X117.086 Y81.409 E0.04185
G1 X118.204 Y82.389 E0.04662
G1 X119.055 Y83.504 E0.04395
G1 X119.376 Y82.975 E0.01939
G1 X120.212 Y82.033 E0.03950
G1 X121.360 Y81.158 E0.04528
G1 X122.629 Y80.549 E0.04412
G1 X123.919 Y80.219 E0.04174
G1 X125.250 Y80.139 E0.04183
G1 X126.645 Y80.331 E0.04415
G1 X127.937 Y80.782 E0.04291
G1 X129.088 Y81.455 E0.04178
G1 X130.114 Y82.359 E0.04290
G1 X130.993 Y83.497 E0.04508
G1 X131.290 Y83.006 E0.01802
G1 X132.204 Y81.982 E0.04301
G1 X133.298 Y81.157 E0.04297
G1 X134.497 Y80.575 E0.04180
G1 X135.822 Y80.224 E0.04295
G1 X137.190 Y80.139 E0.04298
G1 X138.583 Y80.331 E0.04409
G1 X139.876 Y80.783 E0.04294
G1 X141.086 Y81.499 E0.04409
G1 X142.077 Y82.387 E0.04173
G1 X142.882 Y83.449 E0.04179
G1 X143.485 Y84.681 E0.04301
G1 X143.848 Y86.082 E0.04536
G1 X143.919 Y87.450 E0.04297
G1 X143.721 Y88.806 E0.04296
G1 X143.262 Y90.097 E0.04296
G1 X142.582 Y91.245 E0.04182
G1 X141.670 Y92.266 E0.04294
G1 X140.568 Y93.107 E0.04345
G1 X141.085 Y93.421 E0.01897
G1 X142.027 Y94.256 E0.03947
G1 X142.901 Y95.403 E0.04520
G1 X143.485 Y96.602 E0.04181
G1 X143.830 Y97.890 E0.04183
G1 X143.920 Y99.333 E0.04532
G1 X143.730 Y100.690 E0.04298
G1 X143.279 Y101.984 E0.04297
G1 X142.583 Y103.166 E0.04301
G1 X141.671 Y104.188 E0.04295
G1 X140.568 Y105.029 E0.04348
G1 X141.085 Y105.343 E0.01897
G1 X142.027 Y106.180 E0.03950
G1 X142.901 Y107.325 E0.04518
G1 X143.484 Y108.522 E0.04172
G1 X143.823 Y109.772 E0.04063
G1 X143.920 Y111.253 E0.04652
G1 X143.731 Y112.611 E0.04299
G1 X143.280 Y113.904 E0.04296
G1 X142.606 Y115.057 E0.04186
G1 X141.671 Y116.110 E0.04416
G1 X140.569 Y116.951 E0.04346
G1 X141.052 Y117.242 E0.01767
G1 X142.051 Y118.128 E0.04187
G1 X142.882 Y119.217 E0.04295
G1 X143.471 Y120.411 E0.04175
G1 X143.829 Y121.732 E0.04291
G1 X143.922 Y123.137 E0.04416
G1 X143.730 Y124.535 E0.04422
G1 X143.263 Y125.864 E0.04418
G1 X142.584 Y127.010 E0.04178
G1 X141.699 Y128.007 E0.04179
G1 X140.546 Y128.876 E0.04526
G1 X139.344 Y129.452 E0.04180
G1 X138.018 Y129.796 E0.04297
G1 X136.688 Y129.876 E0.04176
G1 X135.330 Y129.693 E0.04298
G1 X133.998 Y129.232 E0.04419
G1 X132.787 Y128.514 E0.04414
G1 X131.796 Y127.626 E0.04173
G1 X130.944 Y126.515 E0.04390
G1 X130.624 Y127.041 E0.01929
G1 X129.760 Y128.009 E0.04068
G1 X128.638 Y128.859 E0.04412
G1 X127.440 Y129.441 E0.04179
G1 X126.118 Y129.790 E0.04287
G1 X124.715 Y129.874 E0.04404
G1 X123.396 Y129.694 E0.04175
G1 X122.134 Y129.266 E0.04179
G1 X120.915 Y128.562 E0.04415
G1 X119.887 Y127.656 E0.04293
G1 X119.007 Y126.516 E0.04516
G1 X118.712 Y127.007 E0.01794
G1 X117.826 Y128.006 E0.04185
G1 X116.735 Y128.838 E0.04303
G1 X115.469 Y129.453 E0.04413
G1 X114.182 Y129.790 E0.04174
G1 X112.816 Y129.876 E0.04291
G1 X111.420 Y129.684 E0.04416
G1 X110.159 Y129.248 E0.04185
G1 X109.005 Y128.581 E0.04177
G1 X107.949 Y127.655 E0.04405
G1 X107.078 Y126.500 E0.04535
G1 X106.502 Y125.299 E0.04178
G1 X106.158 Y123.973 E0.04295
G1 X106.080 Y122.605 E0.04296
G1 X106.262 Y121.284 E0.04181
G1 X106.723 Y119.952 E0.04419
G1 X107.440 Y118.741 E0.04414
G1 X108.330 Y117.749 E0.04178
G1 X109.432 Y116.908 E0.04346
G1 X108.914 Y116.593 E0.01903
G1 X107.946 Y115.729 E0.04068
G1 X107.096 Y114.607 E0.04413
G1 X106.501 Y113.373 E0.04297
G1 X106.152 Y112.011 E0.04406
G1 X106.080 Y110.682 E0.04175
G1 X106.262 Y109.361 E0.04181
G1 X106.691 Y108.099 E0.04179
G1 X107.417 Y106.851 E0.04527
G1 X108.299 Y105.855 E0.04172
G1 X109.428 Y104.983 E0.04472
G1 X108.914 Y104.670 E0.01888
G1 X107.946 Y103.806 E0.04067
G1 X107.116 Y102.717 E0.04293
G1 X106.501 Y101.451 E0.04416
G1 X106.158 Y100.124 E0.04297
G1 X106.082 Y98.719 E0.04411
G1 X106.271 Y97.400 E0.04178
G1 X106.706 Y96.142 E0.04175
G1 X107.394 Y94.959 E0.04290
G1 X108.299 Y93.933 E0.04288
G1 X109.427 Y93.061 E0.04471
G1 X108.948 Y92.773 E0.01755
G1 X107.949 Y91.887 E0.04185
G1 X107.117 Y90.796 E0.04303
G1 X106.501 Y89.528 E0.04419
G1 X106.158 Y88.203 E0.04293
G1 X106.079 Y86.875 E0.04171
G1 X106.270 Y85.482 E0.04409
G1 X106.721 Y84.187 E0.04298
G1 X107.364 Y83.087 E0.03995
G1 X107.711 Y83.242 F10800.000
G1 F1200
G1 X108.569 Y82.274 E0.04058
G1 X109.602 Y81.490 E0.04063
G1 X110.768 Y80.923 E0.04067
G1 X112.022 Y80.594 E0.04065
G1 X113.315 Y80.517 E0.04060
G1 X114.562 Y80.684 E0.03947
G1 X115.756 Y81.085 E0.03950
G1 X116.883 Y81.727 E0.04065
G1 X117.940 Y82.659 E0.04421
G1 X118.679 Y83.634 E0.03834
G1 X119.019 Y84.308 E0.02366
G1 X119.670 Y83.211 E0.04000
G1 X120.482 Y82.297 E0.03834
G1 X121.541 Y81.489 E0.04179
G1 X122.742 Y80.909 E0.04179
G1 X123.961 Y80.594 E0.03947
G1 X125.218 Y80.515 E0.03949
G1 X126.575 Y80.702 E0.04296
G1 X127.763 Y81.117 E0.03947
G1 X128.852 Y81.750 E0.03948
G1 X129.850 Y82.630 E0.04173
G1 X130.595 Y83.600 E0.03833
G1 X130.954 Y84.310 E0.02495
G1 X131.585 Y83.241 E0.03890
G1 X132.446 Y82.272 E0.04065
G1 X133.510 Y81.469 E0.04179
G1 X134.644 Y80.922 E0.03948
G1 X135.899 Y80.594 E0.04066
G1 X137.193 Y80.517 E0.04066
G1 X138.477 Y80.694 E0.04063
G1 X139.701 Y81.117 E0.04061
G1 X140.849 Y81.793 E0.04176
G1 X141.787 Y82.630 E0.03943
G1 X142.571 Y83.662 E0.04062
G1 X143.138 Y84.829 E0.04068
G1 X143.473 Y86.121 E0.04185
G1 X143.543 Y87.416 E0.04065
G1 X143.359 Y88.699 E0.04064
G1 X142.928 Y89.921 E0.04064
G1 X142.267 Y91.036 E0.04064
G1 X141.402 Y92.001 E0.04063
G1 X140.427 Y92.740 E0.03836
G1 X139.764 Y93.071 E0.02322
G1 X140.849 Y93.716 E0.03955
G1 X141.763 Y94.526 E0.03831
G1 X142.571 Y95.585 E0.04176
G1 X143.125 Y96.717 E0.03952
G1 X143.461 Y97.970 E0.04066
G1 X143.544 Y99.300 E0.04181
G1 X143.368 Y100.585 E0.04066
G1 X142.944 Y101.810 E0.04066
G1 X142.289 Y102.929 E0.04066
G1 X141.402 Y103.923 E0.04177
G1 X140.427 Y104.662 E0.03835
G1 X139.764 Y104.994 E0.02322
G1 X140.849 Y105.638 E0.03955
G1 X141.764 Y106.450 E0.03833
G1 X142.571 Y107.508 E0.04175
G1 X143.125 Y108.638 E0.03946
G1 X143.454 Y109.853 E0.03946
G1 X143.544 Y111.221 E0.04298
G1 X143.368 Y112.505 E0.04066
G1 X142.944 Y113.731 E0.04067
G1 X142.311 Y114.821 E0.03952
G1 X141.402 Y115.846 E0.04297
G1 X140.427 Y116.585 E0.03835
G1 X139.761 Y116.918 E0.02335
G1 X140.817 Y117.538 E0.03840
G1 X141.763 Y118.371 E0.03953
G1 X142.571 Y119.431 E0.04177
G1 X143.125 Y120.561 E0.03946
G1 X143.454 Y121.775 E0.03946
G1 X143.544 Y123.143 E0.04298
G1 X143.368 Y124.428 E0.04068
G1 X142.928 Y125.689 E0.04186
G1 X142.289 Y126.775 E0.03951
G1 X141.456 Y127.718 E0.03947
G1 X140.365 Y128.545 E0.04291
G1 X139.232 Y129.092 E0.03947
G1 X137.941 Y129.427 E0.04180
G1 X136.685 Y129.498 E0.03944
G1 X135.400 Y129.322 E0.04068
G1 X134.140 Y128.882 E0.04185
G1 X133.025 Y128.221 E0.04065
G1 X132.061 Y127.357 E0.04058
G1 X131.342 Y126.414 E0.03719
G1 X130.983 Y125.705 E0.02491
G1 X130.330 Y126.804 E0.04008
G1 X129.491 Y127.744 E0.03950
G1 X128.427 Y128.546 E0.04179
G1 X127.292 Y129.093 E0.03949
G1 X126.075 Y129.415 E0.03947
G1 X124.747 Y129.498 E0.04173
G1 X123.500 Y129.331 E0.03945
G1 X122.273 Y128.914 E0.04063
G1 X121.150 Y128.266 E0.04065
G1 X120.151 Y127.386 E0.04176
G1 X119.406 Y126.415 E0.03836
G1 X119.044 Y125.701 E0.02509
G1 X118.416 Y126.772 E0.03891
G1 X117.583 Y127.717 E0.03951
G1 X116.522 Y128.526 E0.04183
G1 X115.322 Y129.105 E0.04176
G1 X114.105 Y129.420 E0.03943
G1 X112.812 Y129.498 E0.04063
G1 X111.526 Y129.322 E0.04069
G1 X110.299 Y128.898 E0.04069
G1 X109.211 Y128.265 E0.03948
G1 X108.238 Y127.411 E0.04057
G1 X107.409 Y126.319 E0.04299
G1 X106.862 Y125.185 E0.03948
G1 X106.534 Y123.931 E0.04064
G1 X106.456 Y122.638 E0.04063
G1 X106.633 Y121.354 E0.04063
G1 X107.072 Y120.094 E0.04184
G1 X107.733 Y118.979 E0.04065
G1 X108.599 Y118.014 E0.04063
G1 X109.573 Y117.275 E0.03835
G1 X110.234 Y116.943 E0.02319
G1 X109.151 Y116.299 E0.03952
G1 X108.211 Y115.460 E0.03949
G1 X107.409 Y114.395 E0.04179
G1 X106.849 Y113.227 E0.04063
G1 X106.528 Y111.972 E0.04062
G1 X106.456 Y110.715 E0.03947
G1 X106.633 Y109.430 E0.04065
G1 X107.041 Y108.239 E0.03950
G1 X107.711 Y107.087 E0.04179
G1 X108.569 Y106.119 E0.04056
G1 X109.539 Y105.374 E0.03834
G1 X110.236 Y105.021 E0.02448
G1 X109.151 Y104.376 E0.03958
G1 X108.211 Y103.537 E0.03949
G1 X107.428 Y102.505 E0.04062
G1 X106.849 Y101.304 E0.04181
G1 X106.528 Y100.048 E0.04064
G1 X106.458 Y98.754 E0.04064
G1 X106.642 Y97.472 E0.04062
G1 X107.056 Y96.283 E0.03947
G1 X107.689 Y95.194 E0.03948
G1 X108.569 Y94.196 E0.04172
G1 X109.539 Y93.452 E0.03834
G1 X110.239 Y93.097 E0.02461
G1 X109.183 Y92.477 E0.03842
G1 X108.238 Y91.643 E0.03951
G1 X107.428 Y90.582 E0.04184
G1 X106.849 Y89.382 E0.04181
G1 X106.528 Y88.127 E0.04059
G1 X106.456 Y86.872 E0.03943
G1 X106.632 Y85.587 E0.04066
G1 X107.056 Y84.362 E0.04066
G1 X107.680 Y83.294 E0.03878
G1 X108.006 Y83.477 F10800.000
G1 F1200
G1 X108.813 Y82.562 E0.03827
G1 X109.785 Y81.821 E0.03831
G1 X110.883 Y81.283 E0.03835
G1 X112.065 Y80.969 E0.03833
G1 X113.284 Y80.893 E0.03830
G1 X114.460 Y81.047 E0.03717
G1 X115.618 Y81.437 E0.03833
G1 X116.679 Y82.044 E0.03831
G1 X117.651 Y82.902 E0.04067
G1 X118.367 Y83.847 E0.03717
G1 X119.070 Y85.270 E0.04976
G1 X119.344 Y84.502 E0.02558
G1 X119.964 Y83.448 E0.03835
G1 X120.752 Y82.561 E0.03718
G1 X121.723 Y81.820 E0.03832
G1 X122.856 Y81.269 E0.03947
G1 X124.003 Y80.969 E0.03717
G1 X125.222 Y80.893 E0.03832
G1 X126.470 Y81.065 E0.03947
G1 X127.590 Y81.452 E0.03717
G1 X128.647 Y82.067 E0.03832
G1 X129.562 Y82.874 E0.03828
G1 X130.284 Y83.814 E0.03717
G1 X131.007 Y85.269 E0.05092
G1 X131.281 Y84.501 E0.02554
G1 X131.880 Y83.478 E0.03719
G1 X132.715 Y82.536 E0.03947
G1 X133.692 Y81.800 E0.03832
G1 X134.758 Y81.282 E0.03717
G1 X135.976 Y80.964 E0.03947
G1 X137.196 Y80.894 E0.03831
G1 X138.406 Y81.064 E0.03833
G1 X139.527 Y81.452 E0.03717
G1 X140.613 Y82.088 E0.03945
G1 X141.499 Y82.874 E0.03714
G1 X142.240 Y83.845 E0.03832
G1 X142.778 Y84.943 E0.03834
G1 X143.097 Y86.162 E0.03950
G1 X143.167 Y87.382 E0.03832
G1 X142.997 Y88.592 E0.03832
G1 X142.594 Y89.746 E0.03832
G1 X141.973 Y90.799 E0.03832
G1 X141.159 Y91.711 E0.03833
G1 X140.214 Y92.428 E0.03718
G1 X138.802 Y93.119 E0.04929
G1 X139.559 Y93.390 E0.02520
G1 X140.613 Y94.010 E0.03833
G1 X141.499 Y94.796 E0.03715
G1 X142.240 Y95.768 E0.03832
G1 X142.778 Y96.866 E0.03835
G1 X143.092 Y98.048 E0.03834
G1 X143.168 Y99.269 E0.03835
G1 X143.005 Y100.480 E0.03831
G1 X142.593 Y101.669 E0.03946
G1 X141.973 Y102.722 E0.03831
G1 X141.159 Y103.634 E0.03833
G1 X140.214 Y104.350 E0.03718
G1 X138.802 Y105.042 E0.04929
G1 X139.559 Y105.312 E0.02520
G1 X140.613 Y105.932 E0.03833
G1 X141.500 Y106.719 E0.03718
G1 X142.241 Y107.691 E0.03833
G1 X142.766 Y108.755 E0.03717
