; generated by PrusaSlicer 2.2.0+win64 on 2020-08-14 at 20:52:47 UTC

; 

; external perimeters extrusion width = 0.45mm
; perimeters extrusion width = 0.45mm
; infill extrusion width = 0.45mm
; solid infill extrusion width = 0.45mm
; top infill extrusion width = 0.40mm
; first layer extrusion width = 0.42mm

M73 P0 R6
M201 X9000 Y9000 Z500 E10000 ; sets maximum accelerations, mm/sec^2
M203 X500 Y500 Z12 E120 ; sets maximum feedrates, mm/sec
M204 P2000 R1500 T2000 ; sets acceleration (P, T) and retract acceleration (R), mm/sec^2
M205 X10.00 Y10.00 Z0.20 E2.50 ; sets the jerk limits, mm/sec
M205 S0 T0 ; sets the minimum extruding and travel feed rate, mm/sec
M107
M862.3 P "MK2S" ; printer model check
M862.1 P0.4 ; nozzle diameter check
M115 U3.2.3 ; tell printer latest fw version
G90 ; use absolute coordinates
M83 ; extruder relative mode
M204 S2000 T1500 ; MK2 firmware only supports the old M204 format
M104 S215 ; set extruder temp
M140 S60 ; set bed temp
M190 S60 ; wait for bed temp
M109 S215 ; wait for extruder temp
G28 W ; home all without mesh bed level
G80 ; mesh bed leveling
G1 Y-3.0 F1000.0 ; go outside print area
G92 E0.0
G1 X60.0 E9.0  F1000.0 ; intro line
M73 P1 R6
G1 X100.0 E12.5 F1000.0 ; intro line
G92 E0.0
G21 ; set units to millimeters
G90 ; use absolute coordinates
M83 ; use relative distances for extrusion
M900 K0.06 ; Filament gcode LA 1.5
M900 K30 ; Filament gcode LA 1.0
;BEFORE_LAYER_CHANGE
G92 E0.0
;0.2


G1 E-0.80000 F2100.00000
G1 Z0.600 F10800.000
;AFTER_LAYER_CHANGE
;0.2
G1 X130.911 Y91.323
G1 Z0.200
G1 E0.80000 F2100.00000
M204 S1000
G1 F1058
G1 X131.250 Y91.356 E0.01069
G1 X131.614 Y91.466 E0.01190
G1 X131.948 Y91.645 E0.01190
G1 X132.242 Y91.886 E0.01190
G1 X132.483 Y92.180 E0.01190
G1 X132.662 Y92.515 E0.01191
G1 X132.772 Y92.878 E0.01190
G1 X132.809 Y93.256 E0.01190
G1 X132.772 Y93.634 E0.01190
G1 X132.662 Y93.997 E0.01190
G1 X132.483 Y94.332 E0.01190
G1 X132.242 Y94.625 E0.01190
G1 X131.948 Y94.866 E0.01190
G1 X131.614 Y95.045 E0.01190
G1 X131.250 Y95.155 E0.01190
G1 X130.872 Y95.193 E0.01190
G1 X130.495 Y95.155 E0.01190
G1 X130.131 Y95.045 E0.01190
G1 X129.796 Y94.866 E0.01190
G1 X129.503 Y94.625 E0.01190
G1 X129.262 Y94.332 E0.01190
G1 X129.083 Y93.997 E0.01190
G1 X128.973 Y93.634 E0.01190
G1 X128.936 Y93.256 E0.01190
G1 X128.973 Y92.878 E0.01190
G1 X129.083 Y92.515 E0.01190
G1 X129.262 Y92.180 E0.01190
G1 X129.503 Y91.886 E0.01190
G1 X129.796 Y91.645 E0.01190
G1 X130.131 Y91.466 E0.01190
G1 X130.490 Y91.358 E0.01176
G1 X130.851 Y91.328 E0.01136
G1 X130.872 Y95.572 F10800.000
G1 F1058
G1 X130.421 Y95.527 E0.01423
G1 X129.986 Y95.395 E0.01423
G1 X129.586 Y95.181 E0.01423
G1 X129.235 Y94.893 E0.01423
G1 X128.947 Y94.542 E0.01423
G1 X128.733 Y94.142 E0.01423
G1 X128.601 Y93.708 E0.01423
G1 X128.557 Y93.256 E0.01423
G1 X128.601 Y92.804 E0.01423
G1 X128.733 Y92.370 E0.01423
G1 X128.947 Y91.969 E0.01423
G1 X129.235 Y91.618 E0.01423
G1 X129.586 Y91.330 E0.01423
G1 X129.986 Y91.116 E0.01423
G1 X130.419 Y90.985 E0.01418
G1 X130.914 Y90.944 E0.01557
G1 X131.324 Y90.985 E0.01292
G1 X131.759 Y91.116 E0.01423
G1 X132.159 Y91.330 E0.01423
G1 X132.510 Y91.618 E0.01423
G1 X132.798 Y91.969 E0.01423
G1 X133.012 Y92.370 E0.01423
G1 X133.144 Y92.804 E0.01423
G1 X133.188 Y93.256 E0.01423
G1 X133.144 Y93.708 E0.01423
G1 X133.012 Y94.142 E0.01423
G1 X132.798 Y94.542 E0.01423
G1 X132.510 Y94.893 E0.01423
G1 X132.159 Y95.181 E0.01423
G1 X131.759 Y95.395 E0.01423
G1 X131.324 Y95.527 E0.01423
G1 X130.932 Y95.566 E0.01235
G1 X130.672 Y95.225 F10800.000
G1 X132.586 Y92.654
G1 F1058
G1 X131.921 Y91.988 E0.03202
G1 X131.791 Y91.882 E0.00572
G1 X131.505 Y91.729 E0.01103
G1 X131.195 Y91.635 E0.01103
G1 X130.966 Y91.612 E0.00784
G1 X132.516 Y93.163 E0.07462
G1 X132.525 Y93.256 E0.00319
G1 X132.493 Y93.578 E0.01103
G1 X132.461 Y93.686 E0.00384
G1 X130.442 Y91.668 E0.09717
G1 X130.240 Y91.729 E0.00719
G1 X130.034 Y91.839 E0.00794
G1 X132.289 Y94.094 E0.10855
G1 X132.247 Y94.174 E0.00309
G1 X132.041 Y94.424 E0.01103
G1 X129.704 Y92.087 E0.11251
G1 X129.498 Y92.338 E0.01103
G1 X129.455 Y92.418 E0.00309
G1 X131.710 Y94.673 E0.10855
G1 X131.505 Y94.783 E0.00793
G1 X131.303 Y94.844 E0.00719
G1 X129.284 Y92.826 E0.09716
G1 X129.252 Y92.933 E0.00384
G1 X129.220 Y93.256 E0.01103
G1 X129.229 Y93.349 E0.00319
G1 X130.779 Y94.899 E0.07462
G1 X130.550 Y94.877 E0.00783
G1 X130.240 Y94.783 E0.01103
G1 X129.954 Y94.630 E0.01103
G1 X129.824 Y94.523 E0.00576
G1 X129.159 Y93.858 E0.03198
G1 E-0.80000 F2100.00000
G1 Z0.800 F10800.000
G1 X130.761 Y106.926
G1 Z0.200
G1 E0.80000 F2100.00000
G1 F1058
G1 X130.495 Y106.900 E0.00839
G1 X130.131 Y106.790 E0.01190
G1 X129.796 Y106.611 E0.01190
G1 X129.503 Y106.370 E0.01190
G1 X129.262 Y106.076 E0.01190
G1 X129.083 Y105.741 E0.01190
G1 X128.973 Y105.378 E0.01190
G1 X128.936 Y105.000 E0.01190
G1 X128.973 Y104.622 E0.01190
G1 X129.083 Y104.259 E0.01190
G1 X129.262 Y103.924 E0.01190
G1 X129.503 Y103.631 E0.01190
G1 X129.796 Y103.390 E0.01190
G1 X130.131 Y103.211 E0.01190
G1 X130.490 Y103.102 E0.01176
G1 X130.911 Y103.067 E0.01324
G1 X131.250 Y103.101 E0.01069
G1 X131.614 Y103.211 E0.01190
G1 X131.948 Y103.390 E0.01190
G1 X132.242 Y103.631 E0.01190
G1 X132.483 Y103.924 E0.01190
G1 X132.662 Y104.259 E0.01191
G1 X132.772 Y104.622 E0.01190
G1 X132.809 Y105.000 E0.01190
G1 X132.772 Y105.378 E0.01190
G1 X132.662 Y105.741 E0.01190
G1 X132.483 Y106.076 E0.01190
G1 X132.242 Y106.370 E0.01190
G1 X131.948 Y106.611 E0.01190
G1 X131.614 Y106.790 E0.01190
G1 X131.250 Y106.900 E0.01190
G1 X130.820 Y106.932 E0.01351
G1 X130.872 Y107.316 F10800.000
G1 F1058
G1 X130.421 Y107.271 E0.01423
G1 X129.986 Y107.140 E0.01423
G1 X129.586 Y106.926 E0.01423
G1 X129.235 Y106.638 E0.01423
G1 X128.947 Y106.287 E0.01423
G1 X128.733 Y105.886 E0.01423
G1 X128.601 Y105.452 E0.01423
G1 X128.557 Y105.000 E0.01423
G1 X128.601 Y104.548 E0.01423
G1 X128.733 Y104.114 E0.01423
G1 X128.947 Y103.714 E0.01423
G1 X129.235 Y103.363 E0.01423
G1 X129.586 Y103.075 E0.01423
G1 X129.986 Y102.861 E0.01423
G1 X130.419 Y102.729 E0.01418
G1 X130.914 Y102.689 E0.01557
G1 X131.324 Y102.729 E0.01292
G1 X131.759 Y102.861 E0.01423
G1 X132.159 Y103.075 E0.01423
G1 X132.510 Y103.363 E0.01423
G1 X132.798 Y103.714 E0.01423
G1 X133.012 Y104.114 E0.01423
G1 X133.144 Y104.548 E0.01423
G1 X133.188 Y105.000 E0.01423
G1 X133.144 Y105.452 E0.01423
G1 X133.012 Y105.886 E0.01423
G1 X132.798 Y106.287 E0.01423
G1 X132.510 Y106.638 E0.01423
G1 X132.159 Y106.926 E0.01423
G1 X131.759 Y107.140 E0.01423
G1 X131.324 Y107.271 E0.01423
G1 X130.932 Y107.310 E0.01235
G1 X130.672 Y106.970 F10800.000
G1 X132.586 Y104.398
G1 F1058
G1 X131.921 Y103.733 E0.03202
G1 X131.791 Y103.626 E0.00572
G1 X131.505 Y103.473 E0.01103
G1 X131.195 Y103.379 E0.01103
G1 X130.966 Y103.357 E0.00784
G1 X132.516 Y104.907 E0.07462
G1 X132.525 Y105.000 E0.00319
G1 X132.493 Y105.323 E0.01103
G1 X132.461 Y105.431 E0.00384
G1 X130.442 Y103.412 E0.09717
G1 X130.240 Y103.473 E0.00719
G1 X130.034 Y103.583 E0.00794
G1 X132.289 Y105.838 E0.10855
G1 X132.247 Y105.918 E0.00309
G1 X132.041 Y106.169 E0.01103
G1 X129.704 Y103.832 E0.11251
G1 X129.498 Y104.082 E0.01103
G1 X129.455 Y104.162 E0.00309
G1 X131.710 Y106.417 E0.10855
G1 X131.505 Y106.527 E0.00793
G1 X131.303 Y106.588 E0.00719
G1 X129.284 Y104.570 E0.09716
G1 X129.252 Y104.678 E0.00384
G1 X129.220 Y105.000 E0.01103
G1 X129.229 Y105.094 E0.00319
G1 X130.779 Y106.644 E0.07462
G1 X130.550 Y106.621 E0.00783
G1 X130.240 Y106.527 E0.01103
G1 X129.954 Y106.374 E0.01103
G1 X129.824 Y106.267 E0.00576
G1 X129.159 Y105.603 E0.03198
G1 E-0.80000 F2100.00000
G1 Z0.800 F10800.000
G1 X130.761 Y118.670
G1 Z0.200
G1 E0.80000 F2100.00000
G1 F1058
G1 X130.495 Y118.644 E0.00839
G1 X130.131 Y118.534 E0.01190
G1 X129.796 Y118.355 E0.01190
G1 X129.503 Y118.114 E0.01190
G1 X129.262 Y117.821 E0.01190
G1 X129.083 Y117.486 E0.01190
G1 X128.973 Y117.122 E0.01190
G1 X128.936 Y116.745 E0.01190
G1 X128.973 Y116.367 E0.01190
G1 X129.083 Y116.003 E0.01190
G1 X129.262 Y115.669 E0.01190
G1 X129.503 Y115.375 E0.01190
G1 X129.796 Y115.134 E0.01190
G1 X130.131 Y114.955 E0.01190
G1 X130.490 Y114.846 E0.01176
G1 X130.911 Y114.812 E0.01324
G1 X131.250 Y114.845 E0.01069
G1 X131.614 Y114.955 E0.01190
G1 X131.948 Y115.134 E0.01190
G1 X132.242 Y115.375 E0.01190
G1 X132.483 Y115.669 E0.01190
G1 X132.662 Y116.003 E0.01191
G1 X132.772 Y116.367 E0.01190
G1 X132.809 Y116.745 E0.01190
G1 X132.772 Y117.122 E0.01190
G1 X132.662 Y117.486 E0.01190
G1 X132.483 Y117.821 E0.01190
G1 X132.242 Y118.114 E0.01190
G1 X131.948 Y118.355 E0.01190
G1 X131.614 Y118.534 E0.01190
G1 X131.250 Y118.644 E0.01190
G1 X130.820 Y118.676 E0.01351
G1 X130.872 Y119.060 F10800.000
G1 F1058
G1 X130.421 Y119.016 E0.01423
G1 X129.986 Y118.884 E0.01423
G1 X129.586 Y118.670 E0.01423
G1 X129.235 Y118.382 E0.01423
G1 X128.947 Y118.031 E0.01423
G1 X128.733 Y117.631 E0.01423
G1 X128.601 Y117.196 E0.01423
G1 X128.557 Y116.745 E0.01423
G1 X128.601 Y116.293 E0.01423
G1 X128.733 Y115.858 E0.01423
G1 X128.947 Y115.458 E0.01423
G1 X129.235 Y115.107 E0.01423
G1 X129.586 Y114.819 E0.01423
G1 X129.986 Y114.605 E0.01423
G1 X130.419 Y114.474 E0.01418
G1 X130.914 Y114.433 E0.01557
G1 X131.324 Y114.473 E0.01292
G1 X131.759 Y114.605 E0.01423
G1 X132.159 Y114.819 E0.01423
G1 X132.510 Y115.107 E0.01423
G1 X132.798 Y115.458 E0.01423
G1 X133.012 Y115.858 E0.01423
G1 X133.144 Y116.293 E0.01423
G1 X133.188 Y116.745 E0.01423
G1 X133.144 Y117.196 E0.01423
G1 X133.012 Y117.631 E0.01423
G1 X132.798 Y118.031 E0.01423
G1 X132.510 Y118.382 E0.01423
G1 X132.159 Y118.670 E0.01423
G1 X131.759 Y118.884 E0.01423
G1 X131.324 Y119.016 E0.01423
G1 X130.932 Y119.054 E0.01235
G1 X130.672 Y118.714 F10800.000
G1 X132.586 Y116.142
G1 F1058
G1 X131.921 Y115.477 E0.03202
G1 X131.791 Y115.371 E0.00572
G1 X131.505 Y115.218 E0.01103
G1 X131.195 Y115.124 E0.01103
G1 X130.966 Y115.101 E0.00784
G1 X132.516 Y116.651 E0.07462
G1 X132.525 Y116.745 E0.00319
G1 X132.493 Y117.067 E0.01103
G1 X132.461 Y117.175 E0.00384
G1 X130.442 Y115.156 E0.09717
G1 X130.240 Y115.218 E0.00719
G1 X130.034 Y115.328 E0.00794
G1 X132.289 Y117.583 E0.10855
G1 X132.247 Y117.663 E0.00309
G1 X132.041 Y117.913 E0.01103
G1 X129.704 Y115.576 E0.11251
G1 X129.498 Y115.826 E0.01103
G1 X129.455 Y115.907 E0.00309
G1 X131.710 Y118.162 E0.10855
G1 X131.505 Y118.271 E0.00793
G1 X131.303 Y118.333 E0.00719
G1 X129.284 Y116.314 E0.09716
G1 X129.252 Y116.422 E0.00384
G1 X129.220 Y116.745 E0.01103
G1 X129.229 Y116.838 E0.00319
G1 X130.779 Y118.388 E0.07462
G1 X130.550 Y118.366 E0.00783
G1 X130.240 Y118.271 E0.01103
G1 X129.954 Y118.119 E0.01103
G1 X129.824 Y118.011 E0.00576
G1 X129.159 Y117.347 E0.03198
G1 E-0.80000 F2100.00000
G1 Z0.800 F10800.000
G1 X119.128 Y118.681
G1 Z0.200
G1 E0.80000 F2100.00000
G1 F1058
G1 X118.750 Y118.644 E0.01190
G1 X118.387 Y118.534 E0.01190
G1 X118.052 Y118.355 E0.01190
G1 X117.758 Y118.114 E0.01190
G1 X117.518 Y117.821 E0.01190
G1 X117.339 Y117.486 E0.01190
G1 X117.228 Y117.122 E0.01190
G1 X117.191 Y116.745 E0.01190
G1 X117.228 Y116.367 E0.01190
G1 X117.339 Y116.003 E0.01190
G1 X117.518 Y115.669 E0.01190
G1 X117.758 Y115.375 E0.01190
G1 X118.052 Y115.134 E0.01190
G1 X118.387 Y114.955 E0.01190
G1 X118.746 Y114.846 E0.01176
G1 X119.167 Y114.812 E0.01324
G1 X119.506 Y114.845 E0.01069
G1 X119.869 Y114.955 E0.01190
G1 X120.204 Y115.134 E0.01190
G1 X120.498 Y115.375 E0.01190
G1 X120.738 Y115.669 E0.01190
G1 X120.917 Y116.003 E0.01191
G1 X121.028 Y116.367 E0.01190
G1 X121.065 Y116.745 E0.01190
G1 X121.028 Y117.122 E0.01190
G1 X120.917 Y117.486 E0.01190
G1 X120.738 Y117.821 E0.01190
G1 X120.498 Y118.114 E0.01190
G1 X120.204 Y118.355 E0.01190
G1 X119.869 Y118.534 E0.01190
G1 X119.506 Y118.644 E0.01190
G1 X119.188 Y118.676 E0.01002
G1 X119.128 Y119.060 F10800.000
G1 F1058
G1 X118.676 Y119.016 E0.01423
G1 X118.242 Y118.884 E0.01423
G1 X117.841 Y118.670 E0.01423
G1 X117.491 Y118.382 E0.01423
G1 X117.203 Y118.031 E0.01423
G1 X116.989 Y117.631 E0.01423
G1 X116.857 Y117.196 E0.01423
G1 X116.812 Y116.745 E0.01423
G1 X116.857 Y116.293 E0.01423
G1 X116.989 Y115.858 E0.01423
G1 X117.203 Y115.458 E0.01423
G1 X117.491 Y115.107 E0.01423
G1 X117.841 Y114.819 E0.01423
G1 X118.242 Y114.605 E0.01423
G1 X118.675 Y114.474 E0.01418
G1 X119.170 Y114.433 E0.01557
G1 X119.580 Y114.473 E0.01292
G1 X120.014 Y114.605 E0.01423
G1 X120.415 Y114.819 E0.01423
G1 X120.765 Y115.107 E0.01423
G1 X121.053 Y115.458 E0.01423
G1 X121.267 Y115.858 E0.01423
G1 X121.399 Y116.293 E0.01423
G1 X121.444 Y116.745 E0.01423
G1 X121.399 Y117.196 E0.01423
G1 X121.267 Y117.631 E0.01423
G1 X121.053 Y118.031 E0.01423
G1 X120.765 Y118.382 E0.01423
G1 X120.415 Y118.670 E0.01423
G1 X120.014 Y118.884 E0.01423
G1 X119.580 Y119.016 E0.01423
G1 X119.188 Y119.054 E0.01235
G1 X118.928 Y118.714 F10800.000
G1 X120.841 Y116.142
G1 F1058
G1 X120.176 Y115.477 E0.03202
G1 X120.046 Y115.371 E0.00572
G1 X119.760 Y115.218 E0.01103
G1 X119.450 Y115.124 E0.01103
G1 X119.221 Y115.101 E0.00784
G1 X120.771 Y116.651 E0.07462
G1 X120.781 Y116.745 E0.00319
G1 X120.749 Y117.067 E0.01103
G1 X120.716 Y117.175 E0.00384
G1 X118.698 Y115.156 E0.09717
G1 X118.496 Y115.218 E0.00719
G1 X118.290 Y115.328 E0.00794
G1 X120.545 Y117.583 E0.10855
G1 X120.502 Y117.663 E0.00309
G1 X120.297 Y117.913 E0.01103
G1 X117.959 Y115.576 E0.11251
G1 X117.754 Y115.826 E0.01103
G1 X117.711 Y115.907 E0.00309
G1 X119.966 Y118.162 E0.10855
G1 X119.760 Y118.271 E0.00793
G1 X119.558 Y118.333 E0.00719
G1 X117.540 Y116.314 E0.09716
G1 X117.507 Y116.422 E0.00384
G1 X117.475 Y116.745 E0.01103
G1 X117.485 Y116.838 E0.00319
G1 X119.035 Y118.388 E0.07462
G1 X118.806 Y118.366 E0.00783
G1 X118.496 Y118.271 E0.01103
G1 X118.210 Y118.119 E0.01103
G1 X118.079 Y118.011 E0.00576
G1 X117.415 Y117.347 E0.03198
G1 E-0.80000 F2100.00000
G1 Z0.800 F10800.000
G1 X119.128 Y106.937
G1 Z0.200
G1 E0.80000 F2100.00000
G1 F1058
G1 X118.750 Y106.900 E0.01190
G1 X118.387 Y106.790 E0.01190
G1 X118.052 Y106.611 E0.01190
G1 X117.758 Y106.370 E0.01190
G1 X117.518 Y106.076 E0.01190
G1 X117.339 Y105.741 E0.01190
G1 X117.228 Y105.378 E0.01190
G1 X117.191 Y105.000 E0.01190
G1 X117.228 Y104.622 E0.01190
G1 X117.339 Y104.259 E0.01190
G1 X117.518 Y103.924 E0.01190
G1 X117.758 Y103.631 E0.01190
G1 X118.052 Y103.390 E0.01190
G1 X118.387 Y103.211 E0.01190
G1 X118.746 Y103.102 E0.01176
G1 X119.167 Y103.067 E0.01324
G1 X119.506 Y103.101 E0.01069
G1 X119.869 Y103.211 E0.01190
G1 X120.204 Y103.390 E0.01190
G1 X120.498 Y103.631 E0.01190
G1 X120.738 Y103.924 E0.01190
G1 X120.917 Y104.259 E0.01191
G1 X121.028 Y104.622 E0.01190
G1 X121.065 Y105.000 E0.01190
G1 X121.028 Y105.378 E0.01190
G1 X120.917 Y105.741 E0.01190
G1 X120.738 Y106.076 E0.01190
G1 X120.498 Y106.370 E0.01190
G1 X120.204 Y106.611 E0.01190
G1 X119.869 Y106.790 E0.01190
G1 X119.506 Y106.900 E0.01190
G1 X119.188 Y106.931 E0.01002
G1 X119.128 Y107.316 F10800.000
G1 F1058
G1 X118.676 Y107.271 E0.01423
G1 X118.242 Y107.140 E0.01423
G1 X117.841 Y106.926 E0.01423
G1 X117.491 Y106.638 E0.01423
G1 X117.203 Y106.287 E0.01423
G1 X116.989 Y105.886 E0.01423
G1 X116.857 Y105.452 E0.01423
G1 X116.812 Y105.000 E0.01423
G1 X116.857 Y104.548 E0.01423
G1 X116.989 Y104.114 E0.01423
G1 X117.203 Y103.714 E0.01423
G1 X117.491 Y103.363 E0.01423
G1 X117.841 Y103.075 E0.01423
G1 X118.242 Y102.861 E0.01423
G1 X118.675 Y102.729 E0.01418
G1 X119.170 Y102.689 E0.01557
G1 X119.580 Y102.729 E0.01292
G1 X120.014 Y102.861 E0.01423
G1 X120.415 Y103.075 E0.01423
G1 X120.765 Y103.363 E0.01423
G1 X121.053 Y103.714 E0.01423
G1 X121.267 Y104.114 E0.01423
G1 X121.399 Y104.548 E0.01423
G1 X121.444 Y105.000 E0.01423
G1 X121.399 Y105.452 E0.01423
G1 X121.267 Y105.886 E0.01423
G1 X121.053 Y106.287 E0.01423
G1 X120.765 Y106.638 E0.01423
G1 X120.415 Y106.926 E0.01423
G1 X120.014 Y107.140 E0.01423
G1 X119.580 Y107.271 E0.01423
G1 X119.188 Y107.310 E0.01235
G1 X118.928 Y106.970 F10800.000
G1 X120.841 Y104.398
G1 F1058
G1 X120.176 Y103.733 E0.03202
G1 X120.046 Y103.626 E0.00572
G1 X119.760 Y103.473 E0.01103
G1 X119.450 Y103.379 E0.01103
G1 X119.221 Y103.357 E0.00784
G1 X120.771 Y104.907 E0.07462
G1 X120.781 Y105.000 E0.00319
