; generated by Slic3r Prusa Edition 1.42.0-alpha3+ on 2019-05-03 at 12:07:48

; 

; external perimeters extrusion width = 0.45mm
; perimeters extrusion width = 0.45mm
; infill extrusion width = 0.45mm
; solid infill extrusion width = 0.45mm
; top infill extrusion width = 0.40mm
; first layer extrusion width = 0.42mm

M201 X9000 Y9000 Z500 E10000 ; sets maximum accelerations, mm/sec^2
M203 X500 Y500 Z12 E120 ; sets maximum feedrates, mm/sec
M204 P2000 R1500 T2000 ; sets acceleration (P, T) and retract acceleration (R), mm/sec^2
M205 X10.00 Y10.00 Z0.20 E2.50 ; sets the jerk limits, mm/sec
M205 S0 T0 ; sets the minimum extruding and travel feed rate, mm/sec
M107
M115 U3.1.0 ; tell printer latest fw version
M83  ; extruder relative mode
M204 S2000 T1500 ; MK2 firmware only supports the old M204 format
M104 S215 ; set extruder temp
M140 S60 ; set bed temp
M190 S60 ; wait for bed temp
M109 S215 ; wait for extruder temp
G28 W ; home all without mesh bed level
G80 ; mesh bed leveling
G1 Y-3.0 F1000.0 ; go outside print area
G92 E0.0
G1 X60.0 E9.0  F1000.0 ; intro line
G1 X100.0 E12.5  F1000.0 ; intro line
G92 E0.0
M900 K30; Filament gcode
G21 ; set units to millimeters
G90 ; use absolute coordinates
M83 ; use relative distances for extrusion
;BEFORE_LAYER_CHANGE
G92 E0.0
;0.2


G1 E-0.80000 F2100.00000
G1 Z0.600 F10800.000
;AFTER_LAYER_CHANGE
;0.2
G1 X118.967 Y94.821
G1 Z0.200
G1 E0.80000 F2100.00000
M204 S1000
G1 F1200
G1 X120.021 Y93.618 E0.05016
G1 X121.177 Y92.750 E0.04530
G1 X122.477 Y92.126 E0.04525
G1 X123.876 Y91.767 E0.04526
G1 X125.315 Y91.687 E0.04521
G1 X126.705 Y91.880 E0.04400
G1 X128.035 Y92.334 E0.04406
G1 X129.289 Y93.058 E0.04541
G1 X130.405 Y94.042 E0.04663
G1 X130.945 Y94.741 E0.02772
G1 X131.990 Y93.588 E0.04880
G1 X133.086 Y92.767 E0.04294
G1 X134.384 Y92.137 E0.04522
G1 X135.816 Y91.766 E0.04638
G1 X137.255 Y91.687 E0.04519
G1 X138.647 Y91.881 E0.04406
G1 X140.049 Y92.370 E0.04656
G1 X141.322 Y93.127 E0.04644
G1 X142.338 Y94.037 E0.04278
G1 X143.151 Y95.090 E0.04170
G1 X143.829 Y96.446 E0.04752
G1 X144.204 Y97.842 E0.04531
G1 X144.301 Y99.247 E0.04418
G1 X144.102 Y100.756 E0.04770
G1 X143.646 Y102.088 E0.04415
G1 X142.945 Y103.308 E0.04414
G1 X141.998 Y104.398 E0.04527
G1 X141.249 Y104.983 E0.02980
G1 X142.367 Y105.991 E0.04723
G1 X143.195 Y107.083 E0.04295
G1 X143.819 Y108.341 E0.04403
G1 X144.211 Y109.806 E0.04753
G1 X144.298 Y111.243 E0.04514
G1 X144.120 Y112.600 E0.04294
G1 X143.647 Y114.009 E0.04659
G1 X142.877 Y115.325 E0.04782
G1 X141.939 Y116.376 E0.04416
G1 X141.247 Y116.910 E0.02740
G1 X142.315 Y117.857 E0.04475
G1 X143.213 Y119.034 E0.04642
G1 X143.831 Y120.295 E0.04404
G1 X144.198 Y121.651 E0.04404
G1 X144.297 Y123.206 E0.04885
G1 X144.111 Y124.562 E0.04292
G1 X143.679 Y125.860 E0.04290
G1 X142.901 Y127.214 E0.04895
G1 X141.886 Y128.348 E0.04771
G1 X140.792 Y129.168 E0.04288
G1 X139.531 Y129.786 E0.04403
G1 X138.138 Y130.159 E0.04520
G1 X136.735 Y130.255 E0.04411
G1 X135.228 Y130.056 E0.04765
G1 X133.896 Y129.600 E0.04415
G1 X132.675 Y128.899 E0.04414
G1 X131.586 Y127.953 E0.04524
G1 X130.990 Y127.193 E0.03030
G1 X129.948 Y128.348 E0.04879
G1 X128.883 Y129.151 E0.04181
G1 X127.591 Y129.787 E0.04515
G1 X126.125 Y130.171 E0.04754
G1 X124.760 Y130.253 E0.04285
G1 X123.404 Y130.082 E0.04287
G1 X121.962 Y129.601 E0.04765
G1 X120.650 Y128.835 E0.04764
G1 X119.600 Y127.901 E0.04407
G1 X118.765 Y126.813 E0.04301
G1 X118.093 Y125.450 E0.04764
G1 X117.732 Y124.090 E0.04411
G1 X117.637 Y122.686 E0.04412
G1 X117.835 Y121.182 E0.04756
G1 X118.291 Y119.851 E0.04411
G1 X118.992 Y118.630 E0.04416
G1 X119.939 Y117.539 E0.04529
G1 X120.689 Y116.955 E0.02979
G1 X119.542 Y115.915 E0.04853
G1 X118.720 Y114.818 E0.04298
G1 X118.103 Y113.555 E0.04407
G1 X117.720 Y112.087 E0.04757
G1 X117.641 Y110.650 E0.04514
G1 X117.827 Y109.294 E0.04292
G1 X118.308 Y107.891 E0.04650
G1 X119.060 Y106.613 E0.04647
G1 X119.967 Y105.591 E0.04287
G1 X120.689 Y105.027 E0.02873
G1 X119.543 Y103.994 E0.04837
G1 X118.741 Y102.929 E0.04181
G1 X118.105 Y101.637 E0.04515
G1 X117.720 Y100.171 E0.04753
G1 X117.638 Y98.806 E0.04285
G1 X117.809 Y97.450 E0.04286
G1 X118.258 Y96.080 E0.04522
G1 X118.937 Y94.873 E0.04341
G1 X119.285 Y95.024 F10800.000
G1 F1200
G1 X120.264 Y93.907 E0.04656
G1 X121.358 Y93.082 E0.04297
G1 X122.591 Y92.486 E0.04293
G1 X123.916 Y92.142 E0.04295
G1 X125.283 Y92.063 E0.04292
G1 X126.602 Y92.243 E0.04173
G1 X127.864 Y92.671 E0.04178
G1 X129.055 Y93.354 E0.04304
G1 X130.141 Y94.312 E0.04543
G1 X130.992 Y95.426 E0.04395
G1 X131.314 Y94.896 E0.01943
G1 X132.231 Y93.879 E0.04296
G1 X133.298 Y93.080 E0.04179
G1 X134.497 Y92.497 E0.04180
G1 X135.856 Y92.141 E0.04405
G1 X137.222 Y92.063 E0.04289
G1 X138.541 Y92.244 E0.04176
G1 X139.874 Y92.704 E0.04420
G1 X141.085 Y93.421 E0.04413
G1 X142.051 Y94.282 E0.04056
G1 X142.841 Y95.306 E0.04058
G1 X143.470 Y96.563 E0.04406
G1 X143.829 Y97.886 E0.04298
G1 X143.923 Y99.254 E0.04300
G1 X143.739 Y100.651 E0.04418
G1 X143.295 Y101.948 E0.04298
G1 X142.628 Y103.104 E0.04184
G1 X141.727 Y104.136 E0.04297
G1 X140.569 Y105.030 E0.04586
G1 X141.085 Y105.344 E0.01896
G1 X142.078 Y106.234 E0.04180
G1 X142.884 Y107.296 E0.04181
G1 X143.472 Y108.491 E0.04175
G1 X143.842 Y109.884 E0.04519
G1 X143.922 Y111.212 E0.04173
G1 X143.757 Y112.499 E0.04067
G1 X143.311 Y113.836 E0.04420
G1 X142.583 Y115.089 E0.04542
G1 X141.670 Y116.111 E0.04298
G1 X140.569 Y116.951 E0.04341
G1 X141.052 Y117.242 E0.01768
G1 X142.026 Y118.101 E0.04071
G1 X142.901 Y119.248 E0.04524
G1 X143.484 Y120.444 E0.04172
G1 X143.823 Y121.695 E0.04063
G1 X143.921 Y123.175 E0.04651
G1 X143.748 Y124.460 E0.04065
G1 X143.327 Y125.723 E0.04175
G1 X142.607 Y126.978 E0.04536
G1 X141.644 Y128.058 E0.04537
G1 X140.609 Y128.838 E0.04063
G1 X139.414 Y129.427 E0.04176
G1 X138.094 Y129.784 E0.04288
G1 X136.728 Y129.877 E0.04294
G1 X135.332 Y129.693 E0.04413
G1 X134.036 Y129.249 E0.04298
G1 X132.880 Y128.582 E0.04184
G1 X131.848 Y127.681 E0.04294
G1 X130.944 Y126.517 E0.04623
G1 X130.648 Y127.008 E0.01799
G1 X129.706 Y128.058 E0.04422
G1 X128.671 Y128.839 E0.04067
G1 X127.476 Y129.427 E0.04173
G1 X126.083 Y129.796 E0.04519
G1 X124.756 Y129.876 E0.04170
G1 X123.470 Y129.711 E0.04063
G1 X122.135 Y129.266 E0.04415
G1 X120.885 Y128.541 E0.04528
G1 X119.888 Y127.657 E0.04178
G1 X119.075 Y126.598 E0.04186
G1 X118.452 Y125.334 E0.04417
G1 X118.107 Y124.046 E0.04181
G1 X118.015 Y122.679 E0.04295
G1 X118.198 Y121.286 E0.04408
G1 X118.627 Y120.023 E0.04182
G1 X119.310 Y118.834 E0.04299
G1 X120.211 Y117.801 E0.04296
G1 X121.369 Y116.908 E0.04587
G1 X120.851 Y116.592 E0.01902
G1 X119.833 Y115.674 E0.04298
G1 X119.033 Y114.607 E0.04182
G1 X118.451 Y113.408 E0.04179
G1 X118.089 Y112.011 E0.04523
G1 X118.017 Y110.682 E0.04173
G1 X118.190 Y109.397 E0.04065
G1 X118.643 Y108.064 E0.04415
G1 X119.354 Y106.850 E0.04413
G1 X120.237 Y105.854 E0.04171
G1 X121.364 Y104.984 E0.04466
G1 X120.883 Y104.694 E0.01760
G1 X119.833 Y103.753 E0.04422
G1 X119.053 Y102.717 E0.04068
G1 X118.465 Y101.522 E0.04174
G1 X118.096 Y100.129 E0.04519
G1 X118.016 Y98.802 E0.04170
G1 X118.181 Y97.517 E0.04062
G1 X118.610 Y96.216 E0.04295
G1 X119.256 Y95.076 E0.04108
G1 X119.603 Y95.227 F10800.000
G1 F1200
G1 X120.507 Y94.196 E0.04300
G1 X121.540 Y93.412 E0.04064
G1 X122.705 Y92.846 E0.04061
G1 X123.958 Y92.517 E0.04063
G1 X125.251 Y92.439 E0.04062
G1 X126.499 Y92.607 E0.03947
G1 X127.693 Y93.008 E0.03950
G1 X128.820 Y93.649 E0.04065
G1 X129.877 Y94.582 E0.04421
G1 X130.616 Y95.557 E0.03834
G1 X130.956 Y96.231 E0.02366
G1 X131.607 Y95.134 E0.04000
G1 X132.473 Y94.169 E0.04065
G1 X133.479 Y93.411 E0.03950
G1 X134.645 Y92.844 E0.04064
G1 X135.898 Y92.517 E0.04059
G1 X137.190 Y92.439 E0.04060
G1 X138.437 Y92.607 E0.03945
G1 X139.699 Y93.039 E0.04183
G1 X140.849 Y93.715 E0.04182
G1 X141.763 Y94.526 E0.03832
G1 X142.532 Y95.522 E0.03944
G1 X143.112 Y96.681 E0.04062
G1 X143.454 Y97.931 E0.04064
G1 X143.546 Y99.261 E0.04181
G1 X143.376 Y100.548 E0.04068
G1 X142.959 Y101.776 E0.04066
G1 X142.311 Y102.899 E0.04067
G1 X141.456 Y103.873 E0.04064
G1 X140.427 Y104.662 E0.04066
G1 X139.765 Y104.994 E0.02323
G1 X140.849 Y105.638 E0.03954
G1 X141.789 Y106.476 E0.03949
G1 X142.572 Y107.509 E0.04065
G1 X143.125 Y108.640 E0.03946
G1 X143.466 Y109.926 E0.04174
G1 X143.546 Y111.182 E0.03947
G1 X143.385 Y112.432 E0.03951
G1 X142.960 Y113.697 E0.04185
G1 X142.267 Y114.882 E0.04301
G1 X141.402 Y115.846 E0.04062
G1 X140.427 Y116.585 E0.03836
G1 X139.761 Y116.918 E0.02335
G1 X140.817 Y117.538 E0.03840
G1 X141.763 Y118.371 E0.03953
G1 X142.571 Y119.431 E0.04177
G1 X143.125 Y120.561 E0.03946
G1 X143.454 Y121.775 E0.03946
G1 X143.544 Y123.143 E0.04298
G1 X143.377 Y124.392 E0.03949
G1 X142.975 Y125.585 E0.03948
G1 X142.312 Y126.742 E0.04182
G1 X141.402 Y127.768 E0.04300
G1 X140.397 Y128.526 E0.03947
G1 X139.265 Y129.080 E0.03949
G1 X138.015 Y129.415 E0.04059
G1 X136.722 Y129.500 E0.04063
G1 X135.436 Y129.330 E0.04067
G1 X134.208 Y128.913 E0.04066
G1 X133.085 Y128.265 E0.04067
G1 X132.111 Y127.410 E0.04063
G1 X131.342 Y126.414 E0.03945
G1 X130.981 Y125.702 E0.02505
G1 X130.353 Y126.772 E0.03892
G1 X129.464 Y127.769 E0.04186
G1 X128.458 Y128.527 E0.03951
G1 X127.327 Y129.080 E0.03947
G1 X126.041 Y129.421 E0.04174
G1 X124.786 Y129.500 E0.03943
G1 X123.537 Y129.339 E0.03947
G1 X122.273 Y128.914 E0.04181
G1 X121.121 Y128.245 E0.04178
G1 X120.176 Y127.413 E0.03949
G1 X119.386 Y126.383 E0.04070
G1 X118.812 Y125.219 E0.04069
G1 X118.476 Y123.967 E0.04064
G1 X118.392 Y122.674 E0.04063
G1 X118.561 Y121.389 E0.04061
G1 X118.978 Y120.162 E0.04065
G1 X119.627 Y119.039 E0.04067
G1 X120.482 Y118.064 E0.04064
G1 X121.510 Y117.276 E0.04065
G1 X122.171 Y116.942 E0.02320
G1 X121.088 Y116.299 E0.03951
G1 X120.123 Y115.433 E0.04064
G1 X119.346 Y114.396 E0.04065
G1 X118.798 Y113.261 E0.03949
G1 X118.465 Y111.971 E0.04177
G1 X118.393 Y110.715 E0.03947
G1 X118.561 Y109.466 E0.03949
G1 X118.994 Y108.205 E0.04180
G1 X119.669 Y107.057 E0.04176
G1 X120.506 Y106.119 E0.03942
G1 X121.476 Y105.374 E0.03835
G1 X122.176 Y105.019 E0.02461
G1 X121.119 Y104.399 E0.03842
G1 X120.123 Y103.511 E0.04186
G1 X119.365 Y102.504 E0.03951
G1 X118.811 Y101.373 E0.03947
G1 X118.471 Y100.087 E0.04174
G1 X118.392 Y98.832 E0.03943
G1 X118.552 Y97.583 E0.03947
G1 X118.962 Y96.353 E0.04065
G1 X119.573 Y95.279 E0.03875
G1 X119.921 Y95.431 F10800.000
G1 F1200
G1 X120.751 Y94.484 E0.03949
G1 X121.723 Y93.743 E0.03832
G1 X122.820 Y93.205 E0.03830
G1 X124.001 Y92.892 E0.03831
G1 X125.221 Y92.815 E0.03833
G1 X126.397 Y92.970 E0.03718
G1 X127.555 Y93.359 E0.03833
G1 X128.616 Y93.967 E0.03831
G1 X129.588 Y94.825 E0.04067
G1 X130.304 Y95.769 E0.03717
G1 X131.007 Y97.193 E0.04976
G1 X131.281 Y96.424 E0.02558
G1 X131.901 Y95.371 E0.03834
G1 X132.715 Y94.459 E0.03832
G1 X133.691 Y93.723 E0.03832
G1 X134.792 Y93.192 E0.03833
G1 X135.940 Y92.892 E0.03718
G1 X137.160 Y92.815 E0.03833
G1 X138.334 Y92.970 E0.03714
G1 X139.526 Y93.374 E0.03946
G1 X140.613 Y94.010 E0.03947
G1 X141.499 Y94.796 E0.03716
G1 X142.221 Y95.737 E0.03718
G1 X142.765 Y96.832 E0.03833
G1 X143.085 Y98.011 E0.03831
G1 X143.168 Y99.267 E0.03946
G1 X143.005 Y100.479 E0.03834
G1 X142.609 Y101.635 E0.03834
G1 X141.994 Y102.693 E0.03835
G1 X141.186 Y103.609 E0.03832
G1 X140.214 Y104.351 E0.03832
G1 X138.802 Y105.042 E0.04928
G1 X139.559 Y105.312 E0.02520
G1 X140.613 Y105.932 E0.03833
G1 X141.499 Y106.719 E0.03717
G1 X142.260 Y107.722 E0.03947
G1 X142.778 Y108.788 E0.03715
G1 X143.091 Y109.969 E0.03833
G1 X143.169 Y111.153 E0.03718
G1 X143.014 Y112.365 E0.03833
G1 X142.609 Y113.558 E0.03949
G1 X141.973 Y114.645 E0.03948
G1 X141.159 Y115.557 E0.03832
G1 X140.214 Y116.273 E0.03718
G1 X138.804 Y116.963 E0.04922
G1 X139.525 Y117.219 E0.02396
G1 X140.582 Y117.833 E0.03835
G1 X141.500 Y118.642 E0.03835
G1 X142.241 Y119.614 E0.03833
G1 X142.766 Y120.677 E0.03717
G1 X143.085 Y121.856 E0.03830
G1 X143.168 Y123.112 E0.03946
G1 X143.005 Y124.323 E0.03832
G1 X142.624 Y125.446 E0.03718
G1 X141.995 Y126.537 E0.03950
G1 X141.159 Y127.479 E0.03949
G1 X140.214 Y128.195 E0.03717
G1 X139.116 Y128.733 E0.03832
G1 X137.937 Y129.045 E0.03827
G1 X136.717 Y129.122 E0.03831
G1 X135.505 Y128.959 E0.03835
G1 X134.348 Y128.563 E0.03834
G1 X133.291 Y127.948 E0.03835
G1 X132.374 Y127.140 E0.03832
G1 X131.653 Y126.200 E0.03715
G1 X130.931 Y124.748 E0.05082
G1 X130.673 Y125.479 E0.02428
G1 X130.058 Y126.537 E0.03836
G1 X129.222 Y127.479 E0.03950
G1 X128.246 Y128.215 E0.03833
G1 X127.179 Y128.733 E0.03718
G1 X125.998 Y129.046 E0.03833
G1 X124.815 Y129.123 E0.03715
G1 X123.604 Y128.968 E0.03830
G1 X122.412 Y128.563 E0.03946
G1 X121.355 Y127.950 E0.03832
G1 X120.464 Y127.168 E0.03718
G1 X119.696 Y126.168 E0.03951
G1 X119.159 Y125.070 E0.03834
G1 X118.846 Y123.889 E0.03832
G1 X118.770 Y122.669 E0.03831
G1 X118.932 Y121.459 E0.03830
G1 X119.329 Y120.302 E0.03833
G1 X119.943 Y119.245 E0.03835
G1 X120.752 Y118.328 E0.03832
G1 X121.724 Y117.587 E0.03832
G1 X123.129 Y116.893 E0.04914
G1 X122.378 Y116.625 E0.02500
G1 X121.325 Y116.005 E0.03834
G1 X120.413 Y115.191 E0.03832
G1 X119.677 Y114.215 E0.03833
G1 X119.146 Y113.114 E0.03832
G1 X118.840 Y111.930 E0.03833
G1 X118.769 Y110.747 E0.03718
G1 X118.933 Y109.535 E0.03833
G1 X119.329 Y108.379 E0.03831
G1 X119.964 Y107.293 E0.03944
G1 X120.750 Y106.407 E0.03715
G1 X121.691 Y105.685 E0.03718
G1 X123.125 Y104.971 E0.05023
G1 X122.413 Y104.719 E0.02370
G1 X121.355 Y104.104 E0.03836
G1 X120.413 Y103.268 E0.03949
G1 X119.677 Y102.292 E0.03834
G1 X119.159 Y101.225 E0.03718
G1 X118.846 Y100.044 E0.03833
G1 X118.768 Y98.861 E0.03715
G1 X118.924 Y97.650 E0.03830
G1 X119.313 Y96.491 E0.03832
G1 X119.891 Y95.483 E0.03643
G1 X120.238 Y95.636 F10800.000
G1 F1200
G1 X120.995 Y94.772 E0.03599
G1 X121.937 Y94.054 E0.03715
G1 X122.935 Y93.565 E0.03486
G1 X124.044 Y93.267 E0.03601
G1 X125.190 Y93.192 E0.03600
G1 X126.329 Y93.341 E0.03600
G1 X127.416 Y93.710 E0.03600
G1 X128.411 Y94.284 E0.03600
G1 X129.299 Y95.067 E0.03715
G1 X129.993 Y95.982 E0.03600
G1 X130.482 Y96.981 E0.03486
G1 X130.780 Y98.093 E0.03609
G1 X130.806 Y98.377 E0.00893
G1 X131.141 Y98.385 E0.01054
G1 X131.240 Y97.683 E0.02223
G1 X131.616 Y96.598 E0.03601
G1 X132.196 Y95.606 E0.03600
G1 X132.958 Y94.748 E0.03600
G1 X133.873 Y94.054 E0.03600
G1 X134.906 Y93.552 E0.03600
G1 X136.017 Y93.261 E0.03600
G1 X137.164 Y93.193 E0.03601
G1 X138.266 Y93.341 E0.03487
G1 X139.353 Y93.710 E0.03600
G1 X140.378 Y94.305 E0.03715
G1 X141.211 Y95.041 E0.03486
G1 X141.911 Y95.952 E0.03601
G1 X142.419 Y96.981 E0.03600
G1 X142.716 Y98.090 E0.03600
G1 X142.792 Y99.236 E0.03600
G1 X142.642 Y100.375 E0.03600
G1 X142.258 Y101.495 E0.03714
G1 X141.679 Y102.486 E0.03599
G1 X140.916 Y103.345 E0.03600
G1 X140.001 Y104.039 E0.03600
G1 X138.969 Y104.540 E0.03599
G1 X137.668 Y104.876 E0.04212
G1 X137.685 Y105.184 E0.00970
G1 X138.300 Y105.272 E0.01948
G1 X139.386 Y105.648 E0.03602
G1 X140.377 Y106.228 E0.03601
G1 X141.211 Y106.963 E0.03486
G1 X141.930 Y107.905 E0.03715
G1 X142.419 Y108.904 E0.03486
G1 X142.716 Y110.013 E0.03601
G1 X142.792 Y111.159 E0.03600
G1 X142.642 Y112.297 E0.03600
G1 X142.258 Y113.418 E0.03714
G1 X141.679 Y114.408 E0.03599
G1 X140.916 Y115.267 E0.03600
G1 X140.001 Y115.961 E0.03600
G1 X138.969 Y116.463 E0.03599
G1 X137.668 Y116.798 E0.04212
G1 X137.685 Y117.107 E0.00970
G1 X138.301 Y117.194 E0.01949
G1 X139.353 Y117.555 E0.03488
G1 X140.348 Y118.129 E0.03601
G1 X141.211 Y118.886 E0.03600
G1 X141.930 Y119.828 E0.03714
G1 X142.419 Y120.826 E0.03486
G1 X142.716 Y121.936 E0.03601
G1 X142.792 Y123.081 E0.03600
G1 X142.642 Y124.220 E0.03600
G1 X142.274 Y125.307 E0.03599
G1 X141.678 Y126.331 E0.03714
G1 X140.916 Y127.190 E0.03600
G1 X140.001 Y127.884 E0.03600
G1 X138.968 Y128.386 E0.03601
G1 X137.893 Y128.670 E0.03487
G1 X136.747 Y128.746 E0.03601
G1 X135.609 Y128.596 E0.03599
G1 X134.488 Y128.212 E0.03714
G1 X133.498 Y127.633 E0.03599
G1 X132.639 Y126.870 E0.03601
G1 X131.964 Y125.986 E0.03487
G1 X131.456 Y124.956 E0.03601
G1 X131.158 Y123.845 E0.03608
G1 X131.132 Y123.561 E0.00894
G1 X130.796 Y123.553 E0.01054
G1 X130.697 Y124.255 E0.02224
