; generated by PrusaSlicer 2.2.0+win64 on 2020-09-16 at 23:24:30 UTC

; 

; external perimeters extrusion width = 0.45mm
; perimeters extrusion width = 0.45mm
; infill extrusion width = 0.45mm
; solid infill extrusion width = 0.45mm
; top infill extrusion width = 0.40mm
; first layer extrusion width = 0.42mm

M73 P0 R180
M201 X9000 Y9000 Z500 E10000 ; sets maximum accelerations, mm/sec^2
M203 X500 Y500 Z12 E120 ; sets maximum feedrates, mm/sec
M204 P2000 R1500 T2000 ; sets acceleration (P, T) and retract acceleration (R), mm/sec^2
M205 X10.00 Y10.00 Z0.20 E2.50 ; sets the jerk limits, mm/sec
M205 S0 T0 ; sets the minimum extruding and travel feed rate, mm/sec
M107
M862.3 P "MK2S" ; printer model check
M862.1 P0.4 ; nozzle diameter check
M115 U3.2.3 ; tell printer latest fw version
G90 ; use absolute coordinates
M83 ; extruder relative mode
M204 S2000 T1500 ; MK2 firmware only supports the old M204 format
M104 S215 ; set extruder temp
M140 S60 ; set bed temp
M190 S60 ; wait for bed temp
M109 S215 ; wait for extruder temp
G28 W ; home all without mesh bed level
G80 ; mesh bed leveling
G1 Y-3.0 F1000.0 ; go outside print area
G92 E0.0
G1 X60.0 E9.0  F1000.0 ; intro line
M73 P0 R180
G1 X100.0 E12.5 F1000.0 ; intro line
G92 E0.0
G21 ; set units to millimeters
G90 ; use absolute coordinates
M83 ; use relative distances for extrusion
M900 K0.06 ; Filament gcode LA 1.5
M900 K30 ; Filament gcode LA 1.0
;BEFORE_LAYER_CHANGE
G92 E0.0
;0.2


G1 E-0.80000 F2100.00000
G1 Z0.600 F10800.000
;AFTER_LAYER_CHANGE
;0.2
G1 X173.007 Y29.926
G1 Z0.200
G1 E0.80000 F2100.00000
M204 S1000
G1 F1200.000
G1 X172.677 Y29.822 E0.01085
G1 X172.370 Y29.663 E0.01085
G1 X172.095 Y29.453 E0.01085
G1 X171.861 Y29.198 E0.01085
G1 X171.675 Y28.907 E0.01085
G1 X171.542 Y28.587 E0.01084
G1 X171.466 Y28.250 E0.01085
G1 X171.451 Y27.904 E0.01084
G1 X171.495 Y27.561 E0.01085
G1 X171.599 Y27.231 E0.01085
G1 X171.758 Y26.924 E0.01085
G1 X171.968 Y26.649 E0.01084
G1 X172.223 Y26.415 E0.01084
G1 X172.514 Y26.229 E0.01085
G1 X172.833 Y26.096 E0.01085
G1 X173.171 Y26.021 E0.01084
G1 X173.461 Y26.007 E0.00911
G1 X173.851 Y26.047 E0.01230
G1 X174.190 Y26.153 E0.01111
G1 X174.497 Y26.312 E0.01085
G1 X174.771 Y26.522 E0.01085
G1 X175.005 Y26.777 E0.01085
G1 X175.192 Y27.068 E0.01085
G1 X175.303 Y27.336 E0.00910
G1 X175.400 Y27.717 E0.01231
G1 X175.416 Y28.071 E0.01111
G1 X175.371 Y28.414 E0.01084
G1 X175.268 Y28.744 E0.01085
G1 X175.109 Y29.051 E0.01084
G1 X174.899 Y29.326 E0.01085
G1 X174.644 Y29.560 E0.01084
G1 X174.353 Y29.746 E0.01084
G1 X174.033 Y29.879 E0.01085
G1 X173.696 Y29.954 E0.01085
G1 X173.350 Y29.970 E0.01085
G1 X173.067 Y29.933 E0.00896
G1 X173.088 Y29.556 F10800.000
G1 F1200.000
G1 X172.821 Y29.472 E0.00878
G1 X172.573 Y29.343 E0.00878
G1 X172.350 Y29.173 E0.00878
G1 X172.161 Y28.967 E0.00878
G1 X172.010 Y28.731 E0.00878
G1 X171.903 Y28.473 E0.00878
G1 X171.842 Y28.200 E0.00878
G1 X171.829 Y27.920 E0.00878
G1 X171.865 Y27.643 E0.00878
G1 X171.949 Y27.376 E0.00878
G1 X172.077 Y27.127 E0.00878
G1 X172.248 Y26.905 E0.00878
G1 X172.454 Y26.715 E0.00878
G1 X172.689 Y26.564 E0.00878
G1 X172.948 Y26.457 E0.00878
G1 X173.221 Y26.396 E0.00878
G1 X173.451 Y26.385 E0.00721
G1 X173.775 Y26.418 E0.01024
G1 X174.045 Y26.503 E0.00887
G1 X174.294 Y26.632 E0.00878
G1 X174.516 Y26.802 E0.00878
G1 X174.706 Y27.008 E0.00878
G1 X174.856 Y27.244 E0.00878
G1 X174.945 Y27.456 E0.00720
G1 X175.025 Y27.772 E0.01024
G1 X175.038 Y28.055 E0.00887
G1 X175.002 Y28.332 E0.00878
G1 X174.918 Y28.600 E0.00878
G1 X174.789 Y28.848 E0.00878
G1 X174.619 Y29.070 E0.00878
G1 X174.413 Y29.260 E0.00878
G1 X174.177 Y29.411 E0.00878
G1 X173.919 Y29.518 E0.00878
G1 X173.646 Y29.579 E0.00878
G1 X173.366 Y29.592 E0.00878
G1 X173.148 Y29.564 E0.00690
G1 X172.900 Y29.763 F10800.000
G1 E-0.80000 F2100.00000
G1 Z0.800 F10800.000
G1 X72.143 Y29.910
G1 Z0.200
G1 E0.80000 F2100.00000
G1 F1200.000
G1 X71.805 Y29.986 E0.01086
G1 X71.459 Y30.001 E0.01086
G1 X71.116 Y29.957 E0.01086
G1 X70.785 Y29.853 E0.01086
G1 X70.478 Y29.694 E0.01086
G1 X70.203 Y29.484 E0.01085
G1 X69.969 Y29.229 E0.01086
G1 X69.782 Y28.937 E0.01086
G1 X69.649 Y28.617 E0.01086
G1 X69.574 Y28.279 E0.01086
G1 X69.558 Y27.934 E0.01085
G1 X69.603 Y27.590 E0.01085
G1 X69.706 Y27.260 E0.01086
G1 X69.865 Y26.952 E0.01086
G1 X70.076 Y26.677 E0.01086
G1 X70.331 Y26.443 E0.01086
G1 X70.622 Y26.256 E0.01085
G1 X70.942 Y26.123 E0.01086
G1 X71.280 Y26.048 E0.01086
G1 X71.577 Y26.034 E0.00932
G1 X71.962 Y26.075 E0.01214
G1 X72.299 Y26.180 E0.01109
G1 X72.607 Y26.340 E0.01086
G1 X72.882 Y26.550 E0.01086
G1 X73.116 Y26.805 E0.01085
G1 X73.303 Y27.097 E0.01086
G1 X73.436 Y27.416 E0.01086
G1 X73.511 Y27.754 E0.01086
G1 X73.527 Y28.100 E0.01086
G1 X73.482 Y28.443 E0.01086
G1 X73.379 Y28.774 E0.01086
G1 X73.220 Y29.081 E0.01086
G1 X73.009 Y29.356 E0.01086
G1 X72.791 Y29.557 E0.00931
G1 X72.470 Y29.774 E0.01215
G1 X72.198 Y29.887 E0.00921
G1 X72.029 Y29.549 F10800.000
G1 F1200.000
G1 X71.755 Y29.610 E0.00879
G1 X71.475 Y29.623 E0.00879
G1 X71.197 Y29.587 E0.00879
G1 X70.930 Y29.503 E0.00879
G1 X70.681 Y29.374 E0.00879
G1 X70.458 Y29.204 E0.00879
G1 X70.269 Y28.998 E0.00879
G1 X70.118 Y28.762 E0.00879
G1 X70.010 Y28.503 E0.00879
G1 X69.949 Y28.229 E0.00879
G1 X69.936 Y27.949 E0.00879
G1 X69.972 Y27.671 E0.00879
G1 X70.056 Y27.404 E0.00879
G1 X70.185 Y27.155 E0.00879
G1 X70.355 Y26.933 E0.00879
G1 X70.562 Y26.743 E0.00879
G1 X70.798 Y26.592 E0.00879
G1 X71.056 Y26.484 E0.00879
G1 X71.330 Y26.423 E0.00879
G1 X71.566 Y26.412 E0.00740
G1 X71.885 Y26.446 E0.01007
G1 X72.155 Y26.530 E0.00887
G1 X72.404 Y26.659 E0.00879
G1 X72.627 Y26.830 E0.00879
G1 X72.816 Y27.036 E0.00879
G1 X72.967 Y27.272 E0.00879
G1 X73.075 Y27.531 E0.00879
G1 X73.136 Y27.804 E0.00879
G1 X73.149 Y28.084 E0.00879
G1 X73.113 Y28.362 E0.00879
G1 X73.029 Y28.629 E0.00879
G1 X72.900 Y28.878 E0.00879
G1 X72.730 Y29.101 E0.00879
G1 X72.556 Y29.261 E0.00740
G1 X72.290 Y29.441 E0.01008
G1 X72.084 Y29.526 E0.00699
G1 X71.970 Y29.823 F10800.000
G1 E-0.80000 F2100.00000
G1 Z0.800 F10800.000
G1 X124.927 Y35.414
G1 Z0.200
G1 E0.80000 F2100.00000
G1 F1200.000
G1 X58.570 Y35.433 E2.08057
G1 X57.431 Y35.334 E0.03584
G1 X56.352 Y35.045 E0.03504
G1 X55.339 Y34.573 E0.03504
G1 X54.423 Y33.933 E0.03504
G1 X53.633 Y33.143 E0.03504
G1 X52.992 Y32.227 E0.03504
G1 X52.519 Y31.215 E0.03504
G1 X52.230 Y30.136 E0.03504
G1 X52.130 Y28.997 E0.03584
G1 X52.129 Y27.048 E0.06110
G1 X52.229 Y25.909 E0.03584
G1 X52.518 Y24.830 E0.03504
G1 X52.990 Y23.817 E0.03504
G1 X53.630 Y22.901 E0.03504
G1 X54.420 Y22.111 E0.03504
G1 X55.335 Y21.470 E0.03504
G1 X56.348 Y20.997 E0.03504
G1 X57.427 Y20.708 E0.03504
G1 X58.566 Y20.608 E0.03585
G1 X197.844 Y20.568 E4.36696
G1 X197.848 Y35.393 E0.46485
G1 X124.987 Y35.414 E2.28451
G1 X124.925 Y35.791 F10800.000
G1 F1200.000
G1 X58.554 Y35.810 E2.08104
G1 X57.366 Y35.707 E0.03739
G1 X56.223 Y35.401 E0.03711
G1 X55.150 Y34.901 E0.03710
G1 X54.180 Y34.223 E0.03711
G1 X53.343 Y33.386 E0.03711
G1 X52.664 Y32.417 E0.03710
G1 X52.164 Y31.344 E0.03711
G1 X51.857 Y30.201 E0.03710
G1 X51.753 Y29.013 E0.03739
G1 X51.752 Y27.032 E0.06213
G1 X51.856 Y25.843 E0.03739
G1 X52.162 Y24.700 E0.03711
G1 X52.662 Y23.628 E0.03711
G1 X53.340 Y22.658 E0.03710
G1 X54.177 Y21.821 E0.03711
G1 X55.146 Y21.142 E0.03711
G1 X56.218 Y20.641 E0.03711
G1 X57.361 Y20.335 E0.03711
G1 X58.549 Y20.231 E0.03740
G1 X198.221 Y20.190 E4.37930
G1 X198.226 Y35.770 E0.48850
G1 X124.985 Y35.791 E2.29639
G1 X124.702 Y35.460 F10800.000
G1 E-0.80000 F2100.00000
G1 Z0.800 F10800.000
G1 X75.431 Y35.315
G1 Z0.200
G1 E0.80000 F2100.00000
G1 F1200.000
G1 X61.005 Y20.890 E0.64055
G1 X60.471 Y20.890 E0.01676
G1 X74.727 Y35.146 E0.63301
G1 X74.193 Y35.146 E0.01676
G1 X59.937 Y20.890 E0.63301
G1 X59.403 Y20.890 E0.01676
G1 X73.659 Y35.146 E0.63301
G1 X73.125 Y35.146 E0.01676
G1 X58.869 Y20.890 E0.63301
G1 X58.355 Y20.910 E0.01616
G1 X72.592 Y35.147 E0.63215
G1 X72.058 Y35.147 E0.01676
G1 X57.864 Y20.953 E0.63024
G1 X57.477 Y20.987 E0.01221
G1 X57.388 Y21.011 E0.00288
G1 X71.524 Y35.147 E0.62768
G1 X70.990 Y35.147 E0.01676
G1 X56.967 Y21.124 E0.62267
G1 X56.546 Y21.237 E0.01369
G1 X70.456 Y35.147 E0.61766
G1 X69.922 Y35.147 E0.01676
G1 X56.168 Y21.393 E0.61073
G1 X55.804 Y21.563 E0.01262
G1 X69.389 Y35.148 E0.60319
G1 X68.855 Y35.148 E0.01676
G1 X55.445 Y21.738 E0.59543
G1 X55.131 Y21.958 E0.01204
G1 X68.321 Y35.148 E0.58567
G1 X67.787 Y35.148 E0.01676
G1 X54.817 Y22.178 E0.57590
G1 X54.603 Y22.328 E0.00822
G1 X54.518 Y22.413 E0.00376
G1 X67.253 Y35.148 E0.56548
G1 X66.719 Y35.148 E0.01676
G1 X54.251 Y22.680 E0.55363
G1 X53.984 Y22.947 E0.01186
G1 X66.185 Y35.148 E0.54177
G1 X65.652 Y35.149 E0.01676
G1 X53.740 Y23.237 E0.52890
G1 X53.520 Y23.551 E0.01204
G1 X65.118 Y35.149 E0.51496
G1 X64.584 Y35.149 E0.01676
G1 X53.300 Y23.866 E0.50101
M73 P0 R179
G1 X53.235 Y23.959 E0.00357
G1 X53.116 Y24.215 E0.00888
G1 X64.050 Y35.149 E0.48550
G1 X63.516 Y35.149 E0.01676
G1 X52.946 Y24.579 E0.46934
G1 X52.779 Y24.946 E0.01266
G1 X62.982 Y35.149 E0.45305
G1 X62.448 Y35.149 E0.01676
G1 X52.666 Y25.367 E0.43435
G1 X52.554 Y25.789 E0.01369
G1 X61.915 Y35.150 E0.41565
G1 X61.381 Y35.150 E0.01676
G1 X52.483 Y26.252 E0.39510
G1 X52.440 Y26.743 E0.01548
G1 X60.847 Y35.150 E0.37330
G1 X60.313 Y35.150 E0.01676
G1 X52.412 Y27.249 E0.35082
G1 X52.412 Y27.783 E0.01677
G1 X59.779 Y35.150 E0.32711
G1 X59.245 Y35.150 E0.01676
G1 X52.412 Y28.318 E0.30340
G1 X52.413 Y28.852 E0.01677
G1 X58.711 Y35.151 E0.27969
G1 X58.139 Y35.112 E0.01802
G1 X52.451 Y29.424 E0.25254
G1 X52.503 Y30.010 E0.01845
G1 X57.554 Y35.061 E0.22428
G1 X56.843 Y34.884 E0.02301
G1 X52.680 Y30.721 E0.18485
G1 X52.786 Y31.118 E0.01290
G1 X52.999 Y31.574 E0.01583
G1 X55.989 Y34.564 E0.13275
G1 X55.481 Y34.327 E0.01759
G1 X54.606 Y33.715 E0.03353
G1 X53.158 Y32.267 E0.06431
G1 E-0.80000 F2100.00000
G1 Z0.800 F10800.000
G1 X66.708 Y20.718
G1 Z0.200
G1 E0.80000 F2100.00000
G1 F1200.000
G1 X71.758 Y25.769 E0.22426
G1 X71.585 Y25.751 E0.00547
G1 X71.225 Y25.770 E0.01131
G1 X66.343 Y20.888 E0.21678
G1 X65.809 Y20.888 E0.01676
G1 X70.798 Y25.877 E0.22151
G1 X70.431 Y26.043 E0.01267
G1 X65.276 Y20.888 E0.22889
G1 X64.742 Y20.889 E0.01676
G1 X70.112 Y26.259 E0.23848
G1 X69.840 Y26.520 E0.01186
G1 X64.208 Y20.889 E0.25007
G1 X63.674 Y20.889 E0.01676
G1 X69.612 Y26.827 E0.26366
G1 X69.434 Y27.183 E0.01249
G1 X63.140 Y20.889 E0.27946
G1 X62.606 Y20.889 E0.01676
G1 X69.316 Y27.599 E0.29794
G1 X69.274 Y27.922 E0.01021
G1 X69.282 Y28.099 E0.00558
G1 X62.072 Y20.889 E0.32014
G1 X61.539 Y20.890 E0.01676
G1 X69.397 Y28.748 E0.34895
G1 X69.531 Y29.068 E0.01089
G1 X69.744 Y29.402 E0.01242
G1 X70.012 Y29.693 E0.01243
G1 X70.326 Y29.933 E0.01242
G1 X70.677 Y30.116 E0.01242
G1 X70.805 Y30.156 E0.00419
G1 X75.795 Y35.146 E0.22158
G1 X76.329 Y35.146 E0.01676
G1 X71.467 Y30.284 E0.21586
G1 X71.843 Y30.267 E0.01180
G1 X71.958 Y30.241 E0.00372
G1 X76.862 Y35.145 E0.21776
G1 X77.396 Y35.145 E0.01676
G1 X72.372 Y30.121 E0.22309
G1 X72.604 Y30.024 E0.00790
G1 X72.727 Y29.942 E0.00464
G1 X77.930 Y35.145 E0.23104
G1 X78.464 Y35.145 E0.01676
G1 X73.035 Y29.716 E0.24104
G1 X73.219 Y29.548 E0.00782
G1 X73.298 Y29.445 E0.00407
G1 X78.998 Y35.145 E0.25310
G1 X79.532 Y35.145 E0.01676
G1 X73.514 Y29.127 E0.26719
G1 X73.641 Y28.882 E0.00867
G1 X73.680 Y28.759 E0.00405
G1 X80.066 Y35.144 E0.28354
G1 X80.599 Y35.144 E0.01676
G1 X73.783 Y28.328 E0.30268
G1 X73.811 Y28.112 E0.00683
G1 X73.797 Y27.808 E0.00956
G1 X81.133 Y35.144 E0.32576
G1 X81.667 Y35.144 E0.01676
G1 X67.411 Y20.888 E0.63301
G1 X67.945 Y20.888 E0.01676
G1 X82.201 Y35.144 E0.63301
G1 X82.735 Y35.144 E0.01676
G1 X68.479 Y20.888 E0.63301
G1 X69.013 Y20.887 E0.01676
G1 X83.269 Y35.144 E0.63301
G1 X83.803 Y35.143 E0.01676
G1 X69.546 Y20.887 E0.63301
G1 X70.080 Y20.887 E0.01676
G1 X84.336 Y35.143 E0.63301
G1 X84.870 Y35.143 E0.01676
G1 X70.614 Y20.887 E0.63301
G1 X71.148 Y20.887 E0.01676
G1 X85.404 Y35.143 E0.63301
G1 X85.938 Y35.143 E0.01676
G1 X71.682 Y20.887 E0.63301
G1 X72.216 Y20.886 E0.01676
G1 X86.472 Y35.143 E0.63301
G1 X87.006 Y35.142 E0.01676
G1 X72.750 Y20.886 E0.63301
G1 X73.283 Y20.886 E0.01676
G1 X87.540 Y35.142 E0.63301
G1 X88.073 Y35.142 E0.01676
G1 X73.817 Y20.886 E0.63301
G1 X74.351 Y20.886 E0.01676
G1 X88.607 Y35.142 E0.63301
G1 X89.141 Y35.142 E0.01676
G1 X74.885 Y20.886 E0.63301
G1 X75.419 Y20.886 E0.01676
G1 X89.675 Y35.142 E0.63301
G1 X90.209 Y35.142 E0.01676
G1 X75.953 Y20.885 E0.63301
G1 X76.487 Y20.885 E0.01676
G1 X90.743 Y35.141 E0.63301
G1 X91.277 Y35.141 E0.01676
G1 X77.020 Y20.885 E0.63301
G1 X77.554 Y20.885 E0.01676
G1 X91.810 Y35.141 E0.63301
G1 X92.344 Y35.141 E0.01676
G1 X78.088 Y20.885 E0.63301
G1 X78.622 Y20.885 E0.01676
G1 X92.878 Y35.141 E0.63301
G1 X93.412 Y35.141 E0.01676
G1 X79.156 Y20.884 E0.63301
G1 X79.690 Y20.884 E0.01676
G1 X93.946 Y35.140 E0.63301
G1 X94.480 Y35.140 E0.01676
G1 X80.223 Y20.884 E0.63301
G1 X80.757 Y20.884 E0.01676
G1 X95.013 Y35.140 E0.63301
G1 X95.547 Y35.140 E0.01676
G1 X81.291 Y20.884 E0.63301
G1 X81.825 Y20.884 E0.01676
G1 X96.081 Y35.140 E0.63301
G1 X96.615 Y35.140 E0.01676
G1 X82.359 Y20.884 E0.63301
G1 X82.893 Y20.883 E0.01676
G1 X97.149 Y35.140 E0.63301
G1 X97.683 Y35.139 E0.01676
G1 X83.427 Y20.883 E0.63301
G1 X83.960 Y20.883 E0.01676
G1 X98.217 Y35.139 E0.63301
G1 X98.750 Y35.139 E0.01676
G1 X84.494 Y20.883 E0.63301
G1 X85.028 Y20.883 E0.01676
G1 X99.284 Y35.139 E0.63301
G1 X99.818 Y35.139 E0.01676
G1 X85.562 Y20.883 E0.63301
G1 X86.096 Y20.882 E0.01676
G1 X100.352 Y35.139 E0.63301
G1 X100.886 Y35.138 E0.01676
G1 X86.630 Y20.882 E0.63301
G1 X87.164 Y20.882 E0.01676
G1 X101.420 Y35.138 E0.63301
G1 X101.954 Y35.138 E0.01676
G1 X87.697 Y20.882 E0.63301
G1 X88.231 Y20.882 E0.01676
G1 X102.487 Y35.138 E0.63301
M73 P1 R178
G1 X103.021 Y35.138 E0.01676
G1 X88.765 Y20.882 E0.63301
G1 X89.299 Y20.882 E0.01676
G1 X103.555 Y35.138 E0.63301
G1 X104.089 Y35.138 E0.01676
G1 X89.833 Y20.881 E0.63301
G1 X90.367 Y20.881 E0.01676
G1 X104.623 Y35.137 E0.63301
G1 X105.157 Y35.137 E0.01676
G1 X90.901 Y20.881 E0.63301
G1 X91.434 Y20.881 E0.01676
G1 X105.691 Y35.137 E0.63301
G1 X106.224 Y35.137 E0.01676
G1 X91.968 Y20.881 E0.63301
G1 X92.502 Y20.881 E0.01676
G1 X106.758 Y35.137 E0.63301
G1 X107.292 Y35.137 E0.01676
G1 X93.036 Y20.880 E0.63301
G1 X93.570 Y20.880 E0.01676
G1 X107.826 Y35.136 E0.63301
G1 X108.360 Y35.136 E0.01676
G1 X94.104 Y20.880 E0.63301
G1 X94.638 Y20.880 E0.01676
G1 X108.894 Y35.136 E0.63301
G1 X109.428 Y35.136 E0.01676
G1 X95.171 Y20.880 E0.63301
G1 X95.705 Y20.880 E0.01676
G1 X109.961 Y35.136 E0.63301
G1 X110.495 Y35.136 E0.01676
G1 X96.239 Y20.880 E0.63301
G1 X96.773 Y20.879 E0.01676
G1 X111.029 Y35.136 E0.63301
G1 X111.563 Y35.135 E0.01676
G1 X97.307 Y20.879 E0.63301
G1 X97.841 Y20.879 E0.01676
G1 X112.097 Y35.135 E0.63301
G1 X112.631 Y35.135 E0.01676
G1 X98.375 Y20.879 E0.63301
G1 X98.908 Y20.879 E0.01676
G1 X113.165 Y35.135 E0.63301
G1 X113.698 Y35.135 E0.01676
G1 X99.442 Y20.879 E0.63301
G1 X99.976 Y20.878 E0.01676
G1 X114.232 Y35.135 E0.63301
G1 X114.766 Y35.134 E0.01676
G1 X100.510 Y20.878 E0.63301
G1 X101.044 Y20.878 E0.01676
G1 X115.300 Y35.134 E0.63301
G1 X115.834 Y35.134 E0.01676
G1 X101.578 Y20.878 E0.63301
G1 X102.111 Y20.878 E0.01676
G1 X116.368 Y35.134 E0.63301
G1 X116.901 Y35.134 E0.01676
G1 X102.645 Y20.878 E0.63301
G1 X103.179 Y20.878 E0.01676
G1 X117.435 Y35.134 E0.63301
G1 X117.969 Y35.134 E0.01676
G1 X103.713 Y20.877 E0.63301
G1 X104.247 Y20.877 E0.01676
G1 X118.503 Y35.133 E0.63301
G1 X119.037 Y35.133 E0.01676
G1 X104.781 Y20.877 E0.63301
G1 X105.315 Y20.877 E0.01676
G1 X119.571 Y35.133 E0.63301
G1 X120.105 Y35.133 E0.01676
G1 X105.848 Y20.877 E0.63301
G1 X106.382 Y20.877 E0.01676
G1 X120.638 Y35.133 E0.63301
G1 X121.172 Y35.133 E0.01676
G1 X106.916 Y20.876 E0.63301
G1 X107.450 Y20.876 E0.01676
G1 X121.706 Y35.132 E0.63301
G1 X122.240 Y35.132 E0.01676
G1 X107.984 Y20.876 E0.63301
G1 X108.518 Y20.876 E0.01676
G1 X122.774 Y35.132 E0.63301
G1 X123.308 Y35.132 E0.01676
G1 X109.052 Y20.876 E0.63301
G1 X109.585 Y20.876 E0.01676
G1 X123.842 Y35.132 E0.63301
G1 X124.375 Y35.132 E0.01676
