; generated by PrusaSlicer 2.2.0+win64 on 2020-08-17 at 17:06:54 UTC

; 

; external perimeters extrusion width = 0.45mm
; perimeters extrusion width = 0.45mm
; infill extrusion width = 0.45mm
; solid infill extrusion width = 0.45mm
; top infill extrusion width = 0.40mm
; first layer extrusion width = 0.42mm

M73 P0 R78
M201 X9000 Y9000 Z500 E10000 ; sets maximum accelerations, mm/sec^2
M203 X500 Y500 Z12 E120 ; sets maximum feedrates, mm/sec
M204 P2000 R1500 T2000 ; sets acceleration (P, T) and retract acceleration (R), mm/sec^2
M205 X10.00 Y10.00 Z0.20 E2.50 ; sets the jerk limits, mm/sec
M205 S0 T0 ; sets the minimum extruding and travel feed rate, mm/sec
M107
M862.3 P "MK2S" ; printer model check
M862.1 P0.4 ; nozzle diameter check
M115 U3.2.3 ; tell printer latest fw version
G90 ; use absolute coordinates
M83 ; extruder relative mode
M204 S2000 T1500 ; MK2 firmware only supports the old M204 format
M104 S215 ; set extruder temp
M140 S60 ; set bed temp
M190 S60 ; wait for bed temp
M109 S215 ; wait for extruder temp
G28 W ; home all without mesh bed level
G80 ; mesh bed leveling
G1 Y-3.0 F1000.0 ; go outside print area
G92 E0.0
G1 X60.0 E9.0  F1000.0 ; intro line
M73 P0 R78
G1 X100.0 E12.5 F1000.0 ; intro line
G92 E0.0
G21 ; set units to millimeters
G90 ; use absolute coordinates
M83 ; use relative distances for extrusion
M900 K0.06 ; Filament gcode LA 1.5
M900 K30 ; Filament gcode LA 1.0
;BEFORE_LAYER_CHANGE
G92 E0.0
;0.2


G1 E-0.80000 F2100.00000
G1 Z0.600 F10800.000
;AFTER_LAYER_CHANGE
;0.2
G1 X122.724 Y74.779
G1 Z0.200
G1 E0.80000 F2100.00000
M204 S1000
G1 F1200.000
G1 X123.153 Y74.741 E0.01353
G1 X123.620 Y74.778 E0.01469
G1 X124.059 Y74.896 E0.01423
G1 X124.468 Y75.086 E0.01415
G1 X124.838 Y75.345 E0.01415
G1 X125.157 Y75.664 E0.01415
G1 X125.416 Y76.034 E0.01415
G1 X125.606 Y76.443 E0.01415
G1 X125.723 Y76.879 E0.01415
G1 X125.763 Y77.329 E0.01415
G1 X125.723 Y77.779 E0.01415
G1 X125.606 Y78.214 E0.01415
G1 X125.416 Y78.624 E0.01415
G1 X125.157 Y78.993 E0.01415
G1 X124.838 Y79.312 E0.01415
G1 X124.468 Y79.571 E0.01415
G1 X124.077 Y79.754 E0.01353
G1 X123.625 Y79.879 E0.01469
G1 X123.173 Y79.918 E0.01423
G1 X122.724 Y79.879 E0.01415
G1 X122.288 Y79.762 E0.01415
G1 X121.879 Y79.571 E0.01415
G1 X121.509 Y79.312 E0.01415
G1 X121.190 Y78.993 E0.01415
G1 X120.931 Y78.624 E0.01415
G1 X120.740 Y78.214 E0.01415
G1 X120.623 Y77.779 E0.01415
G1 X120.584 Y77.329 E0.01415
G1 X120.623 Y76.879 E0.01415
G1 X120.740 Y76.443 E0.01415
G1 X120.931 Y76.034 E0.01415
G1 X121.190 Y75.665 E0.01415
G1 X121.509 Y75.345 E0.01415
G1 X121.879 Y75.086 E0.01415
G1 X122.288 Y74.896 E0.01415
G1 X122.666 Y74.794 E0.01227
G1 X122.789 Y79.506 F10800.000
G1 F1200.000
G1 X122.417 Y79.406 E0.01208
G1 X122.068 Y79.243 E0.01208
G1 X121.752 Y79.022 E0.01208
G1 X121.480 Y78.750 E0.01208
G1 X121.259 Y78.434 E0.01208
G1 X121.096 Y78.085 E0.01208
G1 X120.996 Y77.713 E0.01208
G1 X120.962 Y77.329 E0.01208
G1 X120.996 Y76.945 E0.01208
G1 X121.096 Y76.573 E0.01208
G1 X121.259 Y76.223 E0.01208
G1 X121.480 Y75.908 E0.01208
G1 X121.752 Y75.635 E0.01208
G1 X122.068 Y75.414 E0.01208
G1 X122.417 Y75.251 E0.01208
G1 X122.789 Y75.152 E0.01208
G1 X123.155 Y75.120 E0.01151
G1 X123.556 Y75.151 E0.01262
G1 X123.929 Y75.251 E0.01211
G1 X124.279 Y75.414 E0.01208
G1 X124.594 Y75.635 E0.01208
G1 X124.867 Y75.908 E0.01208
G1 X125.088 Y76.223 E0.01208
G1 X125.251 Y76.573 E0.01208
G1 X125.350 Y76.945 E0.01208
G1 X125.384 Y77.329 E0.01208
G1 X125.350 Y77.713 E0.01208
G1 X125.251 Y78.085 E0.01208
G1 X125.088 Y78.434 E0.01208
G1 X124.867 Y78.750 E0.01208
G1 X124.594 Y79.022 E0.01208
G1 X124.279 Y79.243 E0.01208
G1 X123.946 Y79.399 E0.01151
G1 X123.558 Y79.506 E0.01262
G1 X123.173 Y79.540 E0.01211
G1 X122.849 Y79.511 E0.01020
G1 X122.542 Y79.801 F10800.000
G1 E-0.80000 F2100.00000
G1 Z0.800 F10800.000
G1 X115.437 Y82.270
G1 Z0.200
G1 E0.80000 F2100.00000
G1 F1200.000
G1 X108.199 Y82.270 E0.22696
G1 X107.326 Y82.194 E0.02746
G1 X106.504 Y81.977 E0.02666
G1 X105.731 Y81.622 E0.02666
G1 X105.031 Y81.139 E0.02666
G1 X104.424 Y80.544 E0.02666
G1 X103.928 Y79.853 E0.02666
G1 X103.501 Y78.969 E0.03078
G1 X105.872 Y78.969 E0.07435
G1 X105.994 Y79.150 E0.00685
G1 X106.348 Y79.504 E0.01569
G1 X106.754 Y79.788 E0.01552
G1 X107.202 Y79.997 E0.01552
G1 X107.680 Y80.125 E0.01552
G1 X108.173 Y80.168 E0.01552
G1 X108.666 Y80.125 E0.01552
G1 X109.144 Y79.997 E0.01552
G1 X109.593 Y79.788 E0.01552
G1 X109.998 Y79.504 E0.01552
G1 X110.348 Y79.154 E0.01552
G1 X110.632 Y78.749 E0.01552
G1 X110.841 Y78.300 E0.01552
G1 X110.969 Y77.822 E0.01552
G1 X111.013 Y77.329 E0.01552
G1 X110.969 Y76.836 E0.01552
G1 X110.841 Y76.358 E0.01552
G1 X110.632 Y75.909 E0.01552
G1 X110.348 Y75.504 E0.01552
G1 X109.998 Y75.154 E0.01552
G1 X109.593 Y74.870 E0.01552
G1 X109.144 Y74.661 E0.01552
G1 X108.666 Y74.533 E0.01552
G1 X108.173 Y74.490 E0.01552
G1 X107.680 Y74.533 E0.01552
G1 X107.202 Y74.661 E0.01552
G1 X106.754 Y74.870 E0.01552
G1 X106.348 Y75.154 E0.01552
G1 X105.994 Y75.508 E0.01569
G1 X105.872 Y75.689 E0.00685
G1 X103.501 Y75.689 E0.07435
G1 X103.928 Y74.805 E0.03078
G1 X104.424 Y74.114 E0.02666
G1 X105.031 Y73.519 E0.02666
G1 X105.731 Y73.036 E0.02666
G1 X106.504 Y72.681 E0.02666
G1 X107.326 Y72.463 E0.02666
G1 X108.199 Y72.388 E0.02746
G1 X123.148 Y72.388 E0.46872
G1 X123.985 Y72.461 E0.02636
G1 X124.865 Y72.689 E0.02848
G1 X125.643 Y73.052 E0.02692
G1 X126.348 Y73.546 E0.02699
G1 X126.956 Y74.154 E0.02699
G1 X127.450 Y74.860 E0.02699
G1 X127.814 Y75.640 E0.02699
G1 X128.037 Y76.471 E0.02699
G1 X128.112 Y77.329 E0.02699
G1 X128.037 Y78.186 E0.02699
G1 X127.814 Y79.018 E0.02699
G1 X127.450 Y79.798 E0.02699
G1 X126.956 Y80.503 E0.02699
G1 X126.348 Y81.112 E0.02699
G1 X125.643 Y81.606 E0.02699
G1 X124.862 Y81.970 E0.02699
G1 X124.031 Y82.193 E0.02699
G1 X123.148 Y82.270 E0.02780
G1 X115.497 Y82.270 E0.23987
G1 X115.437 Y82.647 F10800.000
G1 F1200.000
G1 X108.182 Y82.647 E0.22747
G1 X107.261 Y82.567 E0.02899
G1 X106.376 Y82.333 E0.02870
G1 X105.544 Y81.951 E0.02870
G1 X104.790 Y81.431 E0.02870
G1 X104.137 Y80.790 E0.02870
G1 X103.603 Y80.046 E0.02870
G1 X103.204 Y79.222 E0.02870
G1 X103.025 Y78.592 E0.02055
G1 X106.073 Y78.592 E0.09558
G1 X106.287 Y78.909 E0.01200
G1 X106.591 Y79.214 E0.01351
G1 X106.943 Y79.460 E0.01345
G1 X107.332 Y79.641 E0.01345
G1 X107.746 Y79.752 E0.01345
G1 X108.173 Y79.790 E0.01345
G1 X108.601 Y79.752 E0.01345
G1 X109.015 Y79.641 E0.01345
G1 X109.404 Y79.460 E0.01345
G1 X109.755 Y79.214 E0.01345
G1 X110.058 Y78.911 E0.01345
G1 X110.304 Y78.559 E0.01345
G1 X110.486 Y78.171 E0.01345
G1 X110.597 Y77.756 E0.01345
G1 X110.634 Y77.329 E0.01345
G1 X110.597 Y76.902 E0.01345
G1 X110.486 Y76.487 E0.01345
G1 X110.304 Y76.098 E0.01345
G1 X110.058 Y75.747 E0.01345
G1 X109.755 Y75.444 E0.01345
G1 X109.404 Y75.198 E0.01345
G1 X109.015 Y75.016 E0.01345
G1 X108.601 Y74.905 E0.01345
G1 X108.173 Y74.868 E0.01345
G1 X107.746 Y74.905 E0.01345
G1 X107.332 Y75.016 E0.01345
G1 X106.943 Y75.198 E0.01345
G1 X106.591 Y75.444 E0.01345
G1 X106.287 Y75.748 E0.01351
G1 X106.073 Y76.066 E0.01199
G1 X103.025 Y76.066 E0.09558
G1 X103.204 Y75.436 E0.02055
G1 X103.603 Y74.611 E0.02871
G1 X104.137 Y73.868 E0.02870
G1 X104.790 Y73.227 E0.02871
G1 X105.544 Y72.707 E0.02870
G1 X106.376 Y72.325 E0.02870
G1 X107.261 Y72.090 E0.02870
G1 X108.182 Y72.011 E0.02899
G1 X123.164 Y72.011 E0.46974
G1 X124.049 Y72.088 E0.02787
G1 X124.993 Y72.333 E0.03055
G1 X125.832 Y72.724 E0.02903
G1 X126.591 Y73.256 E0.02906
G1 X127.246 Y73.911 E0.02906
G1 X127.778 Y74.670 E0.02906
G1 X128.170 Y75.510 E0.02906
G1 X128.410 Y76.406 E0.02906
G1 X128.490 Y77.329 E0.02906
G1 X128.410 Y78.252 E0.02906
G1 X128.170 Y79.147 E0.02906
G1 X127.778 Y79.987 E0.02906
G1 X127.246 Y80.747 E0.02906
G1 X126.591 Y81.402 E0.02906
G1 X125.832 Y81.934 E0.02906
G1 X124.992 Y82.325 E0.02906
G1 X124.097 Y82.565 E0.02906
G1 X123.164 Y82.647 E0.02935
G1 X115.497 Y82.647 E0.24039
G1 X115.236 Y82.301 F10800.000
G1 E-0.80000 F2100.00000
G1 Z0.800 F10800.000
G1 X108.603 Y82.157
G1 Z0.200
G1 E0.80000 F2100.00000
G1 F1200.000
G1 X105.699 Y79.252 E0.13059
G1 X105.158 Y79.252 E0.01719
G1 X107.863 Y81.957 E0.12161
G1 X107.375 Y81.915 E0.01558
G1 X107.246 Y81.881 E0.00423
G1 X104.617 Y79.252 E0.11819
G1 X104.077 Y79.252 E0.01719
G1 X106.479 Y81.654 E0.10800
G1 X105.872 Y81.375 E0.02124
G1 X105.212 Y80.920 E0.02548
G1 X103.976 Y79.692 E0.05539
G1 X107.028 Y80.041 F10800.000
G1 F1200.000
G1 X108.974 Y81.987 E0.08750
G1 X109.515 Y81.987 E0.01719
G1 X107.962 Y80.434 E0.06984
G1 X108.173 Y80.452 E0.00675
G1 X108.493 Y80.424 E0.01020
G1 X110.056 Y81.987 E0.07026
G1 X110.596 Y81.987 E0.01719
G1 X108.951 Y80.342 E0.07397
G1 X109.241 Y80.264 E0.00956
G1 X109.359 Y80.209 E0.00412
G1 X111.137 Y81.987 E0.07993
G1 X111.678 Y81.987 E0.01719
G1 X109.728 Y80.037 E0.08766
G1 X110.047 Y79.815 E0.01235
G1 X112.218 Y81.987 E0.09763
G1 X112.759 Y81.987 E0.01719
G1 X110.337 Y79.565 E0.10888
G1 X110.600 Y79.287 E0.01216
G1 X113.300 Y81.987 E0.12136
G1 X113.840 Y81.987 E0.01719
G1 X110.823 Y78.969 E0.13566
G1 X110.878 Y78.890 E0.00306
G1 X111.007 Y78.613 E0.00972
G1 X114.381 Y81.987 E0.15167
G1 X114.922 Y81.987 E0.01719
G1 X111.155 Y78.221 E0.16932
G1 X111.249 Y77.871 E0.01150
G1 X111.257 Y77.782 E0.00286
G1 X115.462 Y81.987 E0.18906
G1 X116.003 Y81.987 E0.01719
G1 X111.292 Y77.276 E0.21180
G1 X111.249 Y76.787 E0.01561
G1 X111.214 Y76.658 E0.00423
G1 X116.544 Y81.987 E0.23958
G1 X117.084 Y81.987 E0.01719
G1 X107.803 Y72.706 E0.41724
G1 X108.309 Y72.671 E0.01611
G1 X117.625 Y81.987 E0.41882
G1 X118.166 Y81.987 E0.01719
G1 X108.849 Y72.671 E0.41882
G1 X109.390 Y72.671 E0.01719
G1 X118.706 Y81.987 E0.41882
G1 X119.247 Y81.987 E0.01719
G1 X109.931 Y72.671 E0.41882
G1 X110.471 Y72.671 E0.01719
G1 X119.788 Y81.987 E0.41882
G1 X120.328 Y81.987 E0.01719
G1 X111.012 Y72.671 E0.41882
G1 X111.553 Y72.671 E0.01719
G1 X120.869 Y81.987 E0.41882
G1 X121.410 Y81.987 E0.01719
G1 X112.093 Y72.671 E0.41882
G1 X112.634 Y72.671 E0.01719
G1 X121.950 Y81.987 E0.41882
G1 X122.491 Y81.987 E0.01719
G1 X113.175 Y72.671 E0.41882
G1 X113.715 Y72.671 E0.01719
G1 X123.196 Y82.152 E0.42624
G1 E-0.80000 F2100.00000
G1 Z0.800 F10800.000
G1 X127.384 Y74.986
G1 Z0.200
G1 E0.80000 F2100.00000
G1 F1200.000
G1 X126.153 Y73.754 E0.05537
G1 X125.501 Y73.298 E0.02531
G1 X124.854 Y72.996 E0.02268
G1 X127.506 Y75.648 E0.11923
G1 X127.547 Y75.737 E0.00311
G1 X127.728 Y76.411 E0.02218
G1 X124.100 Y72.783 E0.16308
G1 X123.937 Y72.741 E0.00536
G1 X123.477 Y72.701 E0.01468
G1 X127.801 Y77.025 E0.19440
G1 X127.828 Y77.329 E0.00970
G1 X127.807 Y77.571 E0.00773
G1 X122.906 Y72.671 E0.22030
G1 X122.366 Y72.671 E0.01719
G1 X127.763 Y78.068 E0.24265
G1 X127.659 Y78.504 E0.01426
G1 X126.005 Y76.850 E0.07437
G1 X126.046 Y77.329 E0.01528
G1 X126.038 Y77.424 E0.00305
G1 X127.543 Y78.930 E0.06767
G1 X127.371 Y79.298 E0.01293
G1 X125.981 Y77.908 E0.06249
G1 X125.864 Y78.331 E0.01396
G1 X127.198 Y79.665 E0.05997
G1 X126.975 Y79.983 E0.01234
G1 X125.692 Y78.700 E0.05769
G1 X125.478 Y79.027 E0.01242
G1 X126.753 Y80.301 E0.05729
G1 X126.485 Y80.575 E0.01215
G1 X125.230 Y79.320 E0.05642
G1 X124.949 Y79.579 E0.01216
G1 X126.215 Y80.845 E0.05690
G1 X125.906 Y81.076 E0.01228
G1 X124.631 Y79.802 E0.05729
G1 X124.266 Y79.977 E0.01288
G1 X125.588 Y81.299 E0.05942
G1 X125.501 Y81.360 E0.00338
G1 X125.233 Y81.485 E0.00939
G1 X123.856 Y80.108 E0.06189
G1 X123.676 Y80.158 E0.00595
G1 X123.390 Y80.183 E0.00911
G1 X124.864 Y81.657 E0.06626
G1 X124.765 Y81.703 E0.00347
G1 X124.453 Y81.787 E0.01027
G1 X122.839 Y80.173 E0.07255
G1 X122.674 Y80.158 E0.00527
G1 X122.123 Y79.997 E0.01825
G1 X124.027 Y81.901 E0.08557
G1 X123.537 Y81.952 E0.01565
G1 X114.256 Y72.671 E0.41724
G1 X114.797 Y72.671 E0.01719
G1 X120.505 Y78.379 E0.25661
G1 X120.344 Y77.828 E0.01825
G1 X120.329 Y77.663 E0.00527
G1 X115.337 Y72.671 E0.22442
G1 X115.878 Y72.671 E0.01719
G1 X120.319 Y77.112 E0.19965
G1 X120.344 Y76.830 E0.00899
G1 X120.393 Y76.645 E0.00608
G1 X116.419 Y72.671 E0.17868
G1 X116.959 Y72.671 E0.01719
G1 X120.525 Y76.236 E0.16028
G1 X120.700 Y75.871 E0.01288
G1 X117.500 Y72.671 E0.14386
G1 X118.041 Y72.671 E0.01719
G1 X120.923 Y75.553 E0.12957
G1 X121.182 Y75.272 E0.01216
G1 X118.581 Y72.671 E0.11694
G1 X119.122 Y72.671 E0.01719
G1 X121.475 Y75.024 E0.10578
G1 X121.802 Y74.810 E0.01242
G1 X119.663 Y72.671 E0.09618
G1 X120.203 Y72.671 E0.01719
G1 X122.171 Y74.638 E0.08845
G1 X122.594 Y74.521 E0.01396
G1 X120.744 Y72.671 E0.08317
G1 X121.285 Y72.671 E0.01719
G1 X123.078 Y74.464 E0.08062
G1 X123.651 Y74.497 E0.01827
G1 X121.655 Y72.501 E0.08973
G1 E-0.80000 F2100.00000
G1 Z0.800 F10800.000
G1 X109.084 Y74.528
G1 Z0.200
G1 E0.80000 F2100.00000
G1 F1200.000
G1 X107.315 Y72.759 E0.07952
G1 X106.888 Y72.872 E0.01406
G1 X108.226 Y74.210 E0.06017
G1 X107.721 Y74.245 E0.01611
G1 X106.479 Y73.004 E0.05582
G1 X106.109 Y73.174 E0.01296
G1 X107.281 Y74.347 E0.05273
G1 X107.105 Y74.394 E0.00580
G1 X106.889 Y74.495 E0.00758
G1 X105.756 Y73.362 E0.05091
G1 X105.436 Y73.583 E0.01236
G1 X106.533 Y74.679 E0.04929
G1 X106.215 Y74.902 E0.01234
G1 X105.130 Y73.818 E0.04875
G1 X104.857 Y74.085 E0.01215
G1 X105.937 Y75.165 E0.04854
G1 X105.775 Y75.327 E0.00728
G1 X105.722 Y75.406 E0.00303
G1 X105.637 Y75.406 E0.00269
G1 X104.594 Y74.363 E0.04691
G1 X104.368 Y74.677 E0.01232
G1 X105.097 Y75.406 E0.03276
G1 X104.556 Y75.406 E0.01719
G1 X104.149 Y74.999 E0.01831
G1 X103.972 Y75.363 E0.01287
G1 X104.185 Y75.576 E0.00955
G1 E-0.80000 F2100.00000
G1 Z0.800 F10800.000
G1 X96.080 Y103.253
G1 Z0.200
G1 E0.80000 F2100.00000
G1 F1200.000
G1 X94.186 Y105.147 E0.08399
G1 X93.788 Y105.499 E0.01666
G1 X93.366 Y105.792 E0.01611
G1 X92.912 Y106.033 E0.01611
G1 X92.433 Y106.218 E0.01611
G1 X91.935 Y106.345 E0.01611
G1 X91.425 Y106.412 E0.01611
G1 X90.911 Y106.418 E0.01611
G1 X90.400 Y106.363 E0.01611
G1 X89.938 Y106.257 E0.01488
G1 X89.487 Y106.099 E0.01497
G1 X89.649 Y105.818 E0.01016
G1 X90.150 Y105.981 E0.01651
G1 X90.699 Y106.078 E0.01749
G1 X91.257 Y106.098 E0.01749
G1 X91.814 Y106.039 E0.01758
G1 X92.387 Y105.890 E0.01855
G1 X92.870 Y105.695 E0.01634
G1 X93.353 Y105.416 E0.01749
G1 X93.793 Y105.073 E0.01749
G1 X94.180 Y104.672 E0.01749
G1 X94.508 Y104.220 E0.01749
G1 X94.770 Y103.728 E0.01749
G1 X94.961 Y103.204 E0.01749
G1 X95.077 Y102.658 E0.01749
G1 X95.116 Y102.102 E0.01749
G1 X95.077 Y101.545 E0.01749
G1 X94.961 Y101.000 E0.01749
G1 X94.770 Y100.475 E0.01749
G1 X94.508 Y99.983 E0.01749
G1 X94.180 Y99.532 E0.01749
G1 X93.793 Y99.130 E0.01749
G1 X93.353 Y98.787 E0.01749
G1 X92.870 Y98.508 E0.01749
G1 X92.350 Y98.298 E0.01758
G1 X91.775 Y98.160 E0.01855
G1 X91.257 Y98.106 E0.01634
G1 X90.699 Y98.125 E0.01749
G1 X90.150 Y98.222 E0.01749
G1 X89.649 Y98.385 E0.01651
G1 X89.487 Y98.104 E0.01016
G1 X89.834 Y97.975 E0.01160
G1 X90.299 Y97.858 E0.01504
G1 X90.774 Y97.793 E0.01504
G1 X91.254 Y97.782 E0.01504
G1 X91.695 Y97.820 E0.01388
G1 X92.204 Y97.919 E0.01625
G1 X92.658 Y98.064 E0.01497
G1 X93.111 Y98.266 E0.01555
G1 X100.242 Y101.939 E0.25150
G1 X104.212 Y101.939 E0.12448
G1 X104.212 Y102.265 E0.01022
G1 X97.069 Y102.265 E0.22396
G1 X96.123 Y103.211 E0.04196
G1 E-0.80000 F2100.00000
G1 Z0.800 F10800.000
G1 X92.006 Y106.716
G1 Z0.200
G1 E0.80000 F2100.00000
G1 F1200.000
G1 X91.452 Y106.789 E0.01752
G1 X90.893 Y106.796 E0.01752
G1 X90.338 Y106.736 E0.01752
G1 X89.833 Y106.620 E0.01624
G1 X89.267 Y106.421 E0.01882
G1 X88.956 Y106.266 E0.01090
G1 X89.496 Y105.329 E0.03390
G1 X89.761 Y105.458 E0.00924
G1 X90.242 Y105.614 E0.01584
G1 X90.739 Y105.702 E0.01584
G1 X91.244 Y105.720 E0.01584
G1 X91.747 Y105.667 E0.01587
G1 X92.269 Y105.532 E0.01689
G1 X92.704 Y105.356 E0.01474
G1 X93.142 Y105.103 E0.01584
G1 X93.540 Y104.792 E0.01584
G1 X93.891 Y104.429 E0.01584
G1 X94.188 Y104.020 E0.01584
G1 X94.425 Y103.574 E0.01584
G1 X94.597 Y103.100 E0.01584
G1 X94.702 Y102.605 E0.01584
G1 X94.738 Y102.102 E0.01584
G1 X94.702 Y101.598 E0.01584
G1 X94.597 Y101.104 E0.01584
G1 X94.425 Y100.629 E0.01584
G1 X94.188 Y100.183 E0.01584
G1 X93.891 Y99.775 E0.01584
G1 X93.540 Y99.411 E0.01584
G1 X93.142 Y99.100 E0.01584
G1 X92.704 Y98.848 E0.01584
