; generated by PrusaSlicer 2.2.0+win64 on 2020-12-29 at 21:45:22 UTC

; 

; external perimeters extrusion width = 0.60mm
; perimeters extrusion width = 0.43mm
; infill extrusion width = 0.45mm
; solid infill extrusion width = 0.70mm
; top infill extrusion width = 0.43mm
; first layer extrusion width = 0.42mm

M73 P0 R5
M201 X9000 Y9000 Z500 E10000 ; sets maximum accelerations, mm/sec^2
M203 X500 Y500 Z12 E120 ; sets maximum feedrates, mm/sec
M204 P2000 R1500 T2000 ; sets acceleration (P, T) and retract acceleration (R), mm/sec^2
M205 X10.00 Y10.00 Z0.20 E2.50 ; sets the jerk limits, mm/sec
M205 S0 T0 ; sets the minimum extruding and travel feed rate, mm/sec
M107
M862.3 P "MK2S" ; printer model check
M862.1 P0.4 ; nozzle diameter check
M115 U3.2.3 ; tell printer latest fw version
G90 ; use absolute coordinates
M83 ; extruder relative mode
M204 S2000 T1500 ; MK2 firmware only supports the old M204 format
M104 S215 ; set extruder temp
M140 S60 ; set bed temp
M190 S60 ; wait for bed temp
M109 S215 ; wait for extruder temp
G28 W ; home all without mesh bed level
G80 ; mesh bed leveling
G1 Y-3.0 F1000.0 ; go outside print area
G92 E0.0
G1 X60.0 E9.0  F1000.0 ; intro line
M73 P1 R5
G1 X100.0 E12.5 F1000.0 ; intro line
G92 E0.0
G21 ; set units to millimeters
G90 ; use absolute coordinates
M83 ; use relative distances for extrusion
M900 K0.05 ; Filament gcode LA 1.5
M900 K30 ; Filament gcode LA 1.0
;BEFORE_LAYER_CHANGE
G92 E0.0
;0.2


G1 E-0.80000 F2100.00000
G1 Z0.600 F10800.000
;AFTER_LAYER_CHANGE
;0.2
G1 X115.701 Y96.460
G1 Z0.200
G1 E0.80000 F2100.00000
M204 S1000
G1 F1200.000
G1 X115.821 Y96.317 E0.00584
G1 X116.668 Y95.498 E0.03694
G1 X117.689 Y94.692 E0.04080
G1 X118.777 Y94.001 E0.04041
G1 X119.952 Y93.414 E0.04118
G1 X121.158 Y92.960 E0.04041
G1 X122.417 Y92.629 E0.04080
G1 X123.702 Y92.429 E0.04080
G1 X125.006 Y92.362 E0.04093
G1 X126.301 Y92.429 E0.04067
G1 X127.583 Y92.629 E0.04067
G1 X128.841 Y92.960 E0.04080
G1 X130.047 Y93.414 E0.04041
G1 X131.223 Y94.000 E0.04118
G1 X132.311 Y94.691 E0.04041
G1 X133.332 Y95.498 E0.04080
G1 X134.182 Y96.320 E0.03707
G1 X135.089 Y97.390 E0.04400
G1 X135.759 Y98.374 E0.03733
G1 X136.501 Y99.768 E0.04951
G1 X136.941 Y100.861 E0.03694
G1 X137.305 Y102.119 E0.04105
G1 X137.535 Y103.387 E0.04041
G1 X137.635 Y104.746 E0.04272
G1 X137.600 Y105.981 E0.03874
G1 X137.432 Y107.271 E0.04080
G1 X137.134 Y108.534 E0.04067
G1 X136.706 Y109.763 E0.04080
G1 X136.154 Y110.941 E0.04080
G1 X135.489 Y112.050 E0.04054
G1 X134.709 Y113.091 E0.04080
G1 X133.866 Y114.006 E0.03900
G1 X132.852 Y114.903 E0.04247
G1 X131.795 Y115.656 E0.04067
G1 X130.660 Y116.300 E0.04093
G1 X129.529 Y116.798 E0.03874
G1 X128.237 Y117.216 E0.04259
G1 X127.024 Y117.474 E0.03887
G1 X124.997 Y117.638 E0.06376
G1 X122.977 Y117.474 E0.06356
G1 X121.764 Y117.217 E0.03887
G1 X120.468 Y116.796 E0.04272
G1 X119.341 Y116.300 E0.03861
G1 X118.206 Y115.656 E0.04093
G1 X117.149 Y114.904 E0.04067
G1 X116.135 Y114.006 E0.04247
G1 X115.292 Y113.091 E0.03900
G1 X114.511 Y112.050 E0.04080
G1 X113.844 Y110.938 E0.04067
G1 X113.294 Y109.763 E0.04067
G1 X112.866 Y108.534 E0.04080
G1 X112.568 Y107.272 E0.04067
G1 X112.400 Y105.982 E0.04080
G1 X112.365 Y104.743 E0.03887
G1 X112.465 Y103.388 E0.04259
G1 X112.696 Y102.116 E0.04054
G1 X113.059 Y100.862 E0.04092
G1 X113.500 Y99.765 E0.03707
G1 X114.149 Y98.521 E0.04400
G1 X114.810 Y97.530 E0.03733
G1 X115.663 Y96.506 E0.04179
G1 X116.084 Y96.587 F10800.000
G1 F1200.000
G1 X116.914 Y95.783 E0.03624
G1 X117.905 Y95.001 E0.03958
G1 X118.964 Y94.328 E0.03934
G1 X120.100 Y93.761 E0.03982
G1 X121.271 Y93.320 E0.03922
G1 X122.492 Y92.998 E0.03958
G1 X123.739 Y92.804 E0.03958
G1 X125.003 Y92.739 E0.03970
G1 X126.260 Y92.804 E0.03946
G1 X127.507 Y92.998 E0.03958
G1 X128.728 Y93.320 E0.03958
G1 X129.899 Y93.760 E0.03922
G1 X131.035 Y94.327 E0.03982
G1 X132.094 Y95.000 E0.03934
G1 X133.085 Y95.783 E0.03958
G1 X133.918 Y96.589 E0.03636
G1 X134.793 Y97.622 E0.04244
G1 X135.446 Y98.585 E0.03648
G1 X136.152 Y99.910 E0.04708
G1 X136.584 Y100.982 E0.03624
G1 X136.936 Y102.198 E0.03970
G1 X137.160 Y103.433 E0.03934
G1 X137.258 Y104.745 E0.04125
G1 X137.224 Y105.953 E0.03791
G1 X137.061 Y107.205 E0.03958
G1 X136.772 Y108.426 E0.03934
G1 X136.358 Y109.619 E0.03958
G1 X135.823 Y110.762 E0.03958
G1 X135.175 Y111.841 E0.03946
G1 X134.418 Y112.851 E0.03958
G1 X133.596 Y113.743 E0.03803
G1 X132.616 Y114.609 E0.04101
G1 X131.590 Y115.339 E0.03946
G1 X130.489 Y115.964 E0.03970
G1 X129.386 Y116.449 E0.03779
G1 X128.134 Y116.854 E0.04125
G1 X126.955 Y117.103 E0.03779
G1 X125.000 Y117.261 E0.06149
G1 X123.046 Y117.103 E0.06147
G1 X121.863 Y116.853 E0.03791
G1 X120.612 Y116.448 E0.04125
G1 X119.512 Y115.964 E0.03767
G1 X118.410 Y115.340 E0.03970
G1 X117.385 Y114.610 E0.03946
G1 X116.403 Y113.741 E0.04113
G1 X115.581 Y112.849 E0.03803
G1 X114.824 Y111.839 E0.03958
G1 X114.178 Y110.763 E0.03934
G1 X113.643 Y109.619 E0.03958
G1 X113.228 Y108.427 E0.03958
G1 X112.939 Y107.202 E0.03946
G1 X112.776 Y105.951 E0.03958
G1 X112.742 Y104.746 E0.03779
G1 X112.840 Y103.434 E0.04125
G1 X113.063 Y102.199 E0.03934
G1 X113.416 Y100.983 E0.03970
G1 X113.849 Y99.908 E0.03636
G1 X114.477 Y98.708 E0.04244
G1 X115.122 Y97.741 E0.03648
G1 X116.045 Y96.633 E0.04520
G1 X118.325 Y98.822 F10800.000
G1 F1200.000
G1 X118.995 Y98.168 E0.02936
G1 X119.730 Y97.587 E0.02936
G1 X120.520 Y97.084 E0.02936
G1 X121.358 Y96.665 E0.02936
G1 X122.234 Y96.335 E0.02936
G1 X123.139 Y96.097 E0.02936
G1 X124.065 Y95.953 E0.02936
G1 X125.000 Y95.904 E0.02936
G1 X125.935 Y95.953 E0.02936
G1 X126.861 Y96.097 E0.02936
G1 X127.766 Y96.335 E0.02936
G1 X128.642 Y96.665 E0.02936
G1 X129.480 Y97.084 E0.02936
G1 X130.270 Y97.587 E0.02936
G1 X131.005 Y98.168 E0.02936
G1 X131.675 Y98.822 E0.02936
G1 X132.275 Y99.541 E0.02936
G1 X132.798 Y100.318 E0.02936
G1 X133.238 Y101.144 E0.02936
G1 X133.591 Y102.012 E0.02936
G1 X133.852 Y102.911 E0.02936
G1 X134.020 Y103.832 E0.02936
G1 X134.093 Y104.766 E0.02936
G1 X134.069 Y105.702 E0.02936
G1 X133.948 Y106.631 E0.02936
G1 X133.733 Y107.542 E0.02936
G1 X133.426 Y108.427 E0.02936
G1 X133.029 Y109.275 E0.02936
G1 X132.546 Y110.078 E0.02936
G1 X131.984 Y110.827 E0.02936
G1 X131.348 Y111.514 E0.02936
G1 X130.645 Y112.132 E0.02936
G1 X129.882 Y112.675 E0.02936
G1 X129.067 Y113.136 E0.02936
G1 X128.209 Y113.511 E0.02936
G1 X127.316 Y113.796 E0.02936
G1 X126.400 Y113.987 E0.02936
G1 X125.458 Y114.085 E0.02968
G1 X124.542 Y114.085 E0.02873
G1 X123.600 Y113.987 E0.02968
G1 X122.684 Y113.796 E0.02936
G1 X121.791 Y113.511 E0.02936
G1 X120.933 Y113.136 E0.02936
G1 X120.118 Y112.675 E0.02936
G1 X119.355 Y112.132 E0.02936
G1 X118.652 Y111.514 E0.02936
G1 X118.016 Y110.827 E0.02936
G1 X117.454 Y110.078 E0.02936
G1 X116.971 Y109.275 E0.02936
G1 X116.574 Y108.427 E0.02936
G1 X116.267 Y107.542 E0.02936
G1 X116.052 Y106.631 E0.02936
G1 X115.931 Y105.702 E0.02936
G1 X115.907 Y104.766 E0.02936
G1 X115.980 Y103.832 E0.02936
G1 X116.148 Y102.911 E0.02936
G1 X116.409 Y102.012 E0.02936
G1 X116.762 Y101.144 E0.02936
G1 X117.202 Y100.318 E0.02936
G1 X117.725 Y99.541 E0.02936
G1 X118.286 Y98.868 E0.02748
G1 X117.997 Y98.626 F10800.000
G1 F1200.000
G1 X118.746 Y97.884 E0.03306
G1 X119.511 Y97.279 E0.03058
G1 X120.334 Y96.756 E0.03058
G1 X121.206 Y96.320 E0.03058
G1 X122.119 Y95.975 E0.03058
G1 X123.062 Y95.727 E0.03058
G1 X124.026 Y95.577 E0.03058
G1 X125.000 Y95.527 E0.03058
G1 X125.974 Y95.577 E0.03058
G1 X126.938 Y95.727 E0.03058
G1 X127.881 Y95.975 E0.03058
G1 X128.794 Y96.320 E0.03058
G1 X129.666 Y96.756 E0.03058
G1 X130.489 Y97.279 E0.03058
G1 X131.254 Y97.884 E0.03058
G1 X131.952 Y98.565 E0.03058
G1 X132.577 Y99.314 E0.03058
G1 X133.122 Y100.123 E0.03058
G1 X133.580 Y100.984 E0.03058
G1 X133.947 Y101.888 E0.03058
G1 X134.220 Y102.824 E0.03058
G1 X134.395 Y103.784 E0.03058
G1 X134.470 Y104.756 E0.03058
G1 X134.445 Y105.731 E0.03058
G1 X134.320 Y106.698 E0.03058
G1 X134.096 Y107.648 E0.03058
G1 X133.775 Y108.569 E0.03058
G1 X133.362 Y109.452 E0.03058
G1 X132.860 Y110.288 E0.03058
G1 X132.274 Y111.068 E0.03058
G1 X131.612 Y111.784 E0.03058
G1 X130.879 Y112.428 E0.03058
G1 X130.084 Y112.993 E0.03058
G1 X129.235 Y113.474 E0.03058
G1 X128.342 Y113.864 E0.03058
G1 X127.413 Y114.161 E0.03058
G1 X126.458 Y114.360 E0.03058
G1 X125.482 Y114.461 E0.03075
G1 X124.518 Y114.461 E0.03025
G1 X123.542 Y114.360 E0.03075
G1 X122.587 Y114.161 E0.03058
G1 X121.658 Y113.864 E0.03058
G1 X120.765 Y113.474 E0.03058
G1 X119.916 Y112.993 E0.03058
G1 X119.121 Y112.428 E0.03058
G1 X118.388 Y111.784 E0.03058
G1 X117.726 Y111.068 E0.03058
G1 X117.140 Y110.288 E0.03058
G1 X116.638 Y109.452 E0.03058
G1 X116.225 Y108.569 E0.03058
G1 X115.904 Y107.648 E0.03058
G1 X115.680 Y106.698 E0.03058
G1 X115.555 Y105.731 E0.03058
G1 X115.530 Y104.756 E0.03058
G1 X115.605 Y103.784 E0.03058
G1 X115.780 Y102.824 E0.03058
G1 X116.053 Y101.888 E0.03058
G1 X116.420 Y100.984 E0.03058
G1 X116.878 Y100.123 E0.03058
G1 X117.423 Y99.314 E0.03058
G1 X117.958 Y98.672 E0.02621
G1 X118.387 Y98.712 F10800.000
G1 E-0.80000 F2100.00000
G1 Z0.800 F10800.000
G1 X132.444 Y99.995
G1 Z0.200
G1 E0.80000 F2100.00000
G1 F1200.000
G1 X130.818 Y98.381 E0.07297
G1 X130.106 Y97.818 E0.02889
G1 X129.341 Y97.331 E0.02889
G1 X129.137 Y97.229 E0.00726
G1 X132.764 Y100.856 E0.16333
G1 X132.981 Y101.264 E0.01471
G1 X133.222 Y101.855 E0.02032
G1 X128.148 Y96.781 E0.22845
G1 X127.680 Y96.605 E0.01591
G1 X127.341 Y96.516 E0.01118
G1 X133.485 Y102.660 E0.27664
G1 X133.577 Y102.976 E0.01048
G1 X133.648 Y103.364 E0.01256
G1 X126.631 Y96.347 E0.31593
G1 X125.989 Y96.247 E0.02066
G1 X133.750 Y104.008 E0.34943
G1 X133.796 Y104.595 E0.01874
G1 X125.409 Y96.209 E0.37759
G1 X124.854 Y96.195 E0.01768
G1 X133.800 Y105.141 E0.40277
G1 X133.786 Y105.669 E0.01681
G1 X124.339 Y96.222 E0.42534
G1 X124.094 Y96.234 E0.00782
G1 X123.849 Y96.272 E0.00790
G1 X133.725 Y106.149 E0.44468
G1 X133.659 Y106.624 E0.01527
G1 X123.380 Y96.345 E0.46279
G1 X122.936 Y96.443 E0.01448
G1 X133.556 Y107.063 E0.47814
G1 X133.449 Y107.497 E0.01426
G1 X122.507 Y96.556 E0.49264
G1 X122.099 Y96.688 E0.01368
G1 X133.310 Y107.899 E0.50475
G1 X133.170 Y108.301 E0.01354
G1 X121.705 Y96.837 E0.51616
G1 X121.325 Y96.998 E0.01315
G1 X132.999 Y108.671 E0.52558
G1 X132.826 Y109.040 E0.01296
G1 X120.964 Y97.178 E0.53406
G1 X120.608 Y97.363 E0.01278
G1 X132.631 Y109.387 E0.54133
G1 X132.428 Y109.725 E0.01256
G1 X120.277 Y97.574 E0.54709
G1 X119.946 Y97.784 E0.01249
G1 X132.213 Y110.051 E0.55229
G1 X131.981 Y110.360 E0.01231
G1 X119.639 Y98.019 E0.55565
G1 X119.337 Y98.258 E0.01227
G1 X131.746 Y110.668 E0.55870
G1 X131.486 Y110.949 E0.01220
G1 X119.048 Y98.511 E0.55998
G1 X118.774 Y98.778 E0.01219
G1 X131.226 Y111.230 E0.56060
G1 X130.946 Y111.491 E0.01220
G1 X118.503 Y99.049 E0.56019
G1 X118.257 Y99.344 E0.01224
G1 X130.657 Y111.745 E0.55830
G1 X130.359 Y111.988 E0.01225
G1 X118.011 Y99.639 E0.55597
G1 X117.786 Y99.956 E0.01236
G1 X130.043 Y112.213 E0.55184
G1 X129.730 Y112.436 E0.01224
G1 X117.568 Y100.280 E0.54741
G1 X117.363 Y100.616 E0.01254
G1 X129.380 Y112.633 E0.54104
G1 X129.035 Y112.829 E0.01265
G1 X117.175 Y100.970 E0.53394
G1 X116.992 Y101.328 E0.01282
G1 X128.666 Y113.002 E0.52559
G1 X128.289 Y113.167 E0.01309
G1 X116.836 Y101.713 E0.51568
G1 X116.679 Y102.098 E0.01323
G1 X127.895 Y113.314 E0.50497
G1 X127.485 Y113.445 E0.01372
G1 X116.557 Y102.517 E0.49202
G1 X116.435 Y102.936 E0.01391
G1 X127.059 Y113.561 E0.47833
G1 X126.611 Y113.654 E0.01457
G1 X116.348 Y103.391 E0.46209
G1 X116.264 Y103.849 E0.01482
G1 X126.145 Y113.729 E0.44485
G1 X125.654 Y113.780 E0.01571
G1 X116.223 Y104.349 E0.42459
G1 X116.193 Y104.860 E0.01629
G1 X125.134 Y113.802 E0.40257
G1 X124.593 Y113.802 E0.01724
G1 X116.207 Y105.416 E0.37755
G1 X116.214 Y105.680 E0.00840
G1 X116.256 Y106.007 E0.01049
G1 X123.993 Y113.744 E0.34834
G1 X123.644 Y113.708 E0.01117
G1 X123.355 Y113.647 E0.00939
G1 X116.343 Y106.636 E0.31568
G1 X116.511 Y107.344 E0.02318
G1 X122.657 Y113.490 E0.27671
G1 X121.855 Y113.230 E0.02683
G1 X116.779 Y108.154 E0.22853
G1 X116.837 Y108.320 E0.00558
G1 X117.218 Y109.135 E0.02864
G1 X120.844 Y112.760 E0.16323
G1 X120.270 Y112.436 E0.02097
G1 X119.531 Y111.910 E0.02889
G1 X118.880 Y111.338 E0.02759
G1 X117.534 Y109.992 E0.06059
M106 S255
;BEFORE_LAYER_CHANGE
G92 E0.0
;0.55


G1 E-0.80000 F2100.00000
G1 Z0.800 F10800.000
;AFTER_LAYER_CHANGE
;0.55
M104 S210 ; set temperature
G1 X114.511 Y112.050
G1 Z0.550
G1 E0.80000 F2100.00000
G1 F2092
G1 X113.844 Y110.938 E0.06510
G1 X113.294 Y109.763 E0.06510
G1 X112.866 Y108.534 E0.06530
G1 X112.568 Y107.272 E0.06510
G1 X112.400 Y105.982 E0.06530
G1 X112.365 Y104.743 E0.06222
G1 X112.465 Y103.388 E0.06818
G1 X112.696 Y102.116 E0.06489
G1 X113.059 Y100.862 E0.06550
G1 X113.500 Y99.765 E0.05934
G1 X114.149 Y98.521 E0.07043
G1 X114.810 Y97.530 E0.05975
G1 X115.821 Y96.317 E0.07925
G1 X116.668 Y95.498 E0.05913
G1 X117.689 Y94.692 E0.06530
G1 X118.777 Y94.001 E0.06468
G1 X119.952 Y93.414 E0.06592
G1 X121.158 Y92.960 E0.06468
G1 X122.417 Y92.629 E0.06530
G1 X123.702 Y92.429 E0.06530
G1 X125.006 Y92.362 E0.06551
G1 X126.301 Y92.429 E0.06510
G1 X127.583 Y92.629 E0.06509
G1 X128.841 Y92.960 E0.06530
G1 X130.047 Y93.414 E0.06469
G1 X131.223 Y94.000 E0.06592
G1 X132.311 Y94.691 E0.06468
G1 X133.332 Y95.498 E0.06530
G1 X134.182 Y96.320 E0.05934
G1 X135.089 Y97.390 E0.07043
G1 X135.759 Y98.374 E0.05975
G1 X136.501 Y99.768 E0.07925
G1 X136.941 Y100.861 E0.05913
G1 X137.305 Y102.119 E0.06571
G1 X137.535 Y103.387 E0.06468
G1 X137.635 Y104.746 E0.06838
G1 X137.600 Y105.981 E0.06201
G1 X137.432 Y107.271 E0.06530
G1 X137.134 Y108.534 E0.06509
G1 X136.706 Y109.763 E0.06530
G1 X136.154 Y110.941 E0.06530
G1 X135.489 Y112.050 E0.06489
G1 X134.709 Y113.091 E0.06530
G1 X133.866 Y114.006 E0.06242
G1 X132.852 Y114.903 E0.06797
G1 X131.795 Y115.656 E0.06509
G1 X130.660 Y116.300 E0.06551
G1 X129.529 Y116.798 E0.06201
G1 X128.237 Y117.216 E0.06817
G1 X127.024 Y117.474 E0.06222
G1 X124.997 Y117.638 E0.10206
G1 X122.977 Y117.474 E0.10173
G1 X121.764 Y117.217 E0.06221
G1 X120.468 Y116.796 E0.06838
G1 X119.341 Y116.300 E0.06180
G1 X118.206 Y115.656 E0.06551
G1 X117.149 Y114.904 E0.06510
G1 X116.135 Y114.006 E0.06797
G1 X115.292 Y113.091 E0.06242
G1 X114.547 Y112.098 E0.06229
G1 X114.849 Y111.872 F10800.000
G1 F2092
G1 X114.178 Y110.763 E0.06507
G1 X113.643 Y109.619 E0.06335
G1 X113.228 Y108.427 E0.06335
G1 X112.939 Y107.202 E0.06316
G1 X112.776 Y105.951 E0.06335
G1 X112.742 Y104.746 E0.06049
G1 X112.840 Y103.434 E0.06602
G1 X113.063 Y102.199 E0.06297
G1 X113.416 Y100.983 E0.06354
G1 X113.849 Y99.908 E0.05819
G1 X114.477 Y98.708 E0.06793
G1 X115.122 Y97.741 E0.05838
G1 X116.084 Y96.587 E0.07536
G1 X116.914 Y95.783 E0.05800
G1 X117.905 Y95.001 E0.06335
G1 X118.964 Y94.328 E0.06297
G1 X120.100 Y93.761 E0.06373
G1 X121.271 Y93.320 E0.06278
G1 X122.492 Y92.998 E0.06335
G1 X123.739 Y92.804 E0.06335
G1 X125.003 Y92.739 E0.06354
G1 X126.260 Y92.804 E0.06316
G1 X127.507 Y92.998 E0.06335
G1 X128.728 Y93.320 E0.06335
G1 X129.899 Y93.760 E0.06278
G1 X131.035 Y94.327 E0.06373
G1 X132.094 Y95.000 E0.06297
G1 X133.085 Y95.783 E0.06335
G1 X133.918 Y96.589 E0.05819
G1 X134.793 Y97.622 E0.06793
G1 X135.446 Y98.585 E0.05838
G1 X136.152 Y99.910 E0.07536
G1 X136.584 Y100.982 E0.05800
G1 X136.936 Y102.198 E0.06354
G1 X137.160 Y103.433 E0.06297
G1 X137.258 Y104.745 E0.06602
G1 X137.224 Y105.953 E0.06068
G1 X137.061 Y107.205 E0.06335
G1 X136.772 Y108.426 E0.06297
G1 X136.358 Y109.619 E0.06335
G1 X135.823 Y110.762 E0.06335
G1 X135.175 Y111.841 E0.06316
G1 X134.418 Y112.851 E0.06335
G1 X133.596 Y113.743 E0.06087
G1 X132.616 Y114.609 E0.06564
G1 X131.590 Y115.339 E0.06316
G1 X130.489 Y115.964 E0.06354
G1 X129.386 Y116.449 E0.06049
G1 X128.134 Y116.854 E0.06602
G1 X126.955 Y117.103 E0.06049
G1 X125.000 Y117.261 E0.09841
G1 X123.046 Y117.103 E0.09839
G1 X121.863 Y116.853 E0.06068
G1 X120.612 Y116.448 E0.06602
G1 X119.512 Y115.964 E0.06030
G1 X118.410 Y115.340 E0.06354
G1 X117.385 Y114.610 E0.06316
G1 X116.403 Y113.741 E0.06583
G1 X115.581 Y112.849 E0.06087
G1 X114.885 Y111.920 E0.05822
