; generated by PrusaSlicer 2.2.0+win64 on 2020-07-28 at 23:00:07 UTC

; 

; external perimeters extrusion width = 0.45mm
; perimeters extrusion width = 0.45mm
; infill extrusion width = 0.45mm
; solid infill extrusion width = 0.45mm
; top infill extrusion width = 0.40mm
; first layer extrusion width = 0.42mm

M73 P0 R252
M201 X9000 Y9000 Z500 E10000 ; sets maximum accelerations, mm/sec^2
M203 X500 Y500 Z12 E120 ; sets maximum feedrates, mm/sec
M204 P2000 R1500 T2000 ; sets acceleration (P, T) and retract acceleration (R), mm/sec^2
M205 X10.00 Y10.00 Z0.20 E2.50 ; sets the jerk limits, mm/sec
M205 S0 T0 ; sets the minimum extruding and travel feed rate, mm/sec
M107
M862.3 P "MK2S" ; printer model check
M862.1 P0.4 ; nozzle diameter check
M115 U3.2.3 ; tell printer latest fw version
G90 ; use absolute coordinates
M83 ; extruder relative mode
M204 S2000 T1500 ; MK2 firmware only supports the old M204 format
M104 S215 ; set extruder temp
M140 S60 ; set bed temp
M190 S60 ; wait for bed temp
M109 S215 ; wait for extruder temp
G28 W ; home all without mesh bed level
G80 ; mesh bed leveling
G1 Y-3.0 F1000.0 ; go outside print area
G92 E0.0
G1 X60.0 E9.0  F1000.0 ; intro line
M73 P0 R252
G1 X100.0 E12.5 F1000.0 ; intro line
G92 E0.0
G21 ; set units to millimeters
G90 ; use absolute coordinates
M83 ; use relative distances for extrusion
M900 K0.06 ; Filament gcode LA 1.5
M900 K30 ; Filament gcode LA 1.0
;BEFORE_LAYER_CHANGE
G92 E0.0
;0.2


G1 E-0.80000 F2100.00000
G1 Z0.600 F10800.000
;AFTER_LAYER_CHANGE
;0.2
G1 X100.316 Y96.587
G1 Z0.200
G1 E0.80000 F2100.00000
M204 S1000
G1 F1200.000
G1 X109.142 Y96.587 E0.27672
G1 X109.142 Y97.416 E0.02599
G1 X101.143 Y97.416 E0.25080
G1 X101.142 Y101.413 E0.12532
G1 X82.316 Y101.413 E0.59027
G1 X82.316 Y100.584 E0.02599
G1 X100.317 Y100.584 E0.56441
G1 X100.316 Y96.647 E0.12344
G1 E-0.80000 F2100.00000
G1 Z0.800 F10800.000
G1 X95.729 Y101.790
G1 Z0.200
G1 E0.80000 F2100.00000
G1 F1200.000
G1 X81.939 Y101.790 E0.43238
G1 X81.939 Y100.207 E0.04963
G1 X99.940 Y100.207 E0.56441
G1 X99.939 Y96.210 E0.12532
G1 X109.519 Y96.210 E0.30037
G1 X109.519 Y97.793 E0.04963
G1 X101.520 Y97.793 E0.25080
G1 X101.519 Y101.790 E0.12532
G1 X95.789 Y101.790 E0.17965
G1 X95.464 Y101.491 F10800.000
G1 E-0.80000 F2100.00000
G1 Z0.800 F10800.000
G1 X108.953 Y97.001
G1 Z0.200
G1 E0.80000 F2100.00000
G1 F1200.000
G1 X100.955 Y97.001 E0.30044
G1 X100.769 Y97.040 E0.00712
G1 X100.730 Y97.227 E0.00720
G1 X100.730 Y100.773 E0.13316
G1 X100.690 Y100.961 E0.00723
G1 X100.506 Y100.999 E0.00706
G1 X82.505 Y100.999 E0.67611
G1 E-0.80000 F2100.00000
G1 Z0.800 F10800.000
G1 X138.859 Y94.590
G1 Z0.200
G1 E0.80000 F2100.00000
G1 F1200.000
G1 X117.403 Y94.590 E0.67273
G1 X117.404 Y62.376 E1.01007
G1 X160.317 Y62.376 E1.34551
G1 X160.317 Y94.590 E1.01007
G1 X138.919 Y94.590 E0.67090
G1 X138.859 Y94.967 F10800.000
G1 F1200.000
G1 X117.026 Y94.967 E0.68455
G1 X117.027 Y61.999 E1.03372
G1 X160.694 Y61.999 E1.36915
G1 X160.694 Y94.967 E1.03372
G1 X138.919 Y94.967 E0.68273
G1 X138.558 Y94.704 F10800.000
G1 E-0.80000 F2100.00000
G1 Z0.800 F10800.000
G1 X160.203 Y63.252
G1 Z0.200
G1 E0.80000 F2100.00000
G1 F1200.000
G1 X159.610 Y62.658 E0.02635
G1 X159.076 Y62.658 E0.01676
G1 X160.034 Y63.616 E0.04252
G1 X160.034 Y64.150 E0.01676
G1 X158.542 Y62.658 E0.06623
G1 X158.008 Y62.658 E0.01676
G1 X160.034 Y64.684 E0.08993
G1 X160.034 Y65.218 E0.01676
G1 X157.474 Y62.658 E0.11364
G1 X156.940 Y62.658 E0.01676
G1 X160.034 Y65.752 E0.13734
G1 X160.034 Y66.286 E0.01676
G1 X156.406 Y62.658 E0.16105
G1 X155.872 Y62.658 E0.01676
G1 X160.034 Y66.820 E0.18475
G1 X160.034 Y67.354 E0.01676
G1 X155.338 Y62.658 E0.20846
G1 X154.804 Y62.658 E0.01676
G1 X160.034 Y67.888 E0.23216
G1 X160.034 Y68.422 E0.01676
G1 X154.271 Y62.658 E0.25587
G1 X153.737 Y62.658 E0.01676
G1 X160.034 Y68.956 E0.27957
G1 X160.034 Y69.490 E0.01676
G1 X153.203 Y62.658 E0.30328
G1 X152.669 Y62.658 E0.01676
G1 X160.034 Y70.023 E0.32698
G1 X160.034 Y70.557 E0.01676
G1 X152.135 Y62.658 E0.35069
G1 X151.601 Y62.658 E0.01676
G1 X160.034 Y71.091 E0.37439
G1 X160.034 Y71.625 E0.01676
G1 X151.067 Y62.658 E0.39810
G1 X150.533 Y62.658 E0.01676
G1 X160.034 Y72.159 E0.42180
G1 X160.034 Y72.693 E0.01676
G1 X149.999 Y62.658 E0.44551
G1 X149.465 Y62.658 E0.01676
G1 X160.034 Y73.227 E0.46921
G1 X160.034 Y73.761 E0.01676
G1 X148.931 Y62.658 E0.49292
G1 X148.397 Y62.658 E0.01676
G1 X160.034 Y74.295 E0.51662
G1 X160.034 Y74.829 E0.01676
G1 X147.863 Y62.658 E0.54033
G1 X147.329 Y62.658 E0.01676
G1 X160.034 Y75.363 E0.56403
G1 X160.034 Y75.897 E0.01676
G1 X146.795 Y62.658 E0.58774
G1 X146.262 Y62.658 E0.01676
G1 X160.034 Y76.431 E0.61144
G1 X160.034 Y76.965 E0.01676
G1 X145.728 Y62.658 E0.63515
G1 X145.194 Y62.658 E0.01676
G1 X160.034 Y77.499 E0.65885
G1 X160.034 Y78.032 E0.01676
G1 X144.660 Y62.658 E0.68256
G1 X144.126 Y62.658 E0.01676
G1 X160.034 Y78.566 E0.70626
G1 X160.034 Y79.100 E0.01676
G1 X143.592 Y62.658 E0.72997
G1 X143.058 Y62.658 E0.01676
G1 X160.034 Y79.634 E0.75367
G1 X160.034 Y80.168 E0.01676
G1 X142.524 Y62.658 E0.77738
G1 X141.990 Y62.658 E0.01676
G1 X160.034 Y80.702 E0.80108
G1 X160.034 Y81.236 E0.01676
G1 X141.456 Y62.658 E0.82479
G1 X140.922 Y62.658 E0.01676
G1 X160.034 Y81.770 E0.84849
G1 X160.034 Y82.304 E0.01676
G1 X140.388 Y62.658 E0.87220
G1 X139.854 Y62.658 E0.01676
G1 X160.034 Y82.838 E0.89590
G1 X160.034 Y83.372 E0.01676
G1 X139.320 Y62.658 E0.91961
G1 X138.786 Y62.658 E0.01676
G1 X160.034 Y83.906 E0.94331
M73 P0 R251
G1 X160.034 Y84.440 E0.01676
G1 X138.253 Y62.658 E0.96702
G1 X137.719 Y62.658 E0.01676
G1 X160.034 Y84.974 E0.99072
G1 X160.034 Y85.508 E0.01676
G1 X137.185 Y62.658 E1.01443
G1 X136.651 Y62.658 E0.01676
G1 X160.034 Y86.041 E1.03813
G1 X160.034 Y86.575 E0.01676
G1 X136.117 Y62.658 E1.06184
G1 X135.583 Y62.658 E0.01676
G1 X160.034 Y87.109 E1.08554
G1 X160.034 Y87.643 E0.01676
G1 X135.049 Y62.658 E1.10925
G1 X134.515 Y62.658 E0.01676
G1 X160.034 Y88.177 E1.13295
G1 X160.034 Y88.711 E0.01676
G1 X133.981 Y62.658 E1.15666
G1 X133.447 Y62.658 E0.01676
G1 X160.034 Y89.245 E1.18036
G1 X160.034 Y89.779 E0.01676
G1 X132.913 Y62.658 E1.20407
G1 X132.379 Y62.658 E0.01676
G1 X160.034 Y90.313 E1.22777
G1 X160.034 Y90.847 E0.01676
G1 X131.845 Y62.658 E1.25148
G1 X131.311 Y62.658 E0.01676
G1 X160.034 Y91.381 E1.27518
G1 X160.034 Y91.915 E0.01676
G1 X130.777 Y62.658 E1.29888
G1 X130.244 Y62.658 E0.01676
G1 X160.034 Y92.449 E1.32259
G1 X160.034 Y92.983 E0.01676
G1 X129.710 Y62.658 E1.34629
G1 X129.176 Y62.658 E0.01676
G1 X160.034 Y93.517 E1.37000
G1 X160.034 Y94.050 E0.01676
G1 X128.642 Y62.658 E1.39370
G1 X128.108 Y62.658 E0.01676
G1 X159.757 Y94.308 E1.40512
G1 X159.223 Y94.308 E0.01676
G1 X127.574 Y62.658 E1.40512
G1 X127.040 Y62.658 E0.01676
G1 X158.689 Y94.308 E1.40512
G1 X158.155 Y94.308 E0.01676
G1 X126.506 Y62.658 E1.40512
G1 X125.972 Y62.658 E0.01676
G1 X157.621 Y94.308 E1.40512
G1 X157.087 Y94.308 E0.01676
G1 X125.438 Y62.658 E1.40512
G1 X124.904 Y62.658 E0.01676
G1 X156.553 Y94.308 E1.40512
G1 X156.019 Y94.308 E0.01676
G1 X124.370 Y62.658 E1.40512
G1 X123.836 Y62.658 E0.01676
G1 X155.485 Y94.308 E1.40512
G1 X154.952 Y94.308 E0.01676
G1 X123.302 Y62.658 E1.40512
G1 X122.768 Y62.658 E0.01676
G1 X154.418 Y94.308 E1.40512
M73 P0 R250
G1 X153.884 Y94.308 E0.01676
G1 X122.235 Y62.658 E1.40512
G1 X121.701 Y62.658 E0.01676
G1 X153.350 Y94.308 E1.40512
G1 X152.816 Y94.308 E0.01676
G1 X121.167 Y62.658 E1.40512
G1 X120.633 Y62.658 E0.01676
G1 X152.282 Y94.308 E1.40512
G1 X151.748 Y94.308 E0.01676
G1 X120.099 Y62.658 E1.40512
G1 X119.565 Y62.658 E0.01676
G1 X151.214 Y94.308 E1.40512
G1 X150.680 Y94.308 E0.01676
G1 X119.031 Y62.658 E1.40512
G1 X118.497 Y62.658 E0.01676
G1 X150.146 Y94.308 E1.40512
G1 X149.612 Y94.308 E0.01676
G1 X117.963 Y62.658 E1.40512
G1 X117.686 Y62.658 E0.00869
G1 X117.686 Y62.916 E0.00808
G1 X149.078 Y94.308 E1.39370
G1 X148.544 Y94.308 E0.01676
G1 X117.686 Y63.450 E1.36999
G1 X117.686 Y63.984 E0.01676
G1 X148.010 Y94.308 E1.34629
G1 X147.476 Y94.308 E0.01676
G1 X117.686 Y64.517 E1.32258
G1 X117.686 Y65.051 E0.01676
G1 X146.943 Y94.308 E1.29888
G1 X146.409 Y94.308 E0.01676
G1 X117.686 Y65.585 E1.27517
G1 X117.686 Y66.119 E0.01676
G1 X145.875 Y94.308 E1.25147
G1 X145.341 Y94.308 E0.01676
G1 X117.686 Y66.653 E1.22776
G1 X117.686 Y67.187 E0.01676
G1 X144.807 Y94.308 E1.20406
G1 X144.273 Y94.308 E0.01676
G1 X117.686 Y67.721 E1.18036
G1 X117.686 Y68.255 E0.01676
G1 X143.739 Y94.308 E1.15665
G1 X143.205 Y94.308 E0.01676
G1 X117.686 Y68.789 E1.13295
G1 X117.686 Y69.323 E0.01676
G1 X142.671 Y94.308 E1.10924
G1 X142.137 Y94.308 E0.01676
G1 X117.686 Y69.857 E1.08554
G1 X117.686 Y70.391 E0.01676
G1 X141.603 Y94.308 E1.06183
G1 X141.069 Y94.308 E0.01676
G1 X117.686 Y70.925 E1.03813
G1 X117.686 Y71.459 E0.01676
G1 X140.535 Y94.308 E1.01442
G1 X140.001 Y94.308 E0.01676
G1 X117.686 Y71.993 E0.99072
G1 X117.686 Y72.526 E0.01676
G1 X139.467 Y94.308 E0.96701
G1 X138.934 Y94.308 E0.01676
G1 X117.686 Y73.060 E0.94331
G1 X117.686 Y73.594 E0.01676
G1 X138.400 Y94.308 E0.91960
G1 X137.866 Y94.308 E0.01676
G1 X117.686 Y74.128 E0.89590
M73 P1 R249
G1 X117.686 Y74.662 E0.01676
G1 X137.332 Y94.308 E0.87219
G1 X136.798 Y94.308 E0.01676
G1 X117.686 Y75.196 E0.84849
G1 X117.686 Y75.730 E0.01676
G1 X136.264 Y94.308 E0.82478
G1 X135.730 Y94.308 E0.01676
G1 X117.686 Y76.264 E0.80108
G1 X117.686 Y76.798 E0.01676
G1 X135.196 Y94.308 E0.77737
G1 X134.662 Y94.308 E0.01676
G1 X117.686 Y77.332 E0.75367
G1 X117.686 Y77.866 E0.01676
G1 X134.128 Y94.308 E0.72996
G1 X133.594 Y94.308 E0.01676
G1 X117.686 Y78.400 E0.70626
G1 X117.686 Y78.934 E0.01676
G1 X133.060 Y94.308 E0.68255
G1 X132.526 Y94.308 E0.01676
G1 X117.686 Y79.468 E0.65885
G1 X117.686 Y80.001 E0.01676
G1 X131.992 Y94.308 E0.63514
G1 X131.458 Y94.308 E0.01676
G1 X117.686 Y80.535 E0.61144
G1 X117.686 Y81.069 E0.01676
G1 X130.925 Y94.308 E0.58773
G1 X130.391 Y94.308 E0.01676
G1 X117.686 Y81.603 E0.56403
G1 X117.686 Y82.137 E0.01676
G1 X129.857 Y94.308 E0.54032
G1 X129.323 Y94.308 E0.01676
G1 X117.686 Y82.671 E0.51662
G1 X117.686 Y83.205 E0.01676
G1 X128.789 Y94.308 E0.49292
G1 X128.255 Y94.308 E0.01676
G1 X117.686 Y83.739 E0.46921
G1 X117.686 Y84.273 E0.01676
G1 X127.721 Y94.308 E0.44551
G1 X127.187 Y94.308 E0.01676
G1 X117.686 Y84.807 E0.42180
G1 X117.686 Y85.341 E0.01676
G1 X126.653 Y94.308 E0.39810
G1 X126.119 Y94.308 E0.01676
G1 X117.686 Y85.875 E0.37439
G1 X117.686 Y86.409 E0.01676
G1 X125.585 Y94.308 E0.35069
G1 X125.051 Y94.308 E0.01676
G1 X117.686 Y86.943 E0.32698
G1 X117.686 Y87.477 E0.01676
G1 X124.517 Y94.308 E0.30328
G1 X123.983 Y94.308 E0.01676
G1 X117.686 Y88.010 E0.27957
G1 X117.686 Y88.544 E0.01676
G1 X123.449 Y94.308 E0.25587
G1 X122.916 Y94.308 E0.01676
G1 X117.686 Y89.078 E0.23216
G1 X117.686 Y89.612 E0.01676
G1 X122.382 Y94.308 E0.20846
G1 X121.848 Y94.308 E0.01676
G1 X117.686 Y90.146 E0.18475
G1 X117.686 Y90.680 E0.01676
G1 X121.314 Y94.308 E0.16105
G1 X120.780 Y94.308 E0.01676
G1 X117.686 Y91.214 E0.13734
G1 X117.686 Y91.748 E0.01676
G1 X120.246 Y94.308 E0.11364
G1 X119.712 Y94.308 E0.01676
G1 X117.686 Y92.282 E0.08993
G1 X117.686 Y92.816 E0.01676
G1 X119.178 Y94.308 E0.06623
G1 X118.644 Y94.308 E0.01676
G1 X117.686 Y93.350 E0.04252
G1 X117.686 Y93.884 E0.01676
G1 X118.280 Y94.477 E0.02635
G1 E-0.80000 F2100.00000
G1 Z0.800 F10800.000
G1 X138.859 Y135.624
G1 Z0.200
G1 E0.80000 F2100.00000
G1 F1200.000
G1 X117.403 Y135.624 E0.67273
G1 X117.404 Y103.410 E1.01007
G1 X160.317 Y103.410 E1.34551
G1 X160.317 Y135.624 E1.01007
G1 X138.919 Y135.624 E0.67090
G1 X138.859 Y136.001 F10800.000
G1 F1200.000
G1 X117.026 Y136.001 E0.68455
G1 X117.027 Y103.033 E1.03372
G1 X160.694 Y103.033 E1.36915
G1 X160.694 Y136.001 E1.03372
G1 X138.919 Y136.001 E0.68273
G1 X138.558 Y135.738 F10800.000
G1 E-0.80000 F2100.00000
G1 Z0.800 F10800.000
G1 X160.203 Y104.286
G1 Z0.200
G1 E0.80000 F2100.00000
G1 F1200.000
G1 X159.610 Y103.692 E0.02635
G1 X159.076 Y103.692 E0.01676
G1 X160.034 Y104.650 E0.04252
G1 X160.034 Y105.184 E0.01676
G1 X158.542 Y103.692 E0.06623
G1 X158.008 Y103.692 E0.01676
G1 X160.034 Y105.718 E0.08993
G1 X160.034 Y106.252 E0.01676
G1 X157.474 Y103.692 E0.11364
G1 X156.940 Y103.692 E0.01676
G1 X160.034 Y106.786 E0.13734
G1 X160.034 Y107.320 E0.01676
G1 X156.406 Y103.692 E0.16105
G1 X155.872 Y103.692 E0.01676
G1 X160.034 Y107.854 E0.18475
G1 X160.034 Y108.388 E0.01676
G1 X155.338 Y103.692 E0.20846
G1 X154.804 Y103.692 E0.01676
G1 X160.034 Y108.922 E0.23216
G1 X160.034 Y109.456 E0.01676
G1 X154.271 Y103.692 E0.25587
G1 X153.737 Y103.692 E0.01676
G1 X160.034 Y109.990 E0.27957
G1 X160.034 Y110.523 E0.01676
G1 X153.203 Y103.692 E0.30328
G1 X152.669 Y103.692 E0.01676
G1 X160.034 Y111.057 E0.32698
G1 X160.034 Y111.591 E0.01676
G1 X152.135 Y103.692 E0.35069
G1 X151.601 Y103.692 E0.01676
G1 X160.034 Y112.125 E0.37439
G1 X160.034 Y112.659 E0.01676
G1 X151.067 Y103.692 E0.39810
G1 X150.533 Y103.692 E0.01676
G1 X160.034 Y113.193 E0.42180
G1 X160.034 Y113.727 E0.01676
G1 X149.999 Y103.692 E0.44551
G1 X149.465 Y103.692 E0.01676
G1 X160.034 Y114.261 E0.46921
G1 X160.034 Y114.795 E0.01676
G1 X148.931 Y103.692 E0.49292
G1 X148.397 Y103.692 E0.01676
G1 X160.034 Y115.329 E0.51662
G1 X160.034 Y115.863 E0.01676
G1 X147.863 Y103.692 E0.54033
G1 X147.329 Y103.692 E0.01676
G1 X160.034 Y116.397 E0.56403
G1 X160.034 Y116.931 E0.01676
G1 X146.795 Y103.692 E0.58774
G1 X146.262 Y103.692 E0.01676
G1 X160.034 Y117.465 E0.61144
G1 X160.034 Y117.999 E0.01676
G1 X145.728 Y103.692 E0.63515
G1 X145.194 Y103.692 E0.01676
G1 X160.034 Y118.533 E0.65885
M73 P1 R248
G1 X160.034 Y119.066 E0.01676
G1 X144.660 Y103.692 E0.68256
G1 X144.126 Y103.692 E0.01676
G1 X160.034 Y119.600 E0.70626
G1 X160.034 Y120.134 E0.01676
G1 X143.592 Y103.692 E0.72997
G1 X143.058 Y103.692 E0.01676
G1 X160.034 Y120.668 E0.75367
G1 X160.034 Y121.202 E0.01676
G1 X142.524 Y103.692 E0.77738
G1 X141.990 Y103.692 E0.01676
G1 X160.034 Y121.736 E0.80108
G1 X160.034 Y122.270 E0.01676
G1 X141.456 Y103.692 E0.82479
G1 X140.922 Y103.692 E0.01676
G1 X160.034 Y122.804 E0.84849
G1 X160.034 Y123.338 E0.01676
G1 X140.388 Y103.692 E0.87220
G1 X139.854 Y103.692 E0.01676
G1 X160.034 Y123.872 E0.89590
G1 X160.034 Y124.406 E0.01676
G1 X139.320 Y103.692 E0.91961
G1 X138.786 Y103.692 E0.01676
G1 X160.034 Y124.940 E0.94331
G1 X160.034 Y125.474 E0.01676
G1 X138.253 Y103.692 E0.96702
G1 X137.719 Y103.692 E0.01676
G1 X160.034 Y126.008 E0.99072
G1 X160.034 Y126.542 E0.01676
G1 X137.185 Y103.692 E1.01443
G1 X136.651 Y103.692 E0.01676
G1 X160.034 Y127.075 E1.03813
G1 X160.034 Y127.609 E0.01676
G1 X136.117 Y103.692 E1.06184
G1 X135.583 Y103.692 E0.01676
G1 X160.034 Y128.143 E1.08554
G1 X160.034 Y128.677 E0.01676
G1 X135.049 Y103.692 E1.10925
G1 X134.515 Y103.692 E0.01676
G1 X160.034 Y129.211 E1.13295
G1 X160.034 Y129.745 E0.01676
G1 X133.981 Y103.692 E1.15666
G1 X133.447 Y103.692 E0.01676
G1 X160.034 Y130.279 E1.18036
G1 X160.034 Y130.813 E0.01676
G1 X132.913 Y103.692 E1.20407
G1 X132.379 Y103.692 E0.01676
G1 X160.034 Y131.347 E1.22777
G1 X160.034 Y131.881 E0.01676
G1 X131.845 Y103.692 E1.25148
G1 X131.311 Y103.692 E0.01676
G1 X160.034 Y132.415 E1.27518
G1 X160.034 Y132.949 E0.01676
G1 X130.777 Y103.692 E1.29888
G1 X130.244 Y103.692 E0.01676
G1 X160.034 Y133.483 E1.32259
G1 X160.034 Y134.017 E0.01676
G1 X129.710 Y103.692 E1.34629
G1 X129.176 Y103.692 E0.01676
G1 X160.034 Y134.551 E1.37000
G1 X160.034 Y135.084 E0.01676
G1 X128.642 Y103.692 E1.39370
G1 X128.108 Y103.692 E0.01676
G1 X159.757 Y135.342 E1.40512
G1 X159.223 Y135.342 E0.01676
G1 X127.574 Y103.692 E1.40512
G1 X127.040 Y103.692 E0.01676
G1 X158.689 Y135.342 E1.40512
G1 X158.155 Y135.342 E0.01676
G1 X126.506 Y103.692 E1.40512
M73 P2 R247
G1 X125.972 Y103.692 E0.01676
G1 X157.621 Y135.342 E1.40512
G1 X157.087 Y135.342 E0.01676
G1 X125.438 Y103.692 E1.40512
G1 X124.904 Y103.692 E0.01676
G1 X156.553 Y135.342 E1.40512
G1 X156.019 Y135.342 E0.01676
G1 X124.370 Y103.692 E1.40512
G1 X123.836 Y103.692 E0.01676
G1 X155.485 Y135.342 E1.40512
G1 X154.952 Y135.342 E0.01676
G1 X123.302 Y103.692 E1.40512
G1 X122.768 Y103.692 E0.01676
G1 X154.418 Y135.342 E1.40512
