; generated by PrusaSlicer 2.2.0+win64 on 2020-11-05 at 17:50:34 UTC

; 

; external perimeters extrusion width = 0.60mm
; perimeters extrusion width = 0.43mm
; infill extrusion width = 0.45mm
; solid infill extrusion width = 0.70mm
; top infill extrusion width = 0.43mm
; first layer extrusion width = 0.42mm

M73 P0 R18
M201 X9000 Y9000 Z500 E10000 ; sets maximum accelerations, mm/sec^2
M203 X500 Y500 Z12 E120 ; sets maximum feedrates, mm/sec
M204 P2000 R1500 T2000 ; sets acceleration (P, T) and retract acceleration (R), mm/sec^2
M205 X10.00 Y10.00 Z0.20 E2.50 ; sets the jerk limits, mm/sec
M205 S0 T0 ; sets the minimum extruding and travel feed rate, mm/sec
M107
M862.3 P "MK2S" ; printer model check
M862.1 P0.4 ; nozzle diameter check
M115 U3.2.3 ; tell printer latest fw version
G90 ; use absolute coordinates
M83 ; extruder relative mode
M204 S2000 T1500 ; MK2 firmware only supports the old M204 format
M104 S215 ; set extruder temp
M140 S60 ; set bed temp
M190 S60 ; wait for bed temp
M109 S215 ; wait for extruder temp
G28 W ; home all without mesh bed level
G80 ; mesh bed leveling
G1 Y-3.0 F1000.0 ; go outside print area
G92 E0.0
G1 X60.0 E9.0  F1000.0 ; intro line
M73 P0 R18
G1 X100.0 E12.5 F1000.0 ; intro line
G92 E0.0
G21 ; set units to millimeters
G90 ; use absolute coordinates
M83 ; use relative distances for extrusion
M900 K0.05 ; Filament gcode LA 1.5
M900 K30 ; Filament gcode LA 1.0
;BEFORE_LAYER_CHANGE
G92 E0.0
;0.2


G1 E-0.80000 F2100.00000
G1 Z0.600 F10800.000
;AFTER_LAYER_CHANGE
;0.2
G1 X114.777 Y67.379
G1 Z0.200
G1 E0.80000 F2100.00000
M204 S1000
G1 F1200.000
G1 X115.041 Y66.680 E0.02343
G1 X115.509 Y66.098 E0.02343
G1 X116.135 Y65.689 E0.02343
G1 X116.857 Y65.496 E0.02343
G1 X132.898 Y65.474 E0.50295
G1 X133.789 Y65.648 E0.02849
G1 X134.553 Y66.147 E0.02860
G1 X135.071 Y66.894 E0.02849
G1 X135.271 Y67.780 E0.02849
G1 X135.223 Y142.628 E2.34682
G1 X134.957 Y143.331 E0.02355
G1 X134.485 Y143.915 E0.02355
G1 X133.858 Y144.321 E0.02343
G1 X133.132 Y144.513 E0.02355
G1 X116.624 Y144.473 E0.51760
G1 X115.882 Y144.184 E0.02496
G1 X115.280 Y143.668 E0.02484
G1 X114.879 Y142.980 E0.02496
G1 X114.729 Y142.203 E0.02484
G1 X114.777 Y67.439 E2.34415
G1 E-0.80000 F2100.00000
G1 Z0.800 F10800.000
G1 X122.282 Y132.501
G1 Z0.200
G1 E0.80000 F2100.00000
G1 F1200.000
G1 X122.953 Y132.311 E0.02186
G1 X123.537 Y132.253 E0.01840
G1 X124.179 Y132.317 E0.02023
G1 X124.796 Y132.504 E0.02023
G1 X125.365 Y132.808 E0.02023
G1 X125.864 Y133.217 E0.02023
G1 X126.273 Y133.716 E0.02023
G1 X126.577 Y134.285 E0.02023
G1 X126.764 Y134.902 E0.02023
G1 X126.827 Y135.544 E0.02023
G1 X126.764 Y136.186 E0.02023
G1 X126.577 Y136.804 E0.02023
G1 X126.273 Y137.373 E0.02023
G1 X125.864 Y137.871 E0.02023
G1 X125.365 Y138.281 E0.02023
G1 X124.796 Y138.585 E0.02023
G1 X124.179 Y138.772 E0.02023
G1 X123.537 Y138.835 E0.02023
G1 X122.895 Y138.772 E0.02023
G1 X122.277 Y138.585 E0.02023
G1 X121.708 Y138.281 E0.02023
G1 X121.210 Y137.871 E0.02023
G1 X120.800 Y137.373 E0.02023
G1 X120.496 Y136.804 E0.02023
G1 X120.309 Y136.186 E0.02023
G1 X120.246 Y135.544 E0.02023
G1 X120.309 Y134.902 E0.02023
G1 X120.496 Y134.285 E0.02023
G1 X120.800 Y133.716 E0.02023
G1 X121.210 Y133.217 E0.02023
G1 X121.708 Y132.808 E0.02023
G1 X122.229 Y132.530 E0.01851
G1 X122.407 Y132.862 F10800.000
G1 F1200.000
G1 X123.023 Y132.683 E0.02013
G1 X123.537 Y132.632 E0.01618
G1 X124.105 Y132.688 E0.01790
G1 X124.651 Y132.854 E0.01790
G1 X125.154 Y133.123 E0.01790
G1 X125.596 Y133.485 E0.01790
G1 X125.958 Y133.926 E0.01790
G1 X126.227 Y134.430 E0.01790
G1 X126.393 Y134.976 E0.01790
G1 X126.449 Y135.544 E0.01790
G1 X126.393 Y136.112 E0.01790
G1 X126.227 Y136.659 E0.01790
G1 X125.958 Y137.162 E0.01790
G1 X125.596 Y137.603 E0.01790
G1 X125.154 Y137.965 E0.01790
G1 X124.651 Y138.235 E0.01790
G1 X124.105 Y138.400 E0.01790
G1 X123.537 Y138.456 E0.01790
G1 X122.969 Y138.400 E0.01790
G1 X122.422 Y138.235 E0.01790
G1 X121.919 Y137.965 E0.01790
G1 X121.478 Y137.603 E0.01790
G1 X121.115 Y137.162 E0.01790
G1 X120.846 Y136.659 E0.01790
G1 X120.681 Y136.112 E0.01790
G1 X120.625 Y135.544 E0.01790
G1 X120.681 Y134.976 E0.01790
G1 X120.846 Y134.430 E0.01790
G1 X121.115 Y133.926 E0.01790
G1 X121.478 Y133.485 E0.01790
G1 X121.919 Y133.123 E0.01790
G1 X122.354 Y132.891 E0.01547
G1 X122.462 Y132.466 F10800.000
G1 E-0.80000 F2100.00000
G1 Z0.800 F10800.000
G1 X123.537 Y77.778
G1 Z0.200
G1 E0.80000 F2100.00000
G1 F1200.000
G1 X122.895 Y77.714 E0.02023
G1 X122.277 Y77.527 E0.02023
G1 X121.708 Y77.223 E0.02023
G1 X121.210 Y76.814 E0.02023
G1 X120.800 Y76.315 E0.02023
G1 X120.496 Y75.746 E0.02023
G1 X120.309 Y75.129 E0.02023
G1 X120.246 Y74.487 E0.02023
G1 X120.309 Y73.845 E0.02023
G1 X120.496 Y73.227 E0.02023
G1 X120.800 Y72.658 E0.02023
G1 X121.210 Y72.160 E0.02023
G1 X121.708 Y71.750 E0.02023
G1 X122.282 Y71.444 E0.02039
G1 X122.953 Y71.253 E0.02186
G1 X123.537 Y71.196 E0.01840
G1 X124.179 Y71.259 E0.02023
G1 X124.796 Y71.446 E0.02023
G1 X125.365 Y71.750 E0.02023
G1 X125.864 Y72.160 E0.02023
G1 X126.273 Y72.658 E0.02023
G1 X126.577 Y73.227 E0.02023
G1 X126.764 Y73.845 E0.02023
G1 X126.827 Y74.487 E0.02023
G1 X126.764 Y75.129 E0.02023
G1 X126.577 Y75.746 E0.02023
G1 X126.273 Y76.315 E0.02023
G1 X125.864 Y76.814 E0.02023
G1 X125.365 Y77.223 E0.02023
G1 X124.796 Y77.527 E0.02023
G1 X124.179 Y77.714 E0.02023
G1 X123.596 Y77.772 E0.01835
G1 X123.559 Y77.396 F10800.000
G1 F1200.000
G1 X122.969 Y77.343 E0.01860
G1 X122.422 Y77.177 E0.01790
G1 X121.919 Y76.908 E0.01790
G1 X121.478 Y76.546 E0.01790
G1 X121.115 Y76.105 E0.01790
G1 X120.846 Y75.601 E0.01790
G1 X120.681 Y75.055 E0.01790
G1 X120.625 Y74.487 E0.01790
G1 X120.681 Y73.919 E0.01790
G1 X120.846 Y73.372 E0.01790
G1 X121.115 Y72.869 E0.01790
G1 X121.478 Y72.428 E0.01790
G1 X121.919 Y72.066 E0.01790
G1 X122.424 Y71.796 E0.01796
G1 X123.023 Y71.625 E0.01953
G1 X123.537 Y71.575 E0.01618
G1 X124.105 Y71.631 E0.01790
G1 X124.651 Y71.796 E0.01790
G1 X125.154 Y72.066 E0.01790
G1 X125.596 Y72.428 E0.01790
G1 X125.958 Y72.869 E0.01790
G1 X126.227 Y73.372 E0.01790
G1 X126.393 Y73.919 E0.01790
G1 X126.449 Y74.487 E0.01790
G1 X126.393 Y75.055 E0.01790
G1 X126.227 Y75.601 E0.01790
G1 X125.958 Y76.105 E0.01790
G1 X125.596 Y76.546 E0.01790
G1 X125.154 Y76.908 E0.01790
G1 X124.651 Y77.177 E0.01790
G1 X124.105 Y77.343 E0.01790
G1 X123.619 Y77.391 E0.01530
G1 X123.361 Y77.744 F10800.000
G1 E-0.80000 F2100.00000
G1 Z0.800 F10800.000
G1 X117.892 Y68.646
G1 Z0.200
G1 E0.80000 F2100.00000
G1 F1200.000
G1 X132.108 Y68.638 E0.44573
G1 X132.108 Y141.361 E2.28016
G1 X117.892 Y141.358 E0.44572
G1 X117.892 Y68.706 E2.27796
G1 X117.515 Y68.269 F10800.000
G1 F1200.000
G1 X132.485 Y68.261 E0.46937
G1 X132.485 Y141.738 E2.30382
G1 X117.515 Y141.736 E0.46937
G1 X117.515 Y68.329 E2.30160
G1 X117.874 Y68.446 F10800.000
G1 E-0.80000 F2100.00000
G1 Z0.800 F10800.000
G1 X131.995 Y69.515
G1 Z0.200
G1 E0.80000 F2100.00000
G1 F1200.000
G1 X131.401 Y68.921 E0.02638
G1 X130.867 Y68.922 E0.01678
G1 X131.825 Y69.880 E0.04257
G1 X131.825 Y70.414 E0.01679
G1 X130.333 Y68.922 E0.06629
G1 X129.799 Y68.922 E0.01678
G1 X131.825 Y70.949 E0.09002
G1 X131.825 Y71.483 E0.01679
G1 X129.265 Y68.923 E0.11374
G1 X128.731 Y68.923 E0.01678
G1 X131.825 Y72.017 E0.13747
G1 X131.825 Y72.551 E0.01679
G1 X128.197 Y68.923 E0.16119
G1 X127.663 Y68.924 E0.01678
G1 X131.825 Y73.086 E0.18492
G1 X131.825 Y73.620 E0.01679
G1 X127.129 Y68.924 E0.20864
G1 X126.595 Y68.924 E0.01678
G1 X131.825 Y74.154 E0.23237
G1 X131.825 Y74.689 E0.01679
G1 X126.061 Y68.924 E0.25609
G1 X125.527 Y68.925 E0.01678
G1 X131.825 Y75.223 E0.27982
G1 X131.825 Y75.757 E0.01679
G1 X124.993 Y68.925 E0.30355
G1 X124.459 Y68.925 E0.01678
G1 X131.825 Y76.292 E0.32727
G1 X131.825 Y76.826 E0.01679
G1 X123.925 Y68.926 E0.35100
G1 X123.391 Y68.926 E0.01678
G1 X131.825 Y77.360 E0.37472
G1 X131.825 Y77.895 E0.01679
G1 X122.857 Y68.926 E0.39845
G1 X122.323 Y68.927 E0.01678
G1 X124.439 Y71.042 E0.09400
G1 X124.234 Y70.980 E0.00672
G1 X123.799 Y70.938 E0.01372
G1 X121.789 Y68.927 E0.08933
G1 X121.255 Y68.927 E0.01678
G1 X123.266 Y70.938 E0.08935
G1 X122.900 Y70.974 E0.01156
G1 X122.797 Y71.004 E0.00336
G1 X120.721 Y68.928 E0.09224
G1 X120.187 Y68.928 E0.01678
G1 X122.381 Y71.122 E0.09748
G1 X122.175 Y71.180 E0.00671
G1 X121.999 Y71.274 E0.00628
G1 X119.653 Y68.928 E0.10424
G1 X119.119 Y68.928 E0.01678
G1 X121.651 Y71.461 E0.11250
G1 X121.550 Y71.514 E0.00358
G1 X121.342 Y71.686 E0.00849
G1 X118.585 Y68.929 E0.12248
G1 X118.175 Y68.929 E0.01287
G1 X118.175 Y69.053 E0.00390
G1 X121.048 Y71.926 E0.12765
G1 X120.800 Y72.213 E0.01190
G1 X118.175 Y69.588 E0.11664
G1 X118.175 Y70.122 E0.01679
G1 X120.560 Y72.507 E0.10598
G1 X120.374 Y72.856 E0.01240
G1 X118.175 Y70.656 E0.09771
G1 X118.175 Y71.190 E0.01679
G1 X120.203 Y73.219 E0.09012
G1 X120.079 Y73.629 E0.01346
G1 X118.175 Y71.725 E0.08459
G1 X118.175 Y72.259 E0.01679
G1 X120.001 Y74.085 E0.08113
G1 X119.962 Y74.487 E0.01267
G1 X119.972 Y74.590 E0.00327
G1 X118.175 Y72.793 E0.07983
G1 X118.175 Y73.328 E0.01679
G1 X120.030 Y75.183 E0.08242
G1 X120.234 Y75.855 E0.02206
G1 X120.309 Y75.997 E0.00505
G1 X118.175 Y73.862 E0.09483
G1 X118.175 Y74.396 E0.01679
G1 X131.825 Y88.047 E0.60645
G1 X131.825 Y88.581 E0.01679
G1 X118.175 Y74.931 E0.60645
G1 X118.175 Y75.465 E0.01679
G1 X131.825 Y89.115 E0.60645
G1 X131.825 Y89.649 E0.01679
G1 X118.175 Y75.999 E0.60645
G1 X118.175 Y76.534 E0.01679
G1 X131.825 Y90.184 E0.60645
G1 X131.825 Y90.718 E0.01679
G1 X118.175 Y77.068 E0.60645
G1 X118.175 Y77.602 E0.01679
G1 X131.825 Y91.252 E0.60645
G1 X131.825 Y91.787 E0.01679
G1 X118.175 Y78.137 E0.60645
G1 X118.175 Y78.671 E0.01679
G1 X131.825 Y92.321 E0.60645
G1 X131.825 Y92.855 E0.01679
G1 X118.175 Y79.205 E0.60645
G1 X118.175 Y79.740 E0.01679
G1 X131.825 Y93.390 E0.60645
G1 X131.825 Y93.924 E0.01679
G1 X118.175 Y80.274 E0.60645
G1 X118.175 Y80.808 E0.01679
G1 X131.825 Y94.458 E0.60645
G1 X131.825 Y94.993 E0.01679
G1 X118.175 Y81.342 E0.60645
M73 P5 R17
G1 X118.175 Y81.877 E0.01679
G1 X131.825 Y95.527 E0.60645
G1 X131.825 Y96.061 E0.01679
G1 X118.175 Y82.411 E0.60645
G1 X118.175 Y82.945 E0.01679
G1 X131.825 Y96.596 E0.60645
G1 X131.825 Y97.130 E0.01679
G1 X118.175 Y83.480 E0.60645
G1 X118.175 Y84.014 E0.01679
G1 X131.825 Y97.664 E0.60645
G1 X131.825 Y98.198 E0.01679
G1 X118.175 Y84.548 E0.60645
G1 X118.175 Y85.083 E0.01679
G1 X131.825 Y98.733 E0.60645
G1 X131.825 Y99.267 E0.01679
G1 X118.175 Y85.617 E0.60645
G1 X118.175 Y86.151 E0.01679
G1 X131.825 Y99.801 E0.60645
G1 X131.825 Y100.336 E0.01679
G1 X118.175 Y86.686 E0.60645
G1 X118.175 Y87.220 E0.01679
G1 X131.825 Y100.870 E0.60645
G1 X131.825 Y101.404 E0.01679
G1 X118.175 Y87.754 E0.60645
G1 X118.175 Y88.289 E0.01679
G1 X131.825 Y101.939 E0.60645
G1 X131.825 Y102.473 E0.01679
G1 X118.175 Y88.823 E0.60645
G1 X118.175 Y89.357 E0.01679
G1 X131.825 Y103.007 E0.60645
G1 X131.825 Y103.542 E0.01679
G1 X118.175 Y89.891 E0.60645
G1 X118.175 Y90.426 E0.01679
G1 X131.825 Y104.076 E0.60645
G1 X131.825 Y104.610 E0.01679
G1 X118.175 Y90.960 E0.60645
G1 X118.175 Y91.494 E0.01679
G1 X131.825 Y105.145 E0.60645
G1 X131.825 Y105.679 E0.01679
G1 X118.175 Y92.029 E0.60645
G1 X118.175 Y92.563 E0.01679
G1 X131.825 Y106.213 E0.60645
G1 X131.825 Y106.748 E0.01679
G1 X118.175 Y93.097 E0.60645
G1 X118.175 Y93.632 E0.01679
G1 X131.825 Y107.282 E0.60645
G1 X131.825 Y107.816 E0.01679
G1 X118.175 Y94.166 E0.60645
G1 X118.175 Y94.700 E0.01679
G1 X131.825 Y108.350 E0.60645
G1 X131.825 Y108.885 E0.01679
G1 X118.175 Y95.235 E0.60645
G1 X118.175 Y95.769 E0.01679
G1 X131.825 Y109.419 E0.60645
G1 X131.825 Y109.953 E0.01679
G1 X118.175 Y96.303 E0.60645
G1 X118.175 Y96.838 E0.01679
G1 X131.825 Y110.488 E0.60645
G1 X131.825 Y111.022 E0.01679
G1 X118.175 Y97.372 E0.60645
G1 X118.175 Y97.906 E0.01679
G1 X131.825 Y111.556 E0.60645
G1 X131.825 Y112.091 E0.01679
G1 X118.175 Y98.441 E0.60645
G1 X118.175 Y98.975 E0.01679
G1 X131.825 Y112.625 E0.60645
G1 X131.825 Y113.159 E0.01679
G1 X118.175 Y99.509 E0.60645
G1 X118.175 Y100.043 E0.01679
G1 X131.825 Y113.694 E0.60645
G1 X131.825 Y114.228 E0.01679
G1 X118.175 Y100.578 E0.60645
G1 X118.175 Y101.112 E0.01679
G1 X131.825 Y114.762 E0.60645
G1 X131.825 Y115.297 E0.01679
G1 X118.175 Y101.646 E0.60645
G1 X118.175 Y102.181 E0.01679
G1 X131.825 Y115.831 E0.60645
G1 X131.825 Y116.365 E0.01679
G1 X118.175 Y102.715 E0.60645
G1 X118.175 Y103.249 E0.01679
G1 X131.825 Y116.899 E0.60645
G1 X131.825 Y117.434 E0.01679
G1 X118.175 Y103.784 E0.60645
G1 X118.175 Y104.318 E0.01679
G1 X131.825 Y117.968 E0.60645
G1 X131.825 Y118.502 E0.01679
G1 X118.175 Y104.852 E0.60645
G1 X118.175 Y105.387 E0.01679
G1 X131.825 Y119.037 E0.60645
G1 X131.825 Y119.571 E0.01679
G1 X118.175 Y105.921 E0.60645
G1 X118.175 Y106.455 E0.01679
G1 X131.825 Y120.105 E0.60645
G1 X131.825 Y120.640 E0.01679
G1 X118.175 Y106.990 E0.60645
G1 X118.175 Y107.524 E0.01679
G1 X131.825 Y121.174 E0.60645
G1 X131.825 Y121.708 E0.01679
G1 X118.175 Y108.058 E0.60645
G1 X118.175 Y108.592 E0.01679
G1 X131.825 Y122.243 E0.60645
G1 X131.825 Y122.777 E0.01679
G1 X118.175 Y109.127 E0.60645
G1 X118.175 Y109.661 E0.01679
G1 X131.825 Y123.311 E0.60645
G1 X131.825 Y123.846 E0.01679
G1 X118.175 Y110.195 E0.60645
G1 X118.175 Y110.730 E0.01679
G1 X131.825 Y124.380 E0.60645
G1 X131.825 Y124.914 E0.01679
G1 X118.175 Y111.264 E0.60645
G1 X118.175 Y111.798 E0.01679
G1 X131.825 Y125.448 E0.60645
G1 X131.825 Y125.983 E0.01679
G1 X118.175 Y112.333 E0.60645
G1 X118.175 Y112.867 E0.01679
G1 X131.825 Y126.517 E0.60645
G1 X131.825 Y127.051 E0.01679
G1 X118.175 Y113.401 E0.60645
G1 X118.175 Y113.936 E0.01679
G1 X131.825 Y127.586 E0.60645
M73 P11 R16
G1 X131.825 Y128.120 E0.01679
G1 X118.175 Y114.470 E0.60645
G1 X118.175 Y115.004 E0.01679
G1 X131.825 Y128.654 E0.60645
G1 X131.825 Y129.189 E0.01679
G1 X118.175 Y115.539 E0.60645
G1 X118.175 Y116.073 E0.01679
G1 X131.825 Y129.723 E0.60645
G1 X131.825 Y130.257 E0.01679
G1 X118.175 Y116.607 E0.60645
G1 X118.175 Y117.141 E0.01679
G1 X131.825 Y130.792 E0.60645
G1 X131.825 Y131.326 E0.01679
G1 X118.175 Y117.676 E0.60645
G1 X118.175 Y118.210 E0.01679
G1 X131.825 Y131.860 E0.60645
G1 X131.825 Y132.395 E0.01679
G1 X118.175 Y118.744 E0.60645
G1 X118.175 Y119.279 E0.01679
G1 X131.825 Y132.929 E0.60645
G1 X131.825 Y133.463 E0.01679
G1 X118.175 Y119.813 E0.60645
G1 X118.175 Y120.347 E0.01679
G1 X131.825 Y133.998 E0.60645
G1 X131.825 Y134.532 E0.01679
G1 X118.175 Y120.882 E0.60645
G1 X118.175 Y121.416 E0.01679
G1 X131.825 Y135.066 E0.60645
G1 X131.825 Y135.600 E0.01679
G1 X118.175 Y121.950 E0.60645
G1 X118.175 Y122.485 E0.01679
G1 X131.825 Y136.135 E0.60645
G1 X131.825 Y136.669 E0.01679
G1 X118.175 Y123.019 E0.60645
G1 X118.175 Y123.553 E0.01679
G1 X131.825 Y137.203 E0.60645
G1 X131.825 Y137.738 E0.01679
G1 X118.175 Y124.088 E0.60645
G1 X118.175 Y124.622 E0.01679
G1 X131.825 Y138.272 E0.60645
G1 X131.825 Y138.806 E0.01679
G1 X118.175 Y125.156 E0.60645
G1 X118.175 Y125.691 E0.01679
G1 X124.648 Y132.163 E0.28758
G1 X124.234 Y132.038 E0.01358
G1 X123.961 Y132.011 E0.00862
G1 X118.175 Y126.225 E0.25707
G1 X118.175 Y126.759 E0.01679
G1 X123.399 Y131.983 E0.23208
G1 X122.912 Y132.031 E0.01535
G1 X118.175 Y127.293 E0.21047
G1 X118.175 Y127.828 E0.01679
G1 X122.494 Y132.147 E0.19190
G1 X122.175 Y132.238 E0.01041
G1 X122.094 Y132.281 E0.00290
G1 X118.175 Y128.362 E0.17412
G1 X118.175 Y128.896 E0.01679
G1 X121.746 Y132.467 E0.15865
G1 X121.550 Y132.572 E0.00696
G1 X121.422 Y132.677 E0.00523
G1 X118.175 Y129.431 E0.14425
G1 X118.175 Y129.965 E0.01679
G1 X121.128 Y132.918 E0.13121
G1 X121.009 Y133.016 E0.00486
G1 X120.866 Y133.190 E0.00707
G1 X118.175 Y130.499 E0.11955
G1 X118.175 Y131.034 E0.01679
G1 X120.625 Y133.484 E0.10885
G1 X120.564 Y133.558 E0.00302
G1 X120.425 Y133.818 E0.00926
G1 X118.175 Y131.568 E0.09997
G1 X118.175 Y132.102 E0.01679
G1 X120.239 Y134.166 E0.09170
G1 X120.113 Y134.575 E0.01342
G1 X118.175 Y132.637 E0.08610
G1 X118.175 Y133.171 E0.01679
G1 X120.014 Y135.010 E0.08171
G1 X119.966 Y135.497 E0.01535
G1 X118.175 Y133.705 E0.07959
G1 X118.175 Y134.240 E0.01679
G1 X120.014 Y136.079 E0.08172
G1 X120.030 Y136.242 E0.00514
