; generated by PrusaSlicer 2.1.1+win64 on 2019-12-16 at 16:49:00 UTC

; 

; external perimeters extrusion width = 0.45mm
; perimeters extrusion width = 0.45mm
; infill extrusion width = 0.45mm
; solid infill extrusion width = 0.45mm
; top infill extrusion width = 0.40mm
; first layer extrusion width = 0.42mm

M73 P0 R7
M201 X9000 Y9000 Z500 E10000 ; sets maximum accelerations, mm/sec^2
M203 X500 Y500 Z12 E120 ; sets maximum feedrates, mm/sec
M204 P2000 R1500 T2000 ; sets acceleration (P, T) and retract acceleration (R), mm/sec^2
M205 X10.00 Y10.00 Z0.20 E2.50 ; sets the jerk limits, mm/sec
M205 S0 T0 ; sets the minimum extruding and travel feed rate, mm/sec
M107
M862.3 P "MK2S" ; printer model check
M862.1 P0.4 ; nozzle diameter check
M115 U3.2.3 ; tell printer latest fw version
G90 ; use absolute coordinates
M83 ; extruder relative mode
M204 S2000 T1500 ; MK2 firmware only supports the old M204 format
M104 S215 ; set extruder temp
M140 S60 ; set bed temp
M190 S60 ; wait for bed temp
M109 S215 ; wait for extruder temp
G28 W ; home all without mesh bed level
G80 ; mesh bed leveling
G1 Y-3.0 F1000.0 ; go outside print area
G92 E0.0
G1 X60.0 E9.0  F1000.0 ; intro line
M73 P0 R7
G1 X100.0 E12.5 F1000.0 ; intro line
G92 E0.0
G21 ; set units to millimeters
G90 ; use absolute coordinates
M83 ; use relative distances for extrusion
M900 K30 ; Filament gcode
;BEFORE_LAYER_CHANGE
G92 E0.0
;0.2


G1 E-0.80000 F2100.00000
G1 Z0.600 F10800.000
;AFTER_LAYER_CHANGE
;0.2
G1 X108.152 Y98.615
G1 Z0.200
G1 E0.80000 F2100.00000
M204 S1000
G1 F1200
G1 X109.086 Y98.432 E0.02985
G1 X135.529 Y98.432 E0.82909
G1 X141.356 Y98.475 E0.18270
G1 X141.918 Y98.647 E0.01845
G1 X142.427 Y98.943 E0.01845
G1 X142.854 Y99.347 E0.01845
G1 X143.179 Y99.837 E0.01845
G1 X143.377 Y100.366 E0.01771
G1 X143.455 Y100.925 E0.01771
G1 X143.444 Y109.255 E0.26118
G1 X143.302 Y109.879 E0.02005
G1 X143.009 Y110.451 E0.02017
G1 X142.582 Y110.932 E0.02017
G1 X142.052 Y111.290 E0.02005
G1 X141.496 Y111.496 E0.01857
G1 X140.913 Y111.568 E0.01845
G1 X109.008 Y111.566 E1.00033
G1 X108.283 Y111.433 E0.02312
G1 X107.626 Y111.100 E0.02312
G1 X107.090 Y110.593 E0.02312
G1 X106.721 Y109.954 E0.02312
G1 X106.538 Y109.048 E0.02900
G1 X106.558 Y100.678 E0.26242
G1 X106.732 Y100.018 E0.02140
G1 X107.074 Y99.427 E0.02140
G1 X107.557 Y98.950 E0.02128
G1 X108.099 Y98.645 E0.01952
G1 X108.315 Y98.956 F10800.000
G1 F1200
G1 X109.090 Y98.809 E0.02473
G1 X135.529 Y98.809 E0.82896
G1 X141.236 Y98.837 E0.17895
G1 X141.724 Y98.974 E0.01589
G1 X142.167 Y99.220 E0.01589
G1 X142.542 Y99.561 E0.01589
G1 X142.828 Y99.980 E0.01589
G1 X143.009 Y100.446 E0.01567
G1 X143.079 Y100.940 E0.01567
G1 X143.072 Y109.185 E0.25850
G1 X142.959 Y109.720 E0.01714
G1 X142.716 Y110.210 E0.01714
G1 X142.360 Y110.625 E0.01714
G1 X141.909 Y110.940 E0.01726
G1 X141.422 Y111.126 E0.01635
G1 X140.908 Y111.191 E0.01623
G1 X109.030 Y111.190 E0.99950
G1 X108.403 Y111.076 E0.01998
G1 X107.836 Y110.786 E0.01998
G1 X107.375 Y110.345 E0.01998
G1 X107.062 Y109.791 E0.01998
G1 X106.915 Y109.034 E0.02417
G1 X106.929 Y100.746 E0.25986
G1 X107.077 Y100.171 E0.01862
G1 X107.374 Y99.656 E0.01862
G1 X107.798 Y99.241 E0.01862
G1 X108.263 Y98.985 E0.01663
G1 E-0.80000 F2100.00000
G1 Z0.800 F10800.000
G1 X113.254 Y107.644
G1 Z0.200
G1 E0.80000 F2100.00000
G1 F1200
G1 X112.716 Y107.681 E0.01693
G1 X112.190 Y107.629 E0.01657
G1 X111.681 Y107.474 E0.01667
G1 X111.212 Y107.224 E0.01667
G1 X110.801 Y106.886 E0.01667
G1 X110.464 Y106.475 E0.01667
G1 X110.213 Y106.006 E0.01667
G1 X110.061 Y105.505 E0.01641
G1 X109.967 Y104.978 E0.01678
G1 X110.061 Y104.432 E0.01738
G1 X110.213 Y103.930 E0.01644
G1 X110.464 Y103.461 E0.01667
G1 X110.801 Y103.050 E0.01667
G1 X111.212 Y102.713 E0.01667
G1 X111.681 Y102.462 E0.01667
G1 X112.190 Y102.308 E0.01667
G1 X112.702 Y102.257 E0.01614
G1 X113.248 Y102.308 E0.01718
G1 X113.757 Y102.462 E0.01669
G1 X114.226 Y102.713 E0.01667
G1 X114.637 Y103.050 E0.01667
G1 X114.969 Y103.454 E0.01639
G1 X115.260 Y103.902 E0.01675
G1 X115.380 Y104.447 E0.01751
G1 X115.431 Y104.968 E0.01641
G1 X115.379 Y105.497 E0.01666
G1 X115.226 Y106.007 E0.01670
G1 X114.974 Y106.475 E0.01667
G1 X114.637 Y106.886 E0.01666
G1 X114.226 Y107.224 E0.01667
G1 X113.760 Y107.473 E0.01657
G1 X113.311 Y107.625 E0.01486
G1 X113.120 Y108.021 F10800.000
G1 E-0.80000 F2100.00000
G1 Z0.800 F10800.000
G1 X125.000 Y108.415
G1 Z0.200
G1 E0.80000 F2100.00000
G1 F1200
G1 X109.691 Y108.415 E0.48002
G1 X109.691 Y106.192 E0.06971
G1 X109.862 Y106.149 E0.00554
G1 X110.149 Y106.686 E0.01908
G1 X110.533 Y107.154 E0.01900
G1 X111.001 Y107.539 E0.01900
G1 X111.536 Y107.824 E0.01900
G1 X112.115 Y108.000 E0.01898
G1 X112.710 Y108.060 E0.01873
G1 X113.329 Y108.017 E0.01946
G1 X113.910 Y107.820 E0.01924
G1 X114.436 Y107.539 E0.01871
G1 X114.905 Y107.154 E0.01900
G1 X115.289 Y106.686 E0.01897
G1 X115.576 Y106.152 E0.01902
G1 X115.751 Y105.570 E0.01905
G1 X115.810 Y104.968 E0.01897
G1 X115.753 Y104.388 E0.01828
G1 X115.614 Y103.753 E0.02037
G1 X115.273 Y103.231 E0.01955
G1 X114.905 Y102.782 E0.01820
G1 X114.436 Y102.398 E0.01900
G1 X113.902 Y102.112 E0.01900
G1 X113.320 Y101.936 E0.01906
G1 X112.701 Y101.879 E0.01950
G1 X112.116 Y101.936 E0.01843
G1 X111.536 Y102.112 E0.01900
G1 X111.001 Y102.398 E0.01900
G1 X110.533 Y102.782 E0.01900
G1 X110.149 Y103.251 E0.01900
G1 X109.862 Y103.787 E0.01907
G1 X109.691 Y103.744 E0.00554
G1 X109.691 Y101.585 E0.06771
G1 X140.304 Y101.585 E0.95986
G1 X140.304 Y108.415 E0.21416
G1 X125.060 Y108.415 E0.47796
G1 X125.000 Y108.792 F10800.000
G1 F1200
G1 X109.313 Y108.792 E0.49184
G1 X109.313 Y101.208 E0.23781
G1 X140.681 Y101.208 E0.98350
G1 X140.681 Y108.792 E0.23780
G1 X125.060 Y108.792 E0.48978
G1 X124.750 Y108.480 F10800.000
G1 E-0.80000 F2100.00000
G1 Z0.800 F10800.000
G1 X114.491 Y107.835
G1 Z0.200
G1 E0.80000 F2100.00000
G1 F1200
G1 X114.789 Y108.132 E0.01326
G1 X115.325 Y108.132 E0.01687
G1 X114.799 Y107.607 E0.02341
G1 X115.093 Y107.365 E0.01199
G1 X115.860 Y108.132 E0.03417
G1 X116.396 Y108.132 E0.01687
G1 X115.337 Y107.073 E0.04718
G1 X115.525 Y106.845 E0.00932
G1 X115.566 Y106.767 E0.00277
G1 X116.932 Y108.132 E0.06082
G1 X117.468 Y108.132 E0.01687
G1 X115.754 Y106.419 E0.07633
G1 X115.839 Y106.261 E0.00565
G1 X115.907 Y106.036 E0.00741
G1 X118.003 Y108.132 E0.09339
G1 X118.539 Y108.132 E0.01687
G1 X116.030 Y105.624 E0.11176
G1 X116.078 Y105.136 E0.01543
G1 X119.075 Y108.132 E0.13348
G1 X119.610 Y108.132 E0.01687
G1 X116.056 Y104.578 E0.15831
G1 X116.033 Y104.344 E0.00743
G1 X115.941 Y103.928 E0.01340
G1 X120.146 Y108.132 E0.18728
G1 X120.682 Y108.132 E0.01687
G1 X114.678 Y102.128 E0.26744
G1 X114.781 Y101.974 E0.00584
G1 X114.614 Y101.868 E0.00623
G1 X114.952 Y101.868 E0.01065
G1 X121.217 Y108.132 E0.27906
G1 X121.753 Y108.132 E0.01687
G1 X115.488 Y101.868 E0.27906
G1 X116.024 Y101.868 E0.01687
G1 X122.289 Y108.132 E0.27906
G1 X122.824 Y108.132 E0.01687
G1 X116.559 Y101.868 E0.27906
G1 X117.095 Y101.868 E0.01687
G1 X123.360 Y108.132 E0.27906
G1 X123.896 Y108.132 E0.01687
G1 X117.631 Y101.868 E0.27906
G1 X118.167 Y101.868 E0.01687
G1 X124.432 Y108.132 E0.27906
G1 X124.967 Y108.132 E0.01687
G1 X118.702 Y101.868 E0.27906
G1 X119.238 Y101.868 E0.01687
G1 X125.503 Y108.132 E0.27906
G1 X126.039 Y108.132 E0.01687
G1 X119.774 Y101.868 E0.27906
G1 X120.309 Y101.868 E0.01687
G1 X126.574 Y108.132 E0.27906
G1 X127.110 Y108.132 E0.01687
G1 X120.845 Y101.868 E0.27906
G1 X121.381 Y101.868 E0.01687
G1 X127.646 Y108.132 E0.27906
G1 X128.181 Y108.132 E0.01687
G1 X121.916 Y101.868 E0.27906
G1 X122.452 Y101.868 E0.01687
G1 X128.717 Y108.132 E0.27906
G1 X129.253 Y108.132 E0.01687
G1 X122.988 Y101.868 E0.27906
G1 X123.523 Y101.868 E0.01687
G1 X129.788 Y108.132 E0.27906
G1 X130.324 Y108.132 E0.01687
G1 X124.059 Y101.868 E0.27906
G1 X124.595 Y101.868 E0.01687
G1 X130.860 Y108.132 E0.27906
G1 X131.396 Y108.132 E0.01687
G1 X125.131 Y101.868 E0.27906
G1 X125.666 Y101.868 E0.01687
G1 X131.931 Y108.132 E0.27906
G1 X132.467 Y108.132 E0.01687
G1 X126.202 Y101.868 E0.27906
G1 X126.738 Y101.868 E0.01687
G1 X133.003 Y108.132 E0.27906
G1 X133.538 Y108.132 E0.01687
G1 X127.273 Y101.868 E0.27906
G1 X127.809 Y101.868 E0.01687
G1 X134.074 Y108.132 E0.27906
G1 X134.610 Y108.132 E0.01687
G1 X128.345 Y101.868 E0.27906
G1 X128.880 Y101.868 E0.01687
G1 X135.145 Y108.132 E0.27906
G1 X135.681 Y108.132 E0.01687
G1 X129.416 Y101.868 E0.27906
G1 X129.952 Y101.868 E0.01687
G1 X136.217 Y108.132 E0.27906
G1 X136.752 Y108.132 E0.01687
G1 X130.487 Y101.868 E0.27906
G1 X131.023 Y101.868 E0.01687
G1 X137.288 Y108.132 E0.27906
G1 X137.824 Y108.132 E0.01687
G1 X131.559 Y101.868 E0.27906
G1 X132.095 Y101.868 E0.01687
G1 X138.359 Y108.132 E0.27906
G1 X138.895 Y108.132 E0.01687
G1 X132.630 Y101.868 E0.27906
G1 X133.166 Y101.868 E0.01687
G1 X139.431 Y108.132 E0.27906
G1 X139.967 Y108.132 E0.01687
G1 X133.702 Y101.868 E0.27906
G1 X134.237 Y101.868 E0.01687
G1 X140.021 Y107.651 E0.25762
G1 X140.021 Y107.116 E0.01687
G1 X134.773 Y101.868 E0.23376
G1 X135.309 Y101.868 E0.01687
G1 X140.021 Y106.580 E0.20990
G1 X140.021 Y106.044 E0.01687
G1 X135.844 Y101.868 E0.18603
G1 X136.380 Y101.868 E0.01687
G1 X140.021 Y105.508 E0.16217
G1 X140.021 Y104.973 E0.01687
G1 X136.916 Y101.868 E0.13831
G1 X137.452 Y101.868 E0.01687
G1 X140.021 Y104.437 E0.11445
G1 X140.021 Y103.901 E0.01687
G1 X137.987 Y101.868 E0.09059
G1 X138.523 Y101.868 E0.01687
G1 X140.021 Y103.366 E0.06672
G1 X140.021 Y102.830 E0.01687
G1 X139.059 Y101.868 E0.04286
G1 X139.594 Y101.868 E0.01687
G1 X140.191 Y102.464 E0.02656
G1 E-0.80000 F2100.00000
G1 Z0.800 F10800.000
G1 X114.349 Y102.111
G1 Z0.200
G1 E0.80000 F2100.00000
G1 F1200
G1 X113.945 Y101.849 E0.00354
G1 X113.579 Y101.795 E0.00272
G1 X111.859 Y101.795 F10800.000
G1 F1200
G1 X111.492 Y101.849 E0.00259
G1 X111.089 Y102.111 E0.00337
G1 X110.901 Y102.334 F10800.000
G1 F1200
G1 X110.435 Y101.868 E0.02383
G1 X109.973 Y101.868 E0.01667
G1 X109.973 Y102.020 E0.00553
G1 X110.443 Y102.490 E0.02400
G1 X110.332 Y102.581 E0.00519
G1 X110.146 Y102.808 E0.01059
G1 X109.804 Y102.465 E0.01750
G1 X109.750 Y103.954 F10800.000
G1 F1200
G1 X109.694 Y104.333 E0.01377
G1 X109.674 Y104.556 E0.00715
G1 X109.657 Y104.756 E0.00573
G1 X109.640 Y104.956 E0.00516
G1 X109.674 Y105.389 E0.00999
G1 X109.750 Y105.983 E0.01882
G1 X109.804 Y107.333 F10800.000
G1 F1200
G1 X110.773 Y108.302 E0.05157
G1 X111.089 Y107.825 F10800.000
G1 F1200
G1 X111.261 Y107.940 E0.00153
G1 X111.577 Y108.132 E0.00296
G1 X112.068 Y108.205 E0.00399
G1 X113.424 Y108.206 F10800.000
G1 F1200
G1 X113.570 Y108.182 E0.00118
G1 X113.716 Y108.158 E0.00173
G1 X113.862 Y108.134 E0.00229
G1 X113.934 Y108.094 E0.00128
G1 X114.349 Y107.825 E0.00359
M106 S255
;BEFORE_LAYER_CHANGE
G92 E0.0
;0.4


G1 E-0.80000 F2100.00000
G1 Z0.800 F10800.000
;AFTER_LAYER_CHANGE
;0.4
M104 S210 ; set temperature
G1 X106.721 Y109.954
G1 Z0.400
G1 E0.80000 F2100.00000
G1 F2144
G1 X106.538 Y109.048 E0.02900
G1 X106.558 Y100.678 E0.26242
G1 X106.732 Y100.018 E0.02140
G1 X107.074 Y99.427 E0.02140
G1 X107.557 Y98.950 E0.02128
G1 X108.152 Y98.615 E0.02140
G1 X109.086 Y98.432 E0.02985
G1 X135.529 Y98.432 E0.82909
G1 X141.356 Y98.475 E0.18270
G1 X141.918 Y98.647 E0.01845
G1 X142.427 Y98.943 E0.01845
G1 X142.854 Y99.347 E0.01845
G1 X143.179 Y99.837 E0.01845
G1 X143.377 Y100.366 E0.01771
G1 X143.455 Y100.925 E0.01771
G1 X143.444 Y109.255 E0.26118
G1 X143.302 Y109.879 E0.02005
G1 X143.009 Y110.451 E0.02017
G1 X142.582 Y110.932 E0.02017
G1 X142.052 Y111.290 E0.02005
G1 X141.496 Y111.496 E0.01857
G1 X140.913 Y111.568 E0.01845
G1 X109.008 Y111.566 E1.00033
G1 X108.283 Y111.433 E0.02312
G1 X107.626 Y111.100 E0.02312
G1 X107.090 Y110.593 E0.02312
G1 X106.751 Y110.006 E0.02124
G1 E-0.80000 F2100.00000
G1 Z1.000 F10800.000
G1 X113.257 Y107.657
G1 Z0.400
G1 E0.80000 F2100.00000
M204 S800
G1 F1500
G1 X112.715 Y107.699 E0.01840
G1 X112.186 Y107.643 E0.01800
G1 X111.675 Y107.488 E0.01807
G1 X111.204 Y107.236 E0.01810
G1 X110.790 Y106.897 E0.01810
G1 X110.451 Y106.484 E0.01810
G1 X110.199 Y106.012 E0.01810
G1 X110.046 Y105.509 E0.01780
G1 X109.952 Y104.977 E0.01827
G1 X110.046 Y104.428 E0.01885
G1 X110.199 Y103.924 E0.01782
G1 X110.451 Y103.453 E0.01810
G1 X110.790 Y103.040 E0.01810
G1 X111.204 Y102.700 E0.01810
G1 X111.675 Y102.448 E0.01810
G1 X112.187 Y102.293 E0.01810
G1 X112.668 Y102.246 E0.01637
G1 X113.249 Y102.292 E0.01973
G1 X113.763 Y102.448 E0.01817
G1 X114.234 Y102.700 E0.01810
G1 X114.648 Y103.040 E0.01810
G1 X114.981 Y103.446 E0.01779
G1 X115.272 Y103.898 E0.01819
G1 X115.395 Y104.444 E0.01896
G1 X115.447 Y104.968 E0.01782
G1 X115.394 Y105.499 E0.01807
G1 X115.243 Y106.015 E0.01819
G1 X114.986 Y106.484 E0.01810
G1 X114.648 Y106.897 E0.01806
G1 X114.234 Y107.236 E0.01810
G1 X113.766 Y107.487 E0.01798
G1 X113.314 Y107.638 E0.01613
M204 S1000
G1 X113.125 Y108.035 F10800.000
G1 E-0.80000 F2100.00000
G1 Z1.000 F10800.000
G1 X114.445 Y108.002
G1 X109.103 Y103.513
G1 X109.920 Y103.582
G1 Z0.400
G1 E0.80000 F2100.00000
M204 S800
G1 F1500
G1 X109.736 Y103.536 E0.00645
G1 X109.736 Y101.630 E0.06452
G1 X112.399 Y101.630 E0.09016
G1 X112.411 Y101.862 E0.00787
G1 X112.107 Y101.892 E0.01032
G1 X111.519 Y102.070 E0.02081
G1 X110.976 Y102.360 E0.02081
G1 X110.501 Y102.750 E0.02081
G1 X110.111 Y103.226 E0.02081
G1 X109.949 Y103.529 E0.01165
M204 S1000
G1 E-0.80000 F2100.00000
G1 Z1.000 F10800.000
G1 X109.103 Y103.513
G1 X119.227 Y105.000
G1 X125.000 Y108.370
G1 Z0.400
G1 E0.80000 F2100.00000
M204 S800
G1 F2144
G1 X109.736 Y108.370 E0.51668
G1 X109.736 Y106.401 E0.06667
G1 X109.920 Y106.354 E0.00645
G1 X110.111 Y106.711 E0.01368
G1 X110.501 Y107.186 E0.02081
G1 X110.976 Y107.576 E0.02081
G1 X111.519 Y107.866 E0.02081
G1 X112.105 Y108.044 E0.02074
G1 X112.709 Y108.107 E0.02056
G1 X113.339 Y108.059 E0.02137
G1 X113.928 Y107.862 E0.02103
G1 X114.462 Y107.576 E0.02049
G1 X114.937 Y107.186 E0.02081
G1 X115.325 Y106.713 E0.02071
G1 X115.621 Y106.172 E0.02088
G1 X115.796 Y105.577 E0.02097
G1 X115.856 Y104.968 E0.02072
G1 X115.798 Y104.379 E0.02003
G1 X115.653 Y103.738 E0.02225
G1 X115.311 Y103.206 E0.02142
G1 X114.937 Y102.750 E0.01995
G1 X114.462 Y102.360 E0.02081
G1 X113.919 Y102.070 E0.02081
G1 X113.325 Y101.890 E0.02101
G1 X113.002 Y101.864 E0.01099
G1 X113.011 Y101.630 E0.00794
G1 X140.259 Y101.630 E0.92230
G1 X140.259 Y108.370 E0.22813
G1 X125.060 Y108.370 E0.51446
M204 S1000
G1 X125.000 Y108.777 F10800.000
M204 S800
G1 F2144
G1 X109.328 Y108.777 E0.53046
G1 X109.328 Y101.223 E0.25572
G1 X140.666 Y101.223 E1.06073
G1 X140.666 Y108.777 E0.25569
G1 X125.060 Y108.777 E0.52824
M204 S1000
G1 X124.751 Y108.465 F10800.000
G1 E-0.80000 F2100.00000
G1 Z1.000 F10800.000
G1 X114.369 Y107.884
G1 Z0.400
G1 E0.80000 F2100.00000
G1 F2144
G1 X114.040 Y108.104 E0.00296
G1 X113.797 Y108.144 E0.00185
G1 X111.653 Y108.144 F10800.000
G1 F2144
G1 X111.398 Y108.104 E0.00181
G1 X111.069 Y107.884 E0.00276
G1 X110.677 Y107.488 F10800.000
M204 S2000
G1 F2144
G1 X109.917 Y108.248 E0.04363
M204 S1000
G1 X110.181 Y107.155 F10800.000
G1 F2144
G1 X109.939 Y106.913 E0.00289
G1 X109.779 Y106.180 F10800.000
G1 F2144
G1 X109.751 Y105.988 E0.00696
G1
G1 X109.674 Y105.388 E0.01600
G1
G1 X109.640 Y104.960 E0.00769
G1
G1 X109.657 Y104.758 E0.00420
G1
G1 X109.674 Y104.556 E0.00478
G1
G1 X109.693 Y104.335 E0.00597
G1
G1 X109.722 Y104.142 E0.00581
G1
G1 X109.750 Y103.949 E0.00639
G1
G1 X109.779 Y103.757 E0.00698
G1 X109.939 Y103.023 F10800.000
G1 F2144
G1 X110.181 Y102.781 E0.00289
G1 X109.858 Y102.361 F10800.000
M204 S2000
G1 F2144
G1 X110.467 Y101.752 E0.03501
M204 S1000
G1 X111.069 Y102.052 F10800.000
G1 F2144
G1 X111.233 Y101.943 E0.00132
G1
G1 X111.397 Y101.833 E0.00175
G1 X112.623 Y102.042 F10800.000
G1 F2144
G1 X112.670 Y101.992 E0.00056
G1
G1 X112.689 Y101.974 E0.00029
G1
G1 X112.707 Y101.957 E0.00037
G1
G1 X112.704 Y101.426 E0.00940
G1 X114.041 Y101.833 F10800.000
G1 F2144
G1 X114.369 Y102.052 E0.00264
G1 X115.407 Y101.752 F10800.000
M204 S2000
G1 F2144
G1 X114.864 Y102.295 E0.02641
G1 X115.179 Y102.564 E0.01424
G1 X115.808 Y101.935 E0.03058
G1 X116.393 Y101.935 E0.02008
G1 X115.443 Y102.885 E0.04618
