; generated by PrusaSlicer 2.1.1+win64 on 2020-03-04 at 22:54:30 UTC

; 

; external perimeters extrusion width = 0.45mm
; perimeters extrusion width = 0.45mm
; infill extrusion width = 0.45mm
; solid infill extrusion width = 0.45mm
; top infill extrusion width = 0.40mm
; support material extrusion width = 0.35mm
; first layer extrusion width = 0.42mm

M73 P0 R33
M201 X9000 Y9000 Z500 E10000 ; sets maximum accelerations, mm/sec^2
M203 X500 Y500 Z12 E120 ; sets maximum feedrates, mm/sec
M204 P2000 R1500 T2000 ; sets acceleration (P, T) and retract acceleration (R), mm/sec^2
M205 X10.00 Y10.00 Z0.20 E2.50 ; sets the jerk limits, mm/sec
M205 S0 T0 ; sets the minimum extruding and travel feed rate, mm/sec
M107
M862.3 P "MK2S" ; printer model check
M862.1 P0.4 ; nozzle diameter check
M115 U3.2.3 ; tell printer latest fw version
G90 ; use absolute coordinates
M83 ; extruder relative mode
M204 S2000 T1500 ; MK2 firmware only supports the old M204 format
M104 S215 ; set extruder temp
M140 S60 ; set bed temp
M190 S60 ; wait for bed temp
M109 S215 ; wait for extruder temp
G28 W ; home all without mesh bed level
G80 ; mesh bed leveling
G1 Y-3.0 F1000.0 ; go outside print area
G92 E0.0
G1 X60.0 E9.0  F1000.0 ; intro line
M73 P0 R33
G1 X100.0 E12.5 F1000.0 ; intro line
G92 E0.0
G21 ; set units to millimeters
G90 ; use absolute coordinates
M83 ; use relative distances for extrusion
M900 K30 ; Filament gcode
;BEFORE_LAYER_CHANGE
G92 E0.0
;0.2


G1 E-0.80000 F2100.00000
G1 Z0.600 F10800.000
;AFTER_LAYER_CHANGE
;0.2
G1 X131.345 Y97.448
G1 Z0.200
G1 E0.80000 F2100.00000
M204 S1000
G1 F1200
G1 X132.065 Y96.727 E0.03195
G1 X131.841 Y98.018 E0.04107
G1 X131.629 Y98.230 E0.00940
G1 X129.422 Y100.437 F10800.000
G1 F1200
G1 X129.945 Y99.914 E0.02322
G1 X131.646 Y99.153 E0.05840
G1 X131.619 Y99.306 E0.00489
G1 X129.955 Y100.971 E0.07379
G1 X128.326 Y103.666 F10800.000
G1 F1200
G1 X127.922 Y104.070 E0.01791
G1 X127.862 Y104.230 E0.00536
G1 X127.623 Y105.130 E0.02919
G1 X127.567 Y105.492 E0.01149
G1 X127.632 Y105.427 E0.00289
G1 X127.532 Y106.064 E0.02021
G1 X127.502 Y106.624 E0.01759
G1 X127.447 Y106.679 E0.00244
G1 X127.388 Y107.804 E0.03532
G1 X127.484 Y107.708 E0.00424
G1 X127.484 Y108.774 E0.03344
G1 X127.440 Y108.818 E0.00193
G1 X127.441 Y109.884 E0.03341
G1 X127.484 Y109.841 E0.00189
G1 X127.484 Y110.908 E0.03344
G1 X127.441 Y110.950 E0.00189
G1 X127.441 Y112.017 E0.03344
G1 X127.484 Y111.974 E0.00189
G1 X127.484 Y113.041 E0.03344
G1 X127.441 Y113.083 E0.00189
G1 X127.441 Y114.150 E0.03344
G1 X127.484 Y114.107 E0.00189
G1 X127.484 Y115.174 E0.03344
G1 X127.441 Y115.216 E0.00189
G1 X127.441 Y116.283 E0.03344
G1 X127.484 Y116.240 E0.00189
G1 X127.484 Y117.307 E0.03344
G1 X127.441 Y117.350 E0.00189
G1 X127.441 Y118.416 E0.03344
G1 X127.484 Y118.373 E0.00189
G1 X127.484 Y119.440 E0.03344
G1 X127.441 Y119.483 E0.00189
G1 X127.441 Y120.549 E0.03344
G1 X127.484 Y120.506 E0.00189
G1 X127.484 Y121.573 E0.03344
G1 X127.271 Y121.785 E0.00942
G1 X122.739 Y123.118 F10800.000
G1 F1200
G1 X123.084 Y122.773 E0.01530
G1 X124.150 Y122.773 E0.03344
G1 X123.392 Y123.532 E0.03363
G1 X123.925 Y124.065 E0.02365
G1 X125.217 Y122.773 E0.05728
G1 X126.283 Y122.773 E0.03344
G1 X124.458 Y124.598 E0.08092
G1 X124.992 Y125.132 E0.02365
G1 X127.484 Y122.639 E0.11050
G1 X127.484 Y123.706 E0.03344
G1 X125.525 Y125.665 E0.08686
G1 X126.058 Y126.198 E0.02365
G1 X127.484 Y124.773 E0.06321
G1 X127.484 Y125.465 E0.02171
G1 X127.671 Y125.652 E0.00829
G1 X126.592 Y126.731 E0.04786
G1 X127.125 Y127.265 E0.02365
G1 X128.616 Y125.773 E0.06613
G1 X129.683 Y125.773 E0.03344
G1 X127.538 Y127.918 E0.09510
G1 E-0.80000 F2100.00000
G1 Z0.800 F10800.000
G1 X140.431 Y131.023
G1 Z0.200
G1 E0.80000 F2100.00000
G1 F1200
G1 X145.681 Y125.773 E0.23278
G1 X144.614 Y125.773 E0.03344
G1 X140.018 Y130.370 E0.20381
G1 X139.485 Y129.836 E0.02365
G1 X143.852 Y125.470 E0.19363
G1 X143.847 Y124.407 E0.03330
G1 X138.951 Y129.303 E0.21708
G1 X138.418 Y128.770 E0.02365
G1 X143.847 Y123.341 E0.24073
G1 X143.847 Y122.275 E0.03343
G1 X137.885 Y128.237 E0.26436
G1 X137.788 Y128.140 E0.00429
G1 X134.525 Y131.402 E0.14467
G1 X134.089 Y130.966 E0.01936
G1 X143.847 Y121.208 E0.43268
G1 X143.847 Y120.142 E0.03344
G1 X133.556 Y130.433 E0.45632
G1 X133.022 Y129.899 E0.02365
G1 X143.847 Y119.075 E0.47997
G1 X143.847 Y118.009 E0.03344
G1 X130.858 Y130.998 E0.57595
G1 X130.324 Y130.464 E0.02365
G1 X143.847 Y116.942 E0.59960
G1 X143.847 Y115.875 E0.03344
G1 X129.791 Y129.931 E0.62325
G1 X129.258 Y129.398 E0.02365
G1 X143.847 Y114.809 E0.64689
G1 X143.847 Y113.742 E0.03344
G1 X128.725 Y128.864 E0.67054
G1 X128.191 Y128.331 E0.02365
G1 X143.847 Y112.676 E0.69418
G1 X143.847 Y111.609 E0.03344
G1 X130.421 Y125.035 E0.59531
G1 X130.421 Y123.968 E0.03344
G1 X143.847 Y110.543 E0.59531
G1 X143.847 Y109.476 E0.03344
G1 X130.421 Y122.902 E0.59531
G1 X130.421 Y121.835 E0.03344
G1 X143.847 Y108.410 E0.59531
G1 X143.847 Y107.343 E0.03344
G1 X130.421 Y120.769 E0.59531
G1 X130.421 Y119.702 E0.03344
G1 X143.813 Y106.310 E0.59382
G1 X143.725 Y105.748 E0.01785
G1 X143.638 Y105.419 E0.01067
G1 X130.421 Y118.635 E0.58605
G1 X130.421 Y117.569 E0.03344
G1 X143.368 Y104.623 E0.57406
G1 X143.009 Y103.914 E0.02489
G1 X130.421 Y116.502 E0.55817
G1 X130.421 Y115.436 E0.03344
G1 X142.578 Y103.279 E0.53906
G1 X142.335 Y102.969 E0.01236
G1 X142.084 Y102.707 E0.01137
G1 X130.421 Y114.369 E0.51715
G1 X130.421 Y113.303 E0.03344
G1 X141.529 Y102.195 E0.49254
G1 X141.404 Y102.088 E0.00516
G1 X140.914 Y101.744 E0.01878
G1 X130.421 Y112.236 E0.46526
G1 X130.421 Y111.170 E0.03344
G1 X140.231 Y101.360 E0.43498
G1 X139.709 Y101.126 E0.01794
G1 X139.477 Y101.048 E0.00768
G1 X130.421 Y110.103 E0.40153
G1 X130.421 Y109.037 E0.03344
G1 X138.647 Y100.811 E0.36473
G1 X138.583 Y100.796 E0.00204
G1 X136.157 Y103.223 E0.10760
G1 X135.663 Y102.729 E0.02191
G1 X130.418 Y107.974 E0.23256
G1 X130.419 Y106.906 E0.03348
G1 X135.129 Y102.196 E0.20886
G1 X134.596 Y101.662 E0.02365
G1 X130.555 Y105.703 E0.17917
G1 X130.703 Y105.147 E0.01805
G1 X130.923 Y104.563 E0.01957
G1 X131.227 Y103.964 E0.02105
G1 X134.001 Y101.190 E0.12300
G1 X134.898 Y100.845 F10800.000
G1 F1200
G1 X134.580 Y101.162 E0.01147
G1 X134.938 Y101.521 E0.01295
G1 X135.680 Y100.780 E0.02677
G1 X135.901 Y100.729 E0.00581
G1 X136.525 Y100.652 E0.01603
G1 X135.297 Y101.879 E0.04433
G1 X135.656 Y102.238 E0.01295
G1 X137.265 Y100.629 E0.05811
G1 X137.605 Y100.637 E0.00869
G1 X137.936 Y100.674 E0.00851
G1 X135.916 Y102.694 E0.07293
G1 X137.945 Y99.380 F10800.000
G1 F1200
G1 X139.336 Y97.989 E0.06166
G1 X139.501 Y97.584 E0.01373
G1 X139.560 Y97.348 E0.00761
G1 X139.596 Y97.108 E0.00761
G1 X139.597 Y96.661 E0.01403
G1 X136.929 Y99.329 E0.11832
G1 X136.652 Y99.292 E0.00878
G1 X136.416 Y99.233 E0.00761
G1 X136.088 Y99.104 E0.01106
G1 X139.372 Y95.820 E0.14562
G1 X139.191 Y95.492 E0.01175
G1 X138.943 Y95.183 E0.01243
G1 X135.451 Y98.674 E0.15483
G1 X135.222 Y98.435 E0.01038
G1 X134.981 Y98.078 E0.01351
G1 X138.346 Y94.712 E0.14924
G1 X138.081 Y94.581 E0.00929
G1 X137.852 Y94.499 E0.00761
G1 X137.560 Y94.432 E0.00939
G1 X134.700 Y97.292 E0.12683
G1 X134.661 Y96.866 E0.01342
G1 X134.673 Y96.623 E0.00761
G1 X134.764 Y96.162 E0.01476
G1 X136.019 Y94.906 E0.05567
G1 E-0.80000 F2100.00000
G1 Z0.800 F10800.000
G1 X142.448 Y99.143
G1 Z0.200
G1 E0.80000 F2100.00000
G1 F1200
G1 X142.983 Y98.607 E0.02375
G1 X142.846 Y99.811 F10800.000
G1 F1200
G1 X143.059 Y99.598 E0.00945
G1 X143.227 Y99.716 E0.00642
G1 X143.648 Y100.077 E0.01738
G1 X143.565 Y100.159 E0.00365
G1 X143.935 Y100.476 E0.01529
G1 X144.122 Y100.669 E0.00840
G1 X144.196 Y100.595 E0.00329
G1 X144.585 Y101.001 E0.01763
G1 X144.704 Y101.153 E0.00607
G1 X144.637 Y101.220 E0.00296
G1 X145.106 Y101.818 E0.02382
G1 X145.171 Y101.752 E0.00290
G1 X145.585 Y102.405 E0.02423
G1 X145.525 Y102.466 E0.00267
G1 X145.645 Y102.657 E0.00709
G1 X145.896 Y103.161 E0.01764
G1 X145.951 Y103.106 E0.00243
G1 X146.077 Y103.358 E0.00885
G1 X146.266 Y103.857 E0.01673
G1 X146.215 Y103.908 E0.00225
G1 X146.362 Y104.296 E0.01302
G1 X146.474 Y104.715 E0.01360
G1 X146.522 Y104.667 E0.00213
G1 X146.746 Y105.511 E0.02735
G1 X146.663 Y105.594 E0.00368
G1 X146.736 Y106.064 E0.01491
G1 X146.764 Y106.559 E0.01557
G1 X146.828 Y106.495 E0.00288
G1 X146.826 Y107.563 E0.03351
G1 X146.785 Y107.605 E0.00185
G1 X146.785 Y108.671 E0.03344
G1 X146.826 Y108.630 E0.00185
G1 X146.826 Y109.696 E0.03344
G1 X146.785 Y109.738 E0.00185
G1 X146.785 Y110.805 E0.03344
G1 X146.826 Y110.763 E0.00185
G1 X146.826 Y111.829 E0.03344
G1 X146.785 Y111.871 E0.00185
G1 X146.785 Y112.938 E0.03344
G1 X146.826 Y112.896 E0.00185
G1 X146.826 Y113.962 E0.03344
G1 X146.785 Y114.004 E0.00185
G1 X146.785 Y115.071 E0.03344
G1 X146.826 Y115.029 E0.00185
G1 X146.826 Y116.096 E0.03344
G1 X146.785 Y116.137 E0.00185
G1 X146.785 Y117.204 E0.03344
G1 X146.826 Y117.162 E0.00185
G1 X146.826 Y118.229 E0.03344
G1 X146.785 Y118.270 E0.00185
G1 X146.785 Y119.337 E0.03344
G1 X146.826 Y119.295 E0.00185
G1 X146.826 Y120.362 E0.03344
G1 X146.785 Y120.403 E0.00185
G1 X146.785 Y121.470 E0.03344
G1 X146.826 Y121.428 E0.00185
G1 X146.826 Y122.364 E0.02935
G1 X146.825 Y122.496 E0.00414
G1 X146.785 Y122.536 E0.00178
G1 X146.785 Y123.603 E0.03344
G1 X146.827 Y123.560 E0.00189
G1 X146.827 Y124.627 E0.03344
G1 X146.615 Y124.839 E0.00942
G1 X144.960 Y124.660 F10800.000
G1 F1200
G1 X144.960 Y106.966 E0.55477
G1 X144.930 Y106.248 E0.02255
G1 X144.816 Y105.519 E0.02315
G1 X144.627 Y104.806 E0.02309
G1 X144.366 Y104.116 E0.02315
G1 X144.035 Y103.453 E0.02322
G1 X143.637 Y102.826 E0.02330
G1 X143.177 Y102.238 E0.02339
G1 X142.659 Y101.697 E0.02349
G1 X142.088 Y101.208 E0.02359
G1 X141.469 Y100.774 E0.02368
G1 X140.810 Y100.400 E0.02377
G1 X140.115 Y100.089 E0.02386
G1 X139.215 Y99.784 E0.02980
G1 X139.410 Y99.639 E0.00762
G1 X139.671 Y99.403 E0.01104
G1 X139.908 Y99.142 E0.01104
G1 X140.117 Y98.859 E0.01104
G1 X140.298 Y98.557 E0.01104
G1 X140.449 Y98.239 E0.01104
G1 X140.567 Y97.907 E0.01104
G1 X140.653 Y97.566 E0.01104
G1 X140.705 Y97.218 E0.01104
G1 X140.722 Y96.866 E0.01104
G1 X140.705 Y96.514 E0.01104
G1 X140.653 Y96.166 E0.01104
G1 X140.567 Y95.824 E0.01104
G1 X140.449 Y95.493 E0.01104
G1 X140.298 Y95.175 E0.01104
G1 X140.117 Y94.873 E0.01104
G1 X139.908 Y94.590 E0.01104
G1 X139.671 Y94.329 E0.01104
G1 X139.410 Y94.092 E0.01104
G1 X139.127 Y93.883 E0.01104
G1 X138.825 Y93.702 E0.01104
G1 X138.507 Y93.551 E0.01104
G1 X138.176 Y93.433 E0.01104
G1 X137.834 Y93.347 E0.01104
G1 X137.484 Y93.295 E0.01111
G1 X137.105 Y93.280 E0.01186
G1 X136.783 Y93.295 E0.01014
G1 X136.434 Y93.347 E0.01104
G1 X136.093 Y93.433 E0.01104
G1 X135.761 Y93.551 E0.01104
G1 X135.443 Y93.702 E0.01104
G1 X135.141 Y93.883 E0.01104
G1 X134.858 Y94.092 E0.01104
G1 X134.597 Y94.329 E0.01104
G1 X134.361 Y94.590 E0.01104
G1 X134.151 Y94.873 E0.01104
G1 X133.970 Y95.175 E0.01104
G1 X133.820 Y95.493 E0.01104
G1 X133.701 Y95.824 E0.01104
G1 X133.615 Y96.166 E0.01104
G1 X133.564 Y96.514 E0.01104
G1 X133.546 Y96.866 E0.01104
G1 X133.564 Y97.218 E0.01104
G1 X133.615 Y97.566 E0.01104
G1 X133.701 Y97.907 E0.01104
G1 X133.820 Y98.239 E0.01104
G1 X133.970 Y98.557 E0.01104
G1 X134.151 Y98.859 E0.01104
G1 X134.361 Y99.142 E0.01104
G1 X134.597 Y99.403 E0.01104
G1 X134.858 Y99.639 E0.01104
G1 X135.053 Y99.784 E0.00762
G1 X134.153 Y100.089 E0.02980
G1 X133.458 Y100.400 E0.02386
G1 X132.799 Y100.774 E0.02377
G1 X132.181 Y101.208 E0.02368
G1 X131.610 Y101.697 E0.02359
G1 X131.091 Y102.238 E0.02349
G1 X130.631 Y102.826 E0.02339
G1 X130.233 Y103.453 E0.02330
G1 X129.902 Y104.116 E0.02322
G1 X129.641 Y104.806 E0.02315
G1 X129.453 Y105.519 E0.02309
G1 X129.339 Y106.245 E0.02306
G1 X129.301 Y106.964 E0.02256
G1 X129.308 Y124.660 E0.55486
G1 X128.597 Y124.660 E0.02229
G1 X128.597 Y106.994 E0.55391
G1 X128.639 Y106.192 E0.02517
G1 X128.761 Y105.414 E0.02472
G1 X128.963 Y104.649 E0.02479
G1 X129.244 Y103.907 E0.02488
G1 X129.600 Y103.194 E0.02501
G1 X130.029 Y102.516 E0.02515
G1 X130.527 Y101.881 E0.02530
G1 X131.089 Y101.294 E0.02547
G1 X131.710 Y100.762 E0.02564
G1 X132.606 Y100.133 E0.03433
G1 X134.641 Y88.400 E0.37336
G1 X134.819 Y87.464 E0.02987
G1 X135.283 Y86.719 E0.02754
G1 X135.790 Y86.102 E0.02503
G1 X136.279 Y85.686 E0.02012
G1 X136.722 Y85.463 E0.01555
G1 X137.151 Y85.404 E0.01360
G1 X137.544 Y85.462 E0.01245
G1 X137.990 Y85.686 E0.01564
G1 X138.478 Y86.102 E0.02012
G1 X138.985 Y86.719 E0.02503
G1 X139.449 Y87.464 E0.02754
G1 X139.627 Y88.400 E0.02987
G1 X141.662 Y100.133 E0.37336
G1 X142.558 Y100.762 E0.03433
G1 X143.179 Y101.294 E0.02564
G1 X143.741 Y101.881 E0.02547
G1 X144.239 Y102.516 E0.02531
G1 X144.668 Y103.194 E0.02515
G1 X145.025 Y103.907 E0.02501
G1 X145.305 Y104.649 E0.02488
G1 X145.508 Y105.414 E0.02479
G1 X145.630 Y106.192 E0.02472
G1 X145.671 Y106.994 E0.02517
G1 X145.671 Y124.660 E0.55391
G1 X145.020 Y124.660 E0.02042
G1 X144.583 Y125.037 F10800.000
G1 F1200
G1 X144.583 Y106.974 E0.56635
G1 X144.554 Y106.285 E0.02163
G1 X144.446 Y105.596 E0.02187
G1 X144.268 Y104.922 E0.02188
G1 X144.020 Y104.267 E0.02194
G1 X143.706 Y103.639 E0.02202
G1 X143.329 Y103.043 E0.02211
G1 X142.892 Y102.486 E0.02221
G1 X142.399 Y101.972 E0.02232
G1 X141.856 Y101.506 E0.02243
G1 X141.268 Y101.093 E0.02254
G1 X140.639 Y100.737 E0.02264
G1 X139.978 Y100.440 E0.02273
G1 X139.289 Y100.207 E0.02281
G1 X138.579 Y100.039 E0.02287
G1 X138.366 Y100.009 E0.00674
G1 X138.340 Y99.842 E0.00528
G1 X138.647 Y99.697 E0.01065
G1 X138.918 Y99.535 E0.00988
G1 X139.171 Y99.347 E0.00988
G1 X139.404 Y99.136 E0.00988
G1 X139.616 Y98.902 E0.00988
G1 X139.803 Y98.649 E0.00988
G1 X139.965 Y98.379 E0.00988
G1 X140.100 Y98.094 E0.00988
G1 X140.206 Y97.798 E0.00988
G1 X140.283 Y97.492 E0.00988
G1 X140.329 Y97.181 E0.00988
G1 X140.344 Y96.866 E0.00988
G1 X140.329 Y96.551 E0.00988
G1 X140.283 Y96.240 E0.00988
G1 X140.206 Y95.934 E0.00988
G1 X140.100 Y95.637 E0.00988
G1 X139.965 Y95.353 E0.00988
G1 X139.803 Y95.082 E0.00988
G1 X139.616 Y94.829 E0.00988
G1 X139.404 Y94.596 E0.00988
G1 X139.171 Y94.384 E0.00988
G1 X138.918 Y94.197 E0.00988
G1 X138.647 Y94.035 E0.00988
G1 X138.363 Y93.900 E0.00988
G1 X138.066 Y93.794 E0.00988
G1 X137.760 Y93.717 E0.00988
G1 X137.448 Y93.671 E0.00990
G1 X137.107 Y93.657 E0.01070
G1 X136.820 Y93.671 E0.00902
G1 X136.508 Y93.717 E0.00988
G1 X136.202 Y93.794 E0.00988
G1 X135.906 Y93.900 E0.00988
G1 X135.621 Y94.035 E0.00988
G1 X135.351 Y94.197 E0.00988
G1 X135.098 Y94.384 E0.00988
G1 X134.864 Y94.596 E0.00988
G1 X134.653 Y94.829 E0.00988
G1 X134.465 Y95.082 E0.00988
G1 X134.303 Y95.353 E0.00988
G1 X134.168 Y95.637 E0.00988
G1 X134.062 Y95.934 E0.00988
G1 X133.986 Y96.240 E0.00988
G1 X133.939 Y96.551 E0.00988
G1 X133.924 Y96.866 E0.00988
G1 X133.939 Y97.181 E0.00988
G1 X133.986 Y97.492 E0.00988
G1 X134.062 Y97.798 E0.00988
G1 X134.168 Y98.094 E0.00988
G1 X134.303 Y98.379 E0.00988
G1 X134.465 Y98.649 E0.00988
G1 X134.653 Y98.902 E0.00988
G1 X134.864 Y99.136 E0.00988
G1 X135.098 Y99.347 E0.00988
G1 X135.351 Y99.535 E0.00988
G1 X135.621 Y99.697 E0.00988
G1 X135.928 Y99.842 E0.01065
G1 X135.903 Y100.009 E0.00528
G1 X135.690 Y100.039 E0.00674
G1 X134.980 Y100.207 E0.02287
G1 X134.291 Y100.440 E0.02281
G1 X133.629 Y100.737 E0.02273
G1 X133.001 Y101.093 E0.02264
G1 X132.412 Y101.506 E0.02254
G1 X131.869 Y101.972 E0.02243
G1 X131.377 Y102.486 E0.02232
G1 X130.940 Y103.043 E0.02221
G1 X130.562 Y103.639 E0.02211
G1 X130.248 Y104.267 E0.02202
G1 X130.001 Y104.922 E0.02194
G1 X129.822 Y105.596 E0.02188
G1 X129.714 Y106.284 E0.02183
G1 X129.679 Y106.973 E0.02164
G1 X129.685 Y125.037 E0.56638
G1 X128.220 Y125.037 E0.04594
G1 X128.220 Y106.984 E0.56604
G1 X128.263 Y106.153 E0.02609
G1 X128.391 Y105.336 E0.02595
G1 X128.603 Y104.534 E0.02601
G1 X128.898 Y103.756 E0.02610
G1 X129.271 Y103.008 E0.02621
G1 X129.721 Y102.298 E0.02634
G1 X130.242 Y101.633 E0.02648
G1 X130.830 Y101.020 E0.02664
G1 X131.478 Y100.464 E0.02679
G1 X132.261 Y99.914 E0.02999
G1 X134.270 Y88.333 E0.36855
G1 X134.462 Y87.325 E0.03217
G1 X134.976 Y86.498 E0.03052
G1 X135.520 Y85.837 E0.02686
G1 X136.069 Y85.370 E0.02259
G1 X136.608 Y85.098 E0.01894
