; generated by Slic3r Prusa Edition 1.42.0-alpha3+ on 2019-01-22 at 09:26:29

; 

; external perimeters extrusion width = 0.60mm
; perimeters extrusion width = 0.43mm
; infill extrusion width = 0.45mm
; solid infill extrusion width = 0.70mm
; top infill extrusion width = 0.43mm
; support material extrusion width = 0.35mm
; first layer extrusion width = 0.42mm

M201 X9000 Y9000 Z500 E10000 ; sets maximum accelerations, mm/sec^2
M203 X500 Y500 Z12 E120 ; sets maximum feedrates, mm/sec
M204 P2000 R1500 T2000 ; sets acceleration (P, T) and retract acceleration (R), mm/sec^2
M205 X10.00 Y10.00 Z0.20 E2.50 ; sets the jerk limits, mm/sec
M205 S0 T0 ; sets the minimum extruding and travel feed rate, mm/sec
M107
M115 U3.1.0 ; tell printer latest fw version
M83  ; extruder relative mode
M204 S2000 T1500 ; MK2 firmware only supports the old M204 format
M104 S215 ; set extruder temp
M140 S60 ; set bed temp
M190 S60 ; wait for bed temp
M109 S215 ; wait for extruder temp
G28 W ; home all without mesh bed level
G80 ; mesh bed leveling
G1 Y-3.0 F1000.0 ; go outside print area
G92 E0.0
G1 X60.0 E9.0  F1000.0 ; intro line
G1 X100.0 E12.5  F1000.0 ; intro line
G92 E0.0
M900 K30; Filament gcode
G21 ; set units to millimeters
G90 ; use absolute coordinates
M83 ; use relative distances for extrusion
;BEFORE_LAYER_CHANGE
G92 E0.0
;0.2


G1 E-0.80000 F2100.00000
G1 Z0.600 F10800.000
;AFTER_LAYER_CHANGE
;0.2
G1 X85.119 Y85.918
G1 Z0.200
G1 E0.80000 F2100.00000
M204 S1000
G1 F1200
G1 X85.737 Y85.278 E0.02788
G1 X90.532 Y82.846 E0.16859
G1 X90.999 Y82.679 E0.01555
G1 X91.488 Y82.622 E0.01544
G1 X158.965 Y82.615 E2.11568
G1 X159.606 Y82.712 E0.02032
G1 X160.193 Y82.994 E0.02044
G1 X160.671 Y83.437 E0.02044
G1 X160.998 Y84.001 E0.02044
G1 X163.560 Y92.936 E0.29143
G1 X163.764 Y94.816 E0.05930
G1 X163.764 Y115.117 E0.63652
G1 X163.614 Y116.732 E0.05085
G1 X161.057 Y127.673 E0.35230
G1 X160.630 Y128.457 E0.02799
G1 X159.926 Y129.006 E0.02799
G1 X159.456 Y129.174 E0.01567
G1 X158.961 Y129.231 E0.01561
G1 X119.392 Y129.231 E1.24067
G1 X93.466 Y129.041 E0.81290
G1 X92.958 Y128.910 E0.01646
G1 X92.496 Y128.661 E0.01646
G1 X89.154 Y126.000 E0.13393
G1 X85.005 Y118.906 E0.25769
G1 X84.840 Y118.446 E0.01532
G1 X84.782 Y117.957 E0.01544
G1 X84.807 Y86.755 E0.97833
G1 X85.098 Y85.974 E0.02611
; PURGING FINISHED
G1 F8640
G1 X85.737 Y85.278 E-0.21810
G1 X87.830 Y84.217 E-0.54190
G1 E-0.04000 F2100.00000
G1 Z0.800 F10800.000
G1 X86.970 Y117.943
G1 Z0.200
G1 E0.80000 F2100.00000
G1 F1200
G1 X86.970 Y107.325 E0.33289
G1 X87.725 Y107.325 E0.02365
G1 X87.725 Y117.773 E0.32757
G1 X88.479 Y117.773 E0.02365
G1 X88.479 Y107.325 E0.32757
G1 X89.233 Y107.325 E0.02365
G1 X89.233 Y120.048 E0.39890
G1 X89.987 Y120.048 E0.02365
G1 X89.987 Y107.325 E0.39890
G1 X90.741 Y107.325 E0.02365
G1 X90.741 Y120.048 E0.39890
G1 X90.834 Y120.048 E0.00290
G1 X90.834 Y124.597 E0.14266
G1 X91.495 Y124.597 E0.02074
G1 X91.495 Y105.051 E0.61288
G1 X92.249 Y105.051 E0.02365
G1 X92.249 Y124.597 E0.61288
G1 X93.004 Y124.597 E0.02365
G1 X93.004 Y105.051 E0.61288
G1 X93.758 Y105.051 E0.02365
G1 X93.758 Y126.872 E0.68421
G1 X94.512 Y126.872 E0.02365
G1 X94.512 Y105.051 E0.68421
G1 X95.266 Y105.051 E0.02365
G1 X95.266 Y126.872 E0.68421
G1 X96.020 Y126.872 E0.02365
G1 X96.020 Y105.051 E0.68421
G1 X96.774 Y105.051 E0.02365
G1 X96.774 Y126.872 E0.68421
G1 X97.529 Y126.872 E0.02365
G1 X97.529 Y105.051 E0.68421
G1 X98.283 Y105.051 E0.02365
G1 X98.283 Y126.872 E0.68421
G1 X99.037 Y126.872 E0.02365
G1 X99.037 Y105.051 E0.68421
G1 X99.791 Y105.051 E0.02365
G1 X99.791 Y126.872 E0.68421
G1 X100.545 Y126.872 E0.02365
G1 X100.545 Y105.051 E0.68421
G1 X101.299 Y105.051 E0.02365
G1 X101.299 Y126.872 E0.68421
G1 X102.054 Y126.872 E0.02365
G1 X102.054 Y105.051 E0.68421
G1 X102.808 Y105.051 E0.02365
G1 X102.808 Y126.872 E0.68421
G1 X103.562 Y126.872 E0.02365
G1 X103.562 Y105.051 E0.68421
G1 X104.316 Y105.051 E0.02365
G1 X104.316 Y126.872 E0.68421
G1 X105.070 Y126.872 E0.02365
G1 X105.070 Y105.051 E0.68421
G1 X105.824 Y105.051 E0.02365
G1 X105.824 Y126.872 E0.68421
G1 X106.578 Y126.872 E0.02365
G1 X106.578 Y105.051 E0.68421
G1 X107.333 Y105.051 E0.02365
G1 X107.333 Y126.872 E0.68421
G1 X108.087 Y126.872 E0.02365
G1 X108.087 Y105.051 E0.68421
G1 X108.841 Y105.051 E0.02365
G1 X108.841 Y126.872 E0.68421
G1 X109.595 Y126.872 E0.02365
G1 X109.595 Y105.051 E0.68421
G1 X110.349 Y105.051 E0.02365
G1 X110.349 Y126.872 E0.68421
G1 X111.103 Y126.872 E0.02365
G1 X111.103 Y105.051 E0.68421
G1 X111.858 Y105.051 E0.02365
G1 X111.858 Y126.872 E0.68421
G1 X112.612 Y126.872 E0.02365
G1 X112.612 Y105.051 E0.68421
G1 X113.366 Y105.051 E0.02365
G1 X113.366 Y126.872 E0.68421
G1 X114.120 Y126.872 E0.02365
G1 X114.120 Y105.051 E0.68421
G1 X114.874 Y105.051 E0.02365
G1 X114.874 Y107.505 E0.07695
G1 X115.628 Y107.579 E0.02376
G1 X115.628 Y105.051 E0.07928
G1 X116.383 Y105.051 E0.02365
G1 X116.383 Y107.655 E0.08166
G1 X117.137 Y107.880 E0.02468
G1 X117.137 Y105.049 E0.08876
G1 X117.891 Y105.047 E0.02365
G1 X117.891 Y108.126 E0.09654
G1 X118.645 Y108.529 E0.02681
G1 X118.645 Y105.045 E0.10925
G1 X119.399 Y105.043 E0.02365
G1 X119.399 Y109.229 E0.13125
G1 F8640
G1 X119.399 Y105.937 E-0.76000
G1 E-0.04000 F2100.00000
G1 Z0.800 F10800.000
G1 X117.137 Y117.121
G1 Z0.200
G1 E0.80000 F2100.00000
G1 F1200
G1 X117.137 Y113.801 E0.10410
G1 X116.996 Y113.238 E0.01820
G1 X116.781 Y112.637 E0.02000
G1 X116.508 Y112.060 E0.02000
G1 X116.383 Y111.851 E0.00766
G1 X116.383 Y118.398 E0.20527
G1 X116.180 Y118.735 E0.01234
G1 X115.800 Y119.248 E0.02000
G1 X115.628 Y119.437 E0.00802
G1 X115.628 Y110.811 E0.27046
G1 X115.372 Y110.528 E0.01198
G1 X114.874 Y110.081 E0.02097
G1 X114.874 Y120.643 E0.33116
G1 X114.368 Y122.313 E0.05472
G1 X114.699 Y122.717 E0.01638
G1 X114.874 Y122.700 E0.00552
G1 X114.874 Y126.872 E0.13083
G1 X115.628 Y126.872 E0.02365
G1 X115.628 Y122.626 E0.13316
G1 X116.383 Y122.550 E0.02376
G1 X116.383 Y126.872 E0.13553
G1 X117.137 Y126.872 E0.02365
G1 X117.137 Y122.325 E0.14259
G1 X117.794 Y122.125 E0.02153
G1 X117.891 Y122.079 E0.00337
G1 X117.891 Y126.872 E0.15030
G1 X118.645 Y126.872 E0.02365
G1 X118.645 Y121.676 E0.16294
G1 X119.109 Y121.428 E0.01648
G1 X119.399 Y121.195 E0.01167
G1 X119.399 Y127.042 E0.18332
G1 F8640
G1 X119.399 Y123.751 E-0.76000
G1 E-0.04000 F2100.00000
G1 Z0.800 F10800.000
G1 X115.728 Y121.535
G1 Z0.200
G1 E0.80000 F2100.00000
G1 F1200
G1 X116.015 Y120.589 E0.03098
G1 X116.133 Y120.482 E0.00503
G1 X116.633 Y119.931 E0.02331
G1 X117.076 Y119.334 E0.02331
G1 X117.458 Y118.696 E0.02331
G1 X117.776 Y118.024 E0.02331
G1 X118.026 Y117.324 E0.02331
G1 X118.207 Y116.602 E0.02331
G1 X118.316 Y115.867 E0.02331
G1 X118.352 Y115.124 E0.02331
G1 X118.316 Y114.381 E0.02333
G1 X118.204 Y113.634 E0.02368
G1 X118.026 Y112.925 E0.02293
G1 X117.776 Y112.225 E0.02331
G1 X117.458 Y111.553 E0.02331
G1 X117.076 Y110.915 E0.02331
G1 X116.633 Y110.318 E0.02331
G1 X116.133 Y109.767 E0.02331
G1 X115.498 Y109.205 E0.02659
G1 X115.498 Y108.647 E0.01749
G1 X116.182 Y108.714 E0.02154
G1 X117.403 Y109.085 E0.04003
G1 X118.529 Y109.687 E0.04003
G1 X119.516 Y110.497 E0.04003
G1 X120.326 Y111.484 E0.04003
G1 X120.928 Y112.610 E0.04003
G1 X121.299 Y113.832 E0.04003
G1 X121.424 Y115.102 E0.04003
G1 X121.299 Y116.373 E0.04003
G1 X120.928 Y117.595 E0.04003
G1 X120.326 Y118.721 E0.04003
G1 X119.516 Y119.708 E0.04003
G1 X118.529 Y120.518 E0.04003
G1 X117.403 Y121.120 E0.04003
G1 X116.182 Y121.490 E0.04003
G1 X115.787 Y121.529 E0.01242
G1 X115.203 Y121.966 F10800.000
G1 F1200
G1 X115.684 Y120.380 E0.05195
G1 X115.866 Y120.215 E0.00772
G1 X116.341 Y119.691 E0.02215
G1 X116.762 Y119.124 E0.02215
G1 X117.125 Y118.518 E0.02215
G1 X117.427 Y117.879 E0.02215
G1 X117.665 Y117.214 E0.02215
G1 X117.837 Y116.529 E0.02215
G1 X117.940 Y115.830 E0.02215
G1 X117.975 Y115.124 E0.02215
G1 X117.940 Y114.419 E0.02216
G1 X117.834 Y113.708 E0.02252
G1 X117.665 Y113.035 E0.02178
G1 X117.427 Y112.369 E0.02215
G1 X117.125 Y111.731 E0.02215
G1 X116.762 Y111.125 E0.02215
G1 X116.341 Y110.557 E0.02215
G1 X115.866 Y110.034 E0.02215
G1 X115.343 Y109.559 E0.02215
G1 X115.121 Y109.395 E0.00867
G1 X115.121 Y108.231 E0.03649
G1 X116.255 Y108.343 E0.03575
G1 X117.548 Y108.735 E0.04236
G1 X118.740 Y109.372 E0.04236
G1 X119.784 Y110.229 E0.04236
G1 X120.641 Y111.273 E0.04236
G1 X121.278 Y112.465 E0.04236
G1 X121.670 Y113.758 E0.04236
G1 X121.803 Y115.102 E0.04236
G1 X121.670 Y116.447 E0.04236
G1 X121.278 Y117.740 E0.04236
G1 X120.641 Y118.931 E0.04236
G1 X119.784 Y119.976 E0.04236
G1 X118.740 Y120.833 E0.04236
G1 X117.548 Y121.470 E0.04236
G1 X116.255 Y121.862 E0.04236
G1 X115.263 Y121.960 E0.03127
G1 X115.445 Y121.647 F10800.000
G1 F8640
G1 X115.684 Y120.380 E-0.37748
G1 X115.866 Y120.215 E-0.05682
G1 X116.341 Y119.691 E-0.16313
G1 X116.760 Y119.126 E-0.16257
G1 E-0.04000 F2100.00000
G1 Z0.800 F10800.000
G1 X116.061 Y120.826
G1 Z0.200
G1 E0.80000 F2100.00000
G1 F1200
G1 X116.372 Y121.137 E0.01383
G1 X116.782 Y121.013 E0.01351
G1 X116.390 Y120.620 E0.01747
G1 X116.644 Y120.339 E0.01193
G1 X117.193 Y120.888 E0.02443
G1 X117.295 Y120.857 E0.00334
G1 X117.557 Y120.717 E0.00937
G1 X116.894 Y120.053 E0.02953
G1 X117.122 Y119.746 E0.01204
G1 X117.906 Y120.530 E0.03491
G1 X118.255 Y120.344 E0.01245
G1 X117.345 Y119.434 E0.04050
G1 X117.546 Y119.099 E0.01228
G1 X118.567 Y120.121 E0.04547
G1 X118.861 Y119.880 E0.01197
G1 X117.741 Y118.759 E0.04988
G1 X117.913 Y118.396 E0.01265
G1 X119.155 Y119.638 E0.05531
G1 X119.315 Y119.507 E0.00652
G1 X119.425 Y119.373 E0.00545
G1 X118.076 Y118.024 E0.06006
G1 X118.217 Y117.629 E0.01318
G1 X119.667 Y119.079 E0.06452
G1 X119.908 Y118.785 E0.01197
G1 X118.344 Y117.220 E0.06963
G1 X118.451 Y116.792 E0.01389
G1 X120.136 Y118.477 E0.07500
G1 X120.322 Y118.129 E0.01245
G1 X118.532 Y116.338 E0.07969
G1 X118.599 Y115.870 E0.01489
G1 X120.509 Y117.780 E0.08501
G1 X120.666 Y117.486 E0.01048
G1 X120.685 Y117.421 E0.00214
G1 X118.624 Y115.360 E0.09176
G1 X118.636 Y115.124 E0.00741
G1 X118.621 Y114.821 E0.00956
G1 X120.810 Y117.010 E0.09745
G1 X120.935 Y116.600 E0.01351
G1 X118.582 Y114.247 E0.10473
G1 X118.487 Y113.617 E0.02005
G1 X121.035 Y116.165 E0.11342
G1 X121.083 Y115.677 E0.01541
G1 X118.313 Y112.908 E0.12329
G1 X118.019 Y112.078 E0.02771
G1 X121.286 Y115.345 E0.14544
G1 X121.281 Y114.805 F10800.000
G1 F1200
G1 X116.699 Y110.222 E0.20397
G1 F8640
G1 X119.026 Y112.550 E-0.76000
G1 E-0.04000 F2100.00000
G1 Z0.800 F10800.000
G1 X115.802 Y108.791
G1 Z0.200
G1 E0.80000 F2100.00000
G1 F1200
G1 X121.033 Y114.022 E0.23284
G1 X121.020 Y113.887 E0.00425
G1 X120.840 Y113.293 E0.01955
G1 X116.721 Y109.173 E0.18336
G1 X117.295 Y109.348 E0.01888
G1 X117.585 Y109.503 E0.01038
G1 X120.861 Y112.779 E0.14581
G1 F8640
G1 X118.534 Y110.451 E-0.76000
G1 E-0.04000 F2100.00000
G1 Z0.800 F10800.000
G1 X119.399 Y106.803
G1 Z0.200
G1 E0.80000 F2100.00000
G1 F1200
G1 X119.399 Y100.956 E0.18332
G1 X119.109 Y101.188 E0.01167
G1 X118.645 Y101.436 E0.01648
G1 X118.645 Y106.633 E0.16294
G1 X117.891 Y106.633 E0.02365
G1 X117.891 Y101.839 E0.15030
G1 X117.794 Y101.886 E0.00337
G1 X117.137 Y102.085 E0.02153
G1 X117.137 Y106.633 E0.14259
G1 X116.383 Y106.633 E0.02365
G1 X116.383 Y102.310 E0.13553
G1 X115.628 Y102.386 E0.02376
G1 X115.628 Y106.633 E0.13316
G1 X114.874 Y106.633 E0.02365
G1 X114.874 Y102.460 E0.13083
G1 X114.699 Y102.478 E0.00552
G1 X114.368 Y102.074 E0.01638
G1 X114.874 Y100.404 E0.05472
G1 X114.874 Y89.842 E0.33116
G1 X115.372 Y90.289 E0.02097
G1 X115.628 Y90.572 E0.01198
G1 X115.628 Y99.198 E0.27046
G1 X115.800 Y99.008 E0.00802
G1 X116.180 Y98.496 E0.02000
G1 X116.383 Y98.158 E0.01234
G1 X116.383 Y91.611 E0.20527
G1 X116.508 Y91.821 E0.00766
G1 X116.781 Y92.397 E0.02000
G1 X116.996 Y92.998 E0.02000
G1 X117.137 Y93.561 E0.01820
G1 X117.137 Y96.881 E0.10410
G1 F8640
G1 X117.137 Y93.590 E-0.76000
G1 E-0.04000 F2100.00000
G1 Z0.800 F10800.000
G1 X119.399 Y88.989
G1 Z0.200
G1 E0.80000 F2100.00000
G1 F1200
G1 X119.399 Y84.803 E0.13125
G1 X118.645 Y84.805 E0.02365
G1 X118.645 Y88.290 E0.10925
G1 X117.891 Y87.886 E0.02681
G1 X117.891 Y84.807 E0.09654
G1 X117.137 Y84.810 E0.02365
G1 X117.137 Y87.641 E0.08876
G1 X116.383 Y87.415 E0.02468
G1 X116.383 Y84.811 E0.08166
G1 X115.628 Y84.811 E0.02365
G1 X115.628 Y87.340 E0.07928
G1 X114.874 Y87.265 E0.02376
G1 X114.874 Y84.811 E0.07695
G1 X114.120 Y84.811 E0.02365
G1 X114.120 Y106.633 E0.68421
G1 X113.366 Y106.633 E0.02365
G1 X113.366 Y84.811 E0.68421
G1 X112.612 Y84.811 E0.02365
G1 X112.612 Y106.633 E0.68421
G1 X111.858 Y106.633 E0.02365
G1 X111.858 Y84.811 E0.68421
G1 X111.103 Y84.811 E0.02365
G1 X111.103 Y106.633 E0.68421
G1 X110.349 Y106.633 E0.02365
G1 X110.349 Y84.811 E0.68421
G1 X109.595 Y84.811 E0.02365
G1 X109.595 Y106.633 E0.68421
G1 X108.841 Y106.633 E0.02365
G1 X108.841 Y84.811 E0.68421
G1 X108.087 Y84.811 E0.02365
G1 X108.087 Y106.633 E0.68421
G1 X107.333 Y106.633 E0.02365
G1 X107.333 Y84.811 E0.68421
G1 X106.578 Y84.811 E0.02365
G1 X106.578 Y106.633 E0.68421
G1 X105.824 Y106.633 E0.02365
G1 X105.824 Y84.811 E0.68421
G1 X105.070 Y84.811 E0.02365
G1 X105.070 Y106.633 E0.68421
G1 X104.316 Y106.633 E0.02365
G1 X104.316 Y84.811 E0.68421
G1 X103.562 Y84.811 E0.02365
G1 X103.562 Y106.633 E0.68421
G1 X102.808 Y106.633 E0.02365
G1 X102.808 Y84.811 E0.68421
G1 X102.054 Y84.811 E0.02365
G1 X102.054 Y106.633 E0.68421
G1 X101.299 Y106.633 E0.02365
G1 X101.299 Y84.811 E0.68421
G1 X100.545 Y84.811 E0.02365
G1 X100.545 Y106.633 E0.68421
G1 X99.791 Y106.633 E0.02365
G1 X99.791 Y84.811 E0.68421
G1 X99.037 Y84.811 E0.02365
G1 X99.037 Y106.633 E0.68421
G1 X98.283 Y106.633 E0.02365
G1 X98.283 Y84.811 E0.68421
G1 X97.529 Y84.811 E0.02365
G1 X97.529 Y106.633 E0.68421
G1 X96.774 Y106.633 E0.02365
G1 X96.774 Y84.811 E0.68421
G1 X96.020 Y84.811 E0.02365
G1 X96.020 Y106.633 E0.68421
G1 X95.266 Y106.633 E0.02365
G1 X95.266 Y84.811 E0.68421
G1 X94.512 Y84.811 E0.02365
G1 X94.512 Y106.633 E0.68421
G1 X93.758 Y106.633 E0.02365
G1 X93.758 Y84.811 E0.68421
G1 X93.004 Y84.811 E0.02365
G1 X93.004 Y104.358 E0.61288
G1 X92.249 Y104.358 E0.02365
G1 X92.249 Y84.811 E0.61288
G1 X91.495 Y84.811 E0.02365
G1 X91.495 Y104.358 E0.61288
G1 X90.834 Y104.358 E0.02074
G1 X90.834 Y99.808 E0.14266
G1 X90.741 Y99.808 E0.00290
G1 X90.741 Y87.086 E0.39890
G1 X89.987 Y87.086 E0.02365
G1 X89.987 Y99.808 E0.39890
G1 X89.233 Y99.808 E0.02365
G1 X89.233 Y87.086 E0.39890
G1 X88.479 Y87.086 E0.02365
G1 X88.479 Y97.533 E0.32757
G1 X87.725 Y97.533 E0.02365
G1 X87.725 Y87.086 E0.32757
G1 X86.970 Y87.086 E0.02365
G1 X86.970 Y97.703 E0.33289
G1 F8640
G1 X86.970 Y94.412 E-0.76000
G1 E-0.04000 F2100.00000
G1 Z0.800 F10800.000
G1 X115.728 Y101.295
G1 Z0.200
G1 E0.80000 F2100.00000
G1 F1200
G1 X116.015 Y100.350 E0.03098
G1 X116.133 Y100.242 E0.00503
G1 X116.633 Y99.691 E0.02331
G1 X117.076 Y99.094 E0.02331
G1 X117.458 Y98.456 E0.02331
G1 X117.776 Y97.784 E0.02331
G1 X118.026 Y97.084 E0.02331
G1 X118.207 Y96.363 E0.02331
G1 X118.316 Y95.627 E0.02331
G1 X118.352 Y94.885 E0.02331
G1 X118.316 Y94.142 E0.02333
G1 X118.204 Y93.395 E0.02368
G1 X118.026 Y92.685 E0.02293
G1 X117.776 Y91.985 E0.02331
G1 X117.458 Y91.313 E0.02331
G1 X117.076 Y90.675 E0.02331
G1 X116.633 Y90.078 E0.02331
G1 X116.133 Y89.527 E0.02331
G1 X115.498 Y88.965 E0.02659
G1 X115.498 Y88.408 E0.01749
G1 X116.182 Y88.475 E0.02154
G1 X117.403 Y88.846 E0.04003
G1 X118.529 Y89.447 E0.04003
G1 X119.516 Y90.257 E0.04003
G1 X120.326 Y91.244 E0.04003
G1 X120.928 Y92.370 E0.04003
G1 X121.299 Y93.592 E0.04003
G1 X121.424 Y94.863 E0.04003
G1 X121.299 Y96.133 E0.04003
G1 X120.928 Y97.355 E0.04003
G1 X120.326 Y98.481 E0.04003
G1 X119.516 Y99.468 E0.04003
G1 X118.529 Y100.278 E0.04003
G1 X117.403 Y100.880 E0.04003
G1 X116.182 Y101.251 E0.04003
G1 X115.787 Y101.290 E0.01242
G1 X115.203 Y101.726 F10800.000
G1 F1200
G1 X115.684 Y100.141 E0.05195
G1 X115.866 Y99.975 E0.00772
G1 X116.341 Y99.452 E0.02215
G1 X116.762 Y98.884 E0.02215
G1 X117.125 Y98.278 E0.02215
G1 X117.427 Y97.640 E0.02215
G1 X117.665 Y96.975 E0.02215
G1 X117.837 Y96.289 E0.02215
G1 X117.940 Y95.590 E0.02215
G1 X117.975 Y94.885 E0.02215
G1 X117.940 Y94.179 E0.02216
