; generated by Slic3r Prusa Edition 1.40.0+ on 2018-06-21 at 09:27:59

; 

; external perimeters extrusion width = 0.45mm
; perimeters extrusion width = 0.45mm
; infill extrusion width = 0.45mm
; solid infill extrusion width = 0.45mm
; top infill extrusion width = 0.40mm
; first layer extrusion width = 0.42mm

M107
M115 U3.1.0 ; tell printer latest fw version
M201 X9000 Y9000 Z500 E10000 ; sets maximum accelerations, mm/sec^2
M203 X500 Y500 Z12 E120 ; sets maximum feedrates, mm/sec
M204 S1500 T1500 ; sets acceleration (S) and retract acceleration (T)
M205 X10 Y10 Z0.2 E2.5 ; sets the jerk limits, mm/sec
M205 S0 T0 ; sets the minimum extruding and travel feed rate, mm/sec
M83  ; extruder relative mode
M104 S215 ; set extruder temp
M140 S60 ; set bed temp
M190 S60 ; wait for bed temp
M109 S215 ; wait for extruder temp
G28 W ; home all without mesh bed level
G80 ; mesh bed leveling
G1 Y-3.0 F1000.0 ; go outside print area
G92 E0.0
G1 X60.0 E9.0  F1000.0 ; intro line
G1 X100.0 E12.5  F1000.0 ; intro line
G92 E0.0
M900 K30; Filament gcode
G21 ; set units to millimeters
G90 ; use absolute coordinates
M83 ; use relative distances for extrusion
;BEFORE_LAYER_CHANGE
G92 E0.0
;0.2


G1 E-0.80000 F2100.00000
G1 Z0.600 F10800.000
;AFTER_LAYER_CHANGE
;0.2
G1 X111.432 Y91.651
G1 Z0.200
G1 E0.80000 F2100.00000
M204 S1000
G1 F1800
G1 X112.359 Y91.451 E0.02973
G1 X137.572 Y91.450 E0.79054
G1 X138.526 Y91.634 E0.03046
G1 X139.343 Y92.160 E0.03046
G1 X140.201 Y93.183 E0.04186
G1 X140.421 Y93.703 E0.01771
G1 X140.522 Y94.262 E0.01783
G1 X140.525 Y115.641 E0.67030
G1 X140.432 Y116.210 E0.01808
G1 X140.214 Y116.744 E0.01808
G1 X139.361 Y117.773 E0.04192
G1 X138.568 Y118.299 E0.02985
G1 X137.641 Y118.499 E0.02973
G1 X112.424 Y118.500 E0.79066
G1 X111.917 Y118.449 E0.01598
G1 X111.430 Y118.298 E0.01598
G1 X110.983 Y118.054 E0.01598
G1 X110.589 Y117.724 E0.01610
G1 X109.774 Y116.723 E0.04048
G1 X109.565 Y116.198 E0.01771
G1 X109.475 Y115.637 E0.01783
G1 X109.472 Y94.432 E0.66485
G1 X109.545 Y93.829 E0.01906
G1 X109.758 Y93.259 E0.01906
G1 X110.048 Y92.817 E0.01660
G1 X110.639 Y92.177 E0.02729
G1 X111.382 Y91.684 E0.02797
G1 X111.586 Y91.996 F10800.000
G1 F1800
G1 X112.378 Y91.828 E0.02539
G1 X137.572 Y91.827 E0.78994
G1 X138.389 Y91.985 E0.02608
G1 X139.090 Y92.439 E0.02620
G1 X139.868 Y93.360 E0.03778
G1 X140.061 Y93.817 E0.01555
G1 X140.147 Y94.309 E0.01567
G1 X140.149 Y115.613 E0.66797
G1 X140.067 Y116.113 E0.01589
G1 X139.873 Y116.581 E0.01589
G1 X139.087 Y117.515 E0.03827
G1 X138.411 Y117.956 E0.02529
G1 X137.622 Y118.123 E0.02529
G1 X112.424 Y118.123 E0.79006
G1 X111.567 Y117.947 E0.02743
G1 X110.848 Y117.449 E0.02743
G1 X110.113 Y116.556 E0.03628
G1 X109.928 Y116.095 E0.01555
G1 X109.851 Y115.609 E0.01544
G1 X109.849 Y94.429 E0.66408
G1 X109.916 Y93.901 E0.01669
G1 X110.108 Y93.405 E0.01669
G1 X110.913 Y92.436 E0.03951
G1 X111.536 Y92.029 E0.02331
G1 F8640
G1 X112.378 Y91.828 E-0.19995
G1 X114.804 Y91.828 E-0.56005
G1 E-0.04000 F2100.00000
G1 Z0.800 F10800.000
G1 X112.937 Y94.939
G1 Z0.200
G1 E0.80000 F2100.00000
G1 F1800
G1 X137.063 Y94.939 E0.75646
G1 X137.063 Y115.011 E0.62934
G1 X112.937 Y115.011 E0.75646
G1 X112.937 Y94.999 E0.62746
G1 X112.560 Y94.562 F10800.000
G1 F1800
G1 X137.440 Y94.562 E0.78010
G1 X137.440 Y115.388 E0.65298
G1 X112.560 Y115.388 E0.78010
G1 X112.560 Y94.622 E0.65110
G1 X112.949 Y94.654 F10800.000
G1 F8640
G1 X115.851 Y94.614 E-0.76000
G1 E-0.04000 F2100.00000
G1 Z0.800 F10800.000
G1 X113.814 Y114.898
G1 Z0.200
G1 E0.80000 F2100.00000
G1 F1800
G1 X113.220 Y114.304 E0.02640
G1 X113.220 Y113.770 E0.01679
G1 X114.179 Y114.728 E0.04261
G1 X114.713 Y114.728 E0.01679
G1 X113.220 Y113.235 E0.06635
G1 X113.220 Y112.701 E0.01679
G1 X115.247 Y114.728 E0.09010
G1 X115.782 Y114.728 E0.01679
G1 X113.220 Y112.166 E0.11385
G1 X113.220 Y111.632 E0.01679
G1 X116.316 Y114.728 E0.13759
G1 X116.851 Y114.728 E0.01679
G1 X113.220 Y111.098 E0.16134
G1 X113.220 Y110.563 E0.01679
G1 X117.385 Y114.728 E0.18509
G1 X117.919 Y114.728 E0.01679
G1 X113.220 Y110.029 E0.20883
G1 X113.220 Y109.494 E0.01679
G1 X118.454 Y114.728 E0.23258
G1 X118.988 Y114.728 E0.01679
G1 X113.220 Y108.960 E0.25633
G1 X113.220 Y108.426 E0.01679
G1 X119.523 Y114.728 E0.28007
G1 X120.057 Y114.728 E0.01679
G1 X113.220 Y107.891 E0.30382
G1 X113.220 Y107.357 E0.01679
G1 X120.591 Y114.728 E0.32756
G1 X121.126 Y114.728 E0.01679
G1 X113.220 Y106.822 E0.35131
G1 X113.220 Y106.288 E0.01679
G1 X121.660 Y114.728 E0.37506
G1 X122.195 Y114.728 E0.01679
G1 X113.220 Y105.754 E0.39880
G1 X113.220 Y105.219 E0.01679
G1 X122.729 Y114.728 E0.42255
G1 X123.263 Y114.728 E0.01679
G1 X113.220 Y104.685 E0.44630
G1 X113.220 Y104.150 E0.01679
G1 X123.798 Y114.728 E0.47004
G1 X124.332 Y114.728 E0.01679
G1 X113.220 Y103.616 E0.49379
G1 X113.220 Y103.082 E0.01679
G1 X124.867 Y114.728 E0.51754
G1 X125.401 Y114.728 E0.01679
G1 X113.220 Y102.547 E0.54128
G1 X113.220 Y102.013 E0.01679
G1 X125.935 Y114.728 E0.56503
G1 X126.470 Y114.728 E0.01679
G1 X113.220 Y101.478 E0.58877
G1 X113.220 Y100.944 E0.01679
G1 X127.004 Y114.728 E0.61252
G1 X127.539 Y114.728 E0.01679
G1 X113.220 Y100.410 E0.63627
G1 X113.220 Y99.875 E0.01679
G1 X128.073 Y114.728 E0.66001
G1 X128.607 Y114.728 E0.01679
G1 X113.220 Y99.341 E0.68376
G1 X113.220 Y98.806 E0.01679
G1 X129.142 Y114.728 E0.70751
G1 X129.676 Y114.728 E0.01679
G1 X113.220 Y98.272 E0.73125
G1 X113.220 Y97.738 E0.01679
G1 X130.211 Y114.728 E0.75500
G1 X130.745 Y114.728 E0.01679
G1 X113.220 Y97.203 E0.77875
G1 X113.220 Y96.669 E0.01679
G1 X131.279 Y114.728 E0.80249
G1 X131.814 Y114.728 E0.01679
G1 X113.220 Y96.134 E0.82624
G1 X113.220 Y95.600 E0.01679
G1 X132.348 Y114.728 E0.84998
G1 X132.883 Y114.728 E0.01679
G1 X113.376 Y95.222 E0.86677
G1 X113.911 Y95.222 E0.01679
G1 X133.417 Y114.728 E0.86677
G1 X133.951 Y114.728 E0.01679
G1 X114.445 Y95.222 E0.86677
G1 X114.980 Y95.222 E0.01679
G1 X134.486 Y114.728 E0.86677
G1 X135.020 Y114.728 E0.01679
G1 X115.514 Y95.222 E0.86677
G1 X116.048 Y95.222 E0.01679
G1 X135.555 Y114.728 E0.86677
G1 X136.089 Y114.728 E0.01679
G1 X116.583 Y95.222 E0.86677
G1 X117.117 Y95.222 E0.01679
G1 X136.623 Y114.728 E0.86677
G1 X136.780 Y114.728 E0.00493
G1 X136.780 Y114.351 E0.01186
G1 X117.652 Y95.222 E0.84999
G1 X118.186 Y95.222 E0.01679
G1 X136.780 Y113.816 E0.82625
G1 X136.780 Y113.282 E0.01679
G1 X118.720 Y95.222 E0.80250
G1 X119.255 Y95.222 E0.01679
G1 X136.780 Y112.748 E0.77875
G1 X136.780 Y112.213 E0.01679
G1 X119.789 Y95.222 E0.75501
G1 X120.324 Y95.222 E0.01679
G1 X136.780 Y111.679 E0.73126
G1 X136.780 Y111.144 E0.01679
G1 X120.858 Y95.222 E0.70751
G1 X121.392 Y95.222 E0.01679
G1 X136.780 Y110.610 E0.68377
G1 X136.780 Y110.076 E0.01679
G1 X121.927 Y95.222 E0.66002
G1 X122.461 Y95.222 E0.01679
G1 X136.780 Y109.541 E0.63627
G1 X136.780 Y109.007 E0.01679
G1 X122.996 Y95.222 E0.61253
G1 X123.530 Y95.222 E0.01679
G1 X136.780 Y108.472 E0.58878
G1 X136.780 Y107.938 E0.01679
G1 X124.064 Y95.222 E0.56503
G1 X124.599 Y95.222 E0.01679
G1 X136.780 Y107.404 E0.54129
G1 X136.780 Y106.869 E0.01679
G1 X125.133 Y95.222 E0.51754
G1 X125.668 Y95.222 E0.01679
G1 X136.780 Y106.335 E0.49380
G1 X136.780 Y105.800 E0.01679
G1 X126.202 Y95.222 E0.47005
G1 X126.736 Y95.222 E0.01679
G1 X136.780 Y105.266 E0.44630
G1 X136.780 Y104.732 E0.01679
G1 X127.271 Y95.222 E0.42256
G1 X127.805 Y95.222 E0.01679
G1 X136.780 Y104.197 E0.39881
G1 X136.780 Y103.663 E0.01679
G1 X128.340 Y95.222 E0.37506
G1 X128.874 Y95.222 E0.01679
G1 X136.780 Y103.128 E0.35132
G1 X136.780 Y102.594 E0.01679
G1 X129.408 Y95.222 E0.32757
G1 X129.943 Y95.222 E0.01679
G1 X136.780 Y102.060 E0.30382
G1 X136.780 Y101.525 E0.01679
G1 X130.477 Y95.222 E0.28008
G1 X131.012 Y95.222 E0.01679
G1 X136.780 Y100.991 E0.25633
G1 X136.780 Y100.456 E0.01679
G1 X131.546 Y95.222 E0.23258
G1 X132.080 Y95.222 E0.01679
G1 X136.780 Y99.922 E0.20884
G1 X136.780 Y99.388 E0.01679
G1 X132.615 Y95.222 E0.18509
G1 X133.149 Y95.222 E0.01679
G1 X136.780 Y98.853 E0.16135
G1 X136.780 Y98.319 E0.01679
G1 X133.684 Y95.222 E0.13760
G1 X134.218 Y95.222 E0.01679
G1 X136.780 Y97.784 E0.11385
G1 X136.780 Y97.250 E0.01679
G1 X134.752 Y95.222 E0.09011
G1 X135.287 Y95.222 E0.01679
G1 X136.780 Y96.716 E0.06636
G1 X136.780 Y96.181 E0.01679
G1 X135.821 Y95.222 E0.04261
G1 X136.356 Y95.222 E0.01679
G1 X136.950 Y95.816 E0.02641
M106 S255
;BEFORE_LAYER_CHANGE
G92 E0.0
;0.4


G1 F8640
G1 X136.356 Y95.222 E-0.19406
G1 X135.821 Y95.222 E-0.12339
G1 X136.780 Y96.181 E-0.31316
G1 X136.780 Y96.716 E-0.12339
G1 X136.762 Y96.697 E-0.00600
G1 E-0.04000 F2100.00000
G1 Z0.800 F10800.000
;AFTER_LAYER_CHANGE
;0.4
M104 S210 ; set temperature
G1 X138.526 Y91.634
G1 Z0.400
G1 E0.80000 F2100.00000
G1 F3000
G1 X139.343 Y92.160 E0.03046
G1 X140.201 Y93.183 E0.04186
G1 X140.421 Y93.703 E0.01771
G1 X140.522 Y94.262 E0.01783
G1 X140.525 Y115.641 E0.67030
G1 X140.432 Y116.210 E0.01808
G1 X140.214 Y116.744 E0.01808
G1 X139.361 Y117.773 E0.04192
G1 X138.568 Y118.299 E0.02985
G1 X137.641 Y118.499 E0.02973
G1 X112.424 Y118.500 E0.79066
G1 X111.917 Y118.449 E0.01598
G1 X111.430 Y118.298 E0.01598
G1 X110.983 Y118.054 E0.01598
G1 X110.589 Y117.724 E0.01610
G1 X109.774 Y116.723 E0.04048
G1 X109.565 Y116.198 E0.01771
G1 X109.475 Y115.637 E0.01783
G1 X109.472 Y94.432 E0.66485
G1 X109.545 Y93.829 E0.01906
G1 X109.758 Y93.259 E0.01906
G1 X110.048 Y92.817 E0.01660
G1 X110.639 Y92.177 E0.02729
G1 X111.432 Y91.651 E0.02985
G1 X112.359 Y91.451 E0.02973
G1 X137.572 Y91.450 E0.79054
G1 X138.467 Y91.623 E0.02858
G1 F8640
G1 X139.343 Y92.160 E-0.23724
G1 X140.201 Y93.183 E-0.30826
G1 X140.421 Y93.703 E-0.13040
G1 X140.486 Y94.061 E-0.08410
G1 E-0.04000 F2100.00000
G1 Z1.000 F10800.000
G1 X137.174 Y94.816
G1 Z0.400
G1 E0.80000 F2100.00000
M204 S800
G1 F3000
G1 X137.174 Y115.134 E0.68775
G1 X112.826 Y115.134 E0.82416
G1 X112.826 Y94.816 E0.68775
G1 X137.114 Y94.816 E0.82213
M204 S1000
G1 X137.581 Y94.525 F10800.000
M204 S800
G1 F2400
G1 X137.581 Y115.426 E0.70748
G1 X137.474 Y115.541 E0.00534
G1 X112.526 Y115.541 E0.84445
G1 X112.419 Y115.426 E0.00534
G1 X112.419 Y94.525 E0.70748
G1 X112.526 Y94.409 E0.00534
G1 X137.474 Y94.409 E0.84445
G1 X137.540 Y94.481 E0.00331
M204 S1000
G1 X137.381 Y94.871 F10800.000
G1 F8640
G1 X137.547 Y97.772 E-0.76000
G1 E-0.04000 F2100.00000
G1 Z1.000 F10800.000
G1 X136.219 Y115.012
G1 Z0.400
G1 E0.80000 F2100.00000
M204 S2000
G1 F3000
G1 X136.869 Y114.363 E0.03146
G1 X136.869 Y113.780 E0.01994
G1 X135.820 Y114.829 E0.05079
G1 X135.238 Y114.829 E0.01994
G1 X136.869 Y113.198 E0.07899
G1 X136.869 Y112.616 E0.01994
G1 X134.655 Y114.829 E0.10719
G1 X134.073 Y114.829 E0.01994
G1 X136.869 Y112.033 E0.13539
G1 X136.869 Y111.451 E0.01994
G1 X133.491 Y114.829 E0.16359
G1 X132.908 Y114.829 E0.01994
G1 X136.869 Y110.868 E0.19179
G1 X136.869 Y110.286 E0.01994
G1 X132.326 Y114.829 E0.21999
G1 X131.743 Y114.829 E0.01994
G1 X136.869 Y109.704 E0.24819
G1 X136.869 Y109.121 E0.01994
G1 X131.161 Y114.829 E0.27639
G1 X130.579 Y114.829 E0.01994
G1 X136.869 Y108.539 E0.30459
G1 X136.869 Y107.957 E0.01994
G1 X129.996 Y114.829 E0.33279
G1 X129.414 Y114.829 E0.01994
G1 X136.869 Y107.374 E0.36099
G1 X136.869 Y106.792 E0.01994
G1 X128.832 Y114.829 E0.38919
G1 X128.249 Y114.829 E0.01994
G1 X136.869 Y106.210 E0.41739
G1 X136.869 Y105.627 E0.01994
G1 X127.667 Y114.829 E0.44559
G1 X127.085 Y114.829 E0.01994
G1 X136.869 Y105.045 E0.47379
G1 X136.869 Y104.462 E0.01994
G1 X126.502 Y114.829 E0.50199
G1 X125.920 Y114.829 E0.01994
G1 X136.869 Y103.880 E0.53019
G1 X136.869 Y103.298 E0.01994
G1 X125.337 Y114.829 E0.55839
G1 X124.755 Y114.829 E0.01994
G1 X136.869 Y102.715 E0.58659
G1 X136.869 Y102.133 E0.01994
G1 X124.173 Y114.829 E0.61479
G1 X123.590 Y114.829 E0.01994
G1 X136.869 Y101.551 E0.64299
G1 X136.869 Y100.968 E0.01994
G1 X123.008 Y114.829 E0.67119
G1 X122.426 Y114.829 E0.01994
G1 X136.869 Y100.386 E0.69939
G1 X136.869 Y99.804 E0.01994
G1 X121.843 Y114.829 E0.72759
G1 X121.261 Y114.829 E0.01994
G1 X136.869 Y99.221 E0.75579
G1 X136.869 Y98.639 E0.01994
G1 X120.679 Y114.829 E0.78399
G1 X120.096 Y114.829 E0.01994
G1 X136.869 Y98.056 E0.81219
G1 X136.869 Y97.474 E0.01994
G1 X119.514 Y114.829 E0.84039
G1 X118.931 Y114.829 E0.01994
G1 X136.869 Y96.892 E0.86859
G1 X136.869 Y96.309 E0.01994
G1 X118.349 Y114.829 E0.89679
G1 X117.767 Y114.829 E0.01994
G1 X136.869 Y95.727 E0.92499
G1 X136.869 Y95.145 E0.01994
G1 X117.184 Y114.829 E0.95319
G1 X116.602 Y114.829 E0.01994
G1 X136.310 Y95.121 E0.95432
G1 X135.727 Y95.121 E0.01994
G1 X116.020 Y114.829 E0.95432
G1 X115.437 Y114.829 E0.01994
G1 X135.145 Y95.121 E0.95432
G1 X134.563 Y95.121 E0.01994
G1 X114.855 Y114.829 E0.95432
G1 X114.273 Y114.829 E0.01994
G1 X133.980 Y95.121 E0.95432
G1 X133.398 Y95.121 E0.01994
G1 X113.690 Y114.829 E0.95432
G1 X113.131 Y114.829 E0.01914
G1 X113.131 Y114.806 E0.00080
G1 X132.816 Y95.121 E0.95319
G1 X132.233 Y95.121 E0.01994
G1 X113.131 Y114.224 E0.92499
G1 X113.131 Y113.641 E0.01994
G1 X131.651 Y95.121 E0.89679
G1 X131.068 Y95.121 E0.01994
G1 X113.131 Y113.059 E0.86859
G1 X113.131 Y112.476 E0.01994
G1 X130.486 Y95.121 E0.84039
G1 X129.904 Y95.121 E0.01994
G1 X113.131 Y111.894 E0.81219
G1 X113.131 Y111.312 E0.01994
G1 X129.321 Y95.121 E0.78399
G1 X128.739 Y95.121 E0.01994
G1 X113.131 Y110.729 E0.75579
G1 X113.131 Y110.147 E0.01994
G1 X128.157 Y95.121 E0.72759
G1 X127.574 Y95.121 E0.01994
G1 X113.131 Y109.565 E0.69939
G1 X113.131 Y108.982 E0.01994
G1 X126.992 Y95.121 E0.67119
G1 X126.410 Y95.121 E0.01994
G1 X113.131 Y108.400 E0.64299
G1 X113.131 Y107.818 E0.01994
G1 X125.827 Y95.121 E0.61479
G1 X125.245 Y95.121 E0.01994
G1 X113.131 Y107.235 E0.58659
G1 X113.131 Y106.653 E0.01994
G1 X124.662 Y95.121 E0.55839
G1 X124.080 Y95.121 E0.01994
G1 X113.131 Y106.070 E0.53019
G1 X113.131 Y105.488 E0.01994
G1 X123.498 Y95.121 E0.50199
G1 X122.915 Y95.121 E0.01994
G1 X113.131 Y104.906 E0.47379
G1 X113.131 Y104.323 E0.01994
G1 X122.333 Y95.121 E0.44559
G1 X121.751 Y95.121 E0.01994
G1 X113.131 Y103.741 E0.41739
G1 X113.131 Y103.159 E0.01994
G1 X121.168 Y95.121 E0.38919
G1 X120.586 Y95.121 E0.01994
G1 X113.131 Y102.576 E0.36099
G1 X113.131 Y101.994 E0.01994
G1 X120.004 Y95.121 E0.33279
G1 X119.421 Y95.121 E0.01994
G1 X113.131 Y101.412 E0.30459
G1 X113.131 Y100.829 E0.01994
G1 X118.839 Y95.121 E0.27639
G1 X118.257 Y95.121 E0.01994
G1 X113.131 Y100.247 E0.24819
G1 X113.131 Y99.664 E0.01994
G1 X117.674 Y95.121 E0.21999
G1 X117.092 Y95.121 E0.01994
G1 X113.131 Y99.082 E0.19179
G1 X113.131 Y98.500 E0.01994
G1 X116.509 Y95.121 E0.16359
G1 X115.927 Y95.121 E0.01994
G1 X113.131 Y97.917 E0.13539
G1 X113.131 Y97.335 E0.01994
G1 X115.345 Y95.121 E0.10719
G1 X114.762 Y95.121 E0.01994
G1 X113.131 Y96.753 E0.07899
G1 X113.131 Y96.170 E0.01994
G1 X114.180 Y95.121 E0.05079
G1 X113.598 Y95.121 E0.01994
G1 X112.948 Y95.771 E0.03146
M204 S1000
;BEFORE_LAYER_CHANGE
G92 E0.0
;0.6


G1 F8640
G1 X113.598 Y95.121 E-0.21215
G1 X114.180 Y95.121 E-0.13447
G1 X113.131 Y96.170 E-0.34250
G1 X113.131 Y96.477 E-0.07088
G1 E-0.04000 F2100.00000
G1 Z1.000 F10800.000
;AFTER_LAYER_CHANGE
;0.6
G1 X111.432 Y91.651
G1 Z0.600
G1 E0.80000 F2100.00000
G1 F3000
G1 X112.359 Y91.451 E0.02973
G1 X137.572 Y91.450 E0.79054
G1 X138.526 Y91.634 E0.03046
G1 X139.343 Y92.160 E0.03046
G1 X140.201 Y93.183 E0.04186
G1 X140.421 Y93.703 E0.01771
G1 X140.522 Y94.262 E0.01783
G1 X140.525 Y115.641 E0.67030
G1 X140.432 Y116.210 E0.01808
G1 X140.214 Y116.744 E0.01808
G1 X139.361 Y117.773 E0.04192
G1 X138.568 Y118.299 E0.02985
G1 X137.641 Y118.499 E0.02973
G1 X112.424 Y118.500 E0.79066
G1 X111.917 Y118.449 E0.01598
G1 X111.430 Y118.298 E0.01598
G1 X110.983 Y118.054 E0.01598
G1 X110.589 Y117.724 E0.01610
G1 X109.774 Y116.723 E0.04048
G1 X109.565 Y116.198 E0.01771
G1 X109.475 Y115.637 E0.01783
G1 X109.472 Y94.432 E0.66485
G1 X109.545 Y93.829 E0.01906
G1 X109.758 Y93.259 E0.01906
G1 X110.048 Y92.817 E0.01660
G1 X110.639 Y92.177 E0.02729
G1 X111.382 Y91.684 E0.02797
G1 F8640
G1 X112.359 Y91.451 E-0.23190
G1 X114.646 Y91.451 E-0.52810
G1 E-0.04000 F2100.00000
G1 Z1.200 F10800.000
G1 X112.670 Y94.685
G1 Z0.600
G1 E0.80000 F2100.00000
M204 S800
G1 F3000
G1 X112.704 Y94.648 E0.00169
