; generated by Slic3r Prusa Edition 1.40.0+ on 2018-06-21 at 10:57:10

; 

; external perimeters extrusion width = 0.45mm
; perimeters extrusion width = 0.45mm
; infill extrusion width = 0.45mm
; solid infill extrusion width = 0.45mm
; top infill extrusion width = 0.40mm
; first layer extrusion width = 0.42mm

M107
M115 U3.1.0 ; tell printer latest fw version
M201 X9000 Y9000 Z500 E10000 ; sets maximum accelerations, mm/sec^2
M203 X500 Y500 Z12 E120 ; sets maximum feedrates, mm/sec
M204 S1500 T1500 ; sets acceleration (S) and retract acceleration (T)
M205 X10 Y10 Z0.2 E2.5 ; sets the jerk limits, mm/sec
M205 S0 T0 ; sets the minimum extruding and travel feed rate, mm/sec
M83  ; extruder relative mode
M104 S215 ; set extruder temp
M140 S60 ; set bed temp
M190 S60 ; wait for bed temp
M109 S215 ; wait for extruder temp
G28 W ; home all without mesh bed level
G80 ; mesh bed leveling
G1 Y-3.0 F1000.0 ; go outside print area
G92 E0.0
G1 X60.0 E9.0  F1000.0 ; intro line
G1 X100.0 E12.5  F1000.0 ; intro line
G92 E0.0
M900 K30; Filament gcode
G21 ; set units to millimeters
G90 ; use absolute coordinates
M83 ; use relative distances for extrusion
;BEFORE_LAYER_CHANGE
G92 E0.0
;0.2


G1 E-0.80000 F2100.00000
G1 Z0.600 F10800.000
;AFTER_LAYER_CHANGE
;0.2
G1 X119.175 Y97.031
G1 Z0.200
G1 E0.80000 F2100.00000
M204 S1000
G1 F918
G1 X119.507 Y96.370 E0.02319
G1 X119.997 Y95.811 E0.02332
G1 X120.608 Y95.393 E0.02319
G1 X121.307 Y95.140 E0.02332
G1 X121.917 Y95.070 E0.01923
G1 X127.930 Y95.070 E0.18854
G1 X128.947 Y95.252 E0.03239
G1 X129.841 Y95.778 E0.03252
G1 X130.497 Y96.581 E0.03252
G1 X130.834 Y97.562 E0.03252
G1 X130.993 Y107.545 E0.31305
G1 X130.864 Y112.146 E0.14432
G1 X130.701 Y112.966 E0.02622
G1 X130.352 Y113.652 E0.02411
G1 X129.838 Y114.224 E0.02411
G1 X129.194 Y114.643 E0.02412
G1 X128.458 Y114.882 E0.02425
G1 X121.903 Y114.930 E0.20554
G1 X120.968 Y114.762 E0.02977
G1 X120.234 Y114.379 E0.02596
G1 X119.636 Y113.807 E0.02596
G1 X119.221 Y113.090 E0.02596
G1 X119.021 Y112.283 E0.02609
G1 X119.007 Y97.983 E0.44836
G1 X119.164 Y97.090 E0.02841
G1 X119.534 Y97.157 F10800.000
G1 F918
G1 X119.836 Y96.557 E0.02106
G1 X120.274 Y96.069 E0.02054
G1 X120.820 Y95.708 E0.02054
G1 X121.441 Y95.498 E0.02054
G1 X127.930 Y95.447 E0.20346
G1 X128.828 Y95.611 E0.02863
G1 X129.612 Y96.079 E0.02863
G1 X130.182 Y96.792 E0.02863
G1 X130.467 Y97.660 E0.02863
G1 X130.616 Y107.542 E0.30988
G1 X130.488 Y112.123 E0.14368
G1 X130.338 Y112.861 E0.02361
G1 X130.027 Y113.459 E0.02116
G1 X129.568 Y113.959 E0.02128
G1 X128.993 Y114.321 E0.02128
G1 X128.348 Y114.518 E0.02116
G1 X121.910 Y114.553 E0.20188
G1 X121.077 Y114.400 E0.02655
G1 X120.436 Y114.060 E0.02275
G1 X119.916 Y113.553 E0.02275
G1 X119.559 Y112.921 E0.02275
G1 X119.394 Y112.215 E0.02275
G1 X119.384 Y97.989 E0.44605
G1 X119.523 Y97.216 E0.02462
G1 X119.896 Y97.254 F10800.000
G1 F918
G1 X120.159 Y96.753 E0.01771
G1 X120.544 Y96.335 E0.01783
G1 X121.023 Y96.029 E0.01783
G1 X121.565 Y95.858 E0.01783
G1 X127.929 Y95.824 E0.19954
G1 X128.701 Y95.966 E0.02462
G1 X129.377 Y96.374 E0.02473
G1 X129.863 Y96.995 E0.02473
G1 X130.098 Y97.748 E0.02473
G1 X130.239 Y107.535 E0.30691
G1 X130.111 Y112.096 E0.14307
G1 X129.979 Y112.745 E0.02078
G1 X129.706 Y113.261 E0.01828
G1 X129.307 Y113.686 E0.01828
G1 X128.809 Y113.990 E0.01828
G1 X128.246 Y114.153 E0.01839
G1 X121.916 Y114.176 E0.19845
G1 X121.191 Y114.040 E0.02315
G1 X120.643 Y113.744 E0.01953
G1 X120.203 Y113.307 E0.01942
G1 X119.902 Y112.762 E0.01953
G1 X119.767 Y112.158 E0.01942
G1 X119.761 Y97.994 E0.44410
G1 X119.886 Y97.313 E0.02172
G1 F8640
G1 X120.159 Y96.753 E-0.14373
G1 X120.544 Y96.335 E-0.13128
G1 X121.023 Y96.029 E-0.13128
G1 X121.565 Y95.858 E-0.13128
G1 X122.529 Y95.853 E-0.22244
G1 E-0.04000 F2100.00000
G1 Z0.800 F10800.000
G1 X122.536 Y98.599
G1 Z0.200
G1 E0.80000 F2100.00000
G1 F918
G1 X127.339 Y98.599 E0.15057
G1 X127.339 Y99.011 E0.01289
G1 X122.577 Y99.011 E0.14929
G1 X122.577 Y111.118 E0.37962
G1 X127.339 Y111.118 E0.14929
G1 X127.339 Y111.401 E0.00886
G1 X122.536 Y111.401 E0.15057
G1 X122.536 Y98.659 E0.39949
G1 F8640
G1 X125.828 Y98.618 E-0.76000
G1 E-0.04000 F2100.00000
G1 Z0.800 F10800.000
G1 X127.369 Y108.107
G1 Z0.200
G1 E0.80000 F2100.00000
G1 F918
G1 X127.439 Y108.107 E0.00218
G1 X127.369 Y109.788 E0.05274
G1 X127.369 Y108.167 E0.05081
G1 F8640
G1 X127.439 Y108.107 E-0.02123
G1 X127.369 Y109.788 E-0.38837
G1 X127.369 Y108.270 E-0.35040
G1 E-0.04000 F2100.00000
G1 Z0.800 F10800.000
G1 X126.992 Y99.388
G1 Z0.200
G1 E0.80000 F2100.00000
G1 F918
G1 X122.954 Y99.388 E0.12659
G1 X122.954 Y110.741 E0.35597
G1 X126.992 Y110.741 E0.12659
G1 X126.992 Y107.730 E0.09440
G1 X127.832 Y107.730 E0.02633
G1 X127.716 Y110.527 E0.08776
G1 X127.716 Y111.778 E0.03923
G1 X122.159 Y111.778 E0.17421
G1 X122.159 Y98.222 E0.42502
G1 X127.716 Y98.222 E0.17421
G1 X127.716 Y102.267 E0.12683
G1 X126.992 Y102.267 E0.02270
G1 X126.992 Y99.448 E0.08841
G1 X126.959 Y98.989 F10800.000
G1 X127.354 Y99.199
G1 F918
G1 X127.354 Y102.079 E0.08303
G1 F8640
G1 X127.354 Y99.199 E-0.66489
G1 E-0.13511 F2100.00000
G1 Z0.800 F10800.000
G1 X127.365 Y109.976
G1 Z0.200
G1 E0.80000 F2100.00000
G1 F918
G1 X127.354 Y110.515 E0.01622
G1
G1 X127.354 Y110.929 E0.01194
M106 S255
;BEFORE_LAYER_CHANGE
G92 E0.0
;0.4


G1 F8640
G1 X127.354 Y110.515 E-0.09559
G1 E-0.70441 F2100.00000
G1 Z0.800 F10800.000
;AFTER_LAYER_CHANGE
;0.4
M104 S210 ; set temperature
G1 X130.701 Y112.966
G1 Z0.400
G1 E0.80000 F2100.00000
G1 F900
G1 X130.352 Y113.652 E0.02411
G1 X129.838 Y114.224 E0.02411
G1 X129.194 Y114.643 E0.02412
G1 X128.458 Y114.882 E0.02425
G1 X121.903 Y114.930 E0.20554
G1 X120.968 Y114.762 E0.02977
G1 X120.234 Y114.379 E0.02596
G1 X119.636 Y113.807 E0.02596
G1 X119.221 Y113.090 E0.02596
G1 X119.021 Y112.283 E0.02609
G1 X119.007 Y97.983 E0.44836
G1 X119.175 Y97.031 E0.03029
G1 X119.507 Y96.370 E0.02319
G1 X119.997 Y95.811 E0.02332
G1 X120.608 Y95.393 E0.02319
G1 X121.307 Y95.140 E0.02332
G1 X121.917 Y95.070 E0.01923
G1 X127.930 Y95.070 E0.18854
G1 X128.947 Y95.252 E0.03239
G1 X129.841 Y95.778 E0.03252
G1 X130.497 Y96.581 E0.03252
G1 X130.834 Y97.562 E0.03252
G1 X130.993 Y107.545 E0.31305
G1 X130.864 Y112.146 E0.14432
G1 X130.713 Y112.907 E0.02434
G1 F8640
G1 X130.352 Y113.652 E-0.19097
G1 X129.838 Y114.224 E-0.17759
G1 X129.194 Y114.643 E-0.17759
G1 X128.458 Y114.882 E-0.17856
G1 X128.305 Y114.883 E-0.03529
G1 E-0.04000 F2100.00000
G1 Z1.000 F10800.000
G1 X127.294 Y111.356
G1 Z0.400
G1 E0.80000 F2100.00000
M204 S800
G1 F900
G1 X122.581 Y111.356 E0.15950
G1 X122.581 Y111.163 E0.00652
G1 X127.294 Y111.163 E0.15950
G1 X127.294 Y111.296 E0.00449
M204 S1000
G1 F8640
G1 X124.002 Y111.338 E-0.76000
G1 E-0.04000 F2100.00000
G1 Z1.000 F10800.000
G1 X127.294 Y98.966
G1 Z0.400
G1 E0.80000 F2100.00000
M204 S800
G1 F900
G1 X122.581 Y98.966 E0.15950
G1 X122.581 Y98.644 E0.01087
G1 X127.294 Y98.644 E0.15950
G1 X127.294 Y98.906 E0.00884
M204 S1000
G1 X127.007 Y99.373 F10800.000
M204 S800
G1 F900
G1 X122.939 Y99.373 E0.13768
G1 X122.939 Y110.756 E0.38531
G1 X127.007 Y110.756 E0.13768
G1 X127.007 Y107.745 E0.10191
G1 X127.815 Y107.745 E0.02737
G1 X127.701 Y110.526 E0.09422
G1 X127.701 Y111.763 E0.04185
G1 X122.174 Y111.763 E0.18706
G1 X122.174 Y98.237 E0.45782
G1 X127.701 Y98.237 E0.18706
G1 X127.701 Y102.252 E0.13590
G1 X127.007 Y102.252 E0.02349
G1 X127.007 Y99.433 E0.09544
M204 S1000
G1 X126.975 Y98.974 F10800.000
G1 X127.354 Y99.169
G1 F900
G1 X127.354 Y102.049 E0.06866
G1 F8640
G1 X127.354 Y99.169 E-0.66489
G1 E-0.13511 F2100.00000
G1 Z1.000 F10800.000
G1 X122.557 Y99.169
G1 Z0.400
G1 E0.80000 F2100.00000
G1 F900
G1 X122.557 Y110.959 E0.35091
G1 F8640
G1 X122.557 Y107.668 E-0.76000
G1 E-0.04000 F2100.00000
G1 Z1.000 F10800.000
G1 X127.354 Y110.959
G1 Z0.400
G1 E0.80000 F2100.00000
G1 F900
G1 X127.354 Y110.516 E0.01057
G1
G1 X127.380 Y109.232 E0.03586
G1
G1 X127.407 Y107.949 E0.04110
;BEFORE_LAYER_CHANGE
G92 E0.0
;0.6


G1 F8640
G1 X127.380 Y109.232 E-0.29648
G1 E-0.50352 F2100.00000
G1 Z1.000 F10800.000
;AFTER_LAYER_CHANGE
;0.6
G1 X129.841 Y95.778
G1 Z0.600
G1 E0.80000 F2100.00000
G1 F900
G1 X130.497 Y96.581 E0.03252
G1 X130.834 Y97.562 E0.03252
G1 X130.993 Y107.545 E0.31305
G1 X130.864 Y112.146 E0.14432
G1 X130.701 Y112.966 E0.02622
G1 X130.352 Y113.652 E0.02411
G1 X129.838 Y114.224 E0.02411
G1 X129.194 Y114.643 E0.02412
G1 X128.458 Y114.882 E0.02425
G1 X121.903 Y114.930 E0.20554
G1 X120.968 Y114.762 E0.02977
G1 X120.234 Y114.379 E0.02596
G1 X119.636 Y113.807 E0.02596
G1 X119.221 Y113.090 E0.02596
G1 X119.021 Y112.283 E0.02609
G1 X119.007 Y97.983 E0.44836
G1 X119.175 Y97.031 E0.03029
G1 X119.507 Y96.370 E0.02319
G1 X119.997 Y95.811 E0.02332
G1 X120.608 Y95.393 E0.02319
G1 X121.307 Y95.140 E0.02332
G1 X121.917 Y95.070 E0.01923
G1 X127.930 Y95.070 E0.18854
G1 X128.947 Y95.252 E0.03239
G1 X129.789 Y95.748 E0.03064
G1 F8640
G1 X130.497 Y96.581 E-0.25251
G1 X130.834 Y97.562 E-0.23947
G1 X130.852 Y98.723 E-0.26802
G1 E-0.04000 F2100.00000
G1 Z1.200 F10800.000
G1 X127.294 Y111.163
G1 Z0.600
G1 E0.80000 F2100.00000
M204 S800
G1 F900
G1 X127.294 Y111.356 E0.00652
G1 X122.581 Y111.356 E0.15950
G1 X122.581 Y111.163 E0.00652
G1 X127.234 Y111.163 E0.15747
M204 S1000
G1 F8640
G1 X127.294 Y111.356 E-0.04660
G1 X124.204 Y111.356 E-0.71340
G1 E-0.04000 F2100.00000
G1 Z1.200 F10800.000
G1 X127.234 Y98.966
G1 Z0.600
G1 E0.80000 F2100.00000
M204 S800
G1 F900
G1 X122.581 Y98.966 E0.15747
G1 X122.581 Y98.644 E0.01087
G1 X127.294 Y98.644 E0.15950
G1 X127.294 Y98.966 E0.01087
M204 S1000
G1 X127.007 Y99.373 F10800.000
M204 S800
G1 F900
G1 X122.939 Y99.373 E0.13768
G1 X122.939 Y110.756 E0.38531
G1 X127.007 Y110.756 E0.13768
G1 X127.007 Y107.745 E0.10191
G1 X127.815 Y107.745 E0.02736
G1 X127.701 Y110.526 E0.09422
G1 X127.701 Y111.763 E0.04185
G1 X122.174 Y111.763 E0.18706
G1 X122.174 Y98.237 E0.45782
G1 X127.701 Y98.237 E0.18706
G1 X127.701 Y102.252 E0.13590
G1 X127.007 Y102.252 E0.02349
G1 X127.007 Y99.433 E0.09544
M204 S1000
G1 X126.975 Y98.974 F10800.000
G1 X127.354 Y99.169
G1 F900
G1 X127.354 Y102.049 E0.06866
G1 F8640
G1 X127.354 Y99.169 E-0.66489
G1 E-0.13511 F2100.00000
G1 Z1.200 F10800.000
G1 X122.557 Y99.169
G1 Z0.600
G1 E0.80000 F2100.00000
G1 F900
G1 X122.557 Y110.959 E0.35091
G1 F8640
G1 X122.557 Y107.668 E-0.76000
G1 E-0.04000 F2100.00000
G1 Z1.200 F10800.000
G1 X127.354 Y110.959
G1 Z0.600
G1 E0.80000 F2100.00000
G1 F900
G1 X127.354 Y110.516 E0.01057
G1
G1 X127.380 Y109.232 E0.03584
G1
G1 X127.407 Y107.949 E0.04105
;BEFORE_LAYER_CHANGE
G92 E0.0
;0.8


G1 F8640
G1 X127.380 Y109.232 E-0.29649
G1 E-0.50351 F2100.00000
G1 Z1.200 F10800.000
;AFTER_LAYER_CHANGE
;0.8
G1 X127.294 Y111.163
G1 Z0.800
G1 E0.80000 F2100.00000
M204 S800
G1 F900
G1 X127.294 Y111.356 E0.00652
G1 X122.581 Y111.356 E0.15950
G1 X122.581 Y111.163 E0.00652
G1 X127.234 Y111.163 E0.15747
M204 S1000
G1 F8640
G1 X127.294 Y111.356 E-0.04660
G1 X124.204 Y111.356 E-0.71340
G1 E-0.04000 F2100.00000
G1 Z1.400 F10800.000
G1 X127.234 Y98.966
G1 Z0.800
G1 E0.80000 F2100.00000
M204 S800
G1 F900
G1 X122.581 Y98.966 E0.15747
G1 X122.581 Y98.644 E0.01087
G1 X127.294 Y98.644 E0.15950
G1 X127.294 Y98.966 E0.01087
M204 S1000
G1 X127.007 Y99.373 F10800.000
M204 S800
G1 F900
G1 X122.939 Y99.373 E0.13768
G1 X122.939 Y110.756 E0.38531
G1 X127.007 Y110.756 E0.13768
G1 X127.007 Y107.745 E0.10191
G1 X127.814 Y107.745 E0.02734
G1 X127.701 Y110.526 E0.09422
G1 X127.701 Y111.763 E0.04185
G1 X122.174 Y111.763 E0.18706
G1 X122.174 Y98.237 E0.45782
G1 X127.701 Y98.237 E0.18706
G1 X127.701 Y102.252 E0.13590
G1 X127.007 Y102.252 E0.02349
G1 X127.007 Y99.433 E0.09544
M204 S1000
G1 X126.975 Y98.974 F10800.000
G1 X127.354 Y99.169
G1 F900
G1 X127.354 Y102.049 E0.06866
G1 F8640
G1 X127.354 Y99.169 E-0.66489
G1 E-0.13511 F2100.00000
G1 Z1.400 F10800.000
G1 X122.557 Y99.169
G1 Z0.800
G1 E0.80000 F2100.00000
G1 F900
G1 X122.557 Y110.959 E0.35091
G1 F8640
G1 X122.557 Y107.668 E-0.76000
G1 E-0.04000 F2100.00000
G1 Z1.400 F10800.000
G1 X127.354 Y110.959
G1 Z0.800
G1 E0.80000 F2100.00000
G1 F900
G1 X127.354 Y110.516 E0.01057
G1
G1 X127.380 Y109.232 E0.03582
G1
G1 X127.406 Y107.949 E0.04101
;BEFORE_LAYER_CHANGE
G92 E0.0
;1


G1 F8640
G1 X127.380 Y109.232 E-0.29650
G1 E-0.50350 F2100.00000
G1 Z1.400 F10800.000
;AFTER_LAYER_CHANGE
;1
G1 X127.294 Y111.163
G1 Z1.000
G1 E0.80000 F2100.00000
M204 S800
G1 F900
G1 X127.294 Y111.356 E0.00652
G1 X122.581 Y111.356 E0.15950
G1 X122.581 Y111.163 E0.00652
G1 X127.234 Y111.163 E0.15747
M204 S1000
G1 F8640
G1 X127.294 Y111.356 E-0.04660
G1 X124.204 Y111.356 E-0.71340
G1 E-0.04000 F2100.00000
G1 Z1.600 F10800.000
G1 X127.234 Y98.966
G1 Z1.000
G1 E0.80000 F2100.00000
M204 S800
G1 F900
G1 X122.581 Y98.966 E0.15747
G1 X122.581 Y98.644 E0.01087
G1 X127.294 Y98.644 E0.15950
G1 X127.294 Y98.966 E0.01087
M204 S1000
G1 X127.007 Y99.373 F10800.000
M204 S800
G1 F900
G1 X122.939 Y99.373 E0.13768
G1 X122.939 Y110.756 E0.38531
G1 X127.007 Y110.756 E0.13768
G1 X127.007 Y107.745 E0.10191
G1 X127.814 Y107.745 E0.02732
G1 X127.701 Y110.526 E0.09422
G1 X127.701 Y111.763 E0.04185
G1 X122.174 Y111.763 E0.18706
G1 X122.174 Y98.237 E0.45782
G1 X127.701 Y98.237 E0.18706
G1 X127.701 Y102.252 E0.13590
G1 X127.007 Y102.252 E0.02349
G1 X127.007 Y99.433 E0.09544
M204 S1000
G1 X126.975 Y98.974 F10800.000
G1 X127.354 Y99.169
G1 F900
G1 X127.354 Y102.049 E0.06866
G1 F8640
G1 X127.354 Y99.169 E-0.66489
G1 E-0.13511 F2100.00000
G1 Z1.600 F10800.000
G1 X122.557 Y99.169
G1 Z1.000
G1 E0.80000 F2100.00000
G1 F900
G1 X122.557 Y110.959 E0.35091
G1 F8640
G1 X122.557 Y107.668 E-0.76000
G1 E-0.04000 F2100.00000
G1 Z1.600 F10800.000
G1 X127.354 Y110.959
G1 Z1.000
G1 E0.80000 F2100.00000
G1 F900
G1 X127.354 Y110.516 E0.01057
G1
G1 X127.380 Y109.232 E0.03580
G1
G1 X127.406 Y107.949 E0.04097
;BEFORE_LAYER_CHANGE
G92 E0.0
;1.2


G1 F8640
G1 X127.380 Y109.232 E-0.29650
G1 E-0.50350 F2100.00000
G1 Z1.600 F10800.000
;AFTER_LAYER_CHANGE
;1.2
G1 X127.294 Y111.163
G1 Z1.200
G1 E0.80000 F2100.00000
M204 S800
G1 F900
G1 X127.294 Y111.356 E0.00652
G1 X122.581 Y111.356 E0.15950
G1 X122.581 Y111.163 E0.00652
G1 X127.234 Y111.163 E0.15747
M204 S1000
G1 F8640
G1 X127.294 Y111.356 E-0.04660
G1 X124.204 Y111.356 E-0.71340
G1 E-0.04000 F2100.00000
G1 Z1.800 F10800.000
G1 X127.234 Y98.966
G1 Z1.200
G1 E0.80000 F2100.00000
M204 S800
G1 F900
G1 X122.581 Y98.966 E0.15747
G1 X122.581 Y98.644 E0.01087
G1 X127.294 Y98.644 E0.15950
G1 X127.294 Y98.966 E0.01087
M204 S1000
G1 X127.007 Y99.373 F10800.000
M204 S800
G1 F900
G1 X122.939 Y99.373 E0.13768
G1 X122.939 Y110.756 E0.38531
G1 X127.007 Y110.756 E0.13768
G1 X127.007 Y107.745 E0.10191
G1 X127.814 Y107.745 E0.02731
G1 X127.701 Y110.526 E0.09422
G1 X127.701 Y111.763 E0.04185
G1 X122.174 Y111.763 E0.18706
G1 X122.174 Y98.237 E0.45782
G1 X127.701 Y98.237 E0.18706
G1 X127.701 Y102.252 E0.13590
G1 X127.007 Y102.252 E0.02349
G1 X127.007 Y99.433 E0.09544
M204 S1000
G1 X126.975 Y98.974 F10800.000
G1 X127.354 Y99.169
G1 F900
G1 X127.354 Y102.049 E0.06866
G1 F8640
G1 X127.354 Y99.169 E-0.66489
G1 E-0.13511 F2100.00000
G1 Z1.800 F10800.000
G1 X122.557 Y99.169
G1 Z1.200
G1 E0.80000 F2100.00000
G1 F900
G1 X122.557 Y110.959 E0.35091
G1 F8640
G1 X122.557 Y107.668 E-0.76000
G1 E-0.04000 F2100.00000
G1 Z1.800 F10800.000
G1 X127.354 Y110.959
G1 Z1.200
G1 E0.80000 F2100.00000
G1 F900
G1 X127.354 Y110.516 E0.01057
G1
G1 X127.380 Y109.232 E0.03578
G1
G1 X127.406 Y107.949 E0.04093
;BEFORE_LAYER_CHANGE
G92 E0.0
;1.4


G1 F8640
G1 X127.380 Y109.232 E-0.29651
G1 E-0.50349 F2100.00000
G1 Z1.800 F10800.000
;AFTER_LAYER_CHANGE
;1.4
G1 X127.294 Y111.163
G1 Z1.400
G1 E0.80000 F2100.00000
M204 S800
G1 F900
G1 X127.294 Y111.356 E0.00652
G1 X122.581 Y111.356 E0.15950
G1 X122.581 Y111.163 E0.00652
G1 X127.234 Y111.163 E0.15747
M204 S1000
G1 F8640
G1 X127.294 Y111.356 E-0.04660
G1 X124.204 Y111.356 E-0.71340
G1 E-0.04000 F2100.00000
G1 Z2.000 F10800.000
G1 X127.234 Y98.966
G1 Z1.400
G1 E0.80000 F2100.00000
M204 S800
G1 F900
G1 X122.581 Y98.966 E0.15747
G1 X122.581 Y98.644 E0.01087
G1 X127.294 Y98.644 E0.15950
G1 X127.294 Y98.966 E0.01087
M204 S1000
G1 X127.007 Y99.373 F10800.000
M204 S800
