; generated by PrusaSlicer 2.2.0+win64 on 2021-01-20 at 20:17:32 UTC

; 

; external perimeters extrusion width = 0.45mm
; perimeters extrusion width = 0.45mm
; infill extrusion width = 0.45mm
; solid infill extrusion width = 0.45mm
; top infill extrusion width = 0.40mm
; first layer extrusion width = 0.42mm

M73 P0 R107
M201 X9000 Y9000 Z500 E10000 ; sets maximum accelerations, mm/sec^2
M203 X500 Y500 Z12 E120 ; sets maximum feedrates, mm/sec
M204 P2000 R1500 T2000 ; sets acceleration (P, T) and retract acceleration (R), mm/sec^2
M205 X10.00 Y10.00 Z0.20 E2.50 ; sets the jerk limits, mm/sec
M205 S0 T0 ; sets the minimum extruding and travel feed rate, mm/sec
M107
M862.3 P "MK2S" ; printer model check
M862.1 P0.4 ; nozzle diameter check
M115 U3.2.3 ; tell printer latest fw version
G90 ; use absolute coordinates
M83 ; extruder relative mode
M204 S2000 T1500 ; MK2 firmware only supports the old M204 format
M104 S215 ; set extruder temp
M140 S60 ; set bed temp
M190 S60 ; wait for bed temp
M109 S215 ; wait for extruder temp
G28 W ; home all without mesh bed level
G80 ; mesh bed leveling
G1 Y-3.0 F1000.0 ; go outside print area
G92 E0.0
G1 X60.0 E9.0  F1000.0 ; intro line
M73 P0 R107
G1 X100.0 E12.5 F1000.0 ; intro line
G92 E0.0
G21 ; set units to millimeters
G90 ; use absolute coordinates
M83 ; use relative distances for extrusion
M900 K0.05 ; Filament gcode LA 1.5
M900 K30 ; Filament gcode LA 1.0
;BEFORE_LAYER_CHANGE
G92 E0.0
;0.2


G1 E-0.80000 F2100.00000
G1 Z0.600 F10800.000
;AFTER_LAYER_CHANGE
;0.2
G1 X125.000 Y117.990
G1 Z0.200
G1 E0.80000 F2100.00000
M204 S1000
G1 F1200.000
G1 X151.406 Y117.990 E0.82795
G1 X151.406 Y130.791 E0.40137
G1 X98.594 Y130.791 E1.65589
G1 X98.594 Y117.990 E0.40137
G1 X124.940 Y117.990 E0.82607
G1 E-0.80000 F2100.00000
G1 Z0.800 F10800.000
G1 X125.000 Y131.168
G1 Z0.200
G1 E0.80000 F2100.00000
G1 F1200.000
G1 X98.217 Y131.168 E0.83977
G1 X98.217 Y117.613 E0.42502
G1 X151.783 Y117.613 E1.67954
G1 X151.783 Y131.168 E0.42502
G1 X125.060 Y131.168 E0.83789
G1 X124.749 Y130.857 F10800.000
G1 E-0.80000 F2100.00000
G1 Z0.800 F10800.000
G1 X151.293 Y118.867
G1 Z0.200
G1 E0.80000 F2100.00000
G1 F1200.000
G1 X150.698 Y118.273 E0.02644
G1 X150.164 Y118.273 E0.01681
G1 X151.123 Y119.232 E0.04268
G1 X151.123 Y119.767 E0.01681
G1 X149.629 Y118.273 E0.06645
G1 X149.094 Y118.273 E0.01681
G1 X151.123 Y120.302 E0.09023
G1 X151.123 Y120.837 E0.01681
G1 X148.559 Y118.273 E0.11400
G1 X148.025 Y118.273 E0.01681
G1 X151.123 Y121.371 E0.13778
G1 X151.123 Y121.906 E0.01681
G1 X147.490 Y118.273 E0.16155
G1 X146.955 Y118.273 E0.01681
G1 X151.123 Y122.441 E0.18533
G1 X151.123 Y122.976 E0.01681
G1 X146.420 Y118.273 E0.20910
G1 X145.886 Y118.273 E0.01681
G1 X151.123 Y123.510 E0.23288
G1 X151.123 Y124.045 E0.01681
G1 X145.351 Y118.273 E0.25665
G1 X144.816 Y118.273 E0.01681
G1 X151.123 Y124.580 E0.28043
G1 X151.123 Y125.114 E0.01681
G1 X144.282 Y118.273 E0.30420
G1 X143.747 Y118.273 E0.01681
G1 X151.123 Y125.649 E0.32798
G1 X151.123 Y126.184 E0.01681
G1 X143.212 Y118.273 E0.35175
G1 X142.677 Y118.273 E0.01681
G1 X151.123 Y126.719 E0.37553
G1 X151.123 Y127.253 E0.01681
G1 X142.143 Y118.273 E0.39930
G1 X141.608 Y118.273 E0.01681
G1 X151.123 Y127.788 E0.42308
G1 X151.123 Y128.323 E0.01681
G1 X141.073 Y118.273 E0.44685
G1 X140.539 Y118.273 E0.01681
G1 X151.123 Y128.858 E0.47063
G1 X151.123 Y129.392 E0.01681
G1 X140.004 Y118.273 E0.49440
G1 X139.469 Y118.273 E0.01681
G1 X151.123 Y129.927 E0.51818
G1 X151.123 Y130.462 E0.01681
G1 X138.934 Y118.273 E0.54195
G1 X138.400 Y118.273 E0.01681
G1 X150.635 Y130.508 E0.54403
G1 X150.101 Y130.508 E0.01681
G1 X137.865 Y118.273 E0.54403
G1 X137.330 Y118.273 E0.01681
G1 X149.566 Y130.508 E0.54403
G1 X149.031 Y130.508 E0.01681
G1 X136.795 Y118.273 E0.54403
G1 X136.261 Y118.273 E0.01681
G1 X148.496 Y130.508 E0.54403
G1 X147.962 Y130.508 E0.01681
G1 X135.726 Y118.273 E0.54403
G1 X135.191 Y118.273 E0.01681
G1 X147.427 Y130.508 E0.54403
G1 X146.892 Y130.508 E0.01681
G1 X134.657 Y118.273 E0.54403
G1 X134.122 Y118.273 E0.01681
G1 X146.357 Y130.508 E0.54403
G1 X145.823 Y130.508 E0.01681
G1 X133.587 Y118.273 E0.54403
G1 X133.052 Y118.273 E0.01681
G1 X145.288 Y130.508 E0.54403
G1 X144.753 Y130.508 E0.01681
G1 X132.518 Y118.273 E0.54403
G1 X131.983 Y118.273 E0.01681
G1 X144.219 Y130.508 E0.54403
G1 X143.684 Y130.508 E0.01681
G1 X131.448 Y118.273 E0.54403
G1 X130.913 Y118.273 E0.01681
G1 X143.149 Y130.508 E0.54403
G1 X142.614 Y130.508 E0.01681
G1 X130.379 Y118.273 E0.54403
G1 X129.844 Y118.273 E0.01681
G1 X142.080 Y130.508 E0.54403
G1 X141.545 Y130.508 E0.01681
G1 X129.309 Y118.273 E0.54403
G1 X128.775 Y118.273 E0.01681
G1 X141.010 Y130.508 E0.54403
G1 X140.475 Y130.508 E0.01681
G1 X128.240 Y118.273 E0.54403
G1 X127.705 Y118.273 E0.01681
G1 X139.941 Y130.508 E0.54403
G1 X139.406 Y130.508 E0.01681
G1 X127.170 Y118.273 E0.54403
G1 X126.636 Y118.273 E0.01681
G1 X138.871 Y130.508 E0.54403
G1 X138.337 Y130.508 E0.01681
G1 X126.101 Y118.273 E0.54403
G1 X125.566 Y118.273 E0.01681
G1 X137.802 Y130.508 E0.54403
G1 X137.267 Y130.508 E0.01681
G1 X125.032 Y118.273 E0.54403
G1 X124.497 Y118.273 E0.01681
G1 X136.732 Y130.508 E0.54403
G1 X136.198 Y130.508 E0.01681
G1 X123.962 Y118.273 E0.54403
G1 X123.427 Y118.273 E0.01681
G1 X135.663 Y130.508 E0.54403
G1 X135.128 Y130.508 E0.01681
G1 X122.893 Y118.273 E0.54403
G1 X122.358 Y118.273 E0.01681
G1 X134.594 Y130.508 E0.54403
G1 X134.059 Y130.508 E0.01681
G1 X121.823 Y118.273 E0.54403
G1 X121.288 Y118.273 E0.01681
G1 X133.524 Y130.508 E0.54403
G1 X132.989 Y130.508 E0.01681
G1 X120.754 Y118.273 E0.54403
G1 X120.219 Y118.273 E0.01681
G1 X132.455 Y130.508 E0.54403
M73 P0 R106
G1 X131.920 Y130.508 E0.01681
G1 X119.684 Y118.273 E0.54403
G1 X119.150 Y118.273 E0.01681
G1 X131.385 Y130.508 E0.54403
G1 X130.850 Y130.508 E0.01681
G1 X118.615 Y118.273 E0.54403
G1 X118.080 Y118.273 E0.01681
G1 X130.316 Y130.508 E0.54403
G1 X129.781 Y130.508 E0.01681
G1 X117.545 Y118.273 E0.54403
G1 X117.011 Y118.273 E0.01681
G1 X129.246 Y130.508 E0.54403
G1 X128.712 Y130.508 E0.01681
G1 X116.476 Y118.273 E0.54403
G1 X115.941 Y118.273 E0.01681
G1 X128.177 Y130.508 E0.54403
G1 X127.642 Y130.508 E0.01681
G1 X115.406 Y118.273 E0.54403
G1 X114.872 Y118.273 E0.01681
G1 X127.107 Y130.508 E0.54403
G1 X126.573 Y130.508 E0.01681
G1 X114.337 Y118.273 E0.54403
G1 X113.802 Y118.273 E0.01681
G1 X126.038 Y130.508 E0.54403
G1 X125.503 Y130.508 E0.01681
G1 X113.268 Y118.273 E0.54403
G1 X112.733 Y118.273 E0.01681
G1 X124.968 Y130.508 E0.54403
G1 X124.434 Y130.508 E0.01681
G1 X112.198 Y118.273 E0.54403
G1 X111.663 Y118.273 E0.01681
G1 X123.899 Y130.508 E0.54403
G1 X123.364 Y130.508 E0.01681
G1 X111.129 Y118.273 E0.54403
G1 X110.594 Y118.273 E0.01681
G1 X122.830 Y130.508 E0.54403
G1 X122.295 Y130.508 E0.01681
G1 X110.059 Y118.273 E0.54403
G1 X109.525 Y118.273 E0.01681
G1 X121.760 Y130.508 E0.54403
G1 X121.225 Y130.508 E0.01681
G1 X108.990 Y118.273 E0.54403
G1 X108.455 Y118.273 E0.01681
G1 X120.691 Y130.508 E0.54403
G1 X120.156 Y130.508 E0.01681
G1 X107.920 Y118.273 E0.54403
G1 X107.386 Y118.273 E0.01681
G1 X119.621 Y130.508 E0.54403
G1 X119.087 Y130.508 E0.01681
G1 X106.851 Y118.273 E0.54403
G1 X106.316 Y118.273 E0.01681
G1 X118.552 Y130.508 E0.54403
G1 X118.017 Y130.508 E0.01681
G1 X105.781 Y118.273 E0.54403
G1 X105.247 Y118.273 E0.01681
G1 X117.482 Y130.508 E0.54403
G1 X116.948 Y130.508 E0.01681
G1 X104.712 Y118.273 E0.54403
G1 X104.177 Y118.273 E0.01681
G1 X116.413 Y130.508 E0.54403
G1 X115.878 Y130.508 E0.01681
G1 X103.643 Y118.273 E0.54403
G1 X103.108 Y118.273 E0.01681
G1 X115.343 Y130.508 E0.54403
G1 X114.809 Y130.508 E0.01681
G1 X102.573 Y118.273 E0.54403
G1 X102.038 Y118.273 E0.01681
G1 X114.274 Y130.508 E0.54403
G1 X113.739 Y130.508 E0.01681
G1 X101.504 Y118.273 E0.54403
G1 X100.969 Y118.273 E0.01681
G1 X113.205 Y130.508 E0.54403
G1 X112.670 Y130.508 E0.01681
G1 X100.434 Y118.273 E0.54403
G1 X99.899 Y118.273 E0.01681
G1 X112.135 Y130.508 E0.54403
G1 X111.600 Y130.508 E0.01681
G1 X99.365 Y118.273 E0.54403
G1 X98.877 Y118.273 E0.01535
G1 X98.877 Y118.319 E0.00146
G1 X111.066 Y130.508 E0.54195
G1 X110.531 Y130.508 E0.01681
G1 X98.877 Y118.854 E0.51818
G1 X98.877 Y119.389 E0.01681
G1 X109.996 Y130.508 E0.49440
G1 X109.461 Y130.508 E0.01681
G1 X98.877 Y119.923 E0.47063
G1 X98.877 Y120.458 E0.01681
G1 X108.927 Y130.508 E0.44685
G1 X108.392 Y130.508 E0.01681
G1 X98.877 Y120.993 E0.42308
G1 X98.877 Y121.528 E0.01681
G1 X107.857 Y130.508 E0.39930
G1 X107.323 Y130.508 E0.01681
G1 X98.877 Y122.062 E0.37553
G1 X98.877 Y122.597 E0.01681
G1 X106.788 Y130.508 E0.35175
G1 X106.253 Y130.508 E0.01681
G1 X98.877 Y123.132 E0.32798
G1 X98.877 Y123.666 E0.01681
G1 X105.718 Y130.508 E0.30420
G1 X105.184 Y130.508 E0.01681
G1 X98.877 Y124.201 E0.28043
G1 X98.877 Y124.736 E0.01681
G1 X104.649 Y130.508 E0.25665
G1 X104.114 Y130.508 E0.01681
G1 X98.877 Y125.271 E0.23288
G1 X98.877 Y125.805 E0.01681
G1 X103.580 Y130.508 E0.20910
G1 X103.045 Y130.508 E0.01681
G1 X98.877 Y126.340 E0.18533
G1 X98.877 Y126.875 E0.01681
G1 X102.510 Y130.508 E0.16155
G1 X101.975 Y130.508 E0.01681
G1 X98.877 Y127.410 E0.13778
G1 X98.877 Y127.944 E0.01681
G1 X101.441 Y130.508 E0.11400
G1 X100.906 Y130.508 E0.01681
G1 X98.877 Y128.479 E0.09023
G1 X98.877 Y129.014 E0.01681
G1 X100.371 Y130.508 E0.06645
G1 X99.836 Y130.508 E0.01681
G1 X98.877 Y129.548 E0.04268
G1 X98.877 Y130.083 E0.01681
G1 X99.471 Y130.678 E0.02645
G1 E-0.80000 F2100.00000
G1 Z0.800 F10800.000
G1 X131.240 Y110.690
G1 Z0.200
G1 E0.80000 F2100.00000
G1 F1200.000
G1 X131.240 Y106.087 E0.14433
G1 X118.683 Y106.087 E0.39372
G1 X118.683 Y110.690 E0.14433
G1 X118.340 Y110.690 E0.01074
G1 X118.340 Y106.087 E0.14433
G1 X100.273 Y106.087 E0.56650
G1 X100.273 Y79.209 E0.84274
G1 X149.727 Y79.209 E1.55062
G1 X149.727 Y106.087 E0.84274
G1 X131.716 Y106.087 E0.56473
G1 X131.716 Y110.690 E0.14433
G1 X131.300 Y110.690 E0.01306
G1 E-0.80000 F2100.00000
G1 Z0.800 F10800.000
G1 X122.195 Y111.184
G1 Z0.200
G1 E0.80000 F2100.00000
G1 F1200.000
G1 X119.274 Y111.067 E0.09164
G1 X117.963 Y111.067 E0.04110
G1 X117.963 Y106.464 E0.14433
G1 X99.895 Y106.464 E0.56650
G1 X99.895 Y78.832 E0.86638
G1 X150.105 Y78.832 E1.57427
M73 P1 R105
G1 X150.105 Y106.464 E0.86638
G1 X132.093 Y106.464 E0.56473
G1 X132.093 Y111.067 E0.14433
G1 X127.865 Y111.067 E0.13258
G1 X127.865 Y110.343 E0.02270
G1 X130.863 Y110.343 E0.09400
G1 X130.863 Y106.464 E0.12164
G1 X119.060 Y106.464 E0.37007
G1 X119.060 Y110.343 E0.12164
G1 X122.195 Y110.343 E0.09828
G1 X122.195 Y111.124 E0.02447
G1 X121.797 Y111.138 F10800.000
G1 X122.006 Y110.760
G1 F1200.000
G1 X120.645 Y110.732 E0.05052
G1 X119.285 Y110.705 E0.04489
G1 X118.871 Y110.705 E0.01192
G1 E-0.80000 F2100.00000
G1 Z0.800 F10800.000
G1 X101.150 Y105.974
G1 Z0.200
G1 E0.80000 F2100.00000
G1 F1200.000
G1 X100.555 Y105.379 E0.02646
G1 X100.555 Y104.844 E0.01682
G1 X101.516 Y105.804 E0.04271
G1 X102.050 Y105.804 E0.01682
G1 X100.555 Y104.309 E0.06650
G1 X100.555 Y103.774 E0.01682
G1 X102.585 Y105.804 E0.09029
G1 X103.120 Y105.804 E0.01682
G1 X100.555 Y103.239 E0.11408
G1 X100.555 Y102.704 E0.01682
G1 X103.655 Y105.804 E0.13787
G1 X104.190 Y105.804 E0.01682
G1 X100.555 Y102.169 E0.16166
G1 X100.555 Y101.634 E0.01682
G1 X104.725 Y105.804 E0.18545
G1 X105.260 Y105.804 E0.01682
G1 X100.555 Y101.099 E0.20924
G1 X100.555 Y100.565 E0.01682
G1 X105.795 Y105.804 E0.23303
G1 X106.330 Y105.804 E0.01682
G1 X100.555 Y100.030 E0.25682
G1 X100.555 Y99.495 E0.01682
G1 X106.865 Y105.804 E0.28061
G1 X107.399 Y105.804 E0.01682
G1 X100.555 Y98.960 E0.30440
G1 X100.555 Y98.425 E0.01682
G1 X107.934 Y105.804 E0.32820
G1 X108.469 Y105.804 E0.01682
G1 X100.555 Y97.890 E0.35199
G1 X100.555 Y97.355 E0.01682
G1 X109.004 Y105.804 E0.37578
G1 X109.539 Y105.804 E0.01682
G1 X100.555 Y96.820 E0.39957
G1 X100.555 Y96.285 E0.01682
G1 X110.074 Y105.804 E0.42336
G1 X110.609 Y105.804 E0.01682
G1 X100.555 Y95.750 E0.44715
G1 X100.555 Y95.216 E0.01682
G1 X111.144 Y105.804 E0.47094
G1 X111.679 Y105.804 E0.01682
G1 X100.555 Y94.681 E0.49473
G1 X100.555 Y94.146 E0.01682
G1 X112.214 Y105.804 E0.51852
G1 X112.748 Y105.804 E0.01682
G1 X100.555 Y93.611 E0.54231
G1 X100.555 Y93.076 E0.01682
G1 X113.283 Y105.804 E0.56610
G1 X113.818 Y105.804 E0.01682
G1 X100.555 Y92.541 E0.58989
G1 X100.555 Y92.006 E0.01682
G1 X114.353 Y105.804 E0.61368
G1 X114.888 Y105.804 E0.01682
G1 X100.555 Y91.471 E0.63747
G1 X100.555 Y90.936 E0.01682
G1 X115.423 Y105.804 E0.66126
G1 X115.958 Y105.804 E0.01682
G1 X100.555 Y90.401 E0.68506
G1 X100.555 Y89.867 E0.01682
G1 X116.493 Y105.804 E0.70885
G1 X117.028 Y105.804 E0.01682
G1 X100.555 Y89.332 E0.73264
G1 X100.555 Y88.797 E0.01682
G1 X117.563 Y105.804 E0.75643
G1 X118.097 Y105.804 E0.01682
G1 X100.555 Y88.262 E0.78022
G1 X100.555 Y87.727 E0.01682
G1 X118.632 Y105.804 E0.80401
G1 X119.167 Y105.804 E0.01682
G1 X100.555 Y87.192 E0.82780
G1 X100.555 Y86.657 E0.01682
G1 X119.702 Y105.804 E0.85159
G1 X120.237 Y105.804 E0.01682
G1 X100.555 Y86.122 E0.87538
G1 X100.555 Y85.587 E0.01682
G1 X120.772 Y105.804 E0.89917
G1 X121.307 Y105.804 E0.01682
G1 X100.555 Y85.053 E0.92296
G1 X100.555 Y84.518 E0.01682
G1 X121.842 Y105.804 E0.94675
G1 X122.377 Y105.804 E0.01682
G1 X100.555 Y83.983 E0.97054
G1 X100.555 Y83.448 E0.01682
G1 X122.912 Y105.804 E0.99433
G1 X123.446 Y105.804 E0.01682
G1 X100.555 Y82.913 E1.01812
G1 X100.555 Y82.378 E0.01682
G1 X123.981 Y105.804 E1.04191
G1 X124.516 Y105.804 E0.01682
G1 X100.555 Y81.843 E1.06571
G1 X100.555 Y81.308 E0.01682
G1 X125.051 Y105.804 E1.08950
G1 X125.586 Y105.804 E0.01682
G1 X100.555 Y80.773 E1.11329
G1 X100.555 Y80.238 E0.01682
G1 X126.121 Y105.804 E1.13708
G1 X126.656 Y105.804 E0.01682
G1 X100.555 Y79.704 E1.16087
G1 X100.555 Y79.492 E0.00666
G1 X100.878 Y79.492 E0.01016
G1 X127.191 Y105.804 E1.17029
G1 X127.726 Y105.804 E0.01682
G1 X101.413 Y79.492 E1.17029
G1 X101.948 Y79.492 E0.01682
G1 X128.261 Y105.804 E1.17029
G1 X128.795 Y105.804 E0.01682
G1 X102.483 Y79.492 E1.17029
M73 P2 R104
G1 X103.018 Y79.492 E0.01682
G1 X129.330 Y105.804 E1.17029
G1 X129.865 Y105.804 E0.01682
G1 X103.553 Y79.492 E1.17029
G1 X104.088 Y79.492 E0.01682
G1 X130.400 Y105.804 E1.17029
G1 X130.935 Y105.804 E0.01682
G1 X104.623 Y79.492 E1.17029
G1 X105.158 Y79.492 E0.01682
G1 X131.451 Y105.785 E1.16945
G1 X131.478 Y105.898 F10800.000
G1 F1200.000
G1 X131.478 Y110.502 E0.03802
G1 X131.051 Y110.705 F10800.000
G1 F1200.000
G1 X128.053 Y110.705 E0.08644
G1 E-0.80000 F2100.00000
G1 Z0.800 F10800.000
G1 X132.174 Y105.974
G1 Z0.200
G1 E0.80000 F2100.00000
G1 F1200.000
G1 X105.693 Y79.492 E1.17784
G1 X106.227 Y79.492 E0.01682
G1 X132.540 Y105.804 E1.17029
G1 X133.075 Y105.804 E0.01682
G1 X106.762 Y79.492 E1.17029
G1 X107.297 Y79.492 E0.01682
G1 X133.609 Y105.804 E1.17029
G1 X134.144 Y105.804 E0.01682
G1 X107.832 Y79.492 E1.17029
G1 X108.367 Y79.492 E0.01682
G1 X134.679 Y105.804 E1.17029
G1 X135.214 Y105.804 E0.01682
G1 X108.902 Y79.492 E1.17029
G1 X109.437 Y79.492 E0.01682
G1 X135.749 Y105.804 E1.17029
G1 X136.284 Y105.804 E0.01682
G1 X109.972 Y79.492 E1.17029
G1 X110.507 Y79.492 E0.01682
G1 X136.819 Y105.804 E1.17029
G1 X137.354 Y105.804 E0.01682
G1 X111.042 Y79.492 E1.17029
G1 X111.576 Y79.492 E0.01682
G1 X137.889 Y105.804 E1.17029
G1 X138.424 Y105.804 E0.01682
G1 X112.111 Y79.492 E1.17029
G1 X112.646 Y79.492 E0.01682
G1 X138.958 Y105.804 E1.17029
G1 X139.493 Y105.804 E0.01682
G1 X113.181 Y79.492 E1.17029
G1 X113.716 Y79.492 E0.01682
G1 X140.028 Y105.804 E1.17029
G1 X140.563 Y105.804 E0.01682
G1 X114.251 Y79.492 E1.17029
G1 X114.786 Y79.492 E0.01682
G1 X141.098 Y105.804 E1.17029
G1 X141.633 Y105.804 E0.01682
G1 X115.321 Y79.492 E1.17029
G1 X115.856 Y79.492 E0.01682
G1 X142.168 Y105.804 E1.17029
G1 X142.703 Y105.804 E0.01682
G1 X116.391 Y79.492 E1.17029
G1 X116.925 Y79.492 E0.01682
G1 X143.238 Y105.804 E1.17029
G1 X143.773 Y105.804 E0.01682
G1 X117.460 Y79.492 E1.17029
G1 X117.995 Y79.492 E0.01682
G1 X144.307 Y105.804 E1.17029
G1 X144.842 Y105.804 E0.01682
G1 X118.530 Y79.492 E1.17029
G1 X119.065 Y79.492 E0.01682
G1 X145.377 Y105.804 E1.17029
G1 X145.912 Y105.804 E0.01682
G1 X119.600 Y79.492 E1.17029
