; generated by PrusaSlicer 2.1.1+win64 on 2020-03-06 at 23:32:42 UTC

; 

; external perimeters extrusion width = 0.45mm
; perimeters extrusion width = 0.45mm
; infill extrusion width = 0.45mm
; solid infill extrusion width = 0.45mm
; top infill extrusion width = 0.40mm
; first layer extrusion width = 0.42mm

M73 P0 R152
M201 X9000 Y9000 Z500 E10000 ; sets maximum accelerations, mm/sec^2
M203 X500 Y500 Z12 E120 ; sets maximum feedrates, mm/sec
M204 P2000 R1500 T2000 ; sets acceleration (P, T) and retract acceleration (R), mm/sec^2
M205 X10.00 Y10.00 Z0.20 E2.50 ; sets the jerk limits, mm/sec
M205 S0 T0 ; sets the minimum extruding and travel feed rate, mm/sec
M107
M862.3 P "MK2S" ; printer model check
M862.1 P0.4 ; nozzle diameter check
M115 U3.2.3 ; tell printer latest fw version
G90 ; use absolute coordinates
M83 ; extruder relative mode
M204 S2000 T1500 ; MK2 firmware only supports the old M204 format
M104 S215 ; set extruder temp
M140 S60 ; set bed temp
M190 S60 ; wait for bed temp
M109 S215 ; wait for extruder temp
G28 W ; home all without mesh bed level
G80 ; mesh bed leveling
G1 Y-3.0 F1000.0 ; go outside print area
G92 E0.0
G1 X60.0 E9.0  F1000.0 ; intro line
M73 P0 R152
G1 X100.0 E12.5 F1000.0 ; intro line
G92 E0.0
G21 ; set units to millimeters
G90 ; use absolute coordinates
M83 ; use relative distances for extrusion
M900 K30 ; Filament gcode
;BEFORE_LAYER_CHANGE
G92 E0.0
;0.2


G1 E-0.80000 F2100.00000
G1 Z0.600 F10800.000
;AFTER_LAYER_CHANGE
;0.2
G1 X132.805 Y92.909
G1 Z0.200
G1 E0.80000 F2100.00000
M204 S1000
G1 F1200
G1 X132.251 Y92.854 E0.01746
G1 X131.718 Y92.693 E0.01746
G1 X131.227 Y92.430 E0.01746
G1 X130.797 Y92.077 E0.01746
G1 X130.444 Y91.647 E0.01746
G1 X130.182 Y91.156 E0.01746
G1 X130.020 Y90.623 E0.01746
G1 X129.965 Y90.069 E0.01746
G1 X130.020 Y89.515 E0.01746
G1 X130.182 Y88.982 E0.01746
G1 X130.444 Y88.491 E0.01746
G1 X130.797 Y88.061 E0.01746
G1 X131.227 Y87.708 E0.01746
G1 X131.718 Y87.445 E0.01746
G1 X132.251 Y87.284 E0.01746
G1 X132.789 Y87.231 E0.01694
G1 X133.358 Y87.283 E0.01791
G1 X133.892 Y87.445 E0.01751
G1 X134.383 Y87.708 E0.01746
G1 X134.813 Y88.061 E0.01746
G1 X135.167 Y88.491 E0.01746
G1 X135.429 Y88.982 E0.01746
G1 X135.591 Y89.515 E0.01746
G1 X135.645 Y90.069 E0.01746
G1 X135.591 Y90.623 E0.01746
G1 X135.429 Y91.156 E0.01746
G1 X135.167 Y91.647 E0.01746
G1 X134.813 Y92.077 E0.01746
G1 X134.383 Y92.430 E0.01746
G1 X133.892 Y92.693 E0.01746
G1 X133.359 Y92.854 E0.01746
G1 X132.865 Y92.903 E0.01557
G1 X132.805 Y92.530 F10800.000
G1 F1200
G1 X132.325 Y92.483 E0.01513
G1 X131.863 Y92.343 E0.01513
G1 X131.438 Y92.115 E0.01513
G1 X131.065 Y91.809 E0.01513
G1 X130.759 Y91.436 E0.01513
G1 X130.532 Y91.011 E0.01513
G1 X130.392 Y90.549 E0.01513
G1 X130.344 Y90.069 E0.01513
G1 X130.392 Y89.589 E0.01513
G1 X130.532 Y89.127 E0.01513
G1 X130.759 Y88.702 E0.01513
G1 X131.065 Y88.329 E0.01513
G1 X131.438 Y88.023 E0.01513
G1 X131.863 Y87.795 E0.01513
G1 X132.325 Y87.655 E0.01513
G1 X132.790 Y87.610 E0.01464
G1 X133.285 Y87.655 E0.01558
G1 X133.747 Y87.795 E0.01515
G1 X134.173 Y88.023 E0.01513
G1 X134.545 Y88.329 E0.01513
G1 X134.852 Y88.702 E0.01513
G1 X135.079 Y89.127 E0.01513
G1 X135.219 Y89.589 E0.01513
G1 X135.266 Y90.069 E0.01513
G1 X135.219 Y90.549 E0.01513
G1 X135.079 Y91.011 E0.01513
G1 X134.852 Y91.436 E0.01513
G1 X134.545 Y91.809 E0.01513
G1 X134.173 Y92.115 E0.01513
G1 X133.747 Y92.343 E0.01513
G1 X133.285 Y92.483 E0.01513
G1 X132.865 Y92.524 E0.01325
G1 X132.605 Y92.877 F10800.000
G1 E-0.80000 F2100.00000
G1 Z0.800 F10800.000
G1 X125.000 Y124.067
G1 Z0.200
G1 E0.80000 F2100.00000
G1 F1200
G1 X94.040 Y124.067 E0.97074
G1 X94.040 Y95.534 E0.89463
G1 X128.214 Y95.534 E1.07151
G1 X128.214 Y85.590 E0.31179
G1 X137.040 Y85.590 E0.27673
G1 X137.040 Y95.534 E0.31179
G1 X155.960 Y95.534 E0.59324
G1 X155.960 Y124.067 E0.89463
G1 X125.060 Y124.067 E0.96886
G1 X125.000 Y124.444 F10800.000
G1 F1200
G1 X93.663 Y124.444 E0.98256
G1 X93.663 Y95.157 E0.91828
G1 X127.837 Y95.157 E1.07151
G1 X127.837 Y85.213 E0.31179
G1 X137.417 Y85.213 E0.30037
G1 X137.417 Y95.157 E0.31179
G1 X156.337 Y95.157 E0.59324
G1 X156.337 Y124.444 E0.91828
G1 X125.060 Y124.444 E0.98068
G1 X124.720 Y124.158 F10800.000
G1 E-0.80000 F2100.00000
G1 Z0.800 F10800.000
G1 X94.919 Y123.954
G1 Z0.200
G1 E0.80000 F2100.00000
G1 F1200
G1 X94.322 Y123.357 E0.02661
G1 X94.322 Y122.821 E0.01690
G1 X95.286 Y123.784 E0.04295
G1 X95.822 Y123.784 E0.01690
G1 X94.322 Y122.285 E0.06686
G1 X94.322 Y121.749 E0.01690
G1 X96.358 Y123.784 E0.09076
G1 X96.894 Y123.784 E0.01690
G1 X94.322 Y121.213 E0.11466
G1 X94.322 Y120.676 E0.01690
G1 X97.431 Y123.784 E0.13857
G1 X97.967 Y123.784 E0.01690
G1 X94.322 Y120.140 E0.16247
G1 X94.322 Y119.604 E0.01690
G1 X98.503 Y123.784 E0.18638
G1 X99.039 Y123.784 E0.01690
G1 X94.322 Y119.068 E0.21028
G1 X94.322 Y118.532 E0.01690
G1 X99.575 Y123.784 E0.23418
G1 X100.111 Y123.784 E0.01690
G1 X94.322 Y117.995 E0.25809
G1 X94.322 Y117.459 E0.01690
G1 X100.648 Y123.784 E0.28199
G1 X101.184 Y123.784 E0.01690
G1 X94.322 Y116.923 E0.30590
G1 X94.322 Y116.387 E0.01690
G1 X101.720 Y123.784 E0.32980
G1 X102.256 Y123.784 E0.01690
G1 X94.322 Y115.851 E0.35370
G1 X94.322 Y115.315 E0.01690
G1 X102.792 Y123.784 E0.37761
G1 X103.328 Y123.784 E0.01690
G1 X94.322 Y114.778 E0.40151
G1 X94.322 Y114.242 E0.01690
G1 X103.865 Y123.784 E0.42542
G1 X104.401 Y123.784 E0.01690
G1 X94.322 Y113.706 E0.44932
G1 X94.322 Y113.170 E0.01690
G1 X104.937 Y123.784 E0.47322
G1 X105.473 Y123.784 E0.01690
G1 X94.322 Y112.634 E0.49713
G1 X94.322 Y112.098 E0.01690
G1 X106.009 Y123.784 E0.52103
G1 X106.545 Y123.784 E0.01690
G1 X94.322 Y111.561 E0.54494
G1 X94.322 Y111.025 E0.01690
G1 X107.082 Y123.784 E0.56884
G1 X107.618 Y123.784 E0.01690
G1 X94.322 Y110.489 E0.59274
G1 X94.322 Y109.953 E0.01690
G1 X108.154 Y123.784 E0.61665
G1 X108.690 Y123.784 E0.01690
G1 X94.322 Y109.417 E0.64055
G1 X94.322 Y108.881 E0.01690
G1 X109.226 Y123.784 E0.66446
G1 X109.762 Y123.784 E0.01690
G1 X94.322 Y108.344 E0.68836
G1 X94.322 Y107.808 E0.01690
G1 X110.299 Y123.784 E0.71226
G1 X110.835 Y123.784 E0.01690
G1 X94.322 Y107.272 E0.73617
G1 X94.322 Y106.736 E0.01690
G1 X111.371 Y123.784 E0.76007
G1 X111.907 Y123.784 E0.01690
G1 X94.322 Y106.200 E0.78398
G1 X94.322 Y105.664 E0.01690
G1 X112.443 Y123.784 E0.80788
G1 X112.979 Y123.784 E0.01690
G1 X94.322 Y105.127 E0.83178
G1 X94.322 Y104.591 E0.01690
G1 X113.516 Y123.784 E0.85569
G1 X114.052 Y123.784 E0.01690
G1 X94.322 Y104.055 E0.87959
G1 X94.322 Y103.519 E0.01690
G1 X114.588 Y123.784 E0.90350
G1 X115.124 Y123.784 E0.01690
G1 X94.322 Y102.983 E0.92740
G1 X94.322 Y102.447 E0.01690
G1 X115.660 Y123.784 E0.95130
G1 X116.197 Y123.784 E0.01690
G1 X94.322 Y101.910 E0.97521
M73 P0 R151
G1 X94.322 Y101.374 E0.01690
G1 X116.733 Y123.784 E0.99911
G1 X117.269 Y123.784 E0.01690
G1 X94.322 Y100.838 E1.02302
G1 X94.322 Y100.302 E0.01690
G1 X117.805 Y123.784 E1.04692
G1 X118.341 Y123.784 E0.01690
G1 X94.322 Y99.766 E1.07082
G1 X94.322 Y99.230 E0.01690
G1 X118.877 Y123.784 E1.09473
G1 X119.414 Y123.784 E0.01690
G1 X94.322 Y98.693 E1.11863
G1 X94.322 Y98.157 E0.01690
G1 X119.950 Y123.784 E1.14254
G1 X120.486 Y123.784 E0.01690
G1 X94.322 Y97.621 E1.16644
G1 X94.322 Y97.085 E0.01690
G1 X121.022 Y123.784 E1.19034
G1 X121.558 Y123.784 E0.01690
G1 X94.322 Y96.549 E1.21425
G1 X94.322 Y96.012 E0.01690
G1 X122.094 Y123.784 E1.23815
G1 X122.631 Y123.784 E0.01690
G1 X94.663 Y95.817 E1.24687
G1 X95.199 Y95.817 E0.01690
G1 X123.167 Y123.784 E1.24687
G1 X123.703 Y123.784 E0.01690
G1 X95.735 Y95.817 E1.24687
G1 X96.272 Y95.817 E0.01690
G1 X124.239 Y123.784 E1.24687
G1 X124.775 Y123.784 E0.01690
G1 X96.808 Y95.817 E1.24687
G1 X97.344 Y95.817 E0.01690
G1 X125.311 Y123.784 E1.24687
G1 X125.848 Y123.784 E0.01690
G1 X97.880 Y95.817 E1.24687
G1 X98.416 Y95.817 E0.01690
G1 X126.384 Y123.784 E1.24687
G1 X126.920 Y123.784 E0.01690
G1 X98.952 Y95.817 E1.24687
G1 X99.489 Y95.817 E0.01690
G1 X127.456 Y123.784 E1.24687
G1 X127.992 Y123.784 E0.01690
G1 X100.025 Y95.817 E1.24687
G1 X100.561 Y95.817 E0.01690
G1 X128.528 Y123.784 E1.24687
G1 X129.065 Y123.784 E0.01690
G1 X101.097 Y95.817 E1.24687
G1 X101.633 Y95.817 E0.01690
G1 X129.601 Y123.784 E1.24687
G1 X130.137 Y123.784 E0.01690
G1 X102.169 Y95.817 E1.24687
G1 X102.706 Y95.817 E0.01690
G1 X130.673 Y123.784 E1.24687
G1 X131.209 Y123.784 E0.01690
G1 X103.242 Y95.817 E1.24687
G1 X103.778 Y95.817 E0.01690
G1 X131.745 Y123.784 E1.24687
G1 X132.282 Y123.784 E0.01690
G1 X104.314 Y95.817 E1.24687
G1 X104.850 Y95.817 E0.01690
G1 X132.818 Y123.784 E1.24687
M73 P1 R150
G1 X133.354 Y123.784 E0.01690
G1 X105.386 Y95.817 E1.24687
G1 X105.923 Y95.817 E0.01690
G1 X133.890 Y123.784 E1.24687
G1 X134.426 Y123.784 E0.01690
G1 X106.459 Y95.817 E1.24687
G1 X106.995 Y95.817 E0.01690
G1 X134.962 Y123.784 E1.24687
G1 X135.499 Y123.784 E0.01690
G1 X107.531 Y95.817 E1.24687
G1 X108.067 Y95.817 E0.01690
G1 X136.035 Y123.784 E1.24687
G1 X136.571 Y123.784 E0.01690
G1 X108.604 Y95.817 E1.24687
G1 X109.140 Y95.817 E0.01690
G1 X137.107 Y123.784 E1.24687
G1 X137.643 Y123.784 E0.01690
G1 X109.676 Y95.817 E1.24687
G1 X110.212 Y95.817 E0.01690
G1 X138.180 Y123.784 E1.24687
G1 X138.716 Y123.784 E0.01690
G1 X110.748 Y95.817 E1.24687
G1 X111.284 Y95.817 E0.01690
G1 X139.252 Y123.784 E1.24687
G1 X139.788 Y123.784 E0.01690
G1 X111.821 Y95.817 E1.24687
G1 X112.357 Y95.817 E0.01690
G1 X140.324 Y123.784 E1.24687
G1 X140.860 Y123.784 E0.01690
G1 X112.893 Y95.817 E1.24687
G1 X113.429 Y95.817 E0.01690
G1 X141.397 Y123.784 E1.24687
G1 X141.933 Y123.784 E0.01690
G1 X113.965 Y95.817 E1.24687
G1 X114.501 Y95.817 E0.01690
G1 X142.469 Y123.784 E1.24687
G1 X143.005 Y123.784 E0.01690
G1 X115.038 Y95.817 E1.24687
G1 X115.574 Y95.817 E0.01690
G1 X143.541 Y123.784 E1.24687
G1 X144.077 Y123.784 E0.01690
G1 X116.110 Y95.817 E1.24687
G1 X116.646 Y95.817 E0.01690
G1 X144.614 Y123.784 E1.24687
G1 X145.150 Y123.784 E0.01690
G1 X117.182 Y95.817 E1.24687
G1 X117.718 Y95.817 E0.01690
G1 X145.686 Y123.784 E1.24687
G1 X146.222 Y123.784 E0.01690
G1 X118.255 Y95.817 E1.24687
G1 X118.791 Y95.817 E0.01690
G1 X146.758 Y123.784 E1.24687
G1 X147.294 Y123.784 E0.01690
G1 X119.327 Y95.817 E1.24687
G1 X119.863 Y95.817 E0.01690
G1 X147.831 Y123.784 E1.24687
G1 X148.367 Y123.784 E0.01690
G1 X120.399 Y95.817 E1.24687
G1 X120.935 Y95.817 E0.01690
G1 X148.903 Y123.784 E1.24687
M73 P2 R149
G1 X149.439 Y123.784 E0.01690
G1 X121.472 Y95.817 E1.24687
G1 X122.008 Y95.817 E0.01690
G1 X149.975 Y123.784 E1.24687
G1 X150.511 Y123.784 E0.01690
G1 X122.544 Y95.817 E1.24687
G1 X123.080 Y95.817 E0.01690
G1 X151.048 Y123.784 E1.24687
G1 X151.584 Y123.784 E0.01690
G1 X123.616 Y95.817 E1.24687
G1 X124.152 Y95.817 E0.01690
G1 X152.120 Y123.784 E1.24687
G1 X152.656 Y123.784 E0.01690
G1 X124.689 Y95.817 E1.24687
G1 X125.225 Y95.817 E0.01690
G1 X153.192 Y123.784 E1.24687
G1 X153.728 Y123.784 E0.01690
G1 X125.761 Y95.817 E1.24687
G1 X126.297 Y95.817 E0.01690
G1 X154.265 Y123.784 E1.24687
G1 X154.801 Y123.784 E0.01690
G1 X126.833 Y95.817 E1.24687
G1 X127.369 Y95.817 E0.01690
G1 X155.337 Y123.784 E1.24687
G1 X155.678 Y123.784 E0.01074
G1 X155.678 Y123.589 E0.00616
G1 X127.906 Y95.817 E1.23815
G1 X128.442 Y95.817 E0.01690
G1 X155.678 Y123.053 E1.21425
G1 X155.678 Y122.517 E0.01690
G1 X128.497 Y95.336 E1.21180
G1 X128.497 Y94.800 E0.01690
G1 X155.678 Y121.980 E1.21180
G1 X155.678 Y121.444 E0.01690
G1 X128.497 Y94.263 E1.21180
G1 X128.497 Y93.727 E0.01690
G1 X155.678 Y120.908 E1.21180
G1 X155.678 Y120.372 E0.01690
G1 X128.497 Y93.191 E1.21180
G1 X128.497 Y92.655 E0.01690
G1 X155.678 Y119.836 E1.21180
G1 X155.678 Y119.300 E0.01690
G1 X128.497 Y92.119 E1.21180
G1 X128.497 Y91.583 E0.01690
G1 X155.678 Y118.763 E1.21180
G1 X155.678 Y118.227 E0.01690
G1 X128.497 Y91.046 E1.21180
G1 X128.497 Y90.510 E0.01690
G1 X155.847 Y117.861 E1.21936
G1 X155.847 Y115.180 F10800.000
G1 F1200
G1 X133.711 Y93.043 E0.98691
G1 X133.415 Y93.133 E0.00975
G1 X133.278 Y93.147 E0.00434
G1 X155.678 Y115.546 E0.99864
G1 X155.678 Y116.083 E0.01690
G1 X132.786 Y93.191 E1.02055
G1 X132.190 Y93.132 E0.01888
G1 X155.678 Y116.619 E1.04712
G1 X155.678 Y117.155 E0.01690
G1 X128.497 Y89.974 E1.21180
G1 X128.497 Y89.438 E0.01690
G1 X129.743 Y90.684 E0.05555
G1 X129.683 Y90.088 E0.01888
G1 X128.497 Y88.902 E0.05288
G1 X128.497 Y88.366 E0.01690
G1 X129.728 Y89.596 E0.05488
G1 X129.741 Y89.460 E0.00433
G1 X129.831 Y89.164 E0.00975
G1 X128.497 Y87.829 E0.05948
G1 X128.497 Y87.293 E0.01690
G1 X129.974 Y88.770 E0.06586
G1 X130.161 Y88.421 E0.01249
G1 X128.497 Y86.757 E0.07419
G1 X128.497 Y86.221 E0.01690
G1 X130.389 Y88.113 E0.08435
G1 X130.638 Y87.826 E0.01198
G1 X128.685 Y85.873 E0.08707
G1 X129.221 Y85.873 E0.01690
G1 X130.932 Y87.584 E0.07629
G1 X131.070 Y87.472 E0.00560
G1 X131.256 Y87.372 E0.00667
G1 X129.757 Y85.873 E0.06683
G1 X130.293 Y85.873 E0.01690
G1 X131.606 Y87.185 E0.05850
G1 X132.016 Y87.060 E0.01354
G1 X130.830 Y85.873 E0.05290
G1 X131.366 Y85.873 E0.01690
G1 X132.471 Y86.978 E0.04927
G1 X132.788 Y86.947 E0.01004
G1 X132.995 Y86.966 E0.00656
G1 X131.902 Y85.873 E0.04873
G1 X132.438 Y85.873 E0.01690
G1 X133.893 Y87.327 E0.06484
G1 X135.547 Y88.982 F10800.000
G1 F1200
G1 X136.757 Y90.192 E0.05395
G1 X136.757 Y90.728 E0.01690
G1 X135.911 Y89.882 E0.03773
G1 X135.929 Y90.069 E0.00593
G1 X135.896 Y90.403 E0.01059
G1 X136.757 Y91.264 E0.03837
G1 X136.757 Y91.800 E0.01690
G1 X135.815 Y90.858 E0.04201
G1 X135.689 Y91.269 E0.01354
G1 X136.757 Y92.336 E0.04760
G1 X136.757 Y92.873 E0.01690
G1 X135.503 Y91.618 E0.05593
G1 X135.403 Y91.805 E0.00667
G1 X135.290 Y91.942 E0.00560
G1 X136.757 Y93.409 E0.06540
G1 X136.757 Y93.945 E0.01690
G1 X135.049 Y92.236 E0.07617
G1 X134.762 Y92.486 E0.01198
G1 X136.757 Y94.481 E0.08897
G1 X136.757 Y95.017 E0.01690
G1 X134.453 Y92.714 E0.10271
G1 X134.104 Y92.900 E0.01249
G1 X155.678 Y114.474 E0.96182
M73 P2 R148
G1 X155.678 Y113.938 E0.01690
G1 X137.557 Y95.817 E0.80788
G1 X138.093 Y95.817 E0.01690
G1 X155.678 Y113.402 E0.78398
G1 X155.678 Y112.866 E0.01690
G1 X138.629 Y95.817 E0.76007
G1 X139.165 Y95.817 E0.01690
G1 X155.678 Y112.329 E0.73617
G1 X155.678 Y111.793 E0.01690
G1 X139.701 Y95.817 E0.71226
G1 X140.238 Y95.817 E0.01690
G1 X155.678 Y111.257 E0.68836
G1 X155.678 Y110.721 E0.01690
G1 X140.774 Y95.817 E0.66446
G1 X141.310 Y95.817 E0.01690
G1 X155.678 Y110.185 E0.64055
G1 X155.678 Y109.648 E0.01690
G1 X141.846 Y95.817 E0.61665
G1 X142.382 Y95.817 E0.01690
G1 X155.678 Y109.112 E0.59274
G1 X155.678 Y108.576 E0.01690
G1 X142.918 Y95.817 E0.56884
G1 X143.455 Y95.817 E0.01690
G1 X155.678 Y108.040 E0.54494
G1 X155.678 Y107.504 E0.01690
G1 X143.991 Y95.817 E0.52103
G1 X144.527 Y95.817 E0.01690
G1 X155.678 Y106.968 E0.49713
G1 X155.678 Y106.431 E0.01690
G1 X145.063 Y95.817 E0.47322
G1 X145.599 Y95.817 E0.01690
G1 X155.678 Y105.895 E0.44932
G1 X155.678 Y105.359 E0.01690
G1 X146.135 Y95.817 E0.42542
G1 X146.672 Y95.817 E0.01690
G1 X155.678 Y104.823 E0.40151
G1 X155.678 Y104.287 E0.01690
G1 X147.208 Y95.817 E0.37761
G1 X147.744 Y95.817 E0.01690
G1 X155.678 Y103.751 E0.35370
G1 X155.678 Y103.214 E0.01690
G1 X148.280 Y95.817 E0.32980
G1 X148.816 Y95.817 E0.01690
G1 X155.678 Y102.678 E0.30590
G1 X155.678 Y102.142 E0.01690
G1 X149.352 Y95.817 E0.28199
G1 X149.889 Y95.817 E0.01690
G1 X155.678 Y101.606 E0.25809
G1 X155.678 Y101.070 E0.01690
G1 X150.425 Y95.817 E0.23418
G1 X150.961 Y95.817 E0.01690
G1 X155.678 Y100.534 E0.21028
G1 X155.678 Y99.997 E0.01690
G1 X151.497 Y95.817 E0.18638
G1 X152.033 Y95.817 E0.01690
G1 X155.678 Y99.461 E0.16247
G1 X155.678 Y98.925 E0.01690
G1 X152.570 Y95.817 E0.13857
G1 X153.106 Y95.817 E0.01690
G1 X155.678 Y98.389 E0.11466
G1 X155.678 Y97.853 E0.01690
G1 X153.642 Y95.817 E0.09076
G1 X154.178 Y95.817 E0.01690
G1 X155.678 Y97.317 E0.06686
G1 X155.678 Y96.780 E0.01690
G1 X154.714 Y95.817 E0.04295
G1 X155.250 Y95.817 E0.01690
G1 X155.847 Y96.414 E0.02661
G1 E-0.80000 F2100.00000
G1 Z0.800 F10800.000
G1 X136.927 Y89.825
G1 Z0.200
G1 E0.80000 F2100.00000
G1 F1200
G1 X132.974 Y85.873 E0.17621
G1 X133.510 Y85.873 E0.01690
G1 X136.757 Y89.119 E0.14474
G1 X136.757 Y88.583 E0.01690
