; generated by PrusaSlicer 2.1.1+win64 on 2020-01-14 at 19:34:22 UTC

; 

; external perimeters extrusion width = 0.45mm
; perimeters extrusion width = 0.45mm
; infill extrusion width = 0.45mm
; solid infill extrusion width = 0.45mm
; top infill extrusion width = 0.40mm
; first layer extrusion width = 0.42mm

M73 P0 R19
M201 X9000 Y9000 Z500 E10000 ; sets maximum accelerations, mm/sec^2
M203 X500 Y500 Z12 E120 ; sets maximum feedrates, mm/sec
M204 P2000 R1500 T2000 ; sets acceleration (P, T) and retract acceleration (R), mm/sec^2
M205 X10.00 Y10.00 Z0.20 E2.50 ; sets the jerk limits, mm/sec
M205 S0 T0 ; sets the minimum extruding and travel feed rate, mm/sec
M107
M862.3 P "MK2S" ; printer model check
M862.1 P0.4 ; nozzle diameter check
M115 U3.2.3 ; tell printer latest fw version
G90 ; use absolute coordinates
M83 ; extruder relative mode
M204 S2000 T1500 ; MK2 firmware only supports the old M204 format
M104 S215 ; set extruder temp
M140 S60 ; set bed temp
M190 S60 ; wait for bed temp
M109 S215 ; wait for extruder temp
G28 W ; home all without mesh bed level
G80 ; mesh bed leveling
G1 Y-3.0 F1000.0 ; go outside print area
G92 E0.0
G1 X60.0 E9.0  F1000.0 ; intro line
M73 P0 R19
G1 X100.0 E12.5 F1000.0 ; intro line
G92 E0.0
G21 ; set units to millimeters
G90 ; use absolute coordinates
M83 ; use relative distances for extrusion
M900 K30 ; Filament gcode
;BEFORE_LAYER_CHANGE
G92 E0.0
;0.2


G1 E-0.80000 F2100.00000
G1 Z0.600 F10800.000
;AFTER_LAYER_CHANGE
;0.2
G1 X97.059 Y89.869
G1 Z0.200
G1 E0.80000 F2100.00000
M204 S1000
G1 F1200
G1 X97.937 Y89.654 E0.02833
G1 X152.026 Y89.653 E1.69594
G1 X152.745 Y89.786 E0.02293
G1 X153.383 Y90.151 E0.02304
G1 X153.896 Y90.760 E0.02496
G1 X154.157 Y91.511 E0.02496
G1 X156.668 Y111.611 E0.63512
G1 X156.674 Y118.294 E0.20952
G1 X156.527 Y118.958 E0.02134
G1 X156.180 Y119.548 E0.02146
G1 X155.835 Y119.884 E0.01510
G1 X155.429 Y120.135 E0.01498
G1 X154.974 Y120.293 E0.01510
G1 X154.499 Y120.347 E0.01498
G1 X95.492 Y120.347 E1.85012
G1 X94.745 Y120.209 E0.02383
G1 X94.090 Y119.823 E0.02383
G1 X93.568 Y119.167 E0.02631
G1 X93.331 Y118.362 E0.02631
G1 X93.328 Y111.649 E0.21046
G1 X95.840 Y91.534 E0.63561
G1 X96.013 Y90.939 E0.01942
G1 X96.343 Y90.420 E0.01930
G1 X97.012 Y89.905 E0.02645
G1 E-0.80000 F2100.00000
G1 Z0.800 F10800.000
G1 X125.000 Y117.572
G1 Z0.200
G1 E0.80000 F2100.00000
G1 F1200
G1 X96.098 Y117.572 E0.90622
G1 X96.098 Y112.405 E0.16201
G1 X97.991 Y112.405 E0.05936
G1 X97.991 Y116.800 E0.13781
G1 X102.165 Y116.800 E0.13088
G1 X102.165 Y112.405 E0.13781
G1 X153.902 Y112.405 E1.62220
G1 X153.902 Y117.572 E0.16201
G1 X125.060 Y117.572 E0.90433
G1 X125.000 Y117.949 F10800.000
G1 F1200
G1 X95.720 Y117.949 E0.91804
G1 X95.720 Y112.028 E0.18565
G1 X98.368 Y112.028 E0.08300
G1 X98.368 Y116.423 E0.13781
G1 X101.788 Y116.423 E0.10723
G1 X101.788 Y112.028 E0.13781
G1 X154.280 Y112.028 E1.64584
G1 X154.280 Y117.949 E0.18565
G1 X125.060 Y117.949 E0.91616
G1 X124.777 Y117.616 F10800.000
G1 E-0.80000 F2100.00000
G1 Z0.800 F10800.000
G1 X101.578 Y112.015
G1 Z0.200
G1 E0.80000 F2100.00000
G1 F1200
G1 X98.578 Y112.015 E0.09861
G1 X97.877 Y113.315 F10800.000
G1 F1200
G1 X97.249 Y112.687 E0.02908
G1 X96.693 Y112.687 E0.01824
G1 X97.708 Y113.703 E0.04702
G1 X97.708 Y114.260 E0.01824
G1 X96.380 Y112.932 E0.06147
G1 X96.380 Y113.489 E0.01824
G1 X97.708 Y114.817 E0.06147
G1 X97.708 Y115.373 E0.01824
G1 X96.380 Y114.046 E0.06147
G1 X96.380 Y114.603 E0.01824
G1 X97.708 Y115.930 E0.06147
G1 X97.708 Y116.487 E0.01824
G1 X96.380 Y115.160 E0.06147
G1 X96.380 Y115.717 E0.01824
G1 X97.519 Y116.856 E0.05274
G1 X97.519 Y117.289 E0.01418
G1 X97.395 Y117.289 E0.00405
G1 X96.380 Y116.274 E0.04701
G1 X96.380 Y116.831 E0.01824
G1 X97.008 Y117.458 E0.02908
G1 X97.802 Y117.186 F10800.000
G1 F1200
G1 X102.353 Y117.186 E0.14931
G1 X102.278 Y116.503 F10800.000
G1 F1200
G1 X103.064 Y117.289 E0.03506
G1 X103.600 Y117.289 E0.01693
G1 X102.448 Y116.136 E0.05143
G1 X102.448 Y115.599 E0.01693
G1 X104.137 Y117.289 E0.07537
G1 X104.673 Y117.289 E0.01693
G1 X102.448 Y115.063 E0.09931
G1 X102.448 Y114.526 E0.01693
G1 X105.210 Y117.289 E0.12325
G1 X105.747 Y117.289 E0.01693
G1 X102.448 Y113.990 E0.14719
G1 X102.448 Y113.453 E0.01693
G1 X106.283 Y117.289 E0.17113
G1 X106.820 Y117.289 E0.01693
G1 X102.448 Y112.917 E0.19507
G1 X102.448 Y112.687 E0.00723
G1 X102.755 Y112.687 E0.00970
G1 X107.356 Y117.289 E0.20529
G1 X107.893 Y117.289 E0.01693
G1 X103.292 Y112.687 E0.20529
G1 X103.828 Y112.687 E0.01693
G1 X108.429 Y117.289 E0.20529
G1 X108.966 Y117.289 E0.01693
G1 X104.365 Y112.687 E0.20529
G1 X104.901 Y112.687 E0.01693
G1 X109.503 Y117.289 E0.20529
G1 X110.039 Y117.289 E0.01693
G1 X105.438 Y112.687 E0.20529
G1 X105.974 Y112.687 E0.01693
G1 X110.576 Y117.289 E0.20529
G1 X111.112 Y117.289 E0.01693
G1 X106.511 Y112.687 E0.20529
G1 X107.047 Y112.687 E0.01693
G1 X111.649 Y117.289 E0.20529
G1 X112.185 Y117.289 E0.01693
G1 X107.584 Y112.687 E0.20529
G1 X108.121 Y112.687 E0.01693
G1 X112.722 Y117.289 E0.20529
G1 X113.258 Y117.289 E0.01693
G1 X108.657 Y112.687 E0.20529
G1 X109.194 Y112.687 E0.01693
G1 X113.795 Y117.289 E0.20529
G1 X114.332 Y117.289 E0.01693
G1 X109.730 Y112.687 E0.20529
G1 X110.267 Y112.687 E0.01693
G1 X114.868 Y117.289 E0.20529
G1 X115.405 Y117.289 E0.01693
G1 X110.803 Y112.687 E0.20529
G1 X111.340 Y112.687 E0.01693
G1 X115.941 Y117.289 E0.20529
G1 X116.478 Y117.289 E0.01693
G1 X111.877 Y112.687 E0.20529
G1 X112.413 Y112.687 E0.01693
G1 X117.014 Y117.289 E0.20529
G1 X117.551 Y117.289 E0.01693
G1 X112.950 Y112.687 E0.20529
G1 X113.486 Y112.687 E0.01693
G1 X118.088 Y117.289 E0.20529
G1 X118.624 Y117.289 E0.01693
G1 X114.023 Y112.687 E0.20529
G1 X114.559 Y112.687 E0.01693
G1 X119.161 Y117.289 E0.20529
G1 X119.697 Y117.289 E0.01693
G1 X115.096 Y112.687 E0.20529
G1 X115.632 Y112.687 E0.01693
G1 X120.234 Y117.289 E0.20529
G1 X120.770 Y117.289 E0.01693
G1 X116.169 Y112.687 E0.20529
G1 X116.706 Y112.687 E0.01693
G1 X121.307 Y117.289 E0.20529
G1 X121.843 Y117.289 E0.01693
G1 X117.242 Y112.687 E0.20529
G1 X117.779 Y112.687 E0.01693
G1 X122.380 Y117.289 E0.20529
G1 X122.917 Y117.289 E0.01693
G1 X118.315 Y112.687 E0.20529
G1 X118.852 Y112.687 E0.01693
G1 X123.453 Y117.289 E0.20529
G1 X123.990 Y117.289 E0.01693
G1 X119.388 Y112.687 E0.20529
G1 X119.925 Y112.687 E0.01693
G1 X124.526 Y117.289 E0.20529
G1 X125.063 Y117.289 E0.01693
G1 X120.462 Y112.687 E0.20529
G1 X120.998 Y112.687 E0.01693
G1 X125.599 Y117.289 E0.20529
G1 X126.136 Y117.289 E0.01693
G1 X121.535 Y112.687 E0.20529
G1 X122.071 Y112.687 E0.01693
G1 X126.673 Y117.289 E0.20529
G1 X127.209 Y117.289 E0.01693
G1 X122.608 Y112.687 E0.20529
G1 X123.144 Y112.687 E0.01693
G1 X127.746 Y117.289 E0.20529
G1 X128.282 Y117.289 E0.01693
G1 X123.681 Y112.687 E0.20529
G1 X124.217 Y112.687 E0.01693
G1 X128.819 Y117.289 E0.20529
G1 X129.355 Y117.289 E0.01693
G1 X124.754 Y112.687 E0.20529
G1 X125.291 Y112.687 E0.01693
G1 X129.892 Y117.289 E0.20529
G1 X130.428 Y117.289 E0.01693
G1 X125.827 Y112.687 E0.20529
G1 X126.364 Y112.687 E0.01693
G1 X130.965 Y117.289 E0.20529
G1 X131.502 Y117.289 E0.01693
G1 X126.900 Y112.687 E0.20529
G1 X127.437 Y112.687 E0.01693
G1 X132.038 Y117.289 E0.20529
G1 X132.575 Y117.289 E0.01693
G1 X127.973 Y112.687 E0.20529
G1 X128.510 Y112.687 E0.01693
G1 X133.111 Y117.289 E0.20529
G1 X133.648 Y117.289 E0.01693
G1 X129.047 Y112.687 E0.20529
G1 X129.583 Y112.687 E0.01693
G1 X134.184 Y117.289 E0.20529
G1 X134.721 Y117.289 E0.01693
G1 X130.120 Y112.687 E0.20529
G1 X130.656 Y112.687 E0.01693
G1 X135.258 Y117.289 E0.20529
G1 X135.794 Y117.289 E0.01693
G1 X131.193 Y112.687 E0.20529
G1 X131.729 Y112.687 E0.01693
G1 X136.331 Y117.289 E0.20529
G1 X136.867 Y117.289 E0.01693
G1 X132.266 Y112.687 E0.20529
G1 X132.802 Y112.687 E0.01693
G1 X137.404 Y117.289 E0.20529
G1 X137.940 Y117.289 E0.01693
G1 X133.339 Y112.687 E0.20529
G1 X133.876 Y112.687 E0.01693
G1 X138.477 Y117.289 E0.20529
G1 X139.013 Y117.289 E0.01693
G1 X134.412 Y112.687 E0.20529
G1 X134.949 Y112.687 E0.01693
G1 X139.550 Y117.289 E0.20529
G1 X140.087 Y117.289 E0.01693
G1 X135.485 Y112.687 E0.20529
G1 X136.022 Y112.687 E0.01693
G1 X140.623 Y117.289 E0.20529
G1 X141.160 Y117.289 E0.01693
G1 X136.558 Y112.687 E0.20529
G1 X137.095 Y112.687 E0.01693
G1 X141.696 Y117.289 E0.20529
G1 X142.233 Y117.289 E0.01693
G1 X137.632 Y112.687 E0.20529
G1 X138.168 Y112.687 E0.01693
G1 X142.769 Y117.289 E0.20529
G1 X143.306 Y117.289 E0.01693
G1 X138.705 Y112.687 E0.20529
G1 X139.241 Y112.687 E0.01693
G1 X143.843 Y117.289 E0.20529
G1 X144.379 Y117.289 E0.01693
G1 X139.778 Y112.687 E0.20529
G1 X140.314 Y112.687 E0.01693
G1 X144.916 Y117.289 E0.20529
G1 X145.452 Y117.289 E0.01693
G1 X140.851 Y112.687 E0.20529
G1 X141.387 Y112.687 E0.01693
G1 X145.989 Y117.289 E0.20529
G1 X146.525 Y117.289 E0.01693
G1 X141.924 Y112.687 E0.20529
G1 X142.461 Y112.687 E0.01693
G1 X147.062 Y117.289 E0.20529
G1 X147.598 Y117.289 E0.01693
G1 X142.997 Y112.687 E0.20529
G1 X143.534 Y112.687 E0.01693
G1 X148.135 Y117.289 E0.20529
G1 X148.672 Y117.289 E0.01693
G1 X144.070 Y112.687 E0.20529
G1 X144.607 Y112.687 E0.01693
G1 X149.208 Y117.289 E0.20529
G1 X149.745 Y117.289 E0.01693
G1 X145.143 Y112.687 E0.20529
G1 X145.680 Y112.687 E0.01693
G1 X150.281 Y117.289 E0.20529
G1 X150.818 Y117.289 E0.01693
G1 X146.217 Y112.687 E0.20529
G1 X146.753 Y112.687 E0.01693
G1 X151.354 Y117.289 E0.20529
M73 P5 R18
G1 X151.891 Y117.289 E0.01693
G1 X147.290 Y112.687 E0.20529
G1 X147.826 Y112.687 E0.01693
G1 X152.428 Y117.289 E0.20529
G1 X152.964 Y117.289 E0.01693
G1 X148.363 Y112.687 E0.20529
G1 X148.899 Y112.687 E0.01693
G1 X153.501 Y117.289 E0.20529
G1 X153.620 Y117.289 E0.00375
G1 X153.620 Y116.871 E0.01317
G1 X149.436 Y112.687 E0.18666
G1 X149.972 Y112.687 E0.01693
G1 X153.620 Y116.335 E0.16272
G1 X153.620 Y115.798 E0.01693
G1 X150.509 Y112.687 E0.13878
G1 X151.046 Y112.687 E0.01693
G1 X153.620 Y115.261 E0.11484
G1 X153.620 Y114.725 E0.01693
G1 X151.582 Y112.687 E0.09090
G1 X152.119 Y112.687 E0.01693
G1 X153.620 Y114.188 E0.06697
G1 X153.620 Y113.652 E0.01693
G1 X152.655 Y112.687 E0.04303
G1 X153.192 Y112.687 E0.01693
G1 X153.789 Y113.285 E0.02666
G1 E-0.80000 F2100.00000
G1 Z0.800 F10800.000
G1 X125.000 Y105.230
G1 Z0.200
G1 E0.80000 F2100.00000
G1 F1200
G1 X98.594 Y105.230 E0.82795
G1 X98.594 Y92.428 E0.40137
G1 X151.406 Y92.428 E1.65589
G1 X151.406 Y105.230 E0.40137
G1 X125.060 Y105.230 E0.82607
G1 X125.000 Y105.607 F10800.000
G1 F1200
G1 X98.217 Y105.607 E0.83977
G1 X98.217 Y92.051 E0.42502
G1 X151.783 Y92.051 E1.67954
G1 X151.783 Y105.607 E0.42502
G1 X125.060 Y105.607 E0.83789
G1 X124.749 Y105.296 F10800.000
G1 E-0.80000 F2100.00000
G1 Z0.800 F10800.000
G1 X99.471 Y105.117
G1 Z0.200
G1 E0.80000 F2100.00000
G1 F1200
G1 X98.877 Y104.522 E0.02644
G1 X98.877 Y103.987 E0.01681
G1 X99.836 Y104.947 E0.04267
G1 X100.371 Y104.947 E0.01681
G1 X98.877 Y103.452 E0.06645
G1 X98.877 Y102.918 E0.01681
G1 X100.906 Y104.947 E0.09022
G1 X101.441 Y104.947 E0.01681
G1 X98.877 Y102.383 E0.11400
G1 X98.877 Y101.848 E0.01681
G1 X101.975 Y104.947 E0.13777
G1 X102.510 Y104.947 E0.01681
G1 X98.877 Y101.313 E0.16155
G1 X98.877 Y100.779 E0.01681
G1 X103.045 Y104.947 E0.18532
G1 X103.579 Y104.947 E0.01681
G1 X98.877 Y100.244 E0.20910
G1 X98.877 Y99.709 E0.01681
G1 X104.114 Y104.947 E0.23287
G1 X104.649 Y104.947 E0.01681
G1 X98.877 Y99.175 E0.25665
G1 X98.877 Y98.640 E0.01681
G1 X105.184 Y104.947 E0.28042
G1 X105.718 Y104.947 E0.01681
G1 X98.877 Y98.105 E0.30420
G1 X98.877 Y97.570 E0.01681
G1 X106.253 Y104.947 E0.32797
G1 X106.788 Y104.947 E0.01681
G1 X98.877 Y97.036 E0.35175
G1 X98.877 Y96.501 E0.01681
G1 X107.322 Y104.947 E0.37553
G1 X107.857 Y104.947 E0.01681
G1 X98.877 Y95.966 E0.39930
G1 X98.877 Y95.432 E0.01681
G1 X108.392 Y104.947 E0.42308
G1 X108.927 Y104.947 E0.01681
G1 X98.877 Y94.897 E0.44685
G1 X98.877 Y94.362 E0.01681
G1 X109.461 Y104.947 E0.47063
G1 X109.996 Y104.947 E0.01681
G1 X98.877 Y93.827 E0.49440
G1 X98.877 Y93.293 E0.01681
G1 X110.531 Y104.947 E0.51818
G1 X111.066 Y104.947 E0.01681
G1 X98.877 Y92.758 E0.54195
G1 X98.877 Y92.711 E0.00147
G1 X99.365 Y92.711 E0.01534
G1 X111.600 Y104.947 E0.54403
G1 X112.135 Y104.947 E0.01681
G1 X99.899 Y92.711 E0.54403
G1 X100.434 Y92.711 E0.01681
G1 X112.670 Y104.947 E0.54403
G1 X113.204 Y104.947 E0.01681
G1 X100.969 Y92.711 E0.54403
G1 X101.504 Y92.711 E0.01681
G1 X113.739 Y104.947 E0.54403
G1 X114.274 Y104.947 E0.01681
G1 X102.038 Y92.711 E0.54403
G1 X102.573 Y92.711 E0.01681
G1 X114.809 Y104.947 E0.54403
G1 X115.343 Y104.947 E0.01681
G1 X103.108 Y92.711 E0.54403
G1 X103.642 Y92.711 E0.01681
G1 X115.878 Y104.947 E0.54403
G1 X116.413 Y104.947 E0.01681
G1 X104.177 Y92.711 E0.54403
G1 X104.712 Y92.711 E0.01681
G1 X116.948 Y104.947 E0.54403
G1 X117.482 Y104.947 E0.01681
G1 X105.247 Y92.711 E0.54403
G1 X105.781 Y92.711 E0.01681
G1 X118.017 Y104.947 E0.54403
G1 X118.552 Y104.947 E0.01681
G1 X106.316 Y92.711 E0.54403
G1 X106.851 Y92.711 E0.01681
G1 X119.086 Y104.947 E0.54403
G1 X119.621 Y104.947 E0.01681
G1 X107.386 Y92.711 E0.54403
G1 X107.920 Y92.711 E0.01681
G1 X120.156 Y104.947 E0.54403
G1 X120.691 Y104.947 E0.01681
G1 X108.455 Y92.711 E0.54403
G1 X108.990 Y92.711 E0.01681
G1 X121.225 Y104.947 E0.54403
G1 X121.760 Y104.947 E0.01681
G1 X109.524 Y92.711 E0.54403
G1 X110.059 Y92.711 E0.01681
G1 X122.295 Y104.947 E0.54403
G1 X122.830 Y104.947 E0.01681
G1 X110.594 Y92.711 E0.54403
G1 X111.129 Y92.711 E0.01681
G1 X123.364 Y104.947 E0.54403
G1 X123.899 Y104.947 E0.01681
G1 X111.663 Y92.711 E0.54403
G1 X112.198 Y92.711 E0.01681
G1 X124.434 Y104.947 E0.54403
G1 X124.968 Y104.947 E0.01681
G1 X112.733 Y92.711 E0.54403
G1 X113.268 Y92.711 E0.01681
G1 X125.503 Y104.947 E0.54403
G1 X126.038 Y104.947 E0.01681
G1 X113.802 Y92.711 E0.54403
G1 X114.337 Y92.711 E0.01681
G1 X126.573 Y104.947 E0.54403
G1 X127.107 Y104.947 E0.01681
G1 X114.872 Y92.711 E0.54403
G1 X115.406 Y92.711 E0.01681
G1 X127.642 Y104.947 E0.54403
G1 X128.177 Y104.947 E0.01681
G1 X115.941 Y92.711 E0.54403
G1 X116.476 Y92.711 E0.01681
G1 X128.712 Y104.947 E0.54403
G1 X129.246 Y104.947 E0.01681
G1 X117.011 Y92.711 E0.54403
G1 X117.545 Y92.711 E0.01681
G1 X129.781 Y104.947 E0.54403
G1 X130.316 Y104.947 E0.01681
M73 P11 R17
G1 X118.080 Y92.711 E0.54403
G1 X118.615 Y92.711 E0.01681
G1 X130.850 Y104.947 E0.54403
G1 X131.385 Y104.947 E0.01681
G1 X119.149 Y92.711 E0.54403
G1 X119.684 Y92.711 E0.01681
G1 X131.920 Y104.947 E0.54403
G1 X132.455 Y104.947 E0.01681
G1 X120.219 Y92.711 E0.54403
G1 X120.754 Y92.711 E0.01681
G1 X132.989 Y104.947 E0.54403
G1 X133.524 Y104.947 E0.01681
G1 X121.288 Y92.711 E0.54403
G1 X121.823 Y92.711 E0.01681
G1 X134.059 Y104.947 E0.54403
G1 X134.593 Y104.947 E0.01681
G1 X122.358 Y92.711 E0.54403
G1 X122.893 Y92.711 E0.01681
G1 X135.128 Y104.947 E0.54403
G1 X135.663 Y104.947 E0.01681
G1 X123.427 Y92.711 E0.54403
G1 X123.962 Y92.711 E0.01681
G1 X136.198 Y104.947 E0.54403
G1 X136.732 Y104.947 E0.01681
G1 X124.497 Y92.711 E0.54403
G1 X125.031 Y92.711 E0.01681
G1 X137.267 Y104.947 E0.54403
G1 X137.802 Y104.947 E0.01681
G1 X125.566 Y92.711 E0.54403
G1 X126.101 Y92.711 E0.01681
G1 X138.337 Y104.947 E0.54403
G1 X138.871 Y104.947 E0.01681
G1 X126.636 Y92.711 E0.54403
G1 X127.170 Y92.711 E0.01681
G1 X139.406 Y104.947 E0.54403
G1 X139.941 Y104.947 E0.01681
G1 X127.705 Y92.711 E0.54403
G1 X128.240 Y92.711 E0.01681
G1 X140.475 Y104.947 E0.54403
G1 X141.010 Y104.947 E0.01681
G1 X128.775 Y92.711 E0.54403
G1 X129.309 Y92.711 E0.01681
G1 X141.545 Y104.947 E0.54403
G1 X142.080 Y104.947 E0.01681
G1 X129.844 Y92.711 E0.54403
G1 X130.379 Y92.711 E0.01681
G1 X142.614 Y104.947 E0.54403
G1 X143.149 Y104.947 E0.01681
G1 X130.913 Y92.711 E0.54403
G1 X131.448 Y92.711 E0.01681
G1 X143.684 Y104.947 E0.54403
G1 X144.219 Y104.947 E0.01681
G1 X131.983 Y92.711 E0.54403
G1 X132.518 Y92.711 E0.01681
G1 X144.753 Y104.947 E0.54403
G1 X145.288 Y104.947 E0.01681
G1 X133.052 Y92.711 E0.54403
G1 X133.587 Y92.711 E0.01681
G1 X145.823 Y104.947 E0.54403
G1 X146.357 Y104.947 E0.01681
G1 X134.122 Y92.711 E0.54403
G1 X134.657 Y92.711 E0.01681
G1 X146.892 Y104.947 E0.54403
G1 X147.427 Y104.947 E0.01681
