; generated by PrusaSlicer 2.2.0+win64 on 2021-01-18 at 22:47:40 UTC

; 

; external perimeters extrusion width = 0.45mm
; perimeters extrusion width = 0.45mm
; infill extrusion width = 0.45mm
; solid infill extrusion width = 0.45mm
; top infill extrusion width = 0.40mm
; first layer extrusion width = 0.42mm

M73 P0 R116
M201 X9000 Y9000 Z500 E10000 ; sets maximum accelerations, mm/sec^2
M203 X500 Y500 Z12 E120 ; sets maximum feedrates, mm/sec
M204 P2000 R1500 T2000 ; sets acceleration (P, T) and retract acceleration (R), mm/sec^2
M205 X10.00 Y10.00 Z0.20 E2.50 ; sets the jerk limits, mm/sec
M205 S0 T0 ; sets the minimum extruding and travel feed rate, mm/sec
M107
M862.3 P "MK2S" ; printer model check
M862.1 P0.4 ; nozzle diameter check
M115 U3.2.3 ; tell printer latest fw version
G90 ; use absolute coordinates
M83 ; extruder relative mode
M204 S2000 T1500 ; MK2 firmware only supports the old M204 format
M104 S215 ; set extruder temp
M140 S60 ; set bed temp
M190 S60 ; wait for bed temp
M109 S215 ; wait for extruder temp
G28 W ; home all without mesh bed level
G80 ; mesh bed leveling
G1 Y-3.0 F1000.0 ; go outside print area
G92 E0.0
G1 X60.0 E9.0  F1000.0 ; intro line
M73 P0 R116
G1 X100.0 E12.5 F1000.0 ; intro line
G92 E0.0
G21 ; set units to millimeters
G90 ; use absolute coordinates
M83 ; use relative distances for extrusion
M900 K0.05 ; Filament gcode LA 1.5
M900 K30 ; Filament gcode LA 1.0
;BEFORE_LAYER_CHANGE
G92 E0.0
;0.2


G1 E-0.80000 F2100.00000
G1 Z0.600 F10800.000
;AFTER_LAYER_CHANGE
;0.2
G1 X125.000 Y103.539
G1 Z0.200
G1 E0.80000 F2100.00000
M204 S1000
G1 F1200.000
G1 X107.725 Y103.539 E0.54165
G1 X107.725 Y98.887 E0.14588
G1 X141.713 Y98.887 E1.06567
G1 X141.713 Y103.539 E0.14588
G1 X125.060 Y103.539 E0.52214
G1 X125.288 Y103.162 F10800.000
G1 F1200.000
G1 X125.288 Y99.264 E0.12223
G1 X141.336 Y99.264 E0.50316
G1 X141.336 Y103.162 E0.12223
G1 X125.348 Y103.162 E0.50128
G1 X124.889 Y103.194 F10800.000
G1 X124.712 Y103.162
G1 F1200.000
G1 X108.102 Y103.162 E0.52079
G1 X108.102 Y99.264 E0.12223
G1 X124.712 Y99.264 E0.52079
G1 X124.712 Y103.102 E0.12035
G1 X124.885 Y103.523 F10800.000
G1 E-0.80000 F2100.00000
G1 Z0.800 F10800.000
G1 X105.856 Y103.539
G1 Z0.200
G1 E0.80000 F2100.00000
G1 F1200.000
G1 X87.503 Y103.539 E0.57546
G1 X87.503 Y98.887 E0.14588
G1 X105.856 Y98.887 E0.57546
G1 X105.856 Y103.479 E0.14400
G1 X105.479 Y103.162 F10800.000
G1 F1200.000
G1 X87.880 Y103.162 E0.55181
G1 X87.880 Y99.264 E0.12223
G1 X105.479 Y99.264 E0.55181
G1 X105.479 Y103.102 E0.12035
G1 X105.653 Y103.522 F10800.000
G1 E-0.80000 F2100.00000
G1 Z0.800 F10800.000
G1 X144.565 Y103.539
G1 Z0.200
G1 E0.80000 F2100.00000
G1 F1200.000
G1 X144.565 Y98.887 E0.14588
G1 X162.248 Y98.887 E0.55444
G1 X162.248 Y103.539 E0.14588
G1 X144.625 Y103.539 E0.55256
G1 X144.942 Y103.162 F10800.000
G1 F1200.000
G1 X144.942 Y99.264 E0.12223
G1 X161.871 Y99.264 E0.53079
G1 X161.871 Y103.162 E0.12223
G1 X145.002 Y103.162 E0.52891
G1 X144.543 Y103.192 F10800.000
G1 E-0.80000 F2100.00000
G1 Z0.800 F10800.000
G1 X123.066 Y111.434
G1 Z0.200
G1 E0.80000 F2100.00000
G1 F1200.000
G1 X122.746 Y111.434 E0.01004
G1 X122.746 Y104.358 E0.22186
G1 X110.910 Y104.358 E0.37112
G1 X110.910 Y111.434 E0.22186
G1 X110.590 Y111.434 E0.01004
G1 X110.590 Y104.358 E0.22186
G1 X83.035 Y104.358 E0.86397
G1 X83.035 Y111.434 E0.22186
G1 X82.714 Y111.434 E0.01004
G1 X82.714 Y104.358 E0.22186
G1 X77.748 Y104.358 E0.15571
G1 X77.748 Y111.434 E0.22186
G1 X77.428 Y111.434 E0.01004
G1 X77.428 Y104.358 E0.22186
G1 X75.772 Y104.358 E0.05191
G1 X75.772 Y103.539 E0.02566
G1 X87.191 Y103.539 E0.35803
G1 X87.120 Y98.566 E0.15593
G1 X162.642 Y98.578 E2.36795
G1 X162.558 Y103.539 E0.15557
G1 X174.228 Y103.539 E0.36591
G1 X174.228 Y104.358 E0.02566
G1 X172.374 Y104.358 E0.05812
G1 X172.374 Y111.434 E0.22186
G1 X172.054 Y111.434 E0.01004
G1 X172.054 Y104.358 E0.22186
G1 X164.924 Y104.358 E0.22357
G1 X164.924 Y111.434 E0.22186
G1 X164.603 Y111.434 E0.01004
G1 X164.603 Y104.358 E0.22186
G1 X144.330 Y104.358 E0.63565
G1 X144.330 Y111.434 E0.22186
G1 X144.010 Y111.434 E0.01004
G1 X144.010 Y104.358 E0.22186
G1 X123.066 Y104.358 E0.65667
G1 X123.066 Y111.374 E0.21998
G1 X123.443 Y111.811 F10800.000
G1 F1200.000
G1 X122.369 Y111.811 E0.03369
G1 X122.369 Y104.735 E0.22186
G1 X111.287 Y104.735 E0.34747
G1 X111.287 Y111.811 E0.22186
G1 X110.213 Y111.811 E0.03369
G1 X110.213 Y104.735 E0.22186
G1 X83.412 Y104.735 E0.84032
G1 X83.412 Y111.811 E0.22186
G1 X82.337 Y111.811 E0.03369
G1 X82.337 Y104.735 E0.22186
G1 X78.125 Y104.735 E0.13206
G1 X78.125 Y111.811 E0.22186
G1 X77.051 Y111.811 E0.03369
G1 X77.051 Y104.735 E0.22186
G1 X75.395 Y104.735 E0.05191
G1 X75.395 Y103.162 E0.04931
G1 X86.808 Y103.162 E0.35786
G1 X86.738 Y98.189 E0.15594
G1 X163.026 Y98.201 E2.39196
G1 X162.941 Y103.162 E0.15557
G1 X174.605 Y103.162 E0.36570
G1 X174.605 Y104.735 E0.04931
G1 X172.751 Y104.735 E0.05812
G1 X172.751 Y111.811 E0.22186
G1 X171.677 Y111.811 E0.03369
G1 X171.677 Y104.735 E0.22186
G1 X165.301 Y104.735 E0.19992
G1 X165.301 Y111.811 E0.22186
G1 X164.226 Y111.811 E0.03369
G1 X164.226 Y104.735 E0.22186
G1 X144.707 Y104.735 E0.61200
G1 X144.707 Y111.811 E0.22186
G1 X143.633 Y111.811 E0.03369
G1 X143.633 Y104.735 E0.22186
G1 X123.443 Y104.735 E0.63302
G1 X123.443 Y111.751 E0.21998
G1 X123.206 Y111.489 F10800.000
G1 E-0.80000 F2100.00000
G1 Z0.800 F10800.000
G1 X125.000 Y103.351
G1 Z0.200
G1 E0.80000 F2100.00000
G1 F1200.000
G1 X125.000 Y99.075 E0.07083
G1 E-0.80000 F2100.00000
G1 Z0.800 F10800.000
G1 X75.961 Y103.948
G1 Z0.200
G1 E0.80000 F2100.00000
G1 F1200.000
G1 X106.045 Y103.948 E1.10407
G1 X105.969 Y103.276 F10800.000
G1 F1200.000
G1 X106.769 Y104.075 E0.03625
G1 X107.254 Y104.075 E0.01555
G1 X107.254 Y104.014 E0.00194
G1 X106.139 Y102.900 E0.05055
G1 X106.139 Y102.354 E0.01749
G1 X107.254 Y103.469 E0.05055
G1 X107.254 Y103.424 E0.00145
G1 X107.442 Y103.424 E0.00605
G1 X107.442 Y103.112 E0.00999
G1 X106.139 Y101.809 E0.05910
G1 X106.139 Y101.263 E0.01749
G1 X107.442 Y102.566 E0.05910
G1 X107.442 Y102.021 E0.01749
G1 X106.139 Y100.718 E0.05910
G1 X106.139 Y100.172 E0.01749
G1 X107.442 Y101.476 E0.05910
G1 X107.442 Y100.930 E0.01749
G1 X106.139 Y99.627 E0.05910
G1 X106.139 Y99.082 E0.01749
G1 X107.442 Y100.385 E0.05910
G1 X107.442 Y99.839 E0.01749
G1 X106.455 Y98.852 E0.04476
G1 X107.001 Y98.852 E0.01750
G1 X107.612 Y99.463 E0.02771
G1 X107.536 Y103.948 F10800.000
G1 F1200.000
G1 X141.901 Y103.948 E1.26118
G1 X141.826 Y103.287 F10800.000
G1 F1200.000
G1 X142.614 Y104.075 E0.03524
G1 X143.152 Y104.075 E0.01701
G1 X141.996 Y102.919 E0.05171
G1 X141.996 Y102.381 E0.01701
G1 X143.690 Y104.075 E0.07577
G1 X144.093 Y104.075 E0.01277
G1 X144.093 Y103.941 E0.00424
G1 X141.996 Y101.843 E0.09383
G1 X141.996 Y101.305 E0.01701
G1 X144.114 Y103.424 E0.09475
G1 X144.282 Y103.424 E0.00531
G1 X144.282 Y103.053 E0.01171
G1 X141.996 Y100.767 E0.10226
M73 P0 R115
G1 X141.996 Y100.229 E0.01701
G1 X144.282 Y102.516 E0.10226
G1 X144.282 Y101.978 E0.01701
G1 X141.996 Y99.691 E0.10226
G1 X141.996 Y99.153 E0.01701
G1 X144.282 Y101.440 E0.10226
G1 X144.282 Y100.902 E0.01701
G1 X142.238 Y98.858 E0.09142
G1 X142.776 Y98.858 E0.01701
G1 X144.282 Y100.364 E0.06736
G1 X144.282 Y99.826 E0.01701
G1 X143.314 Y98.858 E0.04329
G1 X143.852 Y98.858 E0.01701
G1 X144.452 Y99.458 E0.02682
G1 X144.376 Y103.948 F10800.000
G1 F1200.000
G1 X174.039 Y103.948 E1.08863
M106 S255
;BEFORE_LAYER_CHANGE
G92 E0.0
;0.4


G1 E-0.80000 F2100.00000
G1 Z0.800 F10800.000
;AFTER_LAYER_CHANGE
;0.4
M104 S210 ; set temperature
G1 X125.273 Y103.177
G1 Z0.400
G1 E0.80000 F2100.00000
M204 S800
G1 F1500.000
G1 X125.273 Y99.249 E0.13297
G1 X141.351 Y99.249 E0.54421
G1 X141.351 Y103.177 E0.13297
G1 X125.333 Y103.177 E0.54218
M204 S1000
G1 X124.874 Y103.209 F10800.000
G1 X124.727 Y103.177
M204 S800
G1 F2400.000
G1 X108.087 Y103.177 E0.56324
G1 X108.087 Y99.249 E0.13297
G1 X124.727 Y99.249 E0.56324
G1 X124.727 Y103.117 E0.13094
M204 S1000
G1 X124.900 Y103.538 F10800.000
G1 X125.000 Y104.313
M204 S800
G1 F3000.000
G1 X75.817 Y104.313 E1.66478
G1 X75.817 Y103.584 E0.02466
G1 X105.901 Y103.584 E1.01831
G1 X105.901 Y98.611 E0.16833
G1 X107.680 Y98.611 E0.06021
G1 X107.680 Y103.584 E0.16833
G1 X141.758 Y103.584 E1.15350
G1 X141.758 Y98.611 E0.16833
G1 X144.520 Y98.611 E0.09349
G1 X144.520 Y103.584 E0.16833
G1 X174.183 Y103.584 E1.00406
G1 X174.183 Y104.313 E0.02466
G1 X125.060 Y104.313 E1.66275
M204 S1000
G1 E-0.80000 F2100.00000
G1 Z1.000 F10800.000
G1 X87.458 Y102.087
G1 Z0.400
G1 E0.80000 F2100.00000
M204 S800
G1 F1500.000
G1 X87.215 Y102.089 E0.00821
G1 X87.166 Y98.611 E0.11773
G1 X87.458 Y98.611 E0.00988
G1 X87.458 Y102.027 E0.11563
M204 S1000
G1 E-0.80000 F2100.00000
G1 Z1.000 F10800.000
G1 X105.494 Y103.177
G1 Z0.400
G1 E0.80000 F2100.00000
M204 S800
G1 F2400.000
G1 X87.865 Y103.177 E0.59673
G1 X87.865 Y99.249 E0.13297
G1 X105.494 Y99.249 E0.59673
G1 X105.494 Y103.117 E0.13094
M204 S1000
G1 X105.668 Y103.537 F10800.000
G1 E-0.80000 F2100.00000
G1 Z1.000 F10800.000
G1 X144.927 Y103.177
G1 Z0.400
G1 E0.80000 F2100.00000
M204 S800
G1 F2400.000
G1 X144.927 Y99.249 E0.13297
G1 X161.886 Y99.249 E0.57404
G1 X161.886 Y103.177 E0.13297
G1 X144.987 Y103.177 E0.57201
M204 S1000
G1 X144.528 Y103.207 F10800.000
G1 E-0.80000 F2100.00000
G1 Z1.000 F10800.000
G1 X162.293 Y102.248
G1 Z0.400
G1 E0.80000 F2100.00000
M204 S800
G1 F1500.000
G1 X162.293 Y98.611 E0.12310
G1 X162.597 Y98.611 E0.01030
G1 X162.535 Y102.250 E0.12319
G1 X162.353 Y102.249 E0.00617
M204 S1000
G1 E-0.80000 F2100.00000
G1 Z1.000 F10800.000
G1 X123.428 Y111.796
G1 Z0.400
G1 E0.80000 F2100.00000
M204 S800
G1 F2400.000
G1 X122.384 Y111.796 E0.03535
G1 X122.384 Y104.720 E0.23951
G1 X111.272 Y104.720 E0.37613
G1 X111.272 Y111.796 E0.23951
G1 X110.228 Y111.796 E0.03535
G1 X110.228 Y104.720 E0.23951
G1 X83.397 Y104.720 E0.90819
G1 X83.397 Y111.796 E0.23951
G1 X82.352 Y111.796 E0.03535
G1 X82.352 Y104.720 E0.23951
G1 X78.110 Y104.720 E0.14359
G1 X78.110 Y111.796 E0.23951
G1 X77.066 Y111.796 E0.03535
G1 X77.066 Y104.720 E0.23951
G1 X75.410 Y104.720 E0.05605
G1 X75.410 Y103.177 E0.05222
G1 X86.824 Y103.177 E0.38634
G1 X86.753 Y98.204 E0.16834
G1 X163.011 Y98.204 E2.58124
G1 X162.926 Y103.177 E0.16835
G1 X174.590 Y103.177 E0.39481
G1 X174.590 Y104.720 E0.05222
G1 X172.736 Y104.720 E0.06275
G1 X172.736 Y111.796 E0.23951
G1 X171.692 Y111.796 E0.03535
G1 X171.692 Y104.720 E0.23951
G1 X165.286 Y104.720 E0.21684
G1 X165.286 Y111.796 E0.23951
G1 X164.241 Y111.796 E0.03535
G1 X164.241 Y104.720 E0.23951
G1 X144.692 Y104.720 E0.66171
G1 X144.692 Y111.796 E0.23951
G1 X143.648 Y111.796 E0.03535
G1 X143.648 Y104.720 E0.23951
G1 X123.428 Y104.720 E0.68440
G1 X123.428 Y111.736 E0.23748
M204 S1000
G1 X123.191 Y111.474 F10800.000
G1 X122.906 Y111.592
G1 F2400.000
G1 X122.906 Y104.516 E0.37501
G1 X125.000 Y103.381 F10800.000
G1 F2400.000
G1 X125.000 Y99.045 E0.05019
G1 X125.000 Y99.017 E0.00044
G1 X125.000 Y98.988 E0.00055
G1 X125.000 Y98.959 E0.00066
G1 X125.000 Y98.931 E0.00077
G1 X125.000 Y98.902 E0.00088
G1 X125.000 Y98.873 E0.00099
G1 X125.000 Y98.845 E0.00110
G1 X125.000 Y98.816 E0.00121
G1 X125.000 Y98.788 E0.00132
G1 X125.000 Y98.759 E0.00143
G1 X125.000 Y98.730 E0.00154
G1 X141.554 Y98.726 E0.87734
G1 X142.745 Y98.733 F10800.000
M204 S2000
G1 F3000.000
G1 X142.063 Y99.416 E0.03426
G1 X142.063 Y100.020 E0.02145
G1 X143.166 Y98.917 E0.05540
G1 X143.770 Y98.917 E0.02145
G1 X142.063 Y100.624 E0.08574
G1 X142.063 Y101.228 E0.02145
G1 X144.214 Y99.076 E0.10805
G1 X144.214 Y99.680 E0.02145
G1 X142.063 Y101.832 E0.10805
G1 X142.063 Y102.436 E0.02145
G1 X144.214 Y100.285 E0.10805
G1 X144.214 Y100.889 E0.02145
G1 X142.063 Y103.040 E0.10805
G1 X142.063 Y103.461 E0.01496
G1 X142.246 Y103.461 E0.00650
G1 X144.214 Y101.493 E0.09887
G1 X144.214 Y102.097 E0.02145
G1 X142.304 Y104.007 E0.09597
G1 X142.908 Y104.007 E0.02145
G1 X144.214 Y102.701 E0.06563
G1 X144.214 Y103.305 E0.02145
G1 X143.329 Y104.191 E0.04449
M204 S1000
G1 X141.961 Y103.948 F10800.000
G1 F2400.000
G1 X107.476 Y103.948 E0.92149
G1 X110.750 Y104.516 F10800.000
G1 F2400.000
G1 X110.750 Y111.592 E0.37501
G1 E-0.80000 F2100.00000
G1 Z1.000 F10800.000
G1 X105.698 Y98.726
G1 Z0.400
G1 E0.80000 F2100.00000
G1 F2400.000
G1 X87.661 Y98.726 E0.95588
G1 E-0.80000 F2100.00000
G1 Z1.000 F10800.000
G1 X82.874 Y104.516
G1 Z0.400
G1 E0.80000 F2100.00000
G1 F2400.000
G1 X82.874 Y111.592 E0.37501
G1 E-0.80000 F2100.00000
G1 Z1.000 F10800.000
G1 X77.588 Y111.592
G1 Z0.400
G1 E0.80000 F2100.00000
G1 F2400.000
G1 X77.588 Y104.516 E0.37501
G1 X76.021 Y103.948 F10800.000
G1 F2400.000
G1 X106.105 Y103.948 E0.80389
G1 X106.458 Y104.191 F10800.000
M204 S2000
G1 F3000.000
G1 X107.375 Y103.274 E0.04759
G1 X107.375 Y102.650 E0.02293
G1 X106.410 Y103.614 E0.05009
G1 X106.410 Y103.461 E0.00562
G1 X106.206 Y103.461 E0.00747
G1 X106.206 Y103.193 E0.00983
G1 X107.375 Y102.025 E0.06065
G1 X107.375 Y101.401 E0.02293
G1 X106.206 Y102.569 E0.06065
G1 X106.206 Y101.944 E0.02293
G1 X107.375 Y100.776 E0.06065
G1 X107.375 Y100.152 E0.02293
G1 X106.206 Y101.320 E0.06065
G1 X106.206 Y100.695 E0.02293
G1 X107.375 Y99.527 E0.06065
G1 X107.375 Y98.917 E0.02242
G1 X107.361 Y98.917 E0.00051
G1 X106.206 Y100.071 E0.05993
G1 X106.206 Y99.446 E0.02293
G1 X106.919 Y98.733 E0.03701
M204 S1000
G1 X107.883 Y98.726 F10800.000
G1 F2400.000
G1 X124.930 Y98.726 E0.90345
G1 X125.000 Y98.730 E0.00374
G1 E-0.80000 F2100.00000
G1 Z1.000 F10800.000
G1 X144.723 Y98.726
G1 Z0.400
G1 E0.80000 F2100.00000
G1 F2400.000
G1 X162.089 Y98.726 E0.92035
G1 E-0.80000 F2100.00000
G1 Z1.000 F10800.000
G1 X164.763 Y104.516
G1 Z0.400
G1 E0.80000 F2100.00000
G1 F2400.000
G1 X164.763 Y111.592 E0.37501
G1 E-0.80000 F2100.00000
G1 Z1.000 F10800.000
G1 X172.214 Y111.592
G1 Z0.400
G1 E0.80000 F2100.00000
G1 F2400.000
G1 X172.214 Y104.516 E0.37501
G1 X173.979 Y103.948 F10800.000
G1 F2400.000
G1 X144.316 Y103.948 E0.79265
G1 X144.170 Y104.516 F10800.000
G1 F2400.000
G1 X144.170 Y111.592 E0.37501
;BEFORE_LAYER_CHANGE
G92 E0.0
;0.6


G1 E-0.80000 F2100.00000
G1 Z1.000 F10800.000
;AFTER_LAYER_CHANGE
;0.6
G1 X125.273 Y103.177
G1 Z0.600
G1 E0.80000 F2100.00000
M204 S800
G1 F1500.000
G1 X125.273 Y99.249 E0.13297
G1 X141.351 Y99.249 E0.54421
G1 X141.351 Y103.177 E0.13297
G1 X125.333 Y103.177 E0.54218
M204 S1000
G1 X124.874 Y103.209 F10800.000
G1 X124.727 Y103.177
M204 S800
G1 F2400.000
G1 X108.087 Y103.177 E0.56324
G1 X108.087 Y99.249 E0.13297
G1 X124.727 Y99.249 E0.56324
G1 X124.727 Y103.117 E0.13094
M204 S1000
G1 X124.900 Y103.538 F10800.000
G1 X125.000 Y104.313
M204 S800
G1 F3000.000
G1 X75.817 Y104.313 E1.66478
G1 X75.817 Y103.584 E0.02466
G1 X105.901 Y103.584 E1.01831
G1 X105.901 Y98.611 E0.16833
G1 X107.680 Y98.611 E0.06021
G1 X107.680 Y103.584 E0.16833
G1 X141.758 Y103.584 E1.15350
G1 X141.758 Y98.611 E0.16833
G1 X144.520 Y98.611 E0.09349
G1 X144.520 Y103.584 E0.16833
G1 X174.183 Y103.584 E1.00406
G1 X174.183 Y104.313 E0.02466
G1 X125.060 Y104.313 E1.66275
M204 S1000
G1 E-0.80000 F2100.00000
G1 Z1.200 F10800.000
G1 X87.458 Y102.087
G1 Z0.600
G1 E0.80000 F2100.00000
M204 S800
G1 F1500.000
G1 X87.215 Y102.089 E0.00821
G1 X87.166 Y98.611 E0.11773
G1 X87.458 Y98.611 E0.00988
G1 X87.458 Y102.027 E0.11563
M204 S1000
G1 E-0.80000 F2100.00000
G1 Z1.200 F10800.000
G1 X105.494 Y103.177
G1 Z0.600
G1 E0.80000 F2100.00000
M204 S800
G1 F2400.000
G1 X87.865 Y103.177 E0.59673
G1 X87.865 Y99.249 E0.13297
G1 X105.494 Y99.249 E0.59673
G1 X105.494 Y103.117 E0.13094
M204 S1000
G1 X105.668 Y103.537 F10800.000
G1 E-0.80000 F2100.00000
G1 Z1.200 F10800.000
G1 X144.927 Y103.177
G1 Z0.600
G1 E0.80000 F2100.00000
M204 S800
G1 F2400.000
G1 X144.927 Y99.249 E0.13297
G1 X161.886 Y99.249 E0.57404
G1 X161.886 Y103.177 E0.13297
G1 X144.987 Y103.177 E0.57201
M204 S1000
G1 X144.528 Y103.207 F10800.000
G1 E-0.80000 F2100.00000
G1 Z1.200 F10800.000
G1 X162.293 Y102.248
G1 Z0.600
G1 E0.80000 F2100.00000
M204 S800
G1 F1500.000
G1 X162.293 Y98.611 E0.12310
G1 X162.597 Y98.611 E0.01030
G1 X162.535 Y102.250 E0.12319
G1 X162.353 Y102.249 E0.00617
M204 S1000
G1 E-0.80000 F2100.00000
G1 Z1.200 F10800.000
