; generated by PrusaSlicer 2.2.0+win64 on 2020-08-14 at 19:37:32 UTC

; 

; external perimeters extrusion width = 0.60mm
; perimeters extrusion width = 0.43mm
; infill extrusion width = 0.45mm
; solid infill extrusion width = 0.70mm
; top infill extrusion width = 0.43mm
; support material extrusion width = 0.37mm
; first layer extrusion width = 0.42mm

M73 P0 R66
M201 X9000 Y9000 Z500 E10000 ; sets maximum accelerations, mm/sec^2
M203 X500 Y500 Z12 E120 ; sets maximum feedrates, mm/sec
M204 P2000 R1500 T2000 ; sets acceleration (P, T) and retract acceleration (R), mm/sec^2
M205 X10.00 Y10.00 Z0.20 E2.50 ; sets the jerk limits, mm/sec
M205 S0 T0 ; sets the minimum extruding and travel feed rate, mm/sec
M107
M862.3 P "MK2S" ; printer model check
M862.1 P0.4 ; nozzle diameter check
M115 U3.2.3 ; tell printer latest fw version
G90 ; use absolute coordinates
M83 ; extruder relative mode
M204 S2000 T1500 ; MK2 firmware only supports the old M204 format
M104 S215 ; set extruder temp
M140 S60 ; set bed temp
M190 S60 ; wait for bed temp
M109 S215 ; wait for extruder temp
G28 W ; home all without mesh bed level
G80 ; mesh bed leveling
G1 Y-3.0 F1000.0 ; go outside print area
G92 E0.0
G1 X60.0 E9.0  F1000.0 ; intro line
M73 P0 R66
G1 X100.0 E12.5 F1000.0 ; intro line
G92 E0.0
G21 ; set units to millimeters
G90 ; use absolute coordinates
M83 ; use relative distances for extrusion
M900 K0.06 ; Filament gcode LA 1.5
M900 K30 ; Filament gcode LA 1.0
;BEFORE_LAYER_CHANGE
G92 E0.0
;0.2


G1 E-0.80000 F2100.00000
G1 Z0.600 F10800.000
;AFTER_LAYER_CHANGE
;0.2
G1 X73.806 Y101.016
G1 Z0.200
G1 E0.80000 F2100.00000
M204 S1000
G1 F1200.000
G1 X85.581 Y95.798 E0.40382
G1 X86.274 Y95.615 E0.02249
G1 X163.244 Y95.602 E2.41332
G1 X164.146 Y95.782 E0.02884
G1 X175.792 Y100.785 E0.39742
G1 X176.399 Y101.180 E0.02272
G1 X176.862 Y101.743 E0.02284
G1 X177.083 Y102.239 E0.01704
G1 X177.186 Y102.777 E0.01716
G1 X177.137 Y105.451 E0.08387
G1 X175.209 Y112.794 E0.23805
G1 X174.804 Y113.523 E0.02614
G1 X174.172 Y114.067 E0.02614
G1 X173.591 Y114.313 E0.01977
G1 X172.970 Y114.398 E0.01965
G1 X76.632 Y114.389 E3.02064
G1 X76.002 Y114.245 E0.02024
G1 X75.435 Y113.937 E0.02024
G1 X74.971 Y113.488 E0.02024
G1 X74.645 Y112.931 E0.02024
G1 X72.821 Y105.194 E0.24925
G1 X72.808 Y102.910 E0.07159
G1 X72.871 Y102.409 E0.01585
G1 X73.212 Y101.627 E0.02673
G1 X73.764 Y101.059 E0.02484
G1 E-0.80000 F2100.00000
G1 Z0.800 F10800.000
G1 X124.453 Y98.766
G1 Z0.200
G1 E0.80000 F2100.00000
G1 F1200.000
G1 X125.547 Y98.766 E0.03431
G1 X125.001 Y98.829 E0.01723
G1 X124.512 Y98.773 E0.01541
G1 X125.189 Y99.187 F10800.000
G1 F1200.000
G1 X125.969 Y99.098 E0.02462
G1 X126.468 Y99.069 E0.01569
G1 X141.536 Y99.064 E0.47243
G1 X141.536 Y103.362 E0.13477
G1 X126.960 Y103.362 E0.45702
G1 X125.971 Y103.328 E0.03102
G1 X125.189 Y103.239 E0.02469
G1 X125.189 Y99.247 E0.12518
G1 X125.134 Y98.791 F10800.000
G1 E-0.80000 F2100.00000
G1 Z0.800 F10800.000
G1 X144.742 Y99.247
G1 Z0.200
G1 E0.80000 F2100.00000
G1 F1200.000
G1 X144.742 Y99.064 E0.00574
G1 X162.071 Y99.064 E0.54333
G1 X162.071 Y103.362 E0.13477
G1 X144.742 Y103.362 E0.54333
G1 X144.742 Y99.307 E0.12716
G1 X144.559 Y99.233 F10800.000
G1 E-0.80000 F2100.00000
G1 Z0.800 F10800.000
G1 X124.811 Y99.307
G1 Z0.200
G1 E0.80000 F2100.00000
G1 F1200.000
G1 X124.811 Y103.239 E0.12330
G1 X124.027 Y103.328 E0.02477
G1 X123.034 Y103.362 E0.03116
G1 X107.902 Y103.362 E0.47444
G1 X107.902 Y99.064 E0.13477
G1 X123.034 Y99.064 E0.47444
G1 X124.027 Y99.097 E0.03116
G1 X124.811 Y99.187 E0.02477
G1 X124.811 Y99.247 E0.00188
G1 X125.210 Y99.341 F10800.000
G1 E-0.80000 F2100.00000
G1 Z0.800 F10800.000
G1 X107.525 Y103.739
G1 Z0.200
G1 E0.80000 F2100.00000
G1 F1200.000
G1 X123.040 Y103.739 E0.48646
G1 X124.054 Y103.705 E0.03182
G1 X125.001 Y103.597 E0.02986
G1 X125.943 Y103.705 E0.02975
G1 X126.953 Y103.739 E0.03169
G1 X141.913 Y103.739 E0.46904
G1 X141.913 Y98.766 E0.15592
G1 X144.365 Y98.766 E0.07688
G1 X144.365 Y103.739 E0.15592
G1 X174.028 Y103.739 E0.93007
G1 X174.028 Y104.158 E0.01312
G1 X75.972 Y104.158 E3.07447
G1 X75.972 Y103.739 E0.01312
G1 X106.056 Y103.739 E0.94327
G1 X106.056 Y98.766 E0.15592
G1 X107.525 Y98.766 E0.04605
G1 X107.525 Y103.679 E0.15404
G1 X105.679 Y103.362 F10800.000
G1 F1200.000
G1 X87.680 Y103.362 E0.56435
G1 X87.680 Y99.064 E0.13477
G1 X105.679 Y99.064 E0.56435
G1 X105.679 Y103.302 E0.13289
G1 X105.851 Y103.723 F10800.000
G1 E-0.80000 F2100.00000
G1 Z0.800 F10800.000
G1 X162.738 Y103.362
G1 Z0.200
G1 E0.80000 F2100.00000
G1 F1200.000
G1 X174.405 Y103.362 E0.36581
G1 X174.405 Y104.535 E0.03677
G1 X172.551 Y104.535 E0.05812
G1 X172.551 Y111.611 E0.22186
G1 X171.877 Y111.611 E0.02115
G1 X171.877 Y104.535 E0.22186
G1 X165.101 Y104.535 E0.21246
G1 X165.101 Y111.611 E0.22186
G1 X164.426 Y111.611 E0.02115
G1 X164.426 Y104.535 E0.22186
G1 X144.507 Y104.535 E0.62455
G1 X144.507 Y111.611 E0.22186
G1 X143.833 Y111.611 E0.02115
G1 X143.833 Y104.535 E0.22186
G1 X123.243 Y104.535 E0.64556
G1 X123.243 Y111.611 E0.22186
G1 X122.569 Y111.611 E0.02115
G1 X122.569 Y104.535 E0.22186
G1 X111.087 Y104.535 E0.36001
G1 X111.087 Y111.611 E0.22186
G1 X110.412 Y111.611 E0.02115
G1 X110.412 Y104.535 E0.22186
G1 X83.212 Y104.535 E0.85286
G1 X83.212 Y111.611 E0.22186
G1 X82.537 Y111.611 E0.02115
G1 X82.537 Y104.535 E0.22186
G1 X77.925 Y104.535 E0.14460
G1 X77.925 Y111.611 E0.22186
G1 X77.251 Y111.611 E0.02115
G1 X77.251 Y104.535 E0.22186
G1 X75.595 Y104.535 E0.05191
G1 X75.595 Y103.362 E0.03677
G1 X87.011 Y103.362 E0.35795
G1 X86.941 Y98.389 E0.15594
G1 X162.823 Y98.389 E2.37923
G1 X162.739 Y103.302 E0.15406
G1 X162.930 Y103.713 F10800.000
G1 X162.403 Y103.551
G1 F1200.000
G1 X162.442 Y98.875 E0.12758
G1 X162.430 Y98.776 E0.00274
G1 X162.259 Y98.726 E0.00485
G1 X144.553 Y98.726 E0.43784
G1 X144.252 Y99.712 F10800.000
G1 F1200.000
G1 X143.589 Y99.049 E0.02964
G1 X143.051 Y99.049 E0.01702
G1 X144.082 Y100.080 E0.04612
G1 X144.082 Y100.618 E0.01702
G1 X142.513 Y99.049 E0.07020
G1 X142.196 Y99.049 E0.01004
G1 X142.196 Y99.270 E0.00698
G1 X144.082 Y101.156 E0.08440
G1 X144.082 Y101.694 E0.01702
G1 X142.196 Y99.808 E0.08440
G1 X142.196 Y100.346 E0.01702
G1 X144.082 Y102.232 E0.08440
G1 X144.082 Y102.771 E0.01702
G1 X142.196 Y100.884 E0.08440
G1 X142.196 Y101.422 E0.01702
G1 X144.082 Y103.309 E0.08440
G1 X144.082 Y103.847 E0.01702
G1 X142.196 Y101.960 E0.08440
G1 X142.196 Y102.499 E0.01702
G1 X143.572 Y103.875 E0.06159
G1 X143.034 Y103.875 E0.01702
G1 X142.196 Y103.037 E0.03751
G1 X142.196 Y103.575 E0.01702
G1 X142.665 Y104.045 E0.02102
G1 X144.170 Y104.346 F10800.000
G1 F1200.000
G1 X144.170 Y111.422 E0.17497
G1 E-0.80000 F2100.00000
G1 Z0.800 F10800.000
G1 X141.724 Y98.726
G1 Z0.200
G1 E0.80000 F2100.00000
G1 F1200.000
G1 X127.450 Y98.727 E0.35299
G1 X126.454 Y98.729 E0.02463
G1 X125.735 Y98.756 E0.01779
G1 X124.264 Y98.756 F10800.000
G1 F1200.000
G1 X123.042 Y98.727 E0.03424
G1 X107.713 Y98.726 E0.37958
G1 X107.412 Y99.628 F10800.000
G1 F1200.000
G1 X106.833 Y99.049 E0.02591
G1 X106.339 Y99.049 E0.01562
G1 X106.339 Y99.094 E0.00140
G1 X107.242 Y99.997 E0.04040
G1 X107.242 Y100.535 E0.01702
G1 X106.339 Y99.632 E0.04040
G1 X106.339 Y100.170 E0.01702
G1 X107.242 Y101.073 E0.04040
G1 X107.242 Y101.611 E0.01702
G1 X106.339 Y100.708 E0.04040
G1 X106.339 Y101.246 E0.01702
G1 X107.242 Y102.149 E0.04040
G1 X107.242 Y102.687 E0.01702
G1 X106.339 Y101.784 E0.04040
G1 X106.339 Y102.322 E0.01702
G1 X107.242 Y103.225 E0.04040
G1 X107.242 Y103.763 E0.01702
G1 X106.339 Y102.860 E0.04040
G1 X106.339 Y103.398 E0.01702
G1 X106.986 Y104.045 E0.02893
G1 X110.750 Y104.346 F10800.000
G1 F1200.000
G1 X110.750 Y111.422 E0.17498
M73 P1 R65
G1 E-0.80000 F2100.00000
G1 Z0.800 F10800.000
G1 X122.906 Y111.422
G1 Z0.200
G1 E0.80000 F2100.00000
G1 F1200.000
G1 X122.906 Y104.346 E0.17498
G1 X123.276 Y103.944 F10800.000
G1 F1200.000
G1 X124.072 Y103.931 E0.00506
G1 X124.382 Y103.913 E0.00287
G1 X124.691 Y103.896 E0.00377
G1 X125.001 Y103.878 E0.00468
G1 X125.309 Y103.896 E0.00466
G1 X125.928 Y103.931 E0.00393
G1 X126.718 Y103.944 E0.00501
G1 E-0.80000 F2100.00000
G1 Z0.800 F10800.000
G1 X105.868 Y98.726
G1 Z0.200
G1 E0.80000 F2100.00000
G1 F1200.000
G1 X87.491 Y98.726 E0.45441
G1 X87.328 Y98.771 E0.00419
G1 X87.314 Y98.875 E0.00259
G1 X87.347 Y103.551 E0.11562
G1 X82.874 Y104.346 F10800.000
G1 F1200.000
G1 X82.874 Y111.422 E0.17498
G1 E-0.80000 F2100.00000
G1 Z0.800 F10800.000
G1 X77.588 Y111.422
G1 Z0.200
G1 E0.80000 F2100.00000
G1 F1200.000
G1 X77.588 Y104.346 E0.17498
G1 E-0.80000 F2100.00000
G1 Z0.800 F10800.000
G1 X164.763 Y111.422
G1 Z0.200
G1 E0.80000 F2100.00000
G1 F1200.000
G1 X164.763 Y104.346 E0.17497
G1 E-0.80000 F2100.00000
G1 Z0.800 F10800.000
G1 X172.214 Y104.346
G1 Z0.200
G1 E0.80000 F2100.00000
G1 F1200.000
G1 X172.214 Y111.422 E0.17498
M106 S255
;BEFORE_LAYER_CHANGE
G92 E0.0
;0.55


G1 E-0.80000 F2100.00000
G1 Z0.800 F10800.000
;AFTER_LAYER_CHANGE
;0.55
G1 X174.804 Y113.523
G1 Z0.550
G1 E0.80000 F2100.00000
G1 F3000.000
G1 X174.172 Y114.067 E0.04184
G1 X173.591 Y114.313 E0.03164
G1 X172.970 Y114.398 E0.03145
G1 X76.632 Y114.389 E4.83486
G1 X76.002 Y114.245 E0.03240
G1 X75.435 Y113.937 E0.03240
G1 X74.971 Y113.488 E0.03240
G1 X74.645 Y112.931 E0.03240
G1 X72.821 Y105.194 E0.39896
G1 X72.808 Y102.910 E0.11459
G1 X72.871 Y102.409 E0.02538
G1 X73.212 Y101.627 E0.04278
G1 X73.806 Y101.016 E0.04278
G1 X85.581 Y95.798 E0.64636
G1 X86.274 Y95.615 E0.03599
G1 X163.244 Y95.602 E3.86278
G1 X164.146 Y95.782 E0.04616
G1 X175.792 Y100.785 E0.63612
G1 X176.399 Y101.180 E0.03637
G1 X176.862 Y101.743 E0.03656
G1 X177.083 Y102.239 E0.02728
G1 X177.186 Y102.777 E0.02747
G1 X177.137 Y105.451 E0.13424
G1 X175.209 Y112.794 E0.38102
G1 X174.833 Y113.470 E0.03883
G1 E-0.80000 F2100.00000
G1 Z1.150 F10800.000
G1 X141.866 Y103.692
G1 Z0.550
G1 E0.80000 F2100.00000
M204 S800
G1 F3000.000
G1 X107.572 Y103.692 E1.77096
G1 X107.572 Y98.734 E0.25605
G1 X141.866 Y98.734 E1.77096
G1 X141.866 Y103.632 E0.25295
M204 S1000
G1 X141.426 Y103.252 F10800.000
M204 S800
G1 F1500.000
G1 X125.198 Y103.252 E1.23943
G1 X125.198 Y99.174 E0.31150
G1 X141.426 Y99.174 E1.23943
G1 X141.426 Y103.192 E0.30692
M204 S1000
G1 X141.597 Y103.614 F10800.000
G1 E-0.80000 F2100.00000
G1 Z1.150 F10800.000
G1 X124.802 Y103.192
G1 Z0.550
G1 E0.80000 F2100.00000
M204 S800
G1 F2400.000
G1 X124.802 Y103.252 E0.00458
G1 X108.012 Y103.252 E1.28238
G1 X108.012 Y99.174 E0.31150
G1 X124.802 Y99.174 E1.28238
G1 X124.802 Y103.132 E0.30234
M204 S1000
G1 X124.862 Y103.197 F10800.000
G1 E-0.80000 F2100.00000
G1 Z1.150 F10800.000
G1 X87.350 Y98.734
G1 Z0.550
G1 E0.80000 F2100.00000
M204 S800
G1 F3000.000
G1 X106.009 Y98.734 E0.96357
G1 X106.009 Y103.692 E0.25605
G1 X87.350 Y103.692 E0.96357
G1 X87.350 Y98.794 E0.25295
M204 S1000
G1 X87.790 Y99.174 F10800.000
M204 S800
G1 F2400.000
G1 X105.569 Y99.174 E1.35795
G1 X105.569 Y103.252 E0.31150
G1 X87.790 Y103.252 E1.35795
G1 X87.790 Y99.234 E0.30692
M204 S1000
G1 X87.616 Y98.813 F10800.000
G1 E-0.80000 F2100.00000
G1 Z1.150 F10800.000
G1 X144.412 Y98.734
G1 Z0.550
G1 E0.80000 F2100.00000
M204 S800
G1 F3000.000
G1 X162.400 Y98.734 E0.92895
G1 X162.400 Y103.692 E0.25605
G1 X144.412 Y103.692 E0.92895
G1 X144.412 Y98.794 E0.25295
M204 S1000
G1 X144.852 Y99.174 F10800.000
M204 S800
G1 F2400.000
G1 X161.961 Y99.174 E1.30674
G1 X161.961 Y103.252 E0.31150
G1 X144.852 Y103.252 E1.30674
G1 X144.852 Y99.234 E0.30692
M204 S1000
G1 X144.679 Y98.813 F10800.000
G1 E-0.80000 F2100.00000
G1 Z1.150 F10800.000
G1 X162.402 Y103.692
G1 Z0.550
G1 E0.80000 F2100.00000
M204 S800
G1 F3000.000
G1 X174.075 Y103.692 E0.60279
G1 X174.075 Y104.205 E0.02648
G1 X172.221 Y104.205 E0.09573
G1 X172.221 Y111.281 E0.36541
G1 X172.207 Y111.281 E0.00076
G1 X172.207 Y104.205 E0.36541
G1 X164.771 Y104.205 E0.38400
G1 X164.771 Y111.281 E0.36541
G1 X164.756 Y111.281 E0.00076
G1 X164.756 Y104.205 E0.36541
G1 X144.177 Y104.205 E1.06271
G1 X144.177 Y111.281 E0.36541
G1 X144.163 Y111.281 E0.00076
G1 X144.163 Y104.205 E0.36541
G1 X122.914 Y104.205 E1.09733
G1 X122.914 Y111.281 E0.36541
G1 X122.899 Y111.281 E0.00076
G1 X122.899 Y104.205 E0.36541
G1 X110.757 Y104.205 E0.62702
G1 X110.757 Y111.281 E0.36541
G1 X110.742 Y111.281 E0.00076
G1 X110.742 Y104.205 E0.36541
G1 X82.882 Y104.205 E1.43875
G1 X82.882 Y111.281 E0.36541
G1 X82.867 Y111.281 E0.00076
G1 X82.867 Y104.205 E0.36541
G1 X77.595 Y104.205 E0.27224
G1 X77.595 Y111.281 E0.36541
G1 X77.581 Y111.281 E0.00076
G1 X77.581 Y104.205 E0.36541
G1 X75.925 Y104.205 E0.08550
G1 X75.925 Y103.692 E0.02648
G1 X87.346 Y103.692 E0.58979
G1 X87.275 Y98.719 E0.25683
G1 X162.487 Y98.719 E3.88402
G1 X162.403 Y103.632 E0.25374
M204 S1000
G1 X162.850 Y103.252 F10800.000
M204 S800
G1 F2400.000
G1 X174.515 Y103.252 E0.89096
G1 X174.515 Y104.645 E0.10636
G1 X172.661 Y104.645 E0.14158
G1 X172.661 Y111.721 E0.54045
G1 X171.767 Y111.721 E0.06832
G1 X171.767 Y104.645 E0.54045
G1 X165.211 Y104.645 E0.50075
G1 X165.211 Y111.721 E0.54045
G1 X164.316 Y111.721 E0.06832
G1 X164.316 Y104.645 E0.54045
G1 X144.617 Y104.645 E1.50458
G1 X144.617 Y111.721 E0.54045
G1 X143.723 Y111.721 E0.06832
G1 X143.723 Y104.645 E0.54045
G1 X123.353 Y104.645 E1.55577
G1 X123.353 Y111.721 E0.54045
G1 X122.459 Y111.721 E0.06832
G1 X122.459 Y104.645 E0.54045
G1 X111.197 Y104.645 E0.86018
G1 X111.197 Y111.721 E0.54045
G1 X110.303 Y111.721 E0.06832
G1 X110.303 Y104.645 E0.54045
G1 X83.322 Y104.645 E2.06075
G1 X83.322 Y111.721 E0.54045
G1 X82.427 Y111.721 E0.06832
G1 X82.427 Y104.645 E0.54045
G1 X78.035 Y104.645 E0.33545
G1 X78.035 Y111.721 E0.54045
G1 X77.141 Y111.721 E0.06832
G1 X77.141 Y104.645 E0.54045
G1 X75.485 Y104.645 E0.12646
G1 X75.485 Y103.252 E0.10636
G1 X86.900 Y103.252 E0.87184
G1 X86.829 Y98.279 E0.37986
G1 X162.935 Y98.279 E5.81282
G1 X162.851 Y103.192 E0.37529
M204 S1000
G1 X163.042 Y103.603 F10800.000
G1 E-0.80000 F2100.00000
G1 Z1.150 F10800.000
G1 X173.898 Y103.948
G1 Z0.550
G1 E0.80000 F2100.00000
G1 F2400.000
G1 X144.234 Y103.948 E0.68170
G1 X141.952 Y100.174 F10800.000
M204 S2000
G1 F3600.000
G1 X143.040 Y99.087 E0.15106
G1 X143.994 Y99.087 E0.09371
G1 X142.233 Y100.847 E0.24453
G1 X142.233 Y101.802 E0.09371
G1 X144.044 Y99.990 E0.25155
G1 X144.044 Y100.945 E0.09371
G1 X142.233 Y102.756 E0.25155
G1 X142.233 Y103.465 E0.06956
G1 X142.410 Y103.465 E0.01742
G1 X142.410 Y103.533 E0.00673
G1 X144.044 Y101.899 E0.22691
G1 X144.044 Y102.853 E0.09371
G1 X142.779 Y104.119 E0.17571
M204 S1000
G1 X142.043 Y103.948 F10800.000
G1 F2400.000
G1 X107.395 Y103.948 E0.79627
G1 E-0.80000 F2100.00000
G1 Z1.150 F10800.000
G1 X107.458 Y98.805
G1 Z0.550
G1 E0.80000 F2100.00000
M204 S2000
G1 F3600.000
G1 X106.376 Y99.887 E0.14954
G1 X106.376 Y100.837 E0.09290
G1 X107.205 Y100.009 E0.11452
G1 X107.205 Y100.959 E0.09290
G1 X106.376 Y101.787 E0.11451
G1 X106.376 Y102.738 E0.09290
G1 X107.205 Y101.909 E0.11452
G1 X107.205 Y102.860 E0.09290
G1 X106.273 Y103.792 E0.12886
M204 S1000
G1 X106.186 Y103.948 F10800.000
G1 F2400.000
G1 X76.102 Y103.948 E0.69138
;BEFORE_LAYER_CHANGE
G92 E0.0
;0.9


G1 E-0.80000 F2100.00000
G1 Z1.150 F10800.000
;AFTER_LAYER_CHANGE
;0.9
G1 X73.806 Y101.016
G1 Z0.900
G1 E0.80000 F2100.00000
G1 F3000.000
G1 X85.581 Y95.798 E0.64636
G1 X86.274 Y95.615 E0.03599
G1 X163.244 Y95.602 E3.86278
G1 X164.146 Y95.782 E0.04616
G1 X175.792 Y100.785 E0.63612
G1 X176.399 Y101.180 E0.03637
G1 X176.862 Y101.743 E0.03656
G1 X177.083 Y102.239 E0.02728
G1 X177.186 Y102.777 E0.02747
G1 X177.137 Y105.451 E0.13424
G1 X175.209 Y112.794 E0.38102
G1 X174.804 Y113.523 E0.04184
G1 X174.172 Y114.067 E0.04184
G1 X173.591 Y114.313 E0.03164
G1 X172.970 Y114.398 E0.03145
G1 X76.632 Y114.389 E4.83486
G1 X76.002 Y114.245 E0.03240
G1 X75.435 Y113.937 E0.03240
G1 X74.971 Y113.488 E0.03240
G1 X74.645 Y112.931 E0.03240
G1 X72.821 Y105.194 E0.39896
G1 X72.808 Y102.910 E0.11459
G1 X72.871 Y102.409 E0.02538
G1 X73.212 Y101.627 E0.04278
G1 X73.764 Y101.059 E0.03977
G1 E-0.80000 F2100.00000
G1 Z1.500 F10800.000
G1 X107.572 Y98.734
G1 Z0.900
G1 E0.80000 F2100.00000
M204 S800
G1 F3000.000
G1 X141.866 Y98.734 E1.77096
G1 X141.866 Y103.692 E0.25605
