; generated by PrusaSlicer 2.1.1+win64 on 2020-06-25 at 17:58:13 UTC

; 

; external perimeters extrusion width = 0.45mm
; perimeters extrusion width = 0.45mm
; infill extrusion width = 0.45mm
; solid infill extrusion width = 0.45mm
; top infill extrusion width = 0.40mm
; support material extrusion width = 0.35mm
; first layer extrusion width = 0.42mm

M73 P0 R17
M201 X9000 Y9000 Z500 E10000 ; sets maximum accelerations, mm/sec^2
M203 X500 Y500 Z12 E120 ; sets maximum feedrates, mm/sec
M204 P2000 R1500 T2000 ; sets acceleration (P, T) and retract acceleration (R), mm/sec^2
M205 X10.00 Y10.00 Z0.20 E2.50 ; sets the jerk limits, mm/sec
M205 S0 T0 ; sets the minimum extruding and travel feed rate, mm/sec
M107
M862.3 P "MK2S" ; printer model check
M862.1 P0.4 ; nozzle diameter check
M115 U3.2.3 ; tell printer latest fw version
G90 ; use absolute coordinates
M83 ; extruder relative mode
M204 S2000 T1500 ; MK2 firmware only supports the old M204 format
M104 S215 ; set extruder temp
M140 S60 ; set bed temp
M190 S60 ; wait for bed temp
M109 S215 ; wait for extruder temp
G28 W ; home all without mesh bed level
G80 ; mesh bed leveling
G1 Y-3.0 F1000.0 ; go outside print area
G92 E0.0
G1 X60.0 E9.0  F1000.0 ; intro line
M73 P0 R17
G1 X100.0 E12.5 F1000.0 ; intro line
G92 E0.0
G21 ; set units to millimeters
G90 ; use absolute coordinates
M83 ; use relative distances for extrusion
M900 K30 ; Filament gcode
;BEFORE_LAYER_CHANGE
G92 E0.0
;0.2


G1 E-0.80000 F2100.00000
G1 Z0.600 F10800.000
;AFTER_LAYER_CHANGE
;0.2
G1 X109.622 Y90.712
G1 Z0.200
G1 E0.80000 F2100.00000
M204 S1000
G1 F1200
G1 X111.074 Y89.256 E0.06446
G1 X112.934 Y87.750 E0.07506
G1 X114.667 Y86.629 E0.06472
G1 X116.685 Y85.610 E0.07087
G1 X118.613 Y84.874 E0.06469
G1 X120.705 Y84.314 E0.06790
G1 X122.836 Y83.977 E0.06767
G1 X125.002 Y83.863 E0.06801
G1 X127.165 Y83.977 E0.06790
G1 X129.300 Y84.315 E0.06778
G1 X131.392 Y84.876 E0.06790
G1 X133.410 Y85.650 E0.06778
G1 X135.343 Y86.635 E0.06801
G1 X137.156 Y87.812 E0.06778
G1 X138.840 Y89.174 E0.06790
G1 X140.296 Y90.626 E0.06446
G1 X141.802 Y92.486 E0.07506
G1 X142.923 Y94.219 E0.06472
G1 X143.942 Y96.237 E0.07087
G1 X144.678 Y98.165 E0.06469
G1 X145.238 Y100.257 E0.06790
G1 X145.575 Y102.388 E0.06767
G1 X145.689 Y104.551 E0.06790
G1 X145.575 Y106.713 E0.06790
G1 X145.237 Y108.849 E0.06778
G1 X144.677 Y110.940 E0.06790
G1 X143.941 Y112.868 E0.06469
G1 X142.923 Y114.886 E0.07087
G1 X141.802 Y116.618 E0.06469
G1 X140.296 Y118.478 E0.07506
G1 X138.839 Y119.931 E0.06450
G1 X137.156 Y121.293 E0.06790
G1 X135.342 Y122.470 E0.06778
G1 X133.409 Y123.454 E0.06801
G1 X131.394 Y124.228 E0.06767
G1 X129.303 Y124.788 E0.06790
G1 X127.164 Y125.127 E0.06790
G1 X125.001 Y125.241 E0.06790
G1 X122.836 Y125.127 E0.06798
G1 X120.703 Y124.789 E0.06771
G1 X118.612 Y124.229 E0.06790
G1 X116.684 Y123.493 E0.06469
G1 X114.666 Y122.475 E0.07087
G1 X112.934 Y121.354 E0.06469
G1 X111.074 Y119.848 E0.07506
G1 X109.621 Y118.391 E0.06450
G1 X108.259 Y116.708 E0.06790
G1 X107.082 Y114.894 E0.06778
G1 X106.098 Y112.961 E0.06801
G1 X105.323 Y110.943 E0.06778
G1 X104.764 Y108.855 E0.06778
G1 X104.425 Y106.716 E0.06790
G1 X104.311 Y104.553 E0.06790
G1 X104.425 Y102.391 E0.06790
G1 X104.763 Y100.252 E0.06790
G1 X105.324 Y98.160 E0.06790
G1 X106.098 Y96.142 E0.06778
G1 X107.083 Y94.209 E0.06801
G1 X108.260 Y92.396 E0.06778
G1 X109.584 Y90.759 E0.06602
G1 E-0.80000 F2100.00000
G1 Z0.800 F10800.000
G1 X126.574 Y107.980
G1 Z0.200
G1 E0.80000 F2100.00000
G1 F1200
G1 X126.860 Y107.615 E0.01453
G1 X127.321 Y107.280 E0.01787
G1 X127.569 Y107.168 E0.00855
G1 X128.000 Y107.079 E0.01380
G1 X128.428 Y107.117 E0.01347
G1 X137.348 Y109.303 E0.28796
G1 X137.573 Y109.379 E0.00745
G1 X137.805 Y109.501 E0.00821
G1 X138.013 Y109.660 E0.00821
G1 X138.192 Y109.851 E0.00821
G1 X138.337 Y110.069 E0.00821
G1 X138.445 Y110.308 E0.00821
G1 X138.511 Y110.561 E0.00821
G1 X138.536 Y110.822 E0.00821
G1 X138.517 Y111.083 E0.00821
G1 X138.455 Y111.338 E0.00821
G1 X138.360 Y111.563 E0.00768
G1 X137.986 Y112.233 E0.02406
G1 X136.993 Y113.707 E0.05573
G1 X135.826 Y115.062 E0.05605
G1 X134.507 Y116.268 E0.05605
G1 X133.054 Y117.310 E0.05605
G1 X131.489 Y118.174 E0.05605
G1 X129.832 Y118.845 E0.05605
G1 X128.119 Y119.313 E0.05568
G1 X127.538 Y119.425 E0.01856
G1 X127.296 Y119.446 E0.00762
G1 X127.035 Y119.426 E0.00821
G1 X126.781 Y119.363 E0.00821
G1 X126.547 Y119.262 E0.00799
G1 X126.321 Y119.118 E0.00838
G1 X126.126 Y118.941 E0.00826
G1 X125.964 Y118.736 E0.00821
G1 X125.841 Y118.513 E0.00799
G1 X125.751 Y118.261 E0.00838
G1 X125.705 Y118.001 E0.00826
G1 X125.703 Y117.764 E0.00746
G1 X126.405 Y108.416 E0.29390
G1 X126.552 Y108.036 E0.01279
G1 X127.686 Y107.529 F10800.000
G1 F1200
G1 X128.022 Y107.460 E0.01076
G1 X128.366 Y107.490 E0.01083
G1 X137.243 Y109.666 E0.28657
G1 X137.424 Y109.726 E0.00598
G1 X137.600 Y109.820 E0.00626
G1 X137.759 Y109.941 E0.00626
G1 X137.895 Y110.087 E0.00626
G1 X138.006 Y110.253 E0.00626
G1 X138.088 Y110.435 E0.00626
G1 X138.139 Y110.627 E0.00626
G1 X138.157 Y110.826 E0.00626
G1 X138.143 Y111.025 E0.00626
G1 X138.096 Y111.219 E0.00626
G1 X138.021 Y111.397 E0.00606
G1 X137.664 Y112.036 E0.02293
G1 X136.693 Y113.478 E0.05453
G1 X135.555 Y114.799 E0.05465
G1 X134.269 Y115.975 E0.05465
G1 X132.853 Y116.991 E0.05465
G1 X131.326 Y117.832 E0.05465
G1 X129.711 Y118.488 E0.05465
G1 X128.034 Y118.946 E0.05451
G1 X127.486 Y119.051 E0.01750
G1 X127.294 Y119.067 E0.00605
G1 X127.095 Y119.052 E0.00626
G1 X126.901 Y119.004 E0.00626
G1 X126.724 Y118.928 E0.00607
G1 X126.551 Y118.818 E0.00643
G1 X126.403 Y118.683 E0.00627
G1 X126.279 Y118.526 E0.00626
G1 X126.185 Y118.357 E0.00607
G1 X126.116 Y118.164 E0.00643
G1 X126.082 Y117.967 E0.00627
G1 X126.080 Y117.776 E0.00599
G1 X126.777 Y108.500 E0.29166
G1 X126.906 Y108.168 E0.01116
G1 X127.124 Y107.889 E0.01111
G1 X127.511 Y107.608 E0.01499
G1 X127.631 Y107.553 E0.00414
G1 X127.754 Y107.193 F10800.000
G1 X125.967 Y105.750
G1 F1200
G1 X125.751 Y105.896 E0.00819
G1 X125.513 Y106.003 E0.00818
G1 X125.260 Y106.069 E0.00819
G1 X125.000 Y106.091 E0.00819
G1 X124.740 Y106.069 E0.00819
G1 X124.487 Y106.003 E0.00819
G1 X124.249 Y105.896 E0.00819
G1 X124.033 Y105.750 E0.00819
G1 X123.845 Y105.569 E0.00819
G1 X123.689 Y105.359 E0.00819
G1 X123.572 Y105.126 E0.00819
G1 X123.495 Y104.876 E0.00818
G1 X123.462 Y104.617 E0.00819
G1 X123.473 Y104.356 E0.00819
G1 X123.528 Y104.101 E0.00819
G1 X123.626 Y103.859 E0.00818
G1 X123.762 Y103.637 E0.00819
G1 X123.935 Y103.441 E0.00819
G1 X124.138 Y103.277 E0.00819
G1 X124.366 Y103.149 E0.00818
G1 X124.612 Y103.062 E0.00819
G1 X124.869 Y103.018 E0.00819
G1 X125.131 Y103.018 E0.00819
G1 X125.388 Y103.062 E0.00819
G1 X125.634 Y103.149 E0.00819
G1 X125.862 Y103.277 E0.00819
G1 X126.065 Y103.441 E0.00819
G1 X126.237 Y103.637 E0.00819
G1 X126.374 Y103.859 E0.00819
G1 X126.472 Y104.101 E0.00819
G1 X126.527 Y104.357 E0.00819
G1 X126.538 Y104.617 E0.00819
G1 X126.505 Y104.876 E0.00818
G1 X126.428 Y105.126 E0.00818
G1 X126.311 Y105.359 E0.00819
G1 X126.155 Y105.569 E0.00819
G1 X126.010 Y105.708 E0.00630
G1 X125.729 Y105.455 F10800.000
G1 F1200
G1 X125.566 Y105.565 E0.00617
G1 X125.387 Y105.646 E0.00617
G1 X125.196 Y105.696 E0.00617
G1 X125.000 Y105.713 E0.00617
G1 X124.804 Y105.696 E0.00617
G1 X124.613 Y105.646 E0.00617
G1 X124.434 Y105.565 E0.00617
G1 X124.271 Y105.455 E0.00617
G1 X124.129 Y105.319 E0.00617
G1 X124.012 Y105.161 E0.00617
G1 X123.923 Y104.985 E0.00617
G1 X123.865 Y104.797 E0.00617
G1 X123.840 Y104.601 E0.00617
G1 X123.849 Y104.405 E0.00617
G1 X123.890 Y104.212 E0.00617
G1 X123.964 Y104.029 E0.00617
G1 X124.067 Y103.862 E0.00617
G1 X124.197 Y103.714 E0.00617
G1 X124.350 Y103.590 E0.00617
G1 X124.522 Y103.494 E0.00617
G1 X124.708 Y103.429 E0.00617
G1 X124.902 Y103.395 E0.00617
G1 X125.098 Y103.395 E0.00617
G1 X125.292 Y103.429 E0.00617
G1 X125.478 Y103.494 E0.00617
G1 X125.650 Y103.590 E0.00617
G1 X125.803 Y103.714 E0.00617
G1 X125.933 Y103.862 E0.00617
G1 X126.036 Y104.029 E0.00617
G1 X126.110 Y104.212 E0.00617
G1 X126.151 Y104.405 E0.00617
G1 X126.160 Y104.601 E0.00617
G1 X126.135 Y104.797 E0.00617
G1 X126.077 Y104.985 E0.00617
G1 X125.988 Y105.161 E0.00617
G1 X125.871 Y105.319 E0.00617
G1 X125.773 Y105.414 E0.00429
G1 X125.760 Y105.650 F10800.000
G1 X123.426 Y107.980
G1 F1200
G1 X123.595 Y108.416 E0.01467
G1 X124.297 Y117.763 E0.29390
G1 X124.295 Y118.001 E0.00746
G1 X124.250 Y118.259 E0.00821
G1 X124.163 Y118.506 E0.00821
G1 X124.036 Y118.736 E0.00821
G1 X123.874 Y118.941 E0.00821
G1 X123.680 Y119.117 E0.00821
G1 X123.460 Y119.259 E0.00821
G1 X123.219 Y119.363 E0.00821
G1 X122.965 Y119.426 E0.00821
G1 X122.704 Y119.446 E0.00821
G1 X122.453 Y119.424 E0.00789
G1 X121.020 Y119.105 E0.04604
G1 X119.329 Y118.534 E0.05595
G1 X117.716 Y117.765 E0.05605
G1 X116.204 Y116.811 E0.05605
G1 X114.816 Y115.685 E0.05605
G1 X113.571 Y114.402 E0.05605
G1 X112.487 Y112.982 E0.05600
G1 X111.644 Y111.571 E0.05153
G1 X111.545 Y111.338 E0.00795
G1 X111.483 Y111.083 E0.00821
G1 X111.464 Y110.822 E0.00821
G1 X111.489 Y110.561 E0.00821
G1 X111.555 Y110.308 E0.00821
G1 X111.663 Y110.069 E0.00821
G1 X111.808 Y109.851 E0.00821
G1 X111.987 Y109.660 E0.00821
G1 X112.195 Y109.501 E0.00821
G1 X112.427 Y109.379 E0.00821
G1 X112.652 Y109.303 E0.00745
G1 X121.571 Y107.118 E0.28791
G1 X121.965 Y107.080 E0.01242
G1 X122.246 Y107.115 E0.00887
G1 X122.662 Y107.267 E0.01388
G1 X123.140 Y107.615 E0.01856
G1 X123.389 Y107.933 E0.01265
G1 X122.157 Y107.484 F10800.000
G1 F1200
G1 X122.483 Y107.603 E0.01088
G1 X122.876 Y107.889 E0.01524
G1 X123.094 Y108.168 E0.01111
G1 X123.223 Y108.500 E0.01116
G1 X123.920 Y117.776 E0.29166
G1 X123.918 Y117.967 E0.00599
G1 X123.884 Y118.164 E0.00626
G1 X123.817 Y118.352 E0.00626
G1 X123.721 Y118.526 E0.00626
G1 X123.597 Y118.683 E0.00626
G1 X123.450 Y118.817 E0.00626
G1 X123.282 Y118.925 E0.00626
G1 X123.099 Y119.004 E0.00626
G1 X122.905 Y119.052 E0.00626
G1 X122.706 Y119.067 E0.00626
G1 X122.511 Y119.050 E0.00614
G1 X121.121 Y118.742 E0.04463
G1 X119.471 Y118.184 E0.05461
G1 X117.898 Y117.434 E0.05465
G1 X116.424 Y116.504 E0.05465
G1 X115.071 Y115.406 E0.05465
G1 X113.857 Y114.155 E0.05465
G1 X112.799 Y112.770 E0.05463
G1 X111.981 Y111.400 E0.05005
G1 X111.904 Y111.219 E0.00616
G1 X111.857 Y111.025 E0.00626
G1 X111.843 Y110.826 E0.00626
G1 X111.861 Y110.627 E0.00626
G1 X111.912 Y110.435 E0.00626
G1 X111.994 Y110.253 E0.00626
G1 X112.105 Y110.087 E0.00626
G1 X112.241 Y109.941 E0.00626
G1 X112.400 Y109.820 E0.00626
G1 X112.576 Y109.726 E0.00626
G1 X112.757 Y109.666 E0.00598
G1 X121.634 Y107.491 E0.28656
G1 X121.959 Y107.460 E0.01026
G1 X122.097 Y107.477 E0.00436
G1 X122.394 Y107.231 F10800.000
G1 X121.253 Y104.114
G1 F1200
G1 X120.907 Y104.396 E0.01399
G1 X120.698 Y104.500 E0.00734
G1 X112.218 Y107.966 E0.28724
G1 X111.991 Y108.038 E0.00745
G1 X111.732 Y108.074 E0.00821
G1 X111.470 Y108.068 E0.00821
G1 X111.213 Y108.019 E0.00821
G1 X110.967 Y107.928 E0.00821
G1 X110.740 Y107.798 E0.00821
G1 X110.537 Y107.632 E0.00821
G1 X110.364 Y107.435 E0.00821
G1 X110.226 Y107.213 E0.00821
G1 X110.118 Y106.953 E0.00882
G1 X110.017 Y106.331 E0.01974
G1 X109.912 Y104.552 E0.05589
G1 X110.018 Y102.767 E0.05605
G1 X110.334 Y101.008 E0.05605
G1 X110.856 Y99.298 E0.05605
G1 X111.577 Y97.662 E0.05605
G1 X112.486 Y96.123 E0.05605
G1 X113.565 Y94.709 E0.05578
G1 X114.202 Y94.014 E0.02955
G1 X114.388 Y93.852 E0.00773
G1 X114.611 Y93.715 E0.00821
G1 X114.854 Y93.616 E0.00821
G1 X115.109 Y93.559 E0.00821
G1 X115.364 Y93.545 E0.00799
G1 X115.630 Y93.572 E0.00838
G1 X115.883 Y93.643 E0.00826
G1 X116.120 Y93.755 E0.00821
G1 X116.336 Y93.903 E0.00821
G1 X116.519 Y94.081 E0.00799
G1 X116.665 Y94.275 E0.00762
G1 X121.500 Y102.084 E0.28797
G1 X121.660 Y102.453 E0.01262
G1 X121.707 Y102.705 E0.00802
G1 X121.717 Y102.960 E0.00802
G1 X121.643 Y103.360 E0.01275
G1 X121.507 Y103.738 E0.01258
G1 X121.287 Y104.065 E0.01236
G1 X121.331 Y102.747 F10800.000
G1 F1200
G1 X121.338 Y102.933 E0.00584
G1 X121.278 Y103.261 E0.01048
G1 X121.168 Y103.566 E0.01014
G1 X120.972 Y103.857 E0.01101
G1 X120.702 Y104.077 E0.01092
G1 X120.542 Y104.156 E0.00559
G1 X112.089 Y107.611 E0.28632
G1 X111.907 Y107.669 E0.00598
G1 X111.710 Y107.697 E0.00626
G1 X111.510 Y107.692 E0.00626
G1 X111.314 Y107.654 E0.00626
G1 X111.127 Y107.585 E0.00626
G1 X110.954 Y107.486 E0.00626
G1 X110.799 Y107.360 E0.00626
G1 X110.668 Y107.210 E0.00626
G1 X110.562 Y107.040 E0.00626
G1 X110.483 Y106.850 E0.00647
G1 X110.393 Y106.290 E0.01777
G1 X110.290 Y104.552 E0.05459
G1 X110.393 Y102.812 E0.05465
G1 X110.701 Y101.097 E0.05465
G1 X111.210 Y99.430 E0.05465
G1 X111.913 Y97.835 E0.05465
G1 X112.799 Y96.334 E0.05465
G1 X113.855 Y94.951 E0.05455
G1 X114.466 Y94.284 E0.02836
G1 X114.612 Y94.157 E0.00608
G1 X114.782 Y94.053 E0.00626
G1 X114.967 Y93.977 E0.00626
G1 X115.162 Y93.934 E0.00626
G1 X115.355 Y93.923 E0.00607
G1 X115.559 Y93.944 E0.00643
G1 X115.751 Y93.998 E0.00627
G1 X115.932 Y94.083 E0.00626
G1 X116.096 Y94.196 E0.00626
G1 X116.235 Y94.331 E0.00607
G1 X116.353 Y94.488 E0.00615
G1 X121.165 Y102.258 E0.28658
G1 X121.297 Y102.564 E0.01043
G1 X121.320 Y102.688 E0.00395
G1 X121.503 Y102.817 F10800.000
G1 X124.053 Y100.741
G1 F1200
G1 X123.734 Y100.461 E0.01331
G1 X117.803 Y93.450 E0.28792
G1 X117.665 Y93.257 E0.00745
G1 X117.550 Y93.022 E0.00821
G1 X117.475 Y92.771 E0.00821
G1 X117.443 Y92.511 E0.00821
G1 X117.453 Y92.249 E0.00821
G1 X117.507 Y91.993 E0.00821
G1 X117.601 Y91.748 E0.00821
G1 X117.735 Y91.523 E0.00821
G1 X117.904 Y91.323 E0.00821
G1 X118.103 Y91.153 E0.00821
G1 X118.316 Y91.025 E0.00778
G1 X119.336 Y90.568 E0.03505
G1 X121.023 Y89.997 E0.05584
G1 X122.772 Y89.629 E0.05605
G1 X124.509 Y89.474 E0.05468
G1 X126.339 Y89.523 E0.05739
G1 X128.108 Y89.787 E0.05608
G1 X129.832 Y90.259 E0.05605
G1 X131.486 Y90.929 E0.05594
G1 X131.886 Y91.144 E0.01424
G1 X132.096 Y91.323 E0.00866
G1 X132.265 Y91.523 E0.00821
G1 X132.399 Y91.749 E0.00821
G1 X132.493 Y91.993 E0.00821
G1 X132.547 Y92.249 E0.00821
G1 X132.557 Y92.511 E0.00821
G1 X132.525 Y92.771 E0.00821
G1 X132.450 Y93.022 E0.00821
G1 X132.335 Y93.257 E0.00821
G1 X132.197 Y93.450 E0.00745
G1 X126.266 Y100.461 E0.28792
G1 X125.947 Y100.741 E0.01331
G1 X125.541 Y100.926 E0.01399
G1 X125.283 Y100.979 E0.00828
G1 X124.904 Y100.991 E0.01189
G1 X124.479 Y100.935 E0.01344
G1 X124.107 Y100.766 E0.01280
G1 X125.423 Y100.565 F10800.000
G1 F1200
G1 X125.238 Y100.603 E0.00593
G1 X124.923 Y100.613 E0.00989
G1 X124.584 Y100.568 E0.01072
G1 X124.259 Y100.421 E0.01117
G1 X124.004 Y100.196 E0.01068
G1 X118.101 Y93.219 E0.28656
G1 X117.990 Y93.063 E0.00598
G1 X117.902 Y92.884 E0.00626
G1 X117.845 Y92.693 E0.00626
G1 X117.821 Y92.495 E0.00626
G1 X117.829 Y92.295 E0.00626
G1 X117.869 Y92.100 E0.00626
G1 X117.942 Y91.914 E0.00626
G1 X118.043 Y91.742 E0.00626
G1 X118.172 Y91.590 E0.00626
G1 X118.324 Y91.460 E0.00626
G1 X118.491 Y91.360 E0.00610
G1 X119.474 Y90.919 E0.03378
G1 X121.123 Y90.362 E0.05457
G1 X122.828 Y90.003 E0.05465
G1 X124.521 Y89.852 E0.05329
G1 X126.306 Y89.900 E0.05598
G1 X128.030 Y90.157 E0.05466
G1 X129.711 Y90.616 E0.05465
G1 X131.325 Y91.271 E0.05461
G1 X131.672 Y91.457 E0.01235
G1 X131.828 Y91.590 E0.00642
G1 X131.957 Y91.742 E0.00626
G1 X132.058 Y91.914 E0.00626
G1 X132.131 Y92.100 E0.00626
G1 X132.171 Y92.295 E0.00626
G1 X132.179 Y92.495 E0.00626
G1 X132.155 Y92.693 E0.00626
G1 X132.098 Y92.884 E0.00626
G1 X132.010 Y93.063 E0.00626
G1 X131.899 Y93.219 E0.00598
G1 X125.996 Y100.196 E0.28656
G1 X125.741 Y100.421 E0.01068
G1 X125.478 Y100.540 E0.00904
G1 X125.387 Y100.750 F10800.000
G1 X128.747 Y104.114
G1 F1200
G1 X128.493 Y103.738 E0.01425
G1 X128.357 Y103.360 E0.01258
G1 X128.283 Y102.960 E0.01275
G1 X128.294 Y102.683 E0.00871
G1 X128.403 Y102.273 E0.01330
G1 X128.511 Y102.065 E0.00734
G1 X133.334 Y94.277 E0.28724
G1 X133.476 Y94.086 E0.00745
G1 X133.664 Y93.903 E0.00821
G1 X133.880 Y93.755 E0.00821
G1 X134.117 Y93.643 E0.00821
G1 X134.369 Y93.573 E0.00821
G1 X134.622 Y93.545 E0.00799
G1 X134.889 Y93.559 E0.00838
G1 X135.146 Y93.616 E0.00826
G1 X135.389 Y93.715 E0.00821
G1 X135.614 Y93.854 E0.00831
