; generated by PrusaSlicer 2.1.1+win64 on 2020-03-11 at 01:19:59 UTC

; 

; external perimeters extrusion width = 0.45mm
; perimeters extrusion width = 0.45mm
; infill extrusion width = 0.45mm
; solid infill extrusion width = 0.45mm
; top infill extrusion width = 0.40mm
; support material extrusion width = 0.35mm
; first layer extrusion width = 0.42mm

M73 P0 R133
M201 X9000 Y9000 Z500 E10000 ; sets maximum accelerations, mm/sec^2
M203 X500 Y500 Z12 E120 ; sets maximum feedrates, mm/sec
M204 P2000 R1500 T2000 ; sets acceleration (P, T) and retract acceleration (R), mm/sec^2
M205 X10.00 Y10.00 Z0.20 E2.50 ; sets the jerk limits, mm/sec
M205 S0 T0 ; sets the minimum extruding and travel feed rate, mm/sec
M107
M862.3 P "MK2S" ; printer model check
M862.1 P0.4 ; nozzle diameter check
M115 U3.2.3 ; tell printer latest fw version
G90 ; use absolute coordinates
M83 ; extruder relative mode
M204 S2000 T1500 ; MK2 firmware only supports the old M204 format
M104 S215 ; set extruder temp
M140 S60 ; set bed temp
M190 S60 ; wait for bed temp
M109 S215 ; wait for extruder temp
G28 W ; home all without mesh bed level
G80 ; mesh bed leveling
G1 Y-3.0 F1000.0 ; go outside print area
G92 E0.0
G1 X60.0 E9.0  F1000.0 ; intro line
M73 P0 R133
G1 X100.0 E12.5 F1000.0 ; intro line
G92 E0.0
G21 ; set units to millimeters
G90 ; use absolute coordinates
M83 ; use relative distances for extrusion
M900 K30 ; Filament gcode
;BEFORE_LAYER_CHANGE
G92 E0.0
;0.2


G1 E-0.80000 F2100.00000
G1 Z0.600 F10800.000
;AFTER_LAYER_CHANGE
;0.2
G1 X20.091 Y152.530
G1 Z0.200
G1 E0.80000 F2100.00000
M204 S1000
G1 F1200
G1 X17.273 Y155.348 E0.12496
G1 X17.253 Y156.434 E0.03406
G1 X22.458 Y151.228 E0.23081
G1 X23.415 Y150.621 E0.03553
G1 X23.472 Y150.678 E0.00251
G1 X23.725 Y150.425 E0.01123
G1 X25.376 Y149.378 E0.06129
G1 X17.286 Y157.467 E0.35871
G1 X17.415 Y158.405 E0.02967
G1 X28.293 Y147.527 E0.48235
G1 X30.262 Y146.278 E0.07310
G1 X31.120 Y145.766 E0.03135
G1 X17.544 Y159.343 E0.60201
G1 X17.595 Y159.713 E0.01171
G1 X17.918 Y160.035 E0.01432
G1 X33.762 Y144.191 E0.70255
G1 X36.403 Y142.617 E0.09641
G1 X18.451 Y160.569 E0.79602
G1 X18.984 Y161.102 E0.02365
G1 X39.044 Y141.042 E0.88949
G1 X39.604 Y140.708 E0.02043
G1 X39.785 Y140.890 E0.00805
G1 X40.503 Y140.172 E0.03184
G1 X41.685 Y139.467 E0.04315
G1 X18.448 Y162.704 E1.03036
G1 X18.790 Y163.429 E0.02513
G1 X44.273 Y137.946 E1.12998
G1 X46.693 Y136.593 E0.08692
G1 X19.135 Y164.151 E1.22196
G1 X19.486 Y164.866 E0.02499
G1 X49.113 Y135.240 E1.31370
G1 X51.532 Y133.887 E0.08692
G1 X20.019 Y165.400 E1.39735
G1 X20.552 Y165.933 E0.02365
G1 X53.952 Y132.533 E1.48099
G1 X54.154 Y132.420 E0.00728
G1 X54.467 Y132.733 E0.01388
G1 X55.575 Y131.626 E0.04910
G1 X56.371 Y131.180 E0.02862
G1 X21.086 Y166.466 E1.56463
G1 X21.619 Y166.999 E0.02365
G1 X58.682 Y129.936 E1.64346
G1 X60.920 Y128.765 E0.07919
G1 X22.152 Y167.533 E1.71903
G1 X22.541 Y167.922 E0.01726
G1 X22.027 Y168.436 E0.02280
G1 X22.167 Y168.585 E0.00639
G1 X63.158 Y127.594 E1.81759
G1 X65.395 Y126.423 E0.07919
G1 X22.684 Y169.134 E1.89387
G1 X23.202 Y169.683 E0.02366
G1 X67.633 Y125.252 E1.97014
G1 X69.870 Y124.081 E0.07919
G1 X23.790 Y170.161 E2.04330
G1 X24.390 Y170.628 E0.02383
G1 X72.046 Y122.971 E2.11317
G1 X74.132 Y121.952 E0.07277
G1 X24.990 Y171.094 E2.17901
G1 X25.597 Y171.554 E0.02387
G1 X76.217 Y120.934 E2.24459
G1 X78.302 Y119.915 E0.07277
G1 X26.283 Y171.934 E2.30662
G1 X26.970 Y172.314 E0.02460
G1 X80.387 Y118.896 E2.36864
M73 P0 R132
G1 X82.473 Y117.878 E0.07277
G1 X27.656 Y172.694 E2.43066
G1 X27.849 Y172.801 E0.00690
G1 X29.457 Y171.960 E0.05692
G1 X84.558 Y116.859 E2.44325
G1 X86.619 Y115.864 E0.07176
G1 X31.693 Y170.790 E2.43551
G1 X33.929 Y169.621 E0.07911
G1 X88.668 Y114.882 E2.42722
G1 X90.717 Y113.900 E0.07124
G1 X36.165 Y168.452 E2.41893
G1 X38.401 Y167.282 E0.07911
G1 X92.766 Y112.917 E2.41064
G1 X94.815 Y111.935 E0.07124
G1 X40.636 Y166.113 E2.40235
G1 X41.464 Y165.680 E0.02927
G1 X42.987 Y164.829 E0.05470
G1 X96.864 Y110.953 E2.38899
G1 X98.912 Y109.970 E0.07124
G1 X45.404 Y163.479 E2.37265
G1 X47.822 Y162.128 E0.08683
G1 X100.961 Y108.988 E2.35631
G1 X103.010 Y108.005 E0.07124
G1 X50.239 Y160.777 E2.33996
G1 X52.656 Y159.426 E0.08683
G1 X105.059 Y107.023 E2.32362
G1 X107.108 Y106.041 E0.07124
G1 X55.074 Y158.075 E2.30728
G1 X57.709 Y156.507 E0.09613
G1 X109.156 Y105.059 E2.28127
G1 X110.808 Y104.243 E0.05776
G1 X110.923 Y104.359 E0.00512
G1 X60.347 Y154.935 E2.24263
G1 X62.986 Y153.363 E0.09630
G1 X111.456 Y104.892 E2.14927
M73 P1 R131
G1 X111.990 Y105.425 E0.02365
G1 X65.624 Y151.791 E2.05592
G1 X68.263 Y150.219 E0.09630
G1 X112.523 Y105.959 E1.96257
G1 X113.056 Y106.492 E0.02365
G1 X71.146 Y148.402 E1.85835
G1 X74.060 Y146.554 E0.10818
G1 X113.590 Y107.025 E1.75278
G1 X114.123 Y107.558 E0.02365
G1 X76.974 Y144.707 E1.64722
G1 X79.888 Y142.859 E0.10818
G1 X114.656 Y108.092 E1.54165
G1 X115.189 Y108.625 E0.02365
G1 X82.929 Y140.886 E1.43050
G1 X86.196 Y138.685 E0.12352
G1 X115.723 Y109.158 E1.30926
G1 X115.758 Y109.193 E0.00156
G1 X114.126 Y110.825 E0.07234
G1 X114.625 Y111.323 E0.02209
G1 X89.463 Y136.484 E1.11570
G1 X92.730 Y134.283 E0.12352
G1 X115.158 Y111.856 E0.99446
G1 X115.691 Y112.389 E0.02365
G1 X96.041 Y132.040 E0.87133
G1 X99.419 Y129.728 E0.12836
G1 X116.224 Y112.923 E0.74517
G1 X116.758 Y113.456 E0.02365
G1 X102.798 Y127.416 E0.61901
G1 X106.176 Y125.104 E0.12836
G1 X117.291 Y113.989 E0.49285
G1 X117.824 Y114.522 E0.02365
G1 X109.555 Y122.792 E0.36669
G1 X112.933 Y120.480 E0.12836
G1 X118.357 Y115.056 E0.24053
G1 X118.891 Y115.589 E0.02365
G1 X115.660 Y118.819 E0.14324
G1 E-0.80000 F2100.00000
G1 Z0.800 F10800.000
G1 X27.834 Y174.065
G1 Z0.200
G1 E0.80000 F2100.00000
G1 F1200
G1 X24.934 Y172.459 E0.10394
G1 X22.529 Y170.592 E0.09544
G1 X20.441 Y168.377 E0.09546
G1 X18.762 Y165.920 E0.09331
G1 X17.416 Y163.137 E0.09694
G1 X16.541 Y160.220 E0.09548
G1 X16.126 Y157.204 E0.09544
G1 X16.186 Y153.890 E0.10394
G1 X29.678 Y145.330 E0.50101
G1 X43.139 Y137.305 E0.49136
G1 X56.817 Y129.656 E0.49136
G1 X70.701 Y122.390 E0.49136
G1 X84.777 Y115.513 E0.49117
G1 X108.812 Y103.990 E0.83576
G1 X132.691 Y92.156 E0.83558
G1 X156.413 Y80.013 E0.83558
G1 X179.974 Y67.562 E0.83558
G1 X203.372 Y54.804 E0.83558
G1 X226.088 Y42.032 E0.81710
G1 X223.799 Y38.053 E0.14395
G1 X223.737 Y37.812 E0.00778
G1 X223.738 Y37.467 E0.01082
G1 X223.860 Y37.132 E0.01119
G1 X224.005 Y36.930 E0.00779
G1 X224.272 Y36.707 E0.01091
G1 X224.636 Y36.578 E0.01212
G1 X225.008 Y36.580 E0.01167
G1 X225.365 Y36.709 E0.01191
G1 X225.637 Y36.937 E0.01111
G1 X225.746 Y37.093 E0.00596
G1 X233.776 Y51.001 E0.50353
G1 X233.888 Y51.310 E0.01030
G1 X233.888 Y51.690 E0.01194
G1 X233.767 Y52.023 E0.01111
G1 X233.628 Y52.221 E0.00758
G1 X233.357 Y52.449 E0.01111
G1 X232.999 Y52.579 E0.01194
G1 X232.618 Y52.579 E0.01194
G1 X232.260 Y52.449 E0.01194
G1 X231.969 Y52.205 E0.01192
G1 X229.656 Y48.213 E0.14467
G1 X207.237 Y61.499 E0.81711
G1 X184.491 Y75.384 E0.83558
G1 X161.926 Y89.563 E0.83558
G1 X139.549 Y104.035 E0.83558
G1 X117.362 Y118.798 E0.83558
G1 X95.364 Y133.852 E0.83576
G1 X82.371 Y142.603 E0.49117
G1 X69.136 Y150.994 E0.49136
G1 X55.673 Y159.015 E0.49136
G1 X41.993 Y166.660 E0.49136
G1 X27.887 Y174.037 E0.49913
M73 P2 R130
G1 X27.839 Y173.637 F10800.000
G1 F1200
G1 X25.142 Y172.144 E0.09666
G1 X22.784 Y170.312 E0.09361
G1 X20.736 Y168.139 E0.09361
G1 X19.089 Y165.730 E0.09150
G1 X17.768 Y162.999 E0.09512
G1 X16.910 Y160.139 E0.09362
G1 X16.504 Y157.182 E0.09361
G1 X16.559 Y154.099 E0.09666
G1 X29.876 Y145.651 E0.49448
G1 X43.327 Y137.631 E0.49103
G1 X56.996 Y129.988 E0.49103
G1 X70.871 Y122.726 E0.49103
G1 X84.941 Y115.853 E0.49096
G1 X108.978 Y104.329 E0.83580
G1 X132.860 Y92.493 E0.83573
G1 X156.587 Y80.347 E0.83573
G1 X180.153 Y67.894 E0.83573
G1 X203.555 Y55.134 E0.83573
G1 X226.605 Y42.174 E0.82912
G1 X224.151 Y37.910 E0.15427
G1 X224.114 Y37.766 E0.00466
G1 X224.115 Y37.535 E0.00724
G1 X224.197 Y37.310 E0.00750
G1 X224.283 Y37.189 E0.00466
G1 X224.462 Y37.040 E0.00728
G1 X224.701 Y36.956 E0.00795
G1 X224.941 Y36.956 E0.00755
G1 X225.174 Y37.041 E0.00776
G1 X225.356 Y37.194 E0.00747
G1 X225.428 Y37.296 E0.00389
G1 X233.433 Y51.161 E0.50198
G1 X233.511 Y51.376 E0.00718
G1 X233.511 Y51.624 E0.00777
G1 X233.429 Y51.848 E0.00747
G1 X233.348 Y51.964 E0.00447
G1 X233.165 Y52.118 E0.00747
G1 X232.932 Y52.202 E0.00777
G1 X232.685 Y52.202 E0.00777
G1 X232.452 Y52.118 E0.00777
G1 X232.262 Y51.959 E0.00776
G1 X229.792 Y47.694 E0.15453
G1 X207.043 Y61.176 E0.82912
G1 X184.292 Y75.063 E0.83573
G1 X161.724 Y89.245 E0.83573
G1 X139.342 Y103.720 E0.83573
G1 X117.151 Y118.485 E0.83573
G1 X95.152 Y133.540 E0.83580
G1 X82.165 Y142.287 E0.49096
G1 X68.939 Y150.673 E0.49103
G1 X55.485 Y158.688 E0.49103
G1 X41.814 Y166.328 E0.49103
G1 X27.892 Y173.609 E0.49260
G1 X27.583 Y173.944 F10800.000
G1 E-0.80000 F2100.00000
G1 Z0.800 F10800.000
G1 X170.827 Y55.372
G1 Z0.200
G1 E0.80000 F2100.00000
G1 F1200
G1 X170.181 Y55.198 E0.02098
G1 X169.574 Y54.916 E0.02098
G1 X169.026 Y54.532 E0.02098
G1 X168.553 Y54.058 E0.02098
G1 X168.169 Y53.510 E0.02098
G1 X167.886 Y52.904 E0.02098
G1 X167.713 Y52.257 E0.02098
G1 X167.655 Y51.591 E0.02098
G1 X167.713 Y50.924 E0.02098
G1 X167.886 Y50.277 E0.02098
G1 X168.169 Y49.671 E0.02098
G1 X168.553 Y49.123 E0.02098
G1 X169.026 Y48.650 E0.02098
G1 X169.574 Y48.266 E0.02098
G1 X170.181 Y47.983 E0.02098
G1 X170.827 Y47.810 E0.02098
G1 X171.463 Y47.754 E0.02002
G1 X172.158 Y47.809 E0.02186
G1 X172.807 Y47.983 E0.02106
G1 X173.414 Y48.266 E0.02098
G1 X173.962 Y48.650 E0.02098
G1 X174.435 Y49.123 E0.02098
G1 X174.819 Y49.671 E0.02098
G1 X175.102 Y50.277 E0.02098
G1 X175.267 Y50.894 E0.02002
G1 X175.334 Y51.588 E0.02186
G1 X175.275 Y52.257 E0.02106
G1 X175.102 Y52.904 E0.02098
G1 X174.819 Y53.510 E0.02098
G1 X174.435 Y54.058 E0.02098
G1 X173.962 Y54.532 E0.02098
G1 X173.414 Y54.916 E0.02098
G1 X172.807 Y55.198 E0.02098
G1 X172.161 Y55.372 E0.02098
G1 X171.494 Y55.430 E0.02098
G1 X170.887 Y55.377 E0.01910
G1 X170.893 Y54.999 F10800.000
G1 F1200
G1 X170.310 Y54.843 E0.01891
G1 X169.764 Y54.588 E0.01891
G1 X169.269 Y54.242 E0.01891
G1 X168.843 Y53.815 E0.01891
G1 X168.497 Y53.321 E0.01891
G1 X168.242 Y52.774 E0.01891
G1 X168.086 Y52.192 E0.01891
G1 X168.033 Y51.591 E0.01891
G1 X168.086 Y50.990 E0.01891
G1 X168.242 Y50.407 E0.01891
G1 X168.497 Y49.860 E0.01891
G1 X168.843 Y49.366 E0.01891
G1 X169.269 Y48.939 E0.01891
G1 X169.764 Y48.593 E0.01891
G1 X170.310 Y48.339 E0.01891
G1 X170.893 Y48.182 E0.01891
G1 X171.465 Y48.132 E0.01800
G1 X172.094 Y48.182 E0.01979
G1 X172.678 Y48.339 E0.01894
G1 X173.224 Y48.593 E0.01891
G1 X173.719 Y48.939 E0.01891
G1 X174.145 Y49.366 E0.01891
G1 X174.491 Y49.860 E0.01892
G1 X174.746 Y50.407 E0.01891
G1 X174.895 Y50.961 E0.01800
G1 X174.955 Y51.590 E0.01979
G1 X174.902 Y52.192 E0.01894
G1 X174.746 Y52.774 E0.01891
G1 X174.491 Y53.321 E0.01891
G1 X174.145 Y53.815 E0.01892
G1 X173.719 Y54.242 E0.01891
G1 X173.224 Y54.588 E0.01891
G1 X172.678 Y54.843 E0.01891
G1 X172.095 Y54.999 E0.01891
G1 X171.494 Y55.051 E0.01891
G1 X170.953 Y55.004 E0.01703
G1 X170.636 Y55.305 F10800.000
G1 E-0.80000 F2100.00000
G1 Z0.800 F10800.000
G1 X117.021 Y86.880
G1 Z0.200
G1 E0.80000 F2100.00000
G1 F1200
G1 X116.354 Y86.822 E0.02098
G1 X115.708 Y86.648 E0.02098
G1 X115.101 Y86.366 E0.02098
G1 X114.553 Y85.982 E0.02098
G1 X114.080 Y85.508 E0.02098
G1 X113.696 Y84.960 E0.02098
G1 X113.413 Y84.354 E0.02098
G1 X113.240 Y83.707 E0.02098
G1 X113.182 Y83.041 E0.02098
G1 X113.240 Y82.374 E0.02098
G1 X113.413 Y81.727 E0.02098
G1 X113.696 Y81.121 E0.02098
G1 X114.080 Y80.573 E0.02098
G1 X114.553 Y80.100 E0.02098
G1 X115.101 Y79.716 E0.02098
G1 X115.708 Y79.433 E0.02098
G1 X116.354 Y79.260 E0.02098
G1 X116.990 Y79.204 E0.02002
G1 X117.685 Y79.259 E0.02186
G1 X118.334 Y79.433 E0.02106
G1 X118.941 Y79.716 E0.02098
G1 X119.489 Y80.100 E0.02098
G1 X119.962 Y80.573 E0.02098
G1 X120.346 Y81.121 E0.02098
G1 X120.629 Y81.727 E0.02098
G1 X120.802 Y82.374 E0.02098
G1 X120.860 Y83.041 E0.02098
G1 X120.802 Y83.707 E0.02098
G1 X120.629 Y84.354 E0.02098
G1 X120.346 Y84.960 E0.02098
G1 X119.962 Y85.508 E0.02098
G1 X119.489 Y85.982 E0.02098
G1 X118.941 Y86.366 E0.02098
G1 X118.334 Y86.648 E0.02098
G1 X117.688 Y86.822 E0.02098
G1 X117.081 Y86.875 E0.01910
G1 X117.021 Y86.501 F10800.000
G1 F1200
G1 X116.420 Y86.449 E0.01891
G1 X115.837 Y86.293 E0.01891
G1 X115.291 Y86.038 E0.01891
G1 X114.796 Y85.692 E0.01891
G1 X114.370 Y85.265 E0.01891
G1 X114.024 Y84.771 E0.01891
G1 X113.769 Y84.224 E0.01891
G1 X113.613 Y83.642 E0.01891
G1 X113.560 Y83.041 E0.01891
G1 X113.613 Y82.440 E0.01891
G1 X113.769 Y81.857 E0.01891
G1 X114.024 Y81.310 E0.01891
G1 X114.370 Y80.816 E0.01891
G1 X114.796 Y80.389 E0.01892
G1 X115.291 Y80.043 E0.01891
G1 X115.837 Y79.789 E0.01891
G1 X116.420 Y79.632 E0.01891
G1 X116.992 Y79.582 E0.01800
G1 X117.621 Y79.632 E0.01979
G1 X118.205 Y79.789 E0.01894
G1 X118.751 Y80.043 E0.01891
G1 X119.246 Y80.389 E0.01891
G1 X119.672 Y80.816 E0.01891
G1 X120.018 Y81.310 E0.01891
G1 X120.273 Y81.857 E0.01891
G1 X120.429 Y82.440 E0.01891
G1 X120.482 Y83.041 E0.01891
G1 X120.429 Y83.642 E0.01891
G1 X120.273 Y84.224 E0.01891
G1 X120.018 Y84.771 E0.01891
G1 X119.672 Y85.265 E0.01891
G1 X119.246 Y85.692 E0.01891
G1 X118.751 Y86.038 E0.01891
G1 X118.205 Y86.293 E0.01891
G1 X117.622 Y86.449 E0.01891
G1 X117.081 Y86.496 E0.01703
G1 X116.821 Y86.848 F10800.000
G1 E-0.80000 F2100.00000
G1 Z0.800 F10800.000
G1 X29.780 Y175.016
G1 Z0.200
G1 E0.80000 F2100.00000
G1 F1200
G1 X28.715 Y175.250 E0.03419
G1 X27.626 Y175.300 E0.03419
G1 X26.544 Y175.165 E0.03419
G1 X25.500 Y174.848 E0.03419
G1 X24.519 Y174.356 E0.03440
G1 X22.329 Y172.817 E0.08394
G1 X21.708 Y172.300 E0.02533
G1 X20.360 Y171.031 E0.05805
G1 X19.061 Y169.563 E0.06145
G1 X17.208 Y166.873 E0.10242
G1 X16.909 Y166.308 E0.02004
G1 X15.698 Y163.739 E0.08906
G1 X15.076 Y161.879 E0.06148
G1 X14.652 Y160.077 E0.05805
G1 X14.514 Y159.281 E0.02533
G1 X14.276 Y156.615 E0.08394
G1 X14.341 Y155.519 E0.03440
G1 X14.588 Y154.457 E0.03419
G1 X15.012 Y153.452 E0.03419
G1 X15.600 Y152.534 E0.03419
G1 X16.335 Y151.729 E0.03419
G1 X17.213 Y151.046 E0.03485
G1 X30.145 Y142.902 E0.47920
G1 X43.311 Y135.099 E0.47986
G1 X56.682 Y127.654 E0.47986
G1 X70.250 Y120.572 E0.47986
G1 X84.009 Y113.857 E0.48005
G1 X111.447 Y100.669 E0.95451
G1 X115.769 Y98.546 E0.15099
G1 X111.563 Y84.728 E0.45288
G1 X111.356 Y83.762 E0.03097
G1 X111.315 Y82.800 E0.03019
G1 X111.437 Y81.845 E0.03019
G1 X111.717 Y80.924 E0.03019
G1 X112.125 Y80.109 E0.02860
G1 X112.719 Y79.285 E0.03183
G1 X113.409 Y78.617 E0.03011
G1 X114.204 Y78.073 E0.03019
G1 X115.078 Y77.670 E0.03019
G1 X116.008 Y77.420 E0.03019
G1 X116.966 Y77.330 E0.03019
G1 X117.926 Y77.402 E0.03019
G1 X118.861 Y77.634 E0.03019
G1 X119.743 Y78.020 E0.03019
G1 X120.548 Y78.549 E0.03019
G1 X121.270 Y79.222 E0.03097
G1 X131.627 Y90.646 E0.48348
G1 X138.696 Y87.070 E0.24841
G1 X165.734 Y73.069 E0.95466
G1 X171.738 Y69.891 E0.21299
G1 X166.099 Y53.470 E0.54439
G1 X165.855 Y52.490 E0.03166
G1 X165.784 Y51.508 E0.03087
G1 X165.883 Y50.529 E0.03087
G1 X166.149 Y49.581 E0.03087
G1 X166.551 Y48.739 E0.02924
G1 X167.146 Y47.889 E0.03255
G1 X167.844 Y47.198 E0.03079
G1 X168.653 Y46.637 E0.03087
G1 X169.546 Y46.222 E0.03087
G1 X170.497 Y45.968 E0.03087
G1 X171.477 Y45.880 E0.03087
G1 X172.458 Y45.962 E0.03087
G1 X173.411 Y46.211 E0.03087
G1 X174.259 Y46.599 E0.02924
G1 X175.120 Y47.179 E0.03255
G1 X175.840 Y47.883 E0.03159
G1 X187.497 Y61.425 E0.56026
G1 X192.566 Y58.664 E0.18097
G1 X219.196 Y43.853 E0.95544
G1 X219.976 Y43.318 E0.02963
G1 X220.667 Y42.640 E0.03037
G1 X221.232 Y41.853 E0.03037
G1 X221.652 Y40.980 E0.03037
G1 X221.915 Y40.048 E0.03037
G1 X222.013 Y39.085 E0.03037
G1 X221.907 Y37.615 E0.04620
G1 X221.958 Y37.113 E0.01582
G1 X222.095 Y36.628 E0.01582
G1 X222.314 Y36.173 E0.01582
G1 X222.608 Y35.763 E0.01582
G1 X222.968 Y35.410 E0.01582
G1 X223.384 Y35.125 E0.01582
G1 X223.843 Y34.915 E0.01582
G1 X224.329 Y34.789 E0.01573
G1 X224.866 Y34.751 E0.01689
G1 X225.337 Y34.794 E0.01482
G1 X225.823 Y34.927 E0.01582
