; generated by PrusaSlicer 2.1.1+win64 on 2020-02-12 at 19:37:48 UTC

; 

; external perimeters extrusion width = 0.45mm
; perimeters extrusion width = 0.45mm
; infill extrusion width = 0.45mm
; solid infill extrusion width = 0.45mm
; top infill extrusion width = 0.40mm
; first layer extrusion width = 0.42mm

M73 P0 R10
M201 X9000 Y9000 Z500 E10000 ; sets maximum accelerations, mm/sec^2
M203 X500 Y500 Z12 E120 ; sets maximum feedrates, mm/sec
M204 P2000 R1500 T2000 ; sets acceleration (P, T) and retract acceleration (R), mm/sec^2
M205 X10.00 Y10.00 Z0.20 E2.50 ; sets the jerk limits, mm/sec
M205 S0 T0 ; sets the minimum extruding and travel feed rate, mm/sec
M107
M862.3 P "MK2S" ; printer model check
M862.1 P0.4 ; nozzle diameter check
M115 U3.2.3 ; tell printer latest fw version
G90 ; use absolute coordinates
M83 ; extruder relative mode
M204 S2000 T1500 ; MK2 firmware only supports the old M204 format
M104 S215 ; set extruder temp
M140 S60 ; set bed temp
M190 S60 ; wait for bed temp
M109 S215 ; wait for extruder temp
G28 W ; home all without mesh bed level
G80 ; mesh bed leveling
G1 Y-3.0 F1000.0 ; go outside print area
G92 E0.0
G1 X60.0 E9.0  F1000.0 ; intro line
M73 P0 R10
G1 X100.0 E12.5 F1000.0 ; intro line
G92 E0.0
G21 ; set units to millimeters
G90 ; use absolute coordinates
M83 ; use relative distances for extrusion
M900 K30 ; Filament gcode
;BEFORE_LAYER_CHANGE
G92 E0.0
;0.2


G1 E-0.80000 F2100.00000
G1 Z0.600 F10800.000
;AFTER_LAYER_CHANGE
;0.2
G1 X100.569 Y85.008
G1 Z0.200
G1 E0.80000 F2100.00000
M204 S1000
G1 F1200
G1 X101.440 Y84.812 E0.02799
G1 X144.561 Y84.812 E1.35201
G1 X145.360 Y84.964 E0.02552
G1 X146.046 Y85.396 E0.02541
G1 X150.378 Y90.213 E0.20312
G1 X150.645 Y90.644 E0.01589
G1 X150.806 Y91.128 E0.01601
G1 X150.925 Y92.844 E0.05393
G1 X143.651 Y121.257 E0.91960
G1 X142.623 Y123.880 E0.08834
G1 X142.246 Y124.464 E0.02179
G1 X141.516 Y124.996 E0.02833
G1 X140.629 Y125.188 E0.02844
G1 X110.136 Y125.188 E0.95610
G1 X109.369 Y125.036 E0.02451
G1 X108.708 Y124.626 E0.02439
G1 X108.254 Y124.053 E0.02293
G1 X107.668 Y122.730 E0.04538
G1 X106.484 Y119.288 E0.11410
G1 X99.031 Y95.485 E0.78205
G1 X98.978 Y93.791 E0.05313
G1 X99.294 Y86.821 E0.21878
G1 X99.466 Y86.133 E0.02225
G1 X99.849 Y85.535 E0.02225
G1 X100.521 Y85.043 E0.02611
G1 E-0.80000 F2100.00000
G1 Z0.800 F10800.000
G1 X125.103 Y122.413
G1 Z0.200
G1 E0.80000 F2100.00000
G1 F1200
G1 X110.557 Y122.413 E0.45610
G1 X110.351 Y121.939 E0.01620
G1 X111.167 Y120.666 E0.04741
G1 X110.183 Y119.224 E0.05475
G1 X109.307 Y118.468 E0.03626
G1 X109.809 Y117.567 E0.03234
G1 X110.070 Y116.323 E0.03983
G1 X110.295 Y115.587 E0.02414
G1 X140.724 Y115.587 E0.95407
G1 X141.024 Y116.233 E0.02234
G1 X140.789 Y117.138 E0.02931
G1 X139.989 Y118.567 E0.05133
G1 X140.906 Y120.686 E0.07239
G1 X140.220 Y122.413 E0.05826
G1 X125.163 Y122.413 E0.47210
G1 X125.103 Y122.790 F10800.000
G1 F1200
G1 X110.310 Y122.790 E0.46384
G1 X109.925 Y121.905 E0.03026
G1 X110.715 Y120.673 E0.04591
G1 X109.899 Y119.477 E0.04538
G1 X108.828 Y118.553 E0.04434
G1 X109.451 Y117.433 E0.04017
G1 X109.705 Y116.229 E0.03857
G1 X110.016 Y115.210 E0.03342
G1 X140.964 Y115.210 E0.97037
G1 X141.423 Y116.197 E0.03413
G1 X141.141 Y117.280 E0.03508
G1 X140.409 Y118.588 E0.04700
G1 X141.314 Y120.680 E0.07145
G1 X140.476 Y122.790 E0.07119
G1 X125.163 Y122.790 E0.48013
G1 X124.889 Y122.452 F10800.000
G1 E-0.80000 F2100.00000
G1 Z0.800 F10800.000
G1 X111.409 Y122.300
G1 Z0.200
G1 E0.80000 F2100.00000
G1 F1200
G1 X110.828 Y121.719 E0.02606
G1 X111.039 Y121.390 E0.01238
G1 X111.779 Y122.130 E0.03320
G1 X112.318 Y122.130 E0.01711
G1 X111.249 Y121.061 E0.04794
G1 X111.460 Y120.732 E0.01238
G1 X112.858 Y122.130 E0.06269
G1 X113.397 Y122.130 E0.01711
G1 X109.668 Y118.401 E0.16726
G1 X109.861 Y118.054 E0.01258
G1 X113.936 Y122.130 E0.18281
G1 X114.476 Y122.130 E0.01711
G1 X110.054 Y117.708 E0.19836
G1 X110.077 Y117.667 E0.00149
G1 X110.159 Y117.274 E0.01273
G1 X115.015 Y122.130 E0.21782
G1 X115.555 Y122.130 E0.01711
G1 X110.253 Y116.828 E0.23781
G1 X110.348 Y116.384 E0.01442
G1 X116.094 Y122.130 E0.25776
G1 X116.634 Y122.130 E0.01711
G1 X110.474 Y115.970 E0.27630
G1 X110.504 Y115.870 E0.00333
G1 X110.913 Y115.870 E0.01295
G1 X117.173 Y122.130 E0.28081
G1 X117.713 Y122.130 E0.01711
G1 X111.452 Y115.870 E0.28081
G1 X111.992 Y115.870 E0.01711
G1 X118.252 Y122.130 E0.28081
G1 X118.791 Y122.130 E0.01711
G1 X112.531 Y115.870 E0.28081
G1 X113.071 Y115.870 E0.01711
G1 X119.331 Y122.130 E0.28081
G1 X119.870 Y122.130 E0.01711
G1 X113.610 Y115.870 E0.28081
G1 X114.150 Y115.870 E0.01711
G1 X120.410 Y122.130 E0.28081
G1 X120.949 Y122.130 E0.01711
G1 X114.689 Y115.870 E0.28081
G1 X115.228 Y115.870 E0.01711
G1 X121.489 Y122.130 E0.28081
G1 X122.028 Y122.130 E0.01711
G1 X115.768 Y115.870 E0.28081
G1 X116.307 Y115.870 E0.01711
G1 X122.568 Y122.130 E0.28081
G1 X123.107 Y122.130 E0.01711
G1 X116.847 Y115.870 E0.28081
G1 X117.386 Y115.870 E0.01711
G1 X123.646 Y122.130 E0.28081
G1 X124.186 Y122.130 E0.01711
G1 X117.926 Y115.870 E0.28081
G1 X118.465 Y115.870 E0.01711
G1 X124.725 Y122.130 E0.28081
G1 X125.265 Y122.130 E0.01711
G1 X119.005 Y115.870 E0.28081
G1 X119.544 Y115.870 E0.01711
G1 X125.804 Y122.130 E0.28081
G1 X126.344 Y122.130 E0.01711
G1 X120.083 Y115.870 E0.28081
G1 X120.623 Y115.870 E0.01711
G1 X126.883 Y122.130 E0.28081
G1 X127.423 Y122.130 E0.01711
G1 X121.162 Y115.870 E0.28081
G1 X121.702 Y115.870 E0.01711
G1 X127.962 Y122.130 E0.28081
G1 X128.501 Y122.130 E0.01711
G1 X122.241 Y115.870 E0.28081
G1 X122.781 Y115.870 E0.01711
G1 X129.041 Y122.130 E0.28081
G1 X129.580 Y122.130 E0.01711
G1 X123.320 Y115.870 E0.28081
G1 X123.860 Y115.870 E0.01711
G1 X130.120 Y122.130 E0.28081
G1 X130.659 Y122.130 E0.01711
G1 X124.399 Y115.870 E0.28081
G1 X124.938 Y115.870 E0.01711
G1 X131.199 Y122.130 E0.28081
G1 X131.738 Y122.130 E0.01711
G1 X125.478 Y115.870 E0.28081
G1 X126.017 Y115.870 E0.01711
G1 X132.278 Y122.130 E0.28080
G1 X132.817 Y122.130 E0.01711
G1 X126.557 Y115.870 E0.28080
G1 X127.096 Y115.870 E0.01711
G1 X133.356 Y122.130 E0.28080
G1 X133.896 Y122.130 E0.01711
G1 X127.636 Y115.870 E0.28080
G1 X128.175 Y115.870 E0.01711
G1 X134.435 Y122.130 E0.28081
G1 X134.975 Y122.130 E0.01711
G1 X128.715 Y115.870 E0.28081
G1 X129.254 Y115.870 E0.01711
G1 X135.514 Y122.130 E0.28080
G1 X136.054 Y122.130 E0.01711
G1 X129.793 Y115.870 E0.28080
G1 X130.333 Y115.870 E0.01711
G1 X136.593 Y122.130 E0.28080
G1 X137.133 Y122.130 E0.01711
G1 X130.872 Y115.870 E0.28080
G1 X131.412 Y115.870 E0.01711
G1 X137.672 Y122.130 E0.28080
G1 X138.212 Y122.130 E0.01711
G1 X131.951 Y115.870 E0.28080
G1 X132.491 Y115.870 E0.01711
G1 X138.751 Y122.130 E0.28080
G1 X139.290 Y122.130 E0.01711
G1 X133.030 Y115.870 E0.28080
G1 X133.570 Y115.870 E0.01711
G1 X139.830 Y122.130 E0.28080
G1 X140.028 Y122.130 E0.00629
G1 X140.125 Y121.886 E0.00833
G1 X134.109 Y115.870 E0.26985
G1 X134.648 Y115.870 E0.01711
G1 X140.278 Y121.500 E0.25253
G1 X140.432 Y121.114 E0.01318
G1 X135.188 Y115.870 E0.23521
G1 X135.727 Y115.870 E0.01711
G1 X140.585 Y120.727 E0.21789
G1 X140.600 Y120.690 E0.00126
G1 X140.228 Y119.831 E0.02970
G1 X136.267 Y115.870 E0.17768
G1 X136.806 Y115.870 E0.01711
G1 X139.817 Y118.880 E0.13504
G1 X139.674 Y118.551 E0.01140
G1 X139.801 Y118.325 E0.00821
G1 X137.346 Y115.870 E0.11012
G1 X137.885 Y115.870 E0.01711
G1 X139.994 Y117.979 E0.09460
G1 X140.188 Y117.633 E0.01257
G1 X138.425 Y115.870 E0.07908
G1 X138.964 Y115.870 E0.01711
G1 X140.381 Y117.287 E0.06357
G1 X140.524 Y117.032 E0.00927
G1 X140.553 Y116.919 E0.00368
G1 X139.503 Y115.870 E0.04708
G1 X140.043 Y115.870 E0.01711
G1 X140.804 Y116.630 E0.03412
G1 E-0.80000 F2100.00000
G1 Z0.800 F10800.000
G1 X124.953 Y94.413
G1 Z0.200
G1 E0.80000 F2100.00000
G1 F1200
G1 X101.753 Y94.413 E0.72743
G1 X101.753 Y93.935 E0.01497
G1 X101.996 Y93.036 E0.02922
G1 X103.227 Y91.936 E0.05176
G1 X103.946 Y90.522 E0.04973
G1 X103.693 Y89.029 E0.04747
G1 X102.650 Y87.798 E0.05058
G1 X102.521 Y87.587 E0.00775
G1 X143.885 Y87.587 E1.29694
G1 X143.857 Y87.792 E0.00648
G1 X141.224 Y89.445 E0.09750
G1 X145.743 Y90.978 E0.14962
G1 X148.102 Y91.972 E0.08025
G1 X148.135 Y92.463 E0.01541
G1 X147.096 Y93.364 E0.04312
G1 X144.963 Y94.413 E0.07453
G1 X125.013 Y94.413 E0.62552
G1 X124.953 Y94.790 F10800.000
G1 F1200
G1 X101.376 Y94.790 E0.73925
G1 X101.376 Y93.885 E0.02837
G1 X101.662 Y92.829 E0.03430
G1 X102.923 Y91.702 E0.05304
G1 X103.553 Y90.462 E0.04361
G1 X103.338 Y89.194 E0.04032
G1 X102.343 Y88.020 E0.04826
G1 X101.849 Y87.210 E0.02973
G1 X144.317 Y87.210 E1.33153
G1 X144.207 Y88.017 E0.02554
G1 X142.096 Y89.343 E0.07816
G1 X145.877 Y90.625 E0.12518
G1 X148.462 Y91.715 E0.08796
G1 X148.524 Y92.624 E0.02858
G1 X147.306 Y93.681 E0.05054
G1 X145.051 Y94.790 E0.07882
G1 X125.013 Y94.790 E0.62827
G1 X124.747 Y94.447 F10800.000
G1 E-0.80000 F2100.00000
G1 Z0.800 F10800.000
G1 X109.095 Y94.300
G1 Z0.200
G1 E0.80000 F2100.00000
G1 F1200
G1 X104.011 Y89.216 E0.22754
G1 X104.121 Y89.864 E0.02081
G1 X108.387 Y94.130 E0.19094
G1 X107.849 Y94.130 E0.01704
G1 X104.231 Y90.513 E0.16193
G1 X104.240 Y90.567 E0.00174
G1 X104.074 Y90.894 E0.01161
G1 X107.310 Y94.130 E0.14486
M73 P10 R9
G1 X106.772 Y94.130 E0.01704
G1 X103.893 Y91.251 E0.12889
G1 X103.711 Y91.608 E0.01267
G1 X106.234 Y94.130 E0.11292
G1 X105.696 Y94.130 E0.01704
G1 X103.530 Y91.964 E0.09694
G1 X103.455 Y92.111 E0.00521
G1 X103.288 Y92.261 E0.00710
G1 X105.157 Y94.130 E0.08368
G1 X104.619 Y94.130 E0.01704
G1 X103.004 Y92.515 E0.07230
G1 X102.719 Y92.769 E0.01207
G1 X104.081 Y94.130 E0.06093
G1 X103.542 Y94.130 E0.01704
G1 X102.435 Y93.023 E0.04956
G1 X102.247 Y93.191 E0.00797
G1 X102.208 Y93.335 E0.00471
G1 X103.004 Y94.130 E0.03561
G1 X102.466 Y94.130 E0.01704
G1 X101.955 Y93.620 E0.02284
G1 E-0.80000 F2100.00000
G1 Z0.800 F10800.000
G1 X103.034 Y87.700
G1 Z0.200
G1 E0.80000 F2100.00000
G1 F1200
G1 X109.464 Y94.130 E0.28780
G1 X110.002 Y94.130 E0.01704
G1 X103.742 Y87.870 E0.28021
G1 X104.280 Y87.870 E0.01704
G1 X110.540 Y94.130 E0.28021
G1 X111.079 Y94.130 E0.01704
G1 X104.818 Y87.870 E0.28021
G1 X105.357 Y87.870 E0.01704
G1 X111.617 Y94.130 E0.28021
G1 X112.155 Y94.130 E0.01704
G1 X105.895 Y87.870 E0.28021
G1 X106.433 Y87.870 E0.01704
G1 X112.693 Y94.130 E0.28021
G1 X113.232 Y94.130 E0.01704
G1 X106.971 Y87.870 E0.28021
G1 X107.510 Y87.870 E0.01704
G1 X113.770 Y94.130 E0.28021
G1 X114.308 Y94.130 E0.01704
G1 X108.048 Y87.870 E0.28021
G1 X108.586 Y87.870 E0.01704
G1 X114.847 Y94.130 E0.28021
G1 X115.385 Y94.130 E0.01704
G1 X109.125 Y87.870 E0.28021
G1 X109.663 Y87.870 E0.01704
G1 X115.923 Y94.130 E0.28021
G1 X116.462 Y94.130 E0.01704
G1 X110.201 Y87.870 E0.28021
G1 X110.740 Y87.870 E0.01704
G1 X117.000 Y94.130 E0.28021
G1 X117.538 Y94.130 E0.01704
G1 X111.278 Y87.870 E0.28021
G1 X111.816 Y87.870 E0.01704
G1 X118.076 Y94.130 E0.28021
G1 X118.615 Y94.130 E0.01704
G1 X112.354 Y87.870 E0.28021
G1 X112.893 Y87.870 E0.01704
G1 X119.153 Y94.130 E0.28021
G1 X119.691 Y94.130 E0.01704
G1 X113.431 Y87.870 E0.28021
G1 X113.969 Y87.870 E0.01704
G1 X120.230 Y94.130 E0.28021
G1 X120.768 Y94.130 E0.01704
G1 X114.508 Y87.870 E0.28021
G1 X115.046 Y87.870 E0.01704
G1 X121.306 Y94.130 E0.28021
G1 X121.845 Y94.130 E0.01704
G1 X115.584 Y87.870 E0.28021
G1 X116.123 Y87.870 E0.01704
G1 X122.383 Y94.130 E0.28021
G1 X122.921 Y94.130 E0.01704
G1 X116.661 Y87.870 E0.28021
G1 X117.199 Y87.870 E0.01704
G1 X123.459 Y94.130 E0.28021
G1 X123.998 Y94.130 E0.01704
G1 X117.737 Y87.870 E0.28021
G1 X118.276 Y87.870 E0.01704
G1 X124.536 Y94.130 E0.28021
G1 X125.074 Y94.130 E0.01704
G1 X118.814 Y87.870 E0.28021
G1 X119.352 Y87.870 E0.01704
G1 X125.613 Y94.130 E0.28021
G1 X126.151 Y94.130 E0.01704
G1 X119.891 Y87.870 E0.28021
G1 X120.429 Y87.870 E0.01704
G1 X126.689 Y94.130 E0.28021
G1 X127.228 Y94.130 E0.01704
G1 X120.967 Y87.870 E0.28021
G1 X121.506 Y87.870 E0.01704
G1 X127.766 Y94.130 E0.28021
G1 X128.304 Y94.130 E0.01704
G1 X122.044 Y87.870 E0.28021
G1 X122.582 Y87.870 E0.01704
G1 X128.842 Y94.130 E0.28021
G1 X129.381 Y94.130 E0.01704
G1 X123.120 Y87.870 E0.28021
G1 X123.659 Y87.870 E0.01704
G1 X129.919 Y94.130 E0.28021
G1 X130.457 Y94.130 E0.01704
G1 X124.197 Y87.870 E0.28021
G1 X124.735 Y87.870 E0.01704
G1 X130.996 Y94.130 E0.28021
G1 X131.534 Y94.130 E0.01704
G1 X125.274 Y87.870 E0.28021
G1 X125.812 Y87.870 E0.01704
G1 X132.072 Y94.130 E0.28021
G1 X132.611 Y94.130 E0.01704
G1 X126.350 Y87.870 E0.28021
G1 X126.889 Y87.870 E0.01704
G1 X133.149 Y94.130 E0.28021
G1 X133.687 Y94.130 E0.01704
G1 X127.427 Y87.870 E0.28021
G1 X127.965 Y87.870 E0.01704
G1 X134.225 Y94.130 E0.28021
G1 X134.764 Y94.130 E0.01704
G1 X128.503 Y87.870 E0.28021
G1 X129.042 Y87.870 E0.01704
G1 X135.302 Y94.130 E0.28021
G1 X135.840 Y94.130 E0.01704
G1 X129.580 Y87.870 E0.28021
G1 X130.118 Y87.870 E0.01704
G1 X136.379 Y94.130 E0.28021
G1 X136.917 Y94.130 E0.01704
G1 X130.657 Y87.870 E0.28021
G1 X131.195 Y87.870 E0.01704
G1 X137.455 Y94.130 E0.28021
G1 X137.994 Y94.130 E0.01704
G1 X131.733 Y87.870 E0.28021
G1 X132.272 Y87.870 E0.01704
G1 X138.532 Y94.130 E0.28021
G1 X139.070 Y94.130 E0.01704
G1 X132.810 Y87.870 E0.28021
G1 X133.348 Y87.870 E0.01704
G1 X139.608 Y94.130 E0.28021
G1 X140.147 Y94.130 E0.01704
G1 X133.886 Y87.870 E0.28021
G1 X134.425 Y87.870 E0.01704
G1 X140.685 Y94.130 E0.28021
G1 X141.223 Y94.130 E0.01704
G1 X134.963 Y87.870 E0.28021
G1 X135.501 Y87.870 E0.01704
G1 X141.762 Y94.130 E0.28021
G1 X142.300 Y94.130 E0.01704
G1 X136.040 Y87.870 E0.28021
G1 X136.578 Y87.870 E0.01704
G1 X142.838 Y94.130 E0.28021
G1 X143.377 Y94.130 E0.01704
G1 X137.116 Y87.870 E0.28021
G1 X137.655 Y87.870 E0.01704
G1 X143.915 Y94.130 E0.28021
G1 X144.453 Y94.130 E0.01704
G1 X138.193 Y87.870 E0.28021
G1 X138.731 Y87.870 E0.01704
G1 X144.960 Y94.099 E0.27882
G1 X145.321 Y93.922 E0.01273
G1 X139.269 Y87.870 E0.27087
G1 X139.808 Y87.870 E0.01704
G1 X141.117 Y89.179 E0.05858
G1 X141.447 Y88.971 E0.01236
G1 X140.346 Y87.870 E0.04929
G1 X140.884 Y87.870 E0.01704
G1 X141.778 Y88.764 E0.03999
G1 X142.109 Y88.556 E0.01236
G1 X141.423 Y87.870 E0.03070
G1 X141.961 Y87.870 E0.01704
G1 X142.439 Y88.348 E0.02141
G1 X142.770 Y88.141 E0.01236
G1 X142.499 Y87.870 E0.01212
G1 X143.038 Y87.870 E0.01704
G1 X143.224 Y88.056 E0.00833
G1 X141.645 Y89.708 F10800.000
G1 F1200
G1 X145.682 Y93.744 E0.18068
G1 X146.043 Y93.567 E0.01273
G1 X142.731 Y90.255 E0.14824
G1 X143.546 Y90.531 E0.02722
G1 X146.404 Y93.389 E0.12793
G1 X146.765 Y93.212 E0.01273
G1 X144.360 Y90.807 E0.10762
G1 X145.175 Y91.084 E0.02722
G1 X147.088 Y92.997 E0.08563
G1 X147.376 Y92.747 E0.01208
G1 X146.039 Y91.409 E0.05986
G1 X146.969 Y91.802 E0.03196
G1 X147.784 Y92.617 E0.03649
G1 E-0.80000 F2100.00000
G1 Z0.800 F10800.000
G1 X124.947 Y108.401
G1 Z0.200
G1 E0.80000 F2100.00000
G1 F1200
G1 X106.426 Y108.414 E0.58071
G1 X106.426 Y107.612 E0.02513
G1 X107.823 Y105.866 E0.07012
G1 X106.821 Y104.107 E0.06347
G1 X107.084 Y102.556 E0.04935
G1 X106.705 Y101.613 E0.03186
G1 X142.439 Y101.588 E1.12043
G1 X143.311 Y102.824 E0.04743
G1 X143.507 Y103.995 E0.03721
G1 X142.046 Y105.507 E0.06592
G1 X141.682 Y107.534 E0.06458
G1 X142.343 Y108.389 E0.03388
G1 X125.007 Y108.401 E0.54353
G1 X124.948 Y108.778 F10800.000
G1 F1200
G1 X106.050 Y108.791 E0.59254
G1 X106.049 Y107.480 E0.04111
G1 X107.369 Y105.830 E0.06625
G1 X106.427 Y104.177 E0.05966
G1 X106.694 Y102.598 E0.05024
G1 X106.147 Y101.236 E0.04601
G1 X142.634 Y101.211 E1.14405
G1 X143.669 Y102.677 E0.05626
G1 X143.910 Y104.120 E0.04587
G1 X142.397 Y105.686 E0.06828
G1 X142.083 Y107.436 E0.05574
G1 X143.110 Y108.766 E0.05268
G1 X125.008 Y108.778 E0.56758
G1 X124.739 Y108.437 F10800.000
G1 E-0.80000 F2100.00000
G1 Z0.800 F10800.000
G1 X106.593 Y107.585
G1 Z0.200
G1 E0.80000 F2100.00000
G1 F1200
G1 X107.139 Y108.130 E0.02442
G1 X107.676 Y108.130 E0.01701
G1 X106.953 Y107.406 E0.03237
G1 X107.192 Y107.108 E0.01211
G1 X108.214 Y108.130 E0.04573
G1 X108.752 Y108.129 E0.01701
G1 X107.431 Y106.809 E0.05908
G1 X107.670 Y106.510 E0.01211
G1 X109.289 Y108.129 E0.07244
G1 X109.827 Y108.129 E0.01701
G1 X107.910 Y106.211 E0.08579
G1 X108.149 Y105.912 E0.01211
G1 X110.365 Y108.128 E0.09915
