; generated by PrusaSlicer 2.1.1+win64 on 2020-02-12 at 20:08:17 UTC

; 

; external perimeters extrusion width = 0.45mm
; perimeters extrusion width = 0.45mm
; infill extrusion width = 0.45mm
; solid infill extrusion width = 0.45mm
; top infill extrusion width = 0.40mm
; first layer extrusion width = 0.42mm

M73 P0 R1
M201 X9000 Y9000 Z500 E10000 ; sets maximum accelerations, mm/sec^2
M203 X500 Y500 Z12 E120 ; sets maximum feedrates, mm/sec
M204 P2000 R1500 T2000 ; sets acceleration (P, T) and retract acceleration (R), mm/sec^2
M205 X10.00 Y10.00 Z0.20 E2.50 ; sets the jerk limits, mm/sec
M205 S0 T0 ; sets the minimum extruding and travel feed rate, mm/sec
M107
M862.3 P "MK2S" ; printer model check
M862.1 P0.4 ; nozzle diameter check
M115 U3.2.3 ; tell printer latest fw version
G90 ; use absolute coordinates
M83 ; extruder relative mode
M204 S2000 T1500 ; MK2 firmware only supports the old M204 format
M104 S215 ; set extruder temp
M140 S60 ; set bed temp
M190 S60 ; wait for bed temp
M109 S215 ; wait for extruder temp
G28 W ; home all without mesh bed level
G80 ; mesh bed leveling
G1 Y-3.0 F1000.0 ; go outside print area
G92 E0.0
G1 X60.0 E9.0  F1000.0 ; intro line
M73 P4 R1
G1 X100.0 E12.5 F1000.0 ; intro line
G92 E0.0
G21 ; set units to millimeters
G90 ; use absolute coordinates
M83 ; use relative distances for extrusion
M900 K30 ; Filament gcode
;BEFORE_LAYER_CHANGE
G92 E0.0
;0.2


G1 E-0.80000 F2100.00000
G1 Z0.600 F10800.000
;AFTER_LAYER_CHANGE
;0.2
G1 X122.610 Y92.606
G1 Z0.200
G1 E0.80000 F2100.00000
M204 S1000
G1 F955
G1 X123.309 Y91.982 E0.02937
G1 X124.160 Y91.612 E0.02911
G1 X125.111 Y91.519 E0.02996
G1 X126.007 Y91.661 E0.02846
G1 X126.818 Y92.068 E0.02846
G1 X127.466 Y92.704 E0.02846
G1 X127.890 Y93.506 E0.02846
G1 X131.365 Y108.181 E0.47283
G1 X131.429 Y109.967 E0.05605
G1 X131.348 Y110.566 E0.01897
G1 X131.146 Y111.137 E0.01897
G1 X128.404 Y116.685 E0.19406
G1 X127.888 Y117.433 E0.02848
G1 X127.240 Y118.006 E0.02714
G1 X126.453 Y118.366 E0.02714
G1 X125.790 Y118.478 E0.02108
G1 X124.271 Y118.481 E0.04761
G1 X123.496 Y118.351 E0.02464
G1 X122.779 Y118.019 E0.02477
G1 X122.202 Y117.536 E0.02359
G1 X121.667 Y116.814 E0.02819
G1 X118.764 Y110.925 E0.20585
G1 X118.580 Y110.126 E0.02569
G1 X118.571 Y108.705 E0.04457
G1 X118.646 Y108.130 E0.01818
G1 X122.143 Y93.414 E0.47427
G1 X122.580 Y92.658 E0.02736
G1 X122.894 Y92.854 F10800.000
G1 F955
G1 X123.510 Y92.301 E0.02594
G1 X124.266 Y91.974 E0.02582
G1 X125.111 Y91.896 E0.02661
G1 X125.901 Y92.022 E0.02508
G1 X126.614 Y92.386 E0.02508
G1 X127.178 Y92.947 E0.02496
G1 X127.543 Y93.659 E0.02508
G1 X130.996 Y108.259 E0.47042
G1 X131.052 Y109.953 E0.05313
G1 X130.982 Y110.477 E0.01660
G1 X130.805 Y110.976 E0.01660
G1 X128.071 Y116.508 E0.19346
G1 X127.608 Y117.180 E0.02558
G1 X127.030 Y117.693 E0.02423
G1 X126.322 Y118.011 E0.02435
G1 X125.753 Y118.102 E0.01808
G1 X124.285 Y118.104 E0.04601
G1 X123.597 Y117.988 E0.02189
G1 X122.965 Y117.690 E0.02189
G1 X122.464 Y117.263 E0.02066
G1 X121.980 Y116.602 E0.02566
G1 X119.117 Y110.793 E0.20307
G1 X118.955 Y110.082 E0.02288
G1 X118.948 Y108.719 E0.04272
G1 X119.014 Y108.214 E0.01598
G1 X122.485 Y93.578 E0.47163
G1 X122.865 Y92.906 E0.02418
G1 X123.177 Y93.104 F10800.000
G1 F955
G1 X123.713 Y92.619 E0.02270
G1 X124.369 Y92.337 E0.02236
G1 X125.110 Y92.274 E0.02334
G1 X125.790 Y92.383 E0.02157
G1 X126.401 Y92.697 E0.02157
G1 X126.885 Y93.186 E0.02157
G1 X127.194 Y93.805 E0.02168
G1 X130.627 Y108.335 E0.46812
G1 X130.675 Y109.943 E0.05045
G1 X130.461 Y110.821 E0.02833
G1 X127.738 Y116.331 E0.19272
G1 X127.329 Y116.926 E0.02263
G1 X126.818 Y117.381 E0.02146
G1 X126.195 Y117.655 E0.02134
G1 X125.718 Y117.726 E0.01510
G1 X124.295 Y117.727 E0.04463
G1 X123.696 Y117.623 E0.01908
G1 X123.148 Y117.359 E0.01908
G1 X122.723 Y116.987 E0.01771
G1 X122.293 Y116.390 E0.02306
G1 X119.471 Y110.663 E0.20018
G1 X119.330 Y110.037 E0.02010
G1 X119.325 Y108.729 E0.04103
G1 X122.829 Y93.735 E0.48278
G1 X123.148 Y93.157 E0.02071
G1 E-0.80000 F2100.00000
G1 Z0.800 F10800.000
G1 X125.000 Y113.552
G1 Z0.200
G1 E0.80000 F2100.00000
G1 F955
G1 X124.905 Y113.552 E0.00298
G1 X124.842 Y113.195 E0.01137
G1 X124.741 Y112.113 E0.03407
G1 X124.741 Y109.288 E0.08859
G1 X124.587 Y109.288 E0.00481
G1 X124.587 Y101.641 E0.23977
G1 X124.719 Y98.118 E0.11052
G1 X124.908 Y97.226 E0.02861
G1 X125.092 Y97.226 E0.00575
G1 X125.281 Y98.118 E0.02861
G1 X125.413 Y101.641 E0.11052
G1 X125.413 Y109.288 E0.23977
G1 X125.259 Y109.288 E0.00481
G1 X125.259 Y112.113 E0.08859
G1 X125.158 Y113.195 E0.03407
G1 X125.095 Y113.552 E0.01137
G1 X125.060 Y113.552 E0.00109
G1 X122.414 Y109.491 F10800.000
G1 F955
G1 X122.099 Y109.491 E0.00987
G1 X122.099 Y109.174 E0.00992
G1 X122.409 Y109.174 E0.00972
G1 X122.659 Y109.337 E0.00936
G1 X122.465 Y109.459 E0.00720
G1 E-0.80000 F2100.00000
G1 Z0.800 F10800.000
G1 X127.586 Y109.491
G1 Z0.200
G1 E0.80000 F2100.00000
G1 F955
G1 X127.341 Y109.337 E0.00909
G1 X127.591 Y109.174 E0.00936
G1 X127.901 Y109.174 E0.00972
G1 X127.901 Y109.491 E0.00992
G1 X127.646 Y109.491 E0.00799
G1 E-0.80000 F2100.00000
G1 Z0.800 F10800.000
G1 X125.000 Y115.171
G1 Z0.200
G1 E0.80000 F2100.00000
G1 F955
G1 X124.471 Y115.171 E0.01660
G1 X124.675 Y114.416 E0.02452
G1 X124.468 Y113.246 E0.03727
G1 X124.364 Y112.131 E0.03510
G1 X124.364 Y109.665 E0.07732
G1 X122.846 Y109.665 E0.04758
G1 X122.522 Y109.868 E0.01198
G1 X121.884 Y109.868 E0.02001
G1 X121.722 Y109.760 E0.00610
G1 X121.722 Y108.910 E0.02667
G1 X121.886 Y108.797 E0.00623
G1 X122.521 Y108.797 E0.01991
G1 X122.844 Y109.007 E0.01210
G1 X124.210 Y109.007 E0.04282
G1 X124.210 Y101.634 E0.23119
G1 X124.344 Y98.072 E0.11176
G1 X124.908 Y95.405 E0.08547
G1 X125.092 Y95.405 E0.00575
G1 X125.656 Y98.072 E0.08547
G1 X125.790 Y101.634 E0.11176
G1 X125.790 Y109.007 E0.23119
G1 X127.156 Y109.007 E0.04282
G1 X127.479 Y108.797 E0.01210
G1 X128.114 Y108.797 E0.01991
G1 X128.278 Y108.910 E0.00623
G1 X128.278 Y109.760 E0.02667
G1 X128.116 Y109.868 E0.00610
G1 X127.478 Y109.868 E0.02001
G1 X127.154 Y109.665 E0.01198
G1 X125.636 Y109.665 E0.04758
G1 X125.636 Y112.131 E0.07732
G1 X125.532 Y113.246 E0.03510
G1 X125.325 Y114.416 E0.03727
G1 X125.529 Y115.171 E0.02452
G1 X125.060 Y115.171 E0.01472
G1 X124.684 Y114.926 F10800.000
G1 X125.000 Y114.983
G1 F955
G1 X125.000 Y114.401 E0.01327
G1
G1 X125.000 Y114.236 E0.00423
G1
G1 X125.000 Y114.071 E0.00476
G1
G1 X125.000 Y113.906 E0.00530
G1
G1 X125.000 Y113.741 E0.00583
G1 X125.000 Y112.615 F10800.000
G1 F955
G1 X125.000 Y109.069 E0.02832
G1
G1 X125.000 Y108.978 E0.00174
G1
G1 X125.000 Y99.901 E0.27248
G1
G1 X125.000 Y99.318 E0.01538
G1
G1 X125.000 Y98.735 E0.01327
G1
G1 X125.000 Y98.153 E0.01115
G1 E-0.80000 F2100.00000
G1 Z0.800 F10800.000
G1 X124.399 Y109.336
G1 Z0.200
G1 E0.80000 F2100.00000
G1 F955
G1 X123.150 Y109.336 E0.02912
G1 X125.601 Y109.336 F10800.000
G1 F955
G1 X126.850 Y109.336 E0.02912
M106 S255
;BEFORE_LAYER_CHANGE
G92 E0.0
;0.4


G1 E-0.80000 F2100.00000
G1 Z0.800 F10800.000
;AFTER_LAYER_CHANGE
;0.4
M104 S210 ; set temperature
G1 X131.348 Y110.566
G1 Z0.400
G1 E0.80000 F2100.00000
G1 F900
G1 X131.146 Y111.137 E0.01897
G1 X128.404 Y116.685 E0.19406
G1 X127.888 Y117.433 E0.02848
G1 X127.240 Y118.006 E0.02714
G1 X126.453 Y118.366 E0.02714
G1 X125.790 Y118.478 E0.02108
G1 X124.271 Y118.481 E0.04761
G1 X123.496 Y118.351 E0.02464
G1 X122.779 Y118.019 E0.02477
G1 X122.202 Y117.536 E0.02359
G1 X121.667 Y116.814 E0.02819
G1 X118.764 Y110.925 E0.20585
G1 X118.580 Y110.126 E0.02569
G1 X118.571 Y108.705 E0.04457
G1 X118.646 Y108.130 E0.01818
G1 X122.143 Y93.414 E0.47427
G1 X122.610 Y92.606 E0.02924
G1 X123.309 Y91.982 E0.02937
G1 X124.160 Y91.612 E0.02911
G1 X125.111 Y91.519 E0.02996
G1 X126.007 Y91.661 E0.02846
G1 X126.818 Y92.068 E0.02846
G1 X127.466 Y92.704 E0.02846
G1 X127.890 Y93.506 E0.02846
G1 X131.365 Y108.181 E0.47283
G1 X131.429 Y109.967 E0.05605
G1 X131.356 Y110.507 E0.01709
G1 E-0.80000 F2100.00000
G1 Z1.000 F10800.000
G1 X125.000 Y113.257
G1 Z0.400
G1 E0.80000 F2100.00000
M204 S800
G1 F900
G1 X124.888 Y113.257 E0.00378
G1 X124.786 Y112.112 E0.03891
G1 X124.786 Y109.243 E0.09713
G1 X124.632 Y109.243 E0.00520
G1 X124.632 Y101.641 E0.25729
G1 X124.764 Y98.124 E0.11916
G1 X124.901 Y97.477 E0.02237
G1 X125.099 Y97.477 E0.00670
G1 X125.236 Y98.124 E0.02237
G1 X125.368 Y101.641 E0.11916
G1 X125.368 Y109.243 E0.25729
G1 X125.214 Y109.243 E0.00520
G1 X125.214 Y112.112 E0.09713
G1 X125.112 Y113.257 E0.03891
G1 X125.060 Y113.257 E0.00175
M204 S1000
G1 X125.775 Y109.022 F10800.000
M204 S800
G1 F900
G1 X127.160 Y109.022 E0.04689
G1 X127.484 Y108.812 E0.01306
G1 X128.111 Y108.812 E0.02121
G1 X128.263 Y108.917 E0.00626
G1 X128.263 Y109.753 E0.02828
G1 X128.112 Y109.853 E0.00613
G1 X127.482 Y109.853 E0.02133
G1 X127.158 Y109.650 E0.01293
G1 X125.621 Y109.650 E0.05202
G1 X125.621 Y112.131 E0.08397
G1 X125.522 Y113.244 E0.03782
G1 X125.310 Y114.416 E0.04034
G1 X125.542 Y115.276 E0.03014
G1 X124.458 Y115.276 E0.03671
G1 X124.690 Y114.416 E0.03014
G1 X124.478 Y113.244 E0.04034
G1 X124.379 Y112.131 E0.03782
G1 X124.379 Y109.650 E0.08397
G1 X122.842 Y109.650 E0.05202
G1 X122.518 Y109.853 E0.01293
G1 X121.888 Y109.853 E0.02133
G1 X121.737 Y109.753 E0.00613
G1 X121.737 Y108.917 E0.02828
G1 X121.889 Y108.812 E0.00626
G1 X122.516 Y108.812 E0.02121
G1 X122.840 Y109.022 E0.01306
G1 X124.225 Y109.022 E0.04689
G1 X124.225 Y101.634 E0.25009
G1 X124.359 Y98.074 E0.12060
G1 X124.901 Y95.512 E0.08864
G1 X125.099 Y95.512 E0.00670
G1 X125.641 Y98.074 E0.08864
G1 X125.775 Y101.634 E0.12060
G1 X125.775 Y108.962 E0.24806
M204 S1000
G1 X125.777 Y109.422 F10800.000
G1 X125.571 Y109.336
G1 F900
G1 X127.220 Y109.336 E0.03025
G1
G1 X127.285 Y109.337 E0.00139
G1
G1 X128.059 Y109.340 E0.01710
G1 X125.000 Y109.039 F10800.000
G1 F900
G1 X125.000 Y101.066 E0.21797
G1
G1 X125.000 Y100.483 E0.01381
G1
G1 X125.000 Y99.901 E0.01169
G1
G1 X125.000 Y99.318 E0.00957
G1
G1 X125.000 Y98.735 E0.00745
G1
G1 X125.000 Y98.153 E0.00534
G1 X125.000 Y98.153 F10800.000
G1 F900
G1 X125.000 Y98.096 E0.00031
G1 E-0.80000 F2100.00000
G1 Z1.000 F10800.000
G1 X124.429 Y109.336
G1 Z0.400
G1 E0.80000 F2100.00000
G1 F900
G1 X121.941 Y109.340 E0.04563
G1 E-0.80000 F2100.00000
G1 Z1.000 F10800.000
G1 X125.000 Y113.461
G1 Z0.400
G1 E0.80000 F2100.00000
G1 F900
G1 X125.000 Y113.619 E0.00604
G1
G1 X125.000 Y113.776 E0.00548
G1
G1 X125.000 Y113.934 E0.00493
G1
G1 X125.000 Y114.092 E0.00437
G1
G1 X125.000 Y114.249 E0.00382
G1
G1 X125.000 Y114.407 E0.00326
G1 X125.000 Y114.407 F10800.000
G1 F900
G1 X125.000 Y114.453 E0.00080
G1 X124.891 Y114.453 E0.00191
;BEFORE_LAYER_CHANGE
G92 E0.0
;0.6


G1 E-0.80000 F2100.00000
G1 Z1.000 F10800.000
;AFTER_LAYER_CHANGE
;0.6
G1 X122.779 Y118.019
G1 Z0.600
G1 E0.80000 F2100.00000
G1 F900
G1 X122.202 Y117.536 E0.02359
G1 X121.667 Y116.814 E0.02819
G1 X118.764 Y110.925 E0.20585
G1 X118.580 Y110.126 E0.02569
G1 X118.571 Y108.705 E0.04457
G1 X118.646 Y108.130 E0.01818
G1 X122.143 Y93.414 E0.47427
G1 X122.610 Y92.606 E0.02924
G1 X123.309 Y91.982 E0.02937
G1 X124.160 Y91.612 E0.02911
G1 X125.111 Y91.519 E0.02996
G1 X126.007 Y91.661 E0.02846
G1 X126.818 Y92.068 E0.02846
G1 X127.466 Y92.704 E0.02846
G1 X127.890 Y93.506 E0.02846
G1 X131.365 Y108.181 E0.47283
G1 X131.429 Y109.967 E0.05605
G1 X131.348 Y110.566 E0.01897
G1 X131.146 Y111.137 E0.01897
G1 X128.404 Y116.685 E0.19406
G1 X127.888 Y117.433 E0.02848
G1 X127.240 Y118.006 E0.02714
G1 X126.453 Y118.366 E0.02714
G1 X125.790 Y118.478 E0.02108
G1 X124.271 Y118.481 E0.04761
G1 X123.496 Y118.351 E0.02464
G1 X122.834 Y118.044 E0.02289
G1 E-0.80000 F2100.00000
G1 Z1.200 F10800.000
G1 X125.000 Y113.301
G1 Z0.600
G1 E0.80000 F2100.00000
M204 S800
G1 F900
G1 X124.898 Y113.301 E0.00344
G1 X124.878 Y113.189 E0.00386
G1 X124.786 Y112.114 E0.03654
G1 X124.786 Y109.243 E0.09718
G1 X124.632 Y109.243 E0.00520
G1 X124.632 Y101.641 E0.25729
G1 X124.764 Y98.124 E0.11916
G1 X124.901 Y97.477 E0.02237
G1 X125.099 Y97.477 E0.00670
G1 X125.236 Y98.124 E0.02237
G1 X125.368 Y101.641 E0.11916
G1 X125.368 Y109.243 E0.25729
G1 X125.214 Y109.243 E0.00520
G1 X125.214 Y112.114 E0.09718
G1 X125.122 Y113.189 E0.03654
G1 X125.102 Y113.301 E0.00386
G1 X125.060 Y113.301 E0.00141
M204 S1000
G1 X125.775 Y109.022 F10800.000
M204 S800
G1 F900
G1 X127.160 Y109.022 E0.04689
G1 X127.484 Y108.812 E0.01306
G1 X128.111 Y108.812 E0.02124
G1 X128.263 Y108.917 E0.00623
G1 X128.263 Y109.753 E0.02832
G1 X128.113 Y109.853 E0.00609
G1 X127.482 Y109.853 E0.02136
G1 X127.158 Y109.650 E0.01293
G1 X125.621 Y109.650 E0.05202
G1 X125.621 Y112.131 E0.08399
G1 X125.526 Y113.244 E0.03779
G1 X125.310 Y114.416 E0.04035
G1 X125.553 Y115.314 E0.03150
G1 X124.447 Y115.314 E0.03741
G1 X124.690 Y114.416 E0.03150
G1 X124.474 Y113.244 E0.04035
G1 X124.379 Y112.131 E0.03779
G1 X124.379 Y109.650 E0.08399
G1 X122.842 Y109.650 E0.05202
G1 X122.518 Y109.853 E0.01293
G1 X121.887 Y109.853 E0.02136
G1 X121.737 Y109.753 E0.00609
G1 X121.737 Y108.917 E0.02832
G1 X121.889 Y108.812 E0.00623
G1 X122.516 Y108.812 E0.02124
G1 X122.840 Y109.022 E0.01306
G1 X124.225 Y109.022 E0.04689
G1 X124.225 Y101.634 E0.25009
G1 X124.359 Y98.074 E0.12060
G1 X124.901 Y95.512 E0.08864
G1 X125.099 Y95.512 E0.00670
G1 X125.641 Y98.074 E0.08864
G1 X125.775 Y101.634 E0.12060
G1 X125.775 Y108.962 E0.24806
M204 S1000
G1 X125.777 Y109.422 F10800.000
G1 X125.571 Y109.336
G1 F900
G1 X127.220 Y109.336 E0.03025
G1
G1 X127.285 Y109.337 E0.00139
G1
G1 X128.059 Y109.340 E0.01710
G1 X125.000 Y109.039 F10800.000
G1 F900
G1 X125.000 Y101.066 E0.21797
G1
G1 X125.000 Y100.483 E0.01381
G1
G1 X125.000 Y99.901 E0.01169
G1
G1 X125.000 Y99.318 E0.00957
G1
G1 X125.000 Y98.735 E0.00745
G1
G1 X125.000 Y98.153 E0.00534
G1 X125.000 Y98.153 F10800.000
G1 F900
G1 X125.000 Y98.096 E0.00031
G1 E-0.80000 F2100.00000
G1 Z1.200 F10800.000
G1 X124.429 Y109.336
G1 Z0.600
G1 E0.80000 F2100.00000
G1 F900
G1 X121.941 Y109.340 E0.04563
G1 E-0.80000 F2100.00000
G1 Z1.200 F10800.000
G1 X125.000 Y113.505
G1 Z0.600
G1 E0.80000 F2100.00000
G1 F900
G1 X125.000 Y113.685 E0.00676
G1
G1 X125.000 Y113.865 E0.00603
G1
G1 X125.000 Y114.045 E0.00529
G1
G1 X125.000 Y114.225 E0.00456
G1
G1 X125.000 Y114.406 E0.00382
G1
G1 X125.000 Y115.111 E0.01232
;BEFORE_LAYER_CHANGE
G92 E0.0
;0.8


G1 E-0.80000 F2100.00000
G1 Z1.200 F10800.000
;AFTER_LAYER_CHANGE
;0.8
G1 X125.000 Y113.326
G1 Z0.800
G1 E0.80000 F2100.00000
M204 S800
G1 F900
G1 X124.899 Y113.326 E0.00343
G1 X124.873 Y113.190 E0.00468
G1 X124.786 Y112.115 E0.03650
G1 X124.786 Y109.243 E0.09722
G1 X124.632 Y109.243 E0.00520
G1 X124.632 Y101.641 E0.25729
G1 X124.764 Y98.124 E0.11916
G1 X124.901 Y97.477 E0.02237
G1 X125.099 Y97.477 E0.00670
G1 X125.236 Y98.124 E0.02237
G1 X125.368 Y101.641 E0.11916
G1 X125.368 Y109.243 E0.25729
G1 X125.214 Y109.243 E0.00520
G1 X125.214 Y112.115 E0.09722
G1 X125.127 Y113.190 E0.03650
G1 X125.101 Y113.326 E0.00468
G1 X125.060 Y113.326 E0.00140
M204 S1000
G1 X125.000 Y115.314 F10800.000
M204 S800
G1 F900
G1 X124.756 Y115.314 E0.00824
G1 X124.505 Y115.211 E0.00919
G1 X124.835 Y114.435 E0.02855
G1 X124.783 Y114.112 E0.01106
G1 X124.535 Y113.597 E0.01933
G1 X124.469 Y113.244 E0.01218
G1 X124.379 Y112.132 E0.03777
G1 X124.379 Y109.650 E0.08400
G1 X122.842 Y109.650 E0.05202
G1 X122.518 Y109.853 E0.01293
G1 X121.886 Y109.853 E0.02139
G1 X121.737 Y109.754 E0.00606
G1 X121.737 Y108.916 E0.02835
G1 X121.888 Y108.812 E0.00619
G1 X122.516 Y108.812 E0.02127
G1 X122.840 Y109.022 E0.01306
G1 X124.225 Y109.022 E0.04689
G1 X124.225 Y101.634 E0.25009
G1 X124.359 Y98.074 E0.12060
G1 X124.901 Y95.512 E0.08864
G1 X125.099 Y95.512 E0.00670
G1 X125.641 Y98.074 E0.08864
G1 X125.775 Y101.634 E0.12060
G1 X125.775 Y109.022 E0.25009
G1 X127.160 Y109.022 E0.04689
G1 X127.484 Y108.812 E0.01306
G1 X128.112 Y108.812 E0.02127
G1 X128.263 Y108.916 E0.00619
G1 X128.263 Y109.754 E0.02835
G1 X128.114 Y109.853 E0.00606
G1 X127.482 Y109.853 E0.02139
G1 X127.158 Y109.650 E0.01293
G1 X125.621 Y109.650 E0.05202
G1 X125.621 Y112.132 E0.08400
G1 X125.531 Y113.244 E0.03777
G1 X125.465 Y113.597 E0.01218
G1 X125.217 Y114.112 E0.01933
G1 X125.165 Y114.435 E0.01106
