; generated by PrusaSlicer 2.1.1+win64 on 2020-02-19 at 20:55:09 UTC

; 

; external perimeters extrusion width = 0.60mm
; perimeters extrusion width = 0.43mm
; infill extrusion width = 0.45mm
; solid infill extrusion width = 0.70mm
; top infill extrusion width = 0.43mm
; first layer extrusion width = 0.42mm

M73 P0 R12
M201 X9000 Y9000 Z500 E10000 ; sets maximum accelerations, mm/sec^2
M203 X500 Y500 Z12 E120 ; sets maximum feedrates, mm/sec
M204 P2000 R1500 T2000 ; sets acceleration (P, T) and retract acceleration (R), mm/sec^2
M205 X10.00 Y10.00 Z0.20 E2.50 ; sets the jerk limits, mm/sec
M205 S0 T0 ; sets the minimum extruding and travel feed rate, mm/sec
M107
M862.3 P "MK2S" ; printer model check
M862.1 P0.4 ; nozzle diameter check
M115 U3.2.3 ; tell printer latest fw version
G90 ; use absolute coordinates
M83 ; extruder relative mode
M204 S2000 T1500 ; MK2 firmware only supports the old M204 format
M104 S215 ; set extruder temp
M140 S60 ; set bed temp
M190 S60 ; wait for bed temp
M109 S215 ; wait for extruder temp
G28 W ; home all without mesh bed level
G80 ; mesh bed leveling
G1 Y-3.0 F1000.0 ; go outside print area
G92 E0.0
G1 X60.0 E9.0  F1000.0 ; intro line
M73 P0 R12
G1 X100.0 E12.5 F1000.0 ; intro line
G92 E0.0
G21 ; set units to millimeters
G90 ; use absolute coordinates
M83 ; use relative distances for extrusion
M900 K30 ; Filament gcode
;BEFORE_LAYER_CHANGE
G92 E0.0
;0.2


G1 E-0.80000 F2100.00000
G1 Z0.600 F10800.000
;AFTER_LAYER_CHANGE
;0.2
G1 X114.075 Y85.019
G1 Z0.200
G1 E0.80000 F2100.00000
M204 S1000
G1 F1200
G1 X114.578 Y84.558 E0.02140
G1 X115.185 Y84.246 E0.02140
G1 X115.857 Y84.105 E0.02152
G1 X133.959 Y84.098 E0.56758
G1 X134.906 Y84.280 E0.03022
G1 X135.718 Y84.799 E0.03022
G1 X136.281 Y85.581 E0.03022
G1 X136.517 Y86.515 E0.03022
G1 X136.521 Y123.353 E1.15501
G1 X136.460 Y123.890 E0.01697
G1 X136.289 Y124.403 E0.01697
G1 X135.920 Y124.987 E0.02165
G1 X135.405 Y125.453 E0.02177
G1 X134.788 Y125.763 E0.02165
G1 X134.107 Y125.898 E0.02177
G1 X116.013 Y125.902 E0.56733
G1 X115.483 Y125.840 E0.01672
G1 X114.978 Y125.670 E0.01672
G1 X114.379 Y125.288 E0.02226
G1 X113.908 Y124.757 E0.02226
G1 X113.601 Y124.117 E0.02226
G1 X113.480 Y123.417 E0.02226
G1 X113.479 Y86.647 E1.15290
G1 X113.540 Y86.110 E0.01697
G1 X113.711 Y85.597 E0.01697
G1 X114.043 Y85.070 E0.01952
G1 X114.056 Y85.749 F10800.000
G1 F1200
G1 X114.370 Y85.254 E0.01839
G1 X114.805 Y84.860 E0.01839
G1 X115.329 Y84.595 E0.01839
G1 X115.904 Y84.479 E0.01839
G1 X133.959 Y84.475 E0.56611
G1 X134.769 Y84.631 E0.02586
G1 X135.465 Y85.079 E0.02597
G1 X135.944 Y85.751 E0.02586
G1 X136.141 Y86.555 E0.02597
G1 X136.144 Y123.348 E1.15360
G1 X135.944 Y124.251 E0.02900
G1 X135.625 Y124.752 E0.01862
G1 X135.183 Y125.149 E0.01862
G1 X134.651 Y125.412 E0.01862
G1 X134.067 Y125.522 E0.01862
G1 X116.023 Y125.525 E0.56577
G1 X115.131 Y125.325 E0.02867
G1 X114.621 Y124.999 E0.01896
G1 X114.219 Y124.543 E0.01908
G1 X113.958 Y123.997 E0.01896
G1 X113.857 Y123.397 E0.01908
G1 X113.856 Y86.652 E1.15212
G1 X114.043 Y85.808 E0.02712
G1 X116.632 Y87.250 F10800.000
G1 F1200
G1 X133.368 Y87.250 E0.52476
G1 X133.368 Y122.750 E1.11305
G1 X116.632 Y122.750 E0.52476
G1 X116.632 Y87.310 E1.11117
G1 X116.255 Y86.873 F10800.000
G1 F1200
G1 X133.745 Y86.873 E0.54841
G1 X133.745 Y123.127 E1.13670
G1 X116.255 Y123.127 E0.54841
G1 X116.255 Y86.933 E1.13482
G1 X116.627 Y87.019 F10800.000
G1 E-0.80000 F2100.00000
G1 Z0.800 F10800.000
G1 X133.255 Y88.128
G1 Z0.200
G1 E0.80000 F2100.00000
G1 F1200
G1 X132.660 Y87.533 E0.02643
G1 X132.126 Y87.533 E0.01681
G1 X133.085 Y88.493 E0.04266
G1 X133.085 Y89.027 E0.01681
G1 X131.591 Y87.533 E0.06642
G1 X131.057 Y87.533 E0.01681
G1 X133.085 Y89.562 E0.09019
G1 X133.085 Y90.097 E0.01681
G1 X130.522 Y87.533 E0.11396
G1 X129.987 Y87.533 E0.01681
G1 X133.085 Y90.631 E0.13772
G1 X133.085 Y91.166 E0.01681
G1 X129.453 Y87.533 E0.16149
G1 X128.918 Y87.533 E0.01681
G1 X133.085 Y91.700 E0.18525
G1 X133.085 Y92.235 E0.01681
G1 X128.383 Y87.533 E0.20902
G1 X127.849 Y87.533 E0.01681
G1 X133.085 Y92.770 E0.23279
G1 X133.085 Y93.304 E0.01681
G1 X127.314 Y87.533 E0.25655
G1 X126.780 Y87.533 E0.01681
G1 X133.085 Y93.839 E0.28032
G1 X133.085 Y94.374 E0.01681
G1 X126.245 Y87.533 E0.30409
G1 X125.710 Y87.533 E0.01681
G1 X133.085 Y94.908 E0.32785
G1 X133.085 Y95.443 E0.01681
G1 X125.176 Y87.533 E0.35162
G1 X124.641 Y87.533 E0.01681
G1 X133.085 Y95.977 E0.37539
G1 X133.085 Y96.512 E0.01681
G1 X124.106 Y87.533 E0.39915
G1 X123.572 Y87.533 E0.01681
G1 X133.085 Y97.047 E0.42292
G1 X133.085 Y97.581 E0.01681
G1 X123.037 Y87.533 E0.44668
G1 X122.503 Y87.533 E0.01681
G1 X133.085 Y98.116 E0.47045
G1 X133.085 Y98.651 E0.01681
G1 X121.968 Y87.533 E0.49422
G1 X121.433 Y87.533 E0.01681
G1 X133.085 Y99.185 E0.51798
G1 X133.085 Y99.720 E0.01681
G1 X120.899 Y87.533 E0.54175
G1 X120.364 Y87.533 E0.01681
G1 X133.085 Y100.254 E0.56552
G1 X133.085 Y100.789 E0.01681
G1 X119.829 Y87.533 E0.58928
G1 X119.295 Y87.533 E0.01681
G1 X133.085 Y101.324 E0.61305
G1 X133.085 Y101.858 E0.01681
G1 X118.760 Y87.533 E0.63682
G1 X118.226 Y87.533 E0.01681
G1 X133.085 Y102.393 E0.66058
G1 X133.085 Y102.928 E0.01681
G1 X117.691 Y87.533 E0.68435
G1 X117.156 Y87.533 E0.01681
G1 X133.085 Y103.462 E0.70811
G1 X133.085 Y103.997 E0.01681
G1 X116.915 Y87.826 E0.71886
G1 X116.915 Y88.361 E0.01681
G1 X133.085 Y104.531 E0.71886
G1 X133.085 Y105.066 E0.01681
G1 X116.915 Y88.895 E0.71886
G1 X116.915 Y89.430 E0.01681
G1 X133.085 Y105.601 E0.71886
G1 X133.085 Y106.135 E0.01681
G1 X116.915 Y89.964 E0.71886
G1 X116.915 Y90.499 E0.01681
G1 X133.085 Y106.670 E0.71886
G1 X133.085 Y107.205 E0.01681
G1 X116.915 Y91.034 E0.71886
G1 X116.915 Y91.568 E0.01681
G1 X133.085 Y107.739 E0.71886
G1 X133.085 Y108.274 E0.01681
G1 X116.915 Y92.103 E0.71886
G1 X116.915 Y92.638 E0.01681
G1 X133.085 Y108.808 E0.71886
G1 X133.085 Y109.343 E0.01681
G1 X116.915 Y93.172 E0.71886
G1 X116.915 Y93.707 E0.01681
G1 X133.085 Y109.878 E0.71886
G1 X133.085 Y110.412 E0.01681
G1 X116.915 Y94.241 E0.71886
M73 P9 R11
G1 X116.915 Y94.776 E0.01681
G1 X133.085 Y110.947 E0.71886
G1 X133.085 Y111.482 E0.01681
G1 X116.915 Y95.311 E0.71886
G1 X116.915 Y95.845 E0.01681
G1 X133.085 Y112.016 E0.71886
G1 X133.085 Y112.551 E0.01681
G1 X116.915 Y96.380 E0.71886
G1 X116.915 Y96.915 E0.01681
G1 X133.085 Y113.085 E0.71886
G1 X133.085 Y113.620 E0.01681
G1 X116.915 Y97.449 E0.71886
G1 X116.915 Y97.984 E0.01681
G1 X133.085 Y114.155 E0.71886
G1 X133.085 Y114.689 E0.01681
G1 X116.915 Y98.518 E0.71886
G1 X116.915 Y99.053 E0.01681
G1 X133.085 Y115.224 E0.71886
G1 X133.085 Y115.759 E0.01681
G1 X116.915 Y99.588 E0.71886
G1 X116.915 Y100.122 E0.01681
G1 X133.085 Y116.293 E0.71886
G1 X133.085 Y116.828 E0.01681
G1 X116.915 Y100.657 E0.71886
G1 X116.915 Y101.192 E0.01681
G1 X133.085 Y117.362 E0.71886
G1 X133.085 Y117.897 E0.01681
G1 X116.915 Y101.726 E0.71886
G1 X116.915 Y102.261 E0.01681
G1 X133.085 Y118.432 E0.71886
G1 X133.085 Y118.966 E0.01681
G1 X116.915 Y102.795 E0.71886
G1 X116.915 Y103.330 E0.01681
G1 X133.085 Y119.501 E0.71886
G1 X133.085 Y120.036 E0.01681
G1 X116.915 Y103.865 E0.71886
G1 X116.915 Y104.399 E0.01681
G1 X133.085 Y120.570 E0.71886
G1 X133.085 Y121.105 E0.01681
G1 X116.915 Y104.934 E0.71886
G1 X116.915 Y105.469 E0.01681
G1 X133.085 Y121.639 E0.71886
G1 X133.085 Y122.174 E0.01681
G1 X116.915 Y106.003 E0.71886
G1 X116.915 Y106.538 E0.01681
G1 X132.844 Y122.467 E0.70811
G1 X132.309 Y122.467 E0.01681
G1 X116.915 Y107.072 E0.68435
G1 X116.915 Y107.607 E0.01681
G1 X131.774 Y122.467 E0.66058
G1 X131.240 Y122.467 E0.01681
G1 X116.915 Y108.142 E0.63681
G1 X116.915 Y108.676 E0.01681
G1 X130.705 Y122.467 E0.61305
G1 X130.170 Y122.467 E0.01681
G1 X116.915 Y109.211 E0.58928
G1 X116.915 Y109.746 E0.01681
G1 X129.636 Y122.467 E0.56551
G1 X129.101 Y122.467 E0.01681
G1 X116.915 Y110.280 E0.54175
G1 X116.915 Y110.815 E0.01681
G1 X128.567 Y122.467 E0.51798
G1 X128.032 Y122.467 E0.01681
G1 X116.915 Y111.349 E0.49421
G1 X116.915 Y111.884 E0.01681
G1 X127.497 Y122.467 E0.47045
G1 X126.963 Y122.467 E0.01681
G1 X116.915 Y112.419 E0.44668
G1 X116.915 Y112.953 E0.01681
G1 X126.428 Y122.467 E0.42292
G1 X125.893 Y122.467 E0.01681
G1 X116.915 Y113.488 E0.39915
G1 X116.915 Y114.023 E0.01681
G1 X125.359 Y122.467 E0.37538
G1 X124.824 Y122.467 E0.01681
G1 X116.915 Y114.557 E0.35162
G1 X116.915 Y115.092 E0.01681
G1 X124.290 Y122.467 E0.32785
G1 X123.755 Y122.467 E0.01681
G1 X116.915 Y115.626 E0.30408
G1 X116.915 Y116.161 E0.01681
G1 X123.220 Y122.467 E0.28032
G1 X122.686 Y122.467 E0.01681
G1 X116.915 Y116.696 E0.25655
G1 X116.915 Y117.230 E0.01681
G1 X122.151 Y122.467 E0.23278
G1 X121.616 Y122.467 E0.01681
G1 X116.915 Y117.765 E0.20902
G1 X116.915 Y118.300 E0.01681
G1 X121.082 Y122.467 E0.18525
G1 X120.547 Y122.467 E0.01681
G1 X116.915 Y118.834 E0.16149
G1 X116.915 Y119.369 E0.01681
G1 X120.013 Y122.467 E0.13772
G1 X119.478 Y122.467 E0.01681
G1 X116.915 Y119.903 E0.11395
G1 X116.915 Y120.438 E0.01681
G1 X118.943 Y122.467 E0.09019
G1 X118.409 Y122.467 E0.01681
G1 X116.915 Y120.973 E0.06642
G1 X116.915 Y121.507 E0.01681
G1 X117.874 Y122.467 E0.04265
G1 X117.339 Y122.467 E0.01681
G1 X116.745 Y121.872 E0.02643
M106 S255
;BEFORE_LAYER_CHANGE
G92 E0.0
;0.55


G1 E-0.80000 F2100.00000
G1 Z0.800 F10800.000
;AFTER_LAYER_CHANGE
;0.55
G1 X113.601 Y124.117
G1 Z0.550
G1 E0.80000 F2100.00000
G1 F3000
G1 X113.480 Y123.417 E0.03563
G1 X113.479 Y86.647 E1.84534
G1 X113.540 Y86.110 E0.02716
G1 X113.711 Y85.597 E0.02716
G1 X114.075 Y85.019 E0.03426
G1 X114.578 Y84.558 E0.03426
G1 X115.185 Y84.246 E0.03426
G1 X115.857 Y84.105 E0.03445
G1 X133.959 Y84.098 E0.90847
G1 X134.906 Y84.280 E0.04837
G1 X135.718 Y84.799 E0.04837
G1 X136.281 Y85.581 E0.04837
G1 X136.517 Y86.515 E0.04837
G1 X136.521 Y123.353 E1.84871
G1 X136.460 Y123.890 E0.02716
G1 X136.289 Y124.403 E0.02716
G1 X135.920 Y124.987 E0.03465
G1 X135.405 Y125.453 E0.03485
G1 X134.788 Y125.763 E0.03465
G1 X134.107 Y125.898 E0.03485
G1 X116.013 Y125.902 E0.90807
G1 X115.483 Y125.840 E0.02676
G1 X114.978 Y125.670 E0.02676
G1 X114.379 Y125.288 E0.03563
G1 X113.908 Y124.757 E0.03563
G1 X113.627 Y124.171 E0.03262
G1 X116.785 Y122.597 F10800.000
M204 S800
G1 F3000
G1 X116.785 Y87.403 E1.81744
G1 X133.215 Y87.403 E0.84850
G1 X133.215 Y122.597 E1.81744
G1 X116.845 Y122.597 E0.84541
M204 S1000
G1 X116.345 Y123.037 F10800.000
M204 S800
G1 F2400
G1 X116.345 Y86.963 E2.75523
G1 X133.655 Y86.963 E1.32215
G1 X133.655 Y123.037 E2.75523
G1 X116.405 Y123.037 E1.31757
M204 S1000
G1 X116.404 Y122.641 F10800.000
G1 E-0.80000 F2100.00000
G1 Z1.150 F10800.000
G1 X131.862 Y122.511
G1 Z0.550
G1 E0.80000 F2100.00000
M204 S2000
G1 F3600
G1 X132.848 Y121.525 E0.12714
G1 X132.848 Y120.639 E0.08082
G1 X131.257 Y122.229 E0.20517
G1 X130.371 Y122.229 E0.08082
G1 X132.848 Y119.752 E0.31947
G1 X132.848 Y118.866 E0.08082
G1 X129.485 Y122.229 E0.43377
G1 X128.598 Y122.229 E0.08082
G1 X132.848 Y117.980 E0.54808
G1 X132.848 Y117.093 E0.08082
G1 X127.712 Y122.229 E0.66238
G1 X126.826 Y122.229 E0.08082
G1 X132.848 Y116.207 E0.77668
G1 X132.848 Y115.321 E0.08082
G1 X125.939 Y122.229 E0.89098
G1 X125.053 Y122.229 E0.08082
G1 X132.848 Y114.435 E1.00528
G1 X132.848 Y113.548 E0.08082
G1 X124.167 Y122.229 E1.11958
G1 X123.281 Y122.229 E0.08082
G1 X132.848 Y112.662 E1.23388
G1 X132.848 Y111.776 E0.08082
G1 X122.394 Y122.229 E1.34818
G1 X121.508 Y122.229 E0.08082
G1 X132.848 Y110.889 E1.46248
G1 X132.848 Y110.003 E0.08082
G1 X120.622 Y122.229 E1.57678
G1 X119.735 Y122.229 E0.08082
G1 X132.848 Y109.117 E1.69109
G1 X132.848 Y108.231 E0.08082
G1 X118.849 Y122.229 E1.80539
G1 X117.963 Y122.229 E0.08082
G1 X132.848 Y107.344 E1.91969
G1 X132.848 Y106.458 E0.08082
G1 X117.152 Y122.154 E2.02425
G1 X117.152 Y121.268 E0.08082
G1 X132.848 Y105.572 E2.02425
G1 X132.848 Y104.685 E0.08082
G1 X117.152 Y120.381 E2.02425
G1 X117.152 Y119.495 E0.08082
G1 X132.848 Y103.799 E2.02425
G1 X132.848 Y102.913 E0.08082
G1 X117.152 Y118.609 E2.02425
G1 X117.152 Y117.723 E0.08082
G1 X132.848 Y102.027 E2.02425
G1 X132.848 Y101.140 E0.08082
G1 X117.152 Y116.836 E2.02425
G1 X117.152 Y115.950 E0.08082
G1 X132.848 Y100.254 E2.02425
M73 P17 R10
G1 X132.848 Y99.368 E0.08082
G1 X117.152 Y115.064 E2.02425
G1 X117.152 Y114.177 E0.08082
G1 X132.848 Y98.481 E2.02425
G1 X132.848 Y97.595 E0.08082
G1 X117.152 Y113.291 E2.02425
G1 X117.152 Y112.405 E0.08082
G1 X132.848 Y96.709 E2.02425
G1 X132.848 Y95.823 E0.08082
G1 X117.152 Y111.519 E2.02425
G1 X117.152 Y110.632 E0.08082
G1 X132.848 Y94.936 E2.02425
G1 X132.848 Y94.050 E0.08082
G1 X117.152 Y109.746 E2.02425
G1 X117.152 Y108.860 E0.08082
G1 X132.848 Y93.164 E2.02425
G1 X132.848 Y92.277 E0.08082
G1 X117.152 Y107.973 E2.02425
G1 X117.152 Y107.087 E0.08082
G1 X132.848 Y91.391 E2.02425
G1 X132.848 Y90.505 E0.08082
G1 X117.152 Y106.201 E2.02425
G1 X117.152 Y105.315 E0.08082
G1 X132.848 Y89.619 E2.02425
G1 X132.848 Y88.732 E0.08082
G1 X117.152 Y104.428 E2.02425
G1 X117.152 Y103.542 E0.08082
G1 X132.848 Y87.846 E2.02425
G1 X132.848 Y87.771 E0.00687
G1 X132.037 Y87.771 E0.07395
G1 X117.152 Y102.656 E1.91967
G1 X117.152 Y101.769 E0.08082
G1 X131.151 Y87.771 E1.80537
G1 X130.264 Y87.771 E0.08082
G1 X117.152 Y100.883 E1.69107
G1 X117.152 Y99.997 E0.08082
G1 X129.378 Y87.771 E1.57677
G1 X128.492 Y87.771 E0.08082
G1 X117.152 Y99.111 E1.46247
G1 X117.152 Y98.224 E0.08082
G1 X127.606 Y87.771 E1.34817
G1 X126.719 Y87.771 E0.08082
G1 X117.152 Y97.338 E1.23387
G1 X117.152 Y96.452 E0.08082
G1 X125.833 Y87.771 E1.11956
G1 X124.947 Y87.771 E0.08082
G1 X117.152 Y95.565 E1.00526
G1 X117.152 Y94.679 E0.08082
G1 X124.060 Y87.771 E0.89096
G1 X123.174 Y87.771 E0.08082
G1 X117.152 Y93.793 E0.77666
G1 X117.152 Y92.907 E0.08082
G1 X122.288 Y87.771 E0.66236
G1 X121.402 Y87.771 E0.08082
G1 X117.152 Y92.020 E0.54806
G1 X117.152 Y91.134 E0.08082
G1 X120.515 Y87.771 E0.43376
G1 X119.629 Y87.771 E0.08082
G1 X117.152 Y90.248 E0.31946
G1 X117.152 Y89.361 E0.08082
G1 X118.743 Y87.771 E0.20516
G1 X117.856 Y87.771 E0.08082
G1 X116.871 Y88.756 E0.12712
M204 S1000
;BEFORE_LAYER_CHANGE
G92 E0.0
;0.9


G1 E-0.80000 F2100.00000
G1 Z1.150 F10800.000
;AFTER_LAYER_CHANGE
;0.9
G1 X135.718 Y84.799
G1 Z0.900
G1 E0.80000 F2100.00000
G1 F3000
G1 X136.281 Y85.581 E0.04837
G1 X136.517 Y86.515 E0.04837
G1 X136.521 Y123.353 E1.84871
G1 X136.460 Y123.890 E0.02716
G1 X136.289 Y124.403 E0.02716
G1 X135.920 Y124.987 E0.03465
G1 X135.405 Y125.453 E0.03485
G1 X134.788 Y125.763 E0.03465
G1 X134.107 Y125.898 E0.03485
G1 X116.013 Y125.902 E0.90807
G1 X115.483 Y125.840 E0.02676
G1 X114.978 Y125.670 E0.02676
G1 X114.379 Y125.288 E0.03563
G1 X113.908 Y124.757 E0.03563
G1 X113.601 Y124.117 E0.03563
G1 X113.480 Y123.417 E0.03563
G1 X113.479 Y86.647 E1.84534
G1 X113.540 Y86.110 E0.02716
G1 X113.711 Y85.597 E0.02716
G1 X114.075 Y85.019 E0.03426
G1 X114.578 Y84.558 E0.03426
G1 X115.185 Y84.246 E0.03426
G1 X115.857 Y84.105 E0.03445
G1 X133.959 Y84.098 E0.90847
G1 X134.906 Y84.280 E0.04837
G1 X135.667 Y84.767 E0.04536
G1 X133.215 Y87.403 F10800.000
M204 S800
G1 F3000
G1 X133.215 Y122.597 E1.81744
G1 X116.785 Y122.597 E0.84850
G1 X116.785 Y87.403 E1.81744
G1 X133.155 Y87.403 E0.84541
M204 S1000
G1 X133.655 Y86.963 F10800.000
M204 S800
G1 F2400
G1 X133.655 Y123.037 E2.75523
G1 X116.345 Y123.037 E1.32215
G1 X116.345 Y86.963 E2.75523
G1 X133.595 Y86.963 E1.31757
M204 S1000
G1 X133.596 Y87.359 F10800.000
G1 X133.129 Y88.760
M204 S2000
G1 F3600
G1 X132.140 Y87.771 E0.12793
G1 X131.251 Y87.771 E0.08125
G1 X132.848 Y89.367 E0.20648
G1 X132.848 Y90.256 E0.08125
G1 X130.363 Y87.771 E0.32139
G1 X129.474 Y87.771 E0.08125
G1 X132.848 Y91.145 E0.43630
G1 X132.848 Y92.033 E0.08125
G1 X128.585 Y87.771 E0.55121
G1 X127.697 Y87.771 E0.08125
G1 X132.848 Y92.922 E0.66612
G1 X132.848 Y93.811 E0.08125
G1 X126.808 Y87.771 E0.78103
G1 X125.919 Y87.771 E0.08125
G1 X132.848 Y94.699 E0.89595
G1 X132.848 Y95.588 E0.08125
G1 X125.031 Y87.771 E1.01086
G1 X124.142 Y87.771 E0.08125
G1 X132.848 Y96.477 E1.12577
G1 X132.848 Y97.365 E0.08125
G1 X123.253 Y87.771 E1.24068
G1 X122.365 Y87.771 E0.08125
G1 X132.848 Y98.254 E1.35559
G1 X132.848 Y98.373 E0.01088
G1 X132.078 Y98.373 E0.07037
