; generated by PrusaSlicer 2.1.1+win64 on 2020-02-19 at 20:56:00 UTC

; 

; external perimeters extrusion width = 0.60mm
; perimeters extrusion width = 0.43mm
; infill extrusion width = 0.45mm
; solid infill extrusion width = 0.70mm
; top infill extrusion width = 0.43mm
; first layer extrusion width = 0.42mm

M73 P0 R6
M201 X9000 Y9000 Z500 E10000 ; sets maximum accelerations, mm/sec^2
M203 X500 Y500 Z12 E120 ; sets maximum feedrates, mm/sec
M204 P2000 R1500 T2000 ; sets acceleration (P, T) and retract acceleration (R), mm/sec^2
M205 X10.00 Y10.00 Z0.20 E2.50 ; sets the jerk limits, mm/sec
M205 S0 T0 ; sets the minimum extruding and travel feed rate, mm/sec
M107
M862.3 P "MK2S" ; printer model check
M862.1 P0.4 ; nozzle diameter check
M115 U3.2.3 ; tell printer latest fw version
G90 ; use absolute coordinates
M83 ; extruder relative mode
M204 S2000 T1500 ; MK2 firmware only supports the old M204 format
M104 S215 ; set extruder temp
M140 S60 ; set bed temp
M190 S60 ; wait for bed temp
M109 S215 ; wait for extruder temp
G28 W ; home all without mesh bed level
G80 ; mesh bed leveling
G1 Y-3.0 F1000.0 ; go outside print area
G92 E0.0
G1 X60.0 E9.0  F1000.0 ; intro line
M73 P1 R6
G1 X100.0 E12.5 F1000.0 ; intro line
G92 E0.0
G21 ; set units to millimeters
G90 ; use absolute coordinates
M83 ; use relative distances for extrusion
M900 K30 ; Filament gcode
;BEFORE_LAYER_CHANGE
G92 E0.0
;0.2


G1 E-0.80000 F2100.00000
G1 Z0.600 F10800.000
;AFTER_LAYER_CHANGE
;0.2
G1 X110.588 Y90.770
G1 Z0.200
G1 E0.80000 F2100.00000
M204 S1000
G1 F1200
G1 X110.671 Y90.669 E0.00410
G1 X113.742 Y88.149 E0.12456
G1 X117.246 Y86.277 E0.12456
G1 X121.048 Y85.124 E0.12456
G1 X125.005 Y84.735 E0.12468
G1 X128.955 Y85.124 E0.12444
G1 X132.757 Y86.278 E0.12456
G1 X136.260 Y88.151 E0.12456
G1 X139.331 Y90.671 E0.12456
G1 X141.851 Y93.742 E0.12456
G1 X143.723 Y97.246 E0.12456
G1 X144.876 Y101.048 E0.12456
G1 X145.265 Y105.001 E0.12456
G1 X144.876 Y108.955 E0.12456
G1 X143.722 Y112.757 E0.12456
G1 X141.849 Y116.260 E0.12456
G1 X139.329 Y119.331 E0.12456
G1 X136.258 Y121.851 E0.12456
G1 X132.754 Y123.723 E0.12456
G1 X128.952 Y124.876 E0.12456
G1 X124.999 Y125.265 E0.12456
G1 X121.045 Y124.876 E0.12456
G1 X117.243 Y123.722 E0.12456
G1 X113.740 Y121.849 E0.12456
G1 X110.669 Y119.329 E0.12456
G1 X108.149 Y116.258 E0.12456
G1 X106.277 Y112.754 E0.12456
G1 X105.124 Y108.952 E0.12456
G1 X104.735 Y104.999 E0.12456
G1 X105.124 Y101.045 E0.12456
G1 X106.278 Y97.243 E0.12456
G1 X108.151 Y93.740 E0.12456
G1 X110.550 Y90.817 E0.11858
G1 X110.840 Y91.055 F10800.000
G1 F1200
G1 X110.937 Y90.936 E0.00480
G1 X113.951 Y88.463 E0.12224
G1 X117.390 Y86.625 E0.12224
G1 X121.121 Y85.494 E0.12224
G1 X125.004 Y85.112 E0.12236
G1 X128.881 Y85.494 E0.12213
G1 X132.612 Y86.626 E0.12224
G1 X136.050 Y88.464 E0.12224
G1 X139.064 Y90.937 E0.12224
G1 X141.537 Y93.951 E0.12224
G1 X143.375 Y97.390 E0.12224
G1 X144.506 Y101.121 E0.12224
G1 X144.888 Y105.001 E0.12224
G1 X144.506 Y108.881 E0.12224
G1 X143.374 Y112.612 E0.12224
G1 X141.536 Y116.050 E0.12224
G1 X139.063 Y119.064 E0.12224
G1 X136.049 Y121.537 E0.12224
G1 X132.610 Y123.375 E0.12224
G1 X128.879 Y124.506 E0.12224
G1 X124.999 Y124.888 E0.12224
G1 X121.119 Y124.506 E0.12224
G1 X117.388 Y123.374 E0.12224
G1 X113.950 Y121.536 E0.12224
G1 X110.936 Y119.063 E0.12224
G1 X108.463 Y116.049 E0.12224
G1 X106.625 Y112.610 E0.12224
G1 X105.494 Y108.879 E0.12224
G1 X105.112 Y104.999 E0.12224
G1 X105.494 Y101.119 E0.12224
G1 X106.626 Y97.388 E0.12224
G1 X108.464 Y93.950 E0.12224
G1 X110.802 Y91.101 E0.11556
G1 E-0.80000 F2100.00000
G1 Z0.800 F10800.000
G1 X125.000 Y117.478
G1 Z0.200
G1 E0.80000 F2100.00000
G1 F1200
G1 X122.566 Y117.239 E0.07670
G1 X120.225 Y116.529 E0.07670
G1 X118.067 Y115.375 E0.07670
G1 X116.176 Y113.824 E0.07670
G1 X114.625 Y111.933 E0.07670
G1 X113.471 Y109.775 E0.07670
G1 X112.761 Y107.434 E0.07670
G1 X112.522 Y105.000 E0.07670
G1 X112.761 Y102.566 E0.07670
G1 X113.471 Y100.225 E0.07670
G1 X114.625 Y98.067 E0.07670
G1 X116.176 Y96.176 E0.07670
G1 X118.067 Y94.625 E0.07670
G1 X120.225 Y93.471 E0.07670
G1 X122.566 Y92.761 E0.07670
G1 X125.000 Y92.522 E0.07670
G1 X127.434 Y92.761 E0.07670
G1 X129.775 Y93.471 E0.07670
G1 X131.933 Y94.625 E0.07670
G1 X133.824 Y96.176 E0.07670
G1 X135.375 Y98.067 E0.07670
G1 X136.529 Y100.225 E0.07670
G1 X137.239 Y102.566 E0.07670
G1 X137.478 Y105.000 E0.07670
G1 X137.239 Y107.434 E0.07670
G1 X136.529 Y109.775 E0.07670
G1 X135.375 Y111.933 E0.07670
G1 X133.824 Y113.824 E0.07670
G1 X131.933 Y115.375 E0.07670
G1 X129.775 Y116.529 E0.07670
G1 X127.434 Y117.239 E0.07670
G1 X125.060 Y117.473 E0.07482
G1 X125.000 Y117.100 F10800.000
G1 F1200
G1 X122.639 Y116.867 E0.07437
G1 X120.370 Y116.179 E0.07437
G1 X118.278 Y115.060 E0.07437
G1 X116.444 Y113.556 E0.07437
G1 X114.940 Y111.722 E0.07437
G1 X113.821 Y109.630 E0.07437
G1 X113.133 Y107.360 E0.07437
G1 X112.900 Y105.000 E0.07437
G1 X113.133 Y102.639 E0.07437
G1 X113.821 Y100.370 E0.07437
G1 X114.940 Y98.278 E0.07437
G1 X116.444 Y96.444 E0.07437
G1 X118.278 Y94.940 E0.07437
G1 X120.370 Y93.821 E0.07437
G1 X122.640 Y93.133 E0.07437
G1 X125.000 Y92.900 E0.07437
G1 X127.361 Y93.133 E0.07437
G1 X129.630 Y93.821 E0.07437
G1 X131.722 Y94.940 E0.07437
G1 X133.556 Y96.444 E0.07437
G1 X135.060 Y98.278 E0.07437
G1 X136.179 Y100.370 E0.07437
G1 X136.867 Y102.639 E0.07437
G1 X137.100 Y105.000 E0.07437
G1 X136.867 Y107.360 E0.07437
G1 X136.179 Y109.630 E0.07437
G1 X135.060 Y111.722 E0.07437
G1 X133.556 Y113.556 E0.07437
G1 X131.722 Y115.060 E0.07437
G1 X129.630 Y116.179 E0.07437
G1 X127.361 Y116.867 E0.07437
G1 X125.060 Y117.094 E0.07249
G1 X124.800 Y117.446 F10800.000
G1 E-0.80000 F2100.00000
G1 Z0.800 F10800.000
G1 X125.000 Y122.110
G1 Z0.200
G1 E0.80000 F2100.00000
G1 F1200
G1 X121.662 Y121.781 E0.10517
G1 X118.452 Y120.807 E0.10517
G1 X115.494 Y119.226 E0.10517
G1 X112.901 Y117.098 E0.10517
G1 X110.774 Y114.506 E0.10517
G1 X109.193 Y111.548 E0.10517
G1 X108.219 Y108.338 E0.10517
G1 X107.890 Y105.000 E0.10517
G1 X108.219 Y101.662 E0.10517
G1 X109.193 Y98.452 E0.10517
G1 X110.774 Y95.494 E0.10517
G1 X112.902 Y92.901 E0.10517
G1 X115.494 Y90.774 E0.10517
G1 X118.452 Y89.193 E0.10517
G1 X121.662 Y88.219 E0.10517
G1 X125.000 Y87.890 E0.10517
G1 X128.338 Y88.219 E0.10517
G1 X131.548 Y89.193 E0.10517
G1 X134.506 Y90.774 E0.10517
G1 X137.098 Y92.902 E0.10517
G1 X139.226 Y95.494 E0.10517
G1 X140.807 Y98.452 E0.10517
G1 X141.781 Y101.662 E0.10517
G1 X142.110 Y105.000 E0.10517
G1 X141.781 Y108.338 E0.10517
G1 X140.807 Y111.548 E0.10517
G1 X139.226 Y114.506 E0.10517
G1 X137.098 Y117.098 E0.10517
G1 X134.506 Y119.226 E0.10517
G1 X131.548 Y120.807 E0.10517
G1 X128.338 Y121.781 E0.10517
G1 X125.060 Y122.104 E0.10328
G1 X125.000 Y122.489 F10800.000
G1 F1200
G1 X121.588 Y122.153 E0.10750
G1 X118.307 Y121.158 E0.10750
G1 X115.284 Y119.541 E0.10749
G1 X112.634 Y117.366 E0.10749
G1 X110.459 Y114.716 E0.10750
G1 X108.842 Y111.693 E0.10749
G1 X107.847 Y108.412 E0.10749
G1 X107.511 Y105.000 E0.10750
G1 X107.847 Y101.588 E0.10749
G1 X108.843 Y98.307 E0.10750
G1 X110.459 Y95.284 E0.10749
G1 X112.634 Y92.634 E0.10749
G1 X115.284 Y90.459 E0.10750
G1 X118.307 Y88.842 E0.10749
G1 X121.588 Y87.847 E0.10749
G1 X125.000 Y87.511 E0.10749
G1 X128.412 Y87.847 E0.10749
G1 X131.693 Y88.842 E0.10750
G1 X134.716 Y90.459 E0.10749
G1 X137.366 Y92.634 E0.10749
G1 X139.541 Y95.284 E0.10750
G1 X141.158 Y98.307 E0.10749
G1 X142.153 Y101.588 E0.10749
G1 X142.489 Y105.000 E0.10749
G1 X142.153 Y108.412 E0.10749
G1 X141.158 Y111.693 E0.10749
G1 X139.541 Y114.716 E0.10749
G1 X137.366 Y117.366 E0.10750
G1 X134.716 Y119.541 E0.10749
G1 X131.693 Y121.158 E0.10750
G1 X128.412 Y122.153 E0.10750
G1 X125.060 Y122.483 E0.10561
G1 X124.800 Y122.142 F10800.000
G1 E-0.80000 F2100.00000
G1 Z0.800 F10800.000
G1 X118.518 Y120.709
G1 Z0.200
G1 E0.80000 F2100.00000
G1 F1200
G1 X109.694 Y111.885 E0.39234
G1 X109.455 Y111.439 E0.01591
G1 X109.313 Y110.969 E0.01542
G1 X119.031 Y120.687 E0.43209
G1 X119.798 Y120.920 E0.02522
G1 X109.080 Y110.202 E0.47657
G1 X108.847 Y109.434 E0.02522
G1 X120.566 Y121.153 E0.52105
G1 X121.333 Y121.386 E0.02522
G1 X108.614 Y108.667 E0.56553
G1 X108.498 Y108.283 E0.01262
G1 X108.468 Y107.986 E0.00936
G1 X122.014 Y121.532 E0.60227
G1 X122.607 Y121.590 E0.01874
G1 X108.410 Y107.393 E0.63124
G1 X108.352 Y106.800 E0.01874
G1 X123.200 Y121.648 E0.66021
G1 X123.793 Y121.707 E0.01874
G1 X108.293 Y106.207 E0.68918
G1 X108.235 Y105.614 E0.01874
G1 X114.430 Y111.809 E0.27548
G1 X113.816 Y110.660 F10800.000
G1 F1200
G1 X108.176 Y105.020 E0.25077
G1 X108.174 Y105.000 E0.00065
G1 X108.221 Y104.530 E0.01485
G1 X113.050 Y109.359 E0.21472
G1 X112.817 Y108.591 E0.02522
G1 X108.269 Y104.043 E0.20223
G1 X108.316 Y103.556 E0.01538
G1 X112.584 Y107.824 E0.18975
G1 X112.483 Y107.490 E0.01098
G1 X112.450 Y107.155 E0.01058
G1 X108.364 Y103.070 E0.18164
G1 X108.412 Y102.583 E0.01538
G1 X112.391 Y106.562 E0.17691
G1 X112.333 Y105.969 E0.01874
G1 X108.460 Y102.096 E0.17218
G1 X108.498 Y101.717 E0.01196
G1 X108.525 Y101.626 E0.00300
G1 X112.274 Y105.375 E0.16670
G1 X112.237 Y105.000 E0.01186
G1 X112.255 Y104.821 E0.00565
G1 X108.650 Y101.216 E0.16030
G1 X108.774 Y100.806 E0.01348
G1 X112.303 Y104.334 E0.15690
G1 X112.351 Y103.848 E0.01538
G1 X108.899 Y100.395 E0.15350
G1 X109.023 Y99.985 E0.01348
G1 X112.399 Y103.361 E0.15010
G1 X112.447 Y102.874 E0.01538
G1 X109.148 Y99.575 E0.14669
G1 X109.272 Y99.165 E0.01348
G1 X112.514 Y102.407 E0.14415
G1 X112.638 Y101.996 E0.01348
G1 X109.396 Y98.754 E0.14415
G1 X109.455 Y98.561 E0.00635
G1 X109.554 Y98.377 E0.00657
G1 X112.763 Y101.586 E0.14270
G1 X112.887 Y101.176 E0.01348
G1 X109.740 Y98.028 E0.13995
G1 X109.926 Y97.680 E0.01242
G1 X113.012 Y100.766 E0.13720
G1 X113.136 Y100.355 E0.01348
G1 X110.112 Y97.331 E0.13445
G1 X110.299 Y96.983 E0.01242
G1 X113.286 Y99.971 E0.13285
G1 X113.473 Y99.622 E0.01242
G1 X110.485 Y96.634 E0.13285
G1 X110.671 Y96.286 E0.01242
G1 X113.659 Y99.274 E0.13285
G1 X113.845 Y98.925 E0.01242
G1 X110.857 Y95.937 E0.13285
G1 X111.010 Y95.652 E0.01017
G1 X111.054 Y95.599 E0.00216
G1 X114.032 Y98.577 E0.13241
G1 X114.218 Y98.228 E0.01242
G1 X111.295 Y95.305 E0.12997
G1 X111.536 Y95.012 E0.01195
G1 X114.409 Y97.885 E0.12774
G1 X114.650 Y97.591 E0.01195
G1 X111.777 Y94.718 E0.12774
G1 X112.018 Y94.424 E0.01195
G1 X114.891 Y97.297 E0.12774
G1 X115.132 Y97.003 E0.01195
G1 X112.259 Y94.130 E0.12774
G1 X112.500 Y93.837 E0.01195
G1 X115.373 Y96.710 E0.12774
G1 X115.614 Y96.416 E0.01195
G1 X112.741 Y93.543 E0.12774
G1 X112.982 Y93.249 E0.01195
G1 X115.855 Y96.122 E0.12774
G1 X115.975 Y95.975 E0.00597
G1 X116.122 Y95.855 E0.00597
G1 X113.249 Y92.982 E0.12774
G1 X113.543 Y92.741 E0.01195
G1 X116.416 Y95.614 E0.12774
G1 X116.710 Y95.373 E0.01195
G1 X113.837 Y92.500 E0.12774
G1 X114.130 Y92.259 E0.01195
G1 X117.003 Y95.132 E0.12774
G1 X117.297 Y94.891 E0.01195
G1 X114.424 Y92.018 E0.12774
G1 X114.718 Y91.777 E0.01195
G1 X117.591 Y94.650 E0.12774
G1 X117.884 Y94.409 E0.01195
G1 X115.011 Y91.536 E0.12774
G1 X115.305 Y91.295 E0.01195
G1 X118.228 Y94.218 E0.12997
G1 X118.577 Y94.032 E0.01242
G1 X115.599 Y91.054 E0.13241
G1 X115.937 Y90.857 E0.01230
G1 X118.925 Y93.845 E0.13285
G1 X119.274 Y93.659 E0.01242
G1 X116.286 Y90.671 E0.13285
G1 X116.634 Y90.485 E0.01242
G1 X119.622 Y93.473 E0.13285
G1 X119.971 Y93.287 E0.01242
G1 X116.983 Y90.299 E0.13285
G1 X117.331 Y90.112 E0.01242
G1 X120.355 Y93.136 E0.13445
G1 X120.765 Y93.012 E0.01348
G1 X117.680 Y89.926 E0.13720
G1 X118.028 Y89.740 E0.01242
G1 X121.176 Y92.887 E0.13995
G1 X121.586 Y92.763 E0.01348
G1 X118.377 Y89.554 E0.14270
G1 X118.561 Y89.455 E0.00657
G1 X118.754 Y89.396 E0.00635
G1 X121.996 Y92.638 E0.14415
G1 X122.407 Y92.514 E0.01348
G1 X119.165 Y89.272 E0.14415
G1 X119.575 Y89.148 E0.01348
G1 X122.874 Y92.447 E0.14669
G1 X123.361 Y92.399 E0.01538
G1 X119.985 Y89.023 E0.15009
G1 X120.395 Y88.899 E0.01348
G1 X123.848 Y92.351 E0.15350
G1 X124.334 Y92.303 E0.01538
G1 X120.806 Y88.774 E0.15690
G1 X121.216 Y88.650 E0.01348
G1 X124.821 Y92.255 E0.16030
G1 X125.000 Y92.237 E0.00565
G1 X125.375 Y92.274 E0.01186
G1 X121.626 Y88.525 E0.16669
G1 X121.717 Y88.498 E0.00300
G1 X122.096 Y88.460 E0.01196
G1 X125.968 Y92.333 E0.17218
G1 X126.562 Y92.391 E0.01874
G1 X122.583 Y88.412 E0.17691
G1 X123.070 Y88.364 E0.01538
M73 P18 R5
G1 X127.155 Y92.450 E0.18164
G1 X127.490 Y92.483 E0.01059
G1 X127.824 Y92.584 E0.01097
G1 X123.556 Y88.316 E0.18974
G1 X124.043 Y88.269 E0.01538
G1 X128.591 Y92.817 E0.20223
G1 X129.359 Y93.050 E0.02522
G1 X124.530 Y88.221 E0.21471
G1 X125.000 Y88.174 E0.01485
G1 X125.020 Y88.176 E0.00064
G1 X130.660 Y93.816 E0.25076
G1 X131.809 Y94.430 F10800.000
G1 F1200
G1 X125.614 Y88.235 E0.27547
G1 X126.207 Y88.293 E0.01874
G1 X141.707 Y103.793 E0.68919
G1 X141.648 Y103.200 E0.01874
G1 X126.800 Y88.352 E0.66022
G1 X127.393 Y88.410 E0.01874
G1 X141.590 Y102.607 E0.63125
G1 X141.532 Y102.014 E0.01874
G1 X127.986 Y88.468 E0.60227
G1 X128.283 Y88.498 E0.00936
G1 X128.667 Y88.614 E0.01262
G1 X141.386 Y101.333 E0.56554
G1 X141.153 Y100.566 E0.02522
G1 X129.434 Y88.847 E0.52106
G1 X130.202 Y89.080 E0.02522
G1 X140.920 Y99.798 E0.47658
G1 X140.687 Y99.031 E0.02522
G1 X130.969 Y89.313 E0.43210
G1 X131.439 Y89.455 E0.01543
G1 X131.885 Y89.693 E0.01590
G1 X140.709 Y98.518 E0.39235
G1 X140.106 Y97.380 F10800.000
G1 F1200
G1 X132.620 Y89.894 E0.33283
G1 X133.769 Y90.508 F10800.000
G1 F1200
G1 X139.492 Y96.231 E0.25446
G1 X135.570 Y98.191 F10800.000
G1 F1200
G1 X141.954 Y104.576 E0.28388
G1 X141.983 Y105.138 F10800.000
G1 F1200
G1 X136.597 Y99.753 E0.23945
G1 X136.791 Y100.116 E0.01293
G1 X136.950 Y100.641 E0.01725
G1 X141.779 Y105.470 E0.21471
G1 X141.731 Y105.957 E0.01538
G1 X137.183 Y101.409 E0.20223
G1 X137.416 Y102.176 E0.02522
G1 X141.684 Y106.444 E0.18974
G1 X141.636 Y106.930 E0.01538
G1 X137.550 Y102.845 E0.18164
G1 X137.609 Y103.438 E0.01874
G1 X141.588 Y107.417 E0.17691
G1 X141.540 Y107.904 E0.01538
G1 X137.667 Y104.032 E0.17218
G1 X137.726 Y104.625 E0.01874
G1 X141.475 Y108.374 E0.16670
G1 X141.350 Y108.784 E0.01348
G1 X137.745 Y105.179 E0.16030
G1 X137.697 Y105.666 E0.01538
G1 X141.226 Y109.194 E0.15690
G1 X141.101 Y109.605 E0.01348
G1 X137.649 Y106.152 E0.15350
G1 X137.601 Y106.639 E0.01538
G1 X140.977 Y110.015 E0.15010
G1 X140.852 Y110.425 E0.01348
G1 X137.553 Y107.126 E0.14669
G1 X137.517 Y107.490 E0.01150
G1 X137.486 Y107.593 E0.00340
G1 X140.728 Y110.835 E0.14415
G1 X140.604 Y111.246 E0.01348
G1 X137.362 Y108.004 E0.14415
G1 X137.237 Y108.414 E0.01348
G1 X140.446 Y111.623 E0.14270
G1 X140.260 Y111.972 E0.01242
G1 X137.113 Y108.824 E0.13995
G1 X136.988 Y109.235 E0.01348
G1 X140.074 Y112.320 E0.13720
G1 X139.888 Y112.669 E0.01242
G1 X136.864 Y109.645 E0.13445
G1 X136.791 Y109.884 E0.00786
G1 X136.713 Y110.029 E0.00518
G1 X139.701 Y113.017 E0.13285
G1 X139.515 Y113.366 E0.01242
G1 X136.527 Y110.378 E0.13285
G1 X136.341 Y110.726 E0.01242
G1 X139.329 Y113.714 E0.13285
G1 X139.143 Y114.063 E0.01242
G1 X136.155 Y111.075 E0.13285
G1 X135.968 Y111.423 E0.01242
G1 X138.946 Y114.401 E0.13241
G1 X138.705 Y114.695 E0.01195
G1 X135.782 Y111.772 E0.12997
G1 X135.591 Y112.115 E0.01236
G1 X138.464 Y114.989 E0.12774
G1 X138.223 Y115.282 E0.01195
G1 X135.350 Y112.409 E0.12774
G1 X135.109 Y112.703 E0.01195
G1 X137.982 Y115.576 E0.12774
G1 X137.741 Y115.870 E0.01195
G1 X134.868 Y112.997 E0.12774
G1 X134.627 Y113.290 E0.01195
G1 X137.500 Y116.163 E0.12774
G1 X137.259 Y116.457 E0.01195
G1 X134.386 Y113.584 E0.12774
G1 X134.145 Y113.878 E0.01195
G1 X137.018 Y116.751 E0.12774
G1 X136.898 Y116.898 E0.00597
G1 X136.751 Y117.018 E0.00597
G1 X133.878 Y114.145 E0.12774
G1 X133.584 Y114.386 E0.01195
G1 X136.457 Y117.259 E0.12774
G1 X136.163 Y117.500 E0.01195
G1 X133.290 Y114.627 E0.12774
G1 X132.997 Y114.868 E0.01195
G1 X135.870 Y117.741 E0.12774
G1 X135.576 Y117.982 E0.01195
G1 X132.703 Y115.109 E0.12774
G1 X132.409 Y115.350 E0.01195
G1 X135.282 Y118.223 E0.12774
G1 X134.988 Y118.464 E0.01195
G1 X132.115 Y115.591 E0.12774
G1 X131.772 Y115.782 E0.01236
G1 X134.695 Y118.705 E0.12997
G1 X134.401 Y118.946 E0.01195
