; generated by PrusaSlicer 2.1.1+win64 on 2020-02-24 at 16:43:00 UTC

; 

; external perimeters extrusion width = 0.45mm
; perimeters extrusion width = 0.45mm
; infill extrusion width = 0.45mm
; solid infill extrusion width = 0.45mm
; top infill extrusion width = 0.40mm
; support material extrusion width = 0.35mm
; first layer extrusion width = 0.42mm

M73 P0 R152
M201 X9000 Y9000 Z500 E10000 ; sets maximum accelerations, mm/sec^2
M203 X500 Y500 Z12 E120 ; sets maximum feedrates, mm/sec
M204 P2000 R1500 T2000 ; sets acceleration (P, T) and retract acceleration (R), mm/sec^2
M205 X10.00 Y10.00 Z0.20 E2.50 ; sets the jerk limits, mm/sec
M205 S0 T0 ; sets the minimum extruding and travel feed rate, mm/sec
M107
M862.3 P "MK2S" ; printer model check
M862.1 P0.4 ; nozzle diameter check
M115 U3.2.3 ; tell printer latest fw version
G90 ; use absolute coordinates
M83 ; extruder relative mode
M204 S2000 T1500 ; MK2 firmware only supports the old M204 format
M104 S215 ; set extruder temp
M140 S60 ; set bed temp
M190 S60 ; wait for bed temp
M109 S215 ; wait for extruder temp
G28 W ; home all without mesh bed level
G80 ; mesh bed leveling
G1 Y-3.0 F1000.0 ; go outside print area
G92 E0.0
G1 X60.0 E9.0  F1000.0 ; intro line
M73 P0 R152
G1 X100.0 E12.5 F1000.0 ; intro line
G92 E0.0
G21 ; set units to millimeters
G90 ; use absolute coordinates
M83 ; use relative distances for extrusion
M900 K30 ; Filament gcode
;BEFORE_LAYER_CHANGE
G92 E0.0
;0.2


G1 E-0.80000 F2100.00000
G1 Z0.600 F10800.000
;AFTER_LAYER_CHANGE
;0.2
G1 X156.165 Y103.034
G1 Z0.200
G1 E0.80000 F2100.00000
M204 S1000
G1 F1200
G1 X155.955 Y106.772 E0.11738
G1 X154.428 Y112.162 E0.17564
G1 X150.641 Y118.975 E0.24441
G1 X134.634 Y135.028 E0.71080
G1 X134.050 Y135.432 E0.02225
G1 X133.371 Y135.626 E0.02213
G1 X115.108 Y134.097 E0.57463
G1 X114.570 Y133.913 E0.01783
G1 X107.701 Y130.439 E0.24136
G1 X99.933 Y122.941 E0.33851
G1 X99.572 Y122.479 E0.01839
G1 X94.680 Y110.892 E0.39433
G1 X93.104 Y105.417 E0.17864
G1 X93.128 Y101.755 E0.11484
G1 X93.243 Y101.213 E0.01737
G1 X93.490 Y100.717 E0.01737
G1 X108.399 Y82.553 E0.73679
G1 X114.643 Y76.333 E0.27634
G1 X124.441 Y69.785 E0.36950
G1 X125.000 Y69.535 E0.01919
G1 X125.609 Y69.450 E0.01930
G1 X126.205 Y69.534 E0.01885
G1 X126.754 Y69.776 E0.01885
G1 X136.472 Y76.170 E0.36472
G1 X145.385 Y85.065 E0.39482
G1 X150.963 Y93.987 E0.32993
G1 X155.868 Y102.162 E0.29892
G1 X156.146 Y102.978 E0.02701
G1 E-0.80000 F2100.00000
G1 Z0.800 F10800.000
G1 X140.404 Y112.299
G1 Z0.200
G1 E0.80000 F2100.00000
G1 F1200
G1 X140.110 Y112.593 E0.01303
G1 X140.472 Y113.215 E0.02258
G1 X140.486 Y113.283 E0.00218
G1 X140.817 Y112.952 E0.01468
G1 X141.350 Y113.486 E0.02365
G1 X128.880 Y125.955 E0.55293
G1 X126.716 Y127.054 F10800.000
G1 F1200
G1 X139.594 Y114.175 E0.57107
G1 X138.524 Y114.179 E0.03357
G1 X126.302 Y126.400 E0.54191
G1 X125.769 Y125.867 E0.02365
G1 X134.856 Y116.780 E0.40294
G1 X134.323 Y116.247 E0.02365
G1 X121.973 Y128.596 E0.54761
G1 X121.440 Y128.063 E0.02365
G1 X133.790 Y115.713 E0.54761
G1 X133.256 Y115.180 E0.02365
G1 X120.907 Y127.530 E0.54761
G1 X120.434 Y127.058 E0.02094
G1 X115.540 Y131.952 E0.21701
G1 X115.479 Y131.891 E0.00270
G1 X132.723 Y114.647 E0.76462
G1 X132.280 Y114.204 E0.01965
G1 X132.099 Y114.204 E0.00567
G1 X114.946 Y131.357 E0.76060
G1 X114.413 Y130.824 E0.02365
G1 X131.028 Y114.209 E0.73676
G1 X129.958 Y114.213 E0.03357
G1 X113.880 Y130.291 E0.71293
G1 X113.346 Y129.758 E0.02365
G1 X128.887 Y114.217 E0.68910
G1 X127.816 Y114.221 E0.03357
G1 X112.813 Y129.224 E0.66526
G1 X112.280 Y128.691 E0.02365
G1 X126.745 Y114.225 E0.64143
G1 X125.675 Y114.230 E0.03357
G1 X111.746 Y128.158 E0.61759
G1 X111.213 Y127.624 E0.02365
G1 X124.604 Y114.234 E0.59376
G1 X123.533 Y114.238 E0.03357
G1 X110.680 Y127.091 E0.56993
G1 X110.646 Y127.058 E0.00149
G1 X109.015 Y128.689 E0.07234
G1 X108.515 Y128.189 E0.02215
G1 X122.462 Y114.242 E0.61843
G1 X121.597 Y114.246 E0.02712
G1 X117.172 Y118.671 E0.19624
G1 X117.069 Y118.569 E0.00455
G1 X107.982 Y127.656 E0.40294
G1 X107.449 Y127.123 E0.02365
G1 X116.536 Y118.036 E0.40294
G1 X116.003 Y117.502 E0.02365
G1 X106.915 Y126.589 E0.40294
G1 X106.382 Y126.056 E0.02365
G1 X115.469 Y116.969 E0.40294
G1 X114.936 Y116.436 E0.02365
G1 X105.849 Y125.523 E0.40294
G1 X105.316 Y124.990 E0.02365
G1 X114.403 Y115.903 E0.40294
G1 X113.869 Y115.369 E0.02365
G1 X104.782 Y124.456 E0.40294
G1 X104.249 Y123.923 E0.02365
G1 X113.336 Y114.836 E0.40294
G1 X112.803 Y114.303 E0.02365
G1 X103.716 Y123.390 E0.40294
G1 X103.183 Y122.857 E0.02365
G1 X110.638 Y115.401 E0.33060
G1 X110.105 Y114.868 E0.02365
G1 X102.649 Y122.323 E0.33060
G1 X102.116 Y121.790 E0.02365
G1 X109.572 Y114.334 E0.33060
G1 X109.038 Y113.801 E0.02365
G1 X101.463 Y121.377 E0.33592
G1 X103.659 Y117.048 F10800.000
G1 F1200
G1 X111.235 Y109.472 E0.33592
G1 X110.701 Y108.939 E0.02365
G1 X103.246 Y116.394 E0.33060
G1 X102.712 Y115.861 E0.02365
G1 X110.288 Y108.285 E0.33592
G1 E-0.80000 F2100.00000
G1 Z0.800 F10800.000
G1 X114.450 Y105.190
G1 Z0.200
G1 E0.80000 F2100.00000
G1 F1200
G1 X113.034 Y106.606 E0.06280
G1 X112.500 Y106.073 E0.02365
G1 X115.419 Y103.154 E0.12942
G1 X116.845 Y100.662 E0.09004
G1 X102.179 Y115.328 E0.65032
G1 X101.646 Y114.794 E0.02365
G1 X118.271 Y98.169 E0.73720
G1 X119.697 Y95.676 E0.09004
G1 X101.113 Y114.261 E0.82408
G1 X100.579 Y113.728 E0.02365
G1 X121.086 Y93.221 E0.90929
G1 X120.553 Y92.688 E0.02365
G1 X100.046 Y113.195 E0.90929
G1 X99.513 Y112.661 E0.02365
G1 X120.019 Y92.155 E0.90929
G1 X119.486 Y91.622 E0.02365
G1 X98.979 Y112.128 E0.90929
G1 X98.446 Y111.595 E0.02365
G1 X118.953 Y91.088 E0.90929
G1 X118.419 Y90.555 E0.02365
G1 X97.913 Y111.062 E0.90929
G1 X97.380 Y110.528 E0.02365
G1 X130.937 Y76.971 E1.48799
G1 X131.470 Y77.504 E0.02365
G1 X119.120 Y89.854 E0.54761
M73 P0 R151
G1 X119.654 Y90.387 E0.02365
G1 X132.004 Y78.037 E0.54761
G1 X132.537 Y78.571 E0.02365
G1 X120.187 Y90.921 E0.54761
G1 X120.434 Y91.168 E0.01096
G1 X125.328 Y86.274 E0.21701
G1 X125.614 Y86.560 E0.01268
G1 X133.070 Y79.104 E0.33060
G1 X133.485 Y79.519 E0.01840
G1 X135.116 Y77.888 E0.07234
G1 X135.235 Y78.006 E0.00524
G1 X126.148 Y87.093 E0.40294
G1 X126.681 Y87.626 E0.02365
G1 X135.768 Y78.539 E0.40294
G1 X136.301 Y79.072 E0.02365
G1 X127.214 Y88.160 E0.40294
G1 X127.747 Y88.693 E0.02365
G1 X136.835 Y79.606 E0.40294
G1 X137.368 Y80.139 E0.02365
G1 X128.281 Y89.226 E0.40294
G1 X128.814 Y89.759 E0.02365
G1 X137.901 Y80.672 E0.40294
G1 X138.434 Y81.206 E0.02365
G1 X129.347 Y90.293 E0.40294
G1 X129.881 Y90.826 E0.02365
G1 X138.968 Y81.739 E0.40294
G1 X139.501 Y82.272 E0.02365
G1 X130.414 Y91.359 E0.40294
G1 X130.923 Y91.869 E0.02260
G1 X129.098 Y93.694 E0.08093
G1 X129.116 Y93.724 E0.00108
G1 X140.034 Y82.805 E0.48415
G1 X140.567 Y83.339 E0.02365
G1 X129.508 Y94.398 E0.49038
G1 X129.901 Y95.072 E0.02445
G1 X141.101 Y83.872 E0.49662
G1 X141.634 Y84.405 E0.02365
G1 X130.294 Y95.746 E0.50285
G1 X130.686 Y96.419 E0.02445
G1 X142.167 Y84.938 E0.50909
G1 X142.701 Y85.472 E0.02365
G1 X131.079 Y97.093 E0.51532
G1 X131.471 Y97.767 E0.02445
G1 X143.234 Y86.005 E0.52156
G1 X143.767 Y86.538 E0.02365
G1 X131.864 Y98.441 E0.52780
G1 X132.257 Y99.115 E0.02445
G1 X142.669 Y88.703 E0.46169
G1 X143.202 Y89.236 E0.02365
G1 X132.649 Y99.789 E0.46793
G1 X133.042 Y100.463 E0.02445
G1 X143.736 Y89.769 E0.47417
G1 X144.269 Y90.303 E0.02365
G1 X133.435 Y101.137 E0.48040
G1 X133.827 Y101.811 E0.02445
G1 X144.802 Y90.836 E0.48664
G1 X145.335 Y91.369 E0.02365
G1 X134.220 Y102.485 E0.49287
G1 X134.613 Y103.158 E0.02445
G1 X145.869 Y91.903 E0.49911
G1 X146.402 Y92.436 E0.02365
G1 X135.005 Y103.832 E0.50534
G1 X135.398 Y104.506 E0.02445
G1 X146.935 Y92.969 E0.51158
G1 X147.468 Y93.502 E0.02365
G1 X135.791 Y105.180 E0.51782
G1 X136.183 Y105.854 E0.02445
G1 X148.002 Y94.036 E0.52405
G1 X148.535 Y94.569 E0.02365
G1 X136.576 Y106.528 E0.53029
G1 X136.968 Y107.202 E0.02445
G1 X149.068 Y95.102 E0.53652
G1 X149.098 Y95.132 E0.00130
G1 X145.835 Y98.394 E0.14467
G1 X146.339 Y98.898 E0.02234
G1 X138.883 Y106.354 E0.33060
G1 X139.416 Y106.887 E0.02365
G1 X148.503 Y97.800 E0.40294
G1 X149.037 Y98.333 E0.02365
G1 X139.950 Y107.420 E0.40294
G1 X140.483 Y107.954 E0.02365
G1 X149.570 Y98.867 E0.40294
G1 X150.103 Y99.400 E0.02365
G1 X139.385 Y110.118 E0.47527
G1 X139.918 Y110.652 E0.02365
G1 X150.636 Y99.933 E0.47527
G1 X151.170 Y100.466 E0.02365
G1 X140.451 Y111.185 E0.47527
G1 X140.985 Y111.718 E0.02365
G1 X151.703 Y101.000 E0.47527
G1 X152.236 Y101.533 E0.02365
G1 X141.518 Y112.251 E0.47527
G1 X142.051 Y112.785 E0.02365
G1 X152.770 Y102.066 E0.47527
G1 X153.303 Y102.599 E0.02365
G1 X127.902 Y128.000 E1.12631
G1 X128.436 Y128.533 E0.02365
G1 X153.836 Y103.133 E1.12631
G1 X153.992 Y103.288 E0.00690
G1 X152.360 Y104.920 E0.07234
G1 X152.738 Y105.297 E0.01675
G1 X128.969 Y129.067 E1.05397
G1 X129.502 Y129.600 E0.02365
G1 X153.271 Y105.831 E1.05397
G1 X153.805 Y106.364 E0.02365
G1 X130.035 Y130.133 E1.05397
G1 X130.569 Y130.666 E0.02365
G1 X151.075 Y110.160 E0.90929
G1 X151.608 Y110.693 E0.02365
G1 X131.102 Y131.200 E0.90929
G1 X131.635 Y131.733 E0.02365
G1 X152.142 Y111.226 E0.90929
G1 X152.360 Y111.445 E0.00969
G1 X147.466 Y116.339 E0.21701
G1 X147.781 Y116.654 E0.01395
G1 X132.168 Y132.266 E0.69228
G1 X132.702 Y132.800 E0.02365
G1 X148.314 Y117.187 E0.69228
G1 X148.847 Y117.720 E0.02365
G1 X133.115 Y133.453 E0.69760
G1 E-0.80000 F2100.00000
G1 Z0.800 F10800.000
G1 X130.199 Y101.173
G1 Z0.200
G1 E0.80000 F2100.00000
G1 F1200
G1 X130.413 Y100.959 E0.00948
G1 X130.027 Y100.278 E0.02453
G1 X129.666 Y100.639 E0.01602
G1 E-0.80000 F2100.00000
G1 Z0.800 F10800.000
G1 X120.499 Y100.207
G1 Z0.200
G1 E0.80000 F2100.00000
G1 F1200
G1 X119.204 Y101.503 E0.05746
G1 E-0.80000 F2100.00000
G1 Z0.800 F10800.000
G1 X109.411 Y87.832
G1 Z0.200
G1 E0.80000 F2100.00000
G1 F1200
G1 X95.310 Y101.933 E0.62527
G1 X95.843 Y102.466 E0.02365
G1 X109.824 Y88.485 E0.61995
G1 X110.357 Y89.018 E0.02365
G1 X96.256 Y103.119 E0.62527
G1 E-0.80000 F2100.00000
G1 Z0.800 F10800.000
G1 X96.726 Y110.115
G1 Z0.200
G1 E0.80000 F2100.00000
G1 F1200
G1 X130.404 Y76.438 E1.49331
G1 X129.870 Y75.904 E0.02365
G1 X97.944 Y107.830 E1.41565
M73 P1 R150
G1 X97.411 Y107.297 E0.02365
G1 X129.337 Y75.371 E1.41565
G1 X128.804 Y74.838 E0.02365
G1 X96.878 Y106.764 E1.41565
G1 X96.345 Y106.231 E0.02365
G1 X128.271 Y74.305 E1.41565
G1 X127.737 Y73.771 E0.02365
G1 X95.811 Y105.697 E1.41565
G1 X95.278 Y105.164 E0.02365
G1 X127.204 Y73.238 E1.41565
G1 X126.671 Y72.705 E0.02365
G1 X111.058 Y88.317 E0.69228
G1 X110.525 Y87.784 E0.02365
G1 X126.138 Y72.171 E0.69228
G1 X125.604 Y71.638 E0.02365
G1 X109.992 Y87.251 E0.69228
G1 X109.716 Y86.975 E0.01224
G1 X111.347 Y85.343 E0.07234
G1 X111.090 Y85.086 E0.01141
G1 X116.914 Y79.262 E0.25826
G1 X116.381 Y78.728 E0.02365
G1 X110.557 Y84.553 E0.25826
G1 X110.023 Y84.020 E0.02365
G1 X115.968 Y78.075 E0.26358
G1 E-0.80000 F2100.00000
G1 Z0.800 F10800.000
G1 X125.812 Y111.319
G1 Z0.200
G1 E0.80000 F2100.00000
G1 F1200
G1 X112.836 Y111.218 E0.40687
G1 X125.174 Y90.227 E0.76344
G1 X137.184 Y111.408 E0.76344
G1 X125.872 Y111.320 E0.35468
G1 X125.814 Y111.719 F10800.000
G1 X124.595 Y112.744
G1 F1200
G1 X111.620 Y112.795 E0.40681
G1 X112.094 Y111.967 E0.02992
G1 X138.138 Y112.170 E0.81662
G1 X138.441 Y112.689 E0.01885
G1 X124.655 Y112.743 E0.43226
G1 X124.596 Y113.121 F10800.000
G1 F1200
G1 X110.969 Y113.175 E0.42728
G1 X124.936 Y88.761 E0.88188
G1 X125.266 Y89.327 E0.02054
G1 X112.180 Y111.590 E0.80969
G1 X137.834 Y111.790 E0.80439
G1 X128.443 Y95.228 E0.59696
G1 X128.638 Y95.116 E0.00705
G1 X139.095 Y113.064 E0.65128
G1 X124.656 Y113.121 E0.45273
G1 X124.598 Y113.498 F10800.000
G1 F1200
G1 X110.317 Y113.554 E0.44776
G1 X124.933 Y88.007 E0.92284
G1 X139.750 Y113.438 E0.92284
G1 X124.658 Y113.498 E0.47321
G1 X124.252 Y113.297 F10800.000
G1 X126.930 Y112.408
G1 F1200
G1 X115.789 Y112.387 E0.29404
G1 X112.075 Y112.380 E0.13788
G1 E-0.80000 F2100.00000
G1 Z0.800 F10800.000
G1 X119.023 Y99.527
G1 Z0.200
G1 E0.80000 F2100.00000
G1 F1200
G1 X120.675 Y96.678 E0.02435
G1 X122.327 Y93.829 E0.03491
G1 X123.979 Y90.981 E0.04546
G1 X124.993 Y89.233 E0.03165
G1 X125.331 Y89.588 F10800.000
G1 F1200
G1 X126.889 Y92.298 E0.14635
G1 X128.447 Y95.009 E0.15499
G1 E-0.80000 F2100.00000
G1 Z0.800 F10800.000
G1 X137.105 Y110.072
G1 Z0.200
G1 E0.80000 F2100.00000
G1 F1200
G1 X138.203 Y111.982 E0.01383
G1 X138.072 Y112.430 F10800.000
G1 F1200
G1 X126.930 Y112.408 E0.17444
M106 S255
;BEFORE_LAYER_CHANGE
G92 E0.0
;0.4


G1 E-0.80000 F2100.00000
G1 Z0.800 F10800.000
;AFTER_LAYER_CHANGE
;0.4
G1 X133.371 Y135.626
G1 Z0.400
G1 E0.80000 F2100.00000
G1 F1994
G1 X115.108 Y134.097 E0.57463
G1 X114.570 Y133.913 E0.01783
G1 X107.701 Y130.439 E0.24136
G1 X99.933 Y122.941 E0.33851
G1 X99.572 Y122.479 E0.01839
G1 X94.680 Y110.892 E0.39433
G1 X93.104 Y105.417 E0.17864
G1 X93.128 Y101.755 E0.11484
G1 X93.243 Y101.213 E0.01737
G1 X93.490 Y100.717 E0.01737
G1 X108.399 Y82.553 E0.73679
G1 X114.643 Y76.333 E0.27634
G1 X124.441 Y69.785 E0.36950
G1 X125.000 Y69.535 E0.01919
G1 X125.609 Y69.450 E0.01930
G1 X126.205 Y69.534 E0.01885
G1 X126.754 Y69.776 E0.01885
G1 X136.472 Y76.170 E0.36472
G1 X145.385 Y85.065 E0.39482
G1 X150.963 Y93.987 E0.32993
G1 X155.868 Y102.162 E0.29892
G1 X156.165 Y103.034 E0.02889
G1 X155.955 Y106.772 E0.11738
G1 X154.428 Y112.162 E0.17564
G1 X150.641 Y118.975 E0.24441
G1 X134.634 Y135.028 E0.71080
G1 X134.050 Y135.432 E0.02225
G1 X133.429 Y135.610 E0.02025
G1 E-0.80000 F2100.00000
G1 Z1.000 F10800.000
G1 X125.809 Y111.741
G1 Z0.400
G1 E0.80000 F2100.00000
M204 S800
G1 F1994
G1 X112.102 Y111.635 E0.46399
G1 X125.181 Y89.383 E0.87367
G1 X137.912 Y111.836 E0.87367
G1 X125.869 Y111.742 E0.40764
M204 S1000
G1 X125.812 Y111.334 F10800.000
M204 S800
G1 F1994
G1 X112.810 Y111.233 E0.44012
G1 X125.175 Y90.197 E0.82594
G1 X137.210 Y111.423 E0.82593
G1 X125.872 Y111.335 E0.38377
M204 S1000
G1 X125.814 Y111.734 F10800.000
G1 X124.595 Y112.892
M204 S800
G1 F1994
G1 X111.364 Y112.945 E0.44788
G1 X111.881 Y112.040 E0.03527
G1 X138.355 Y112.246 E0.89613
G1 X138.699 Y112.837 E0.02313
G1 X124.655 Y112.892 E0.47536
M204 S1000
G1 X124.597 Y113.299 F10800.000
M204 S800
G1 F1994
G1 X110.660 Y113.354 E0.47175
G1 X124.935 Y88.404 E0.97298
G1 X139.406 Y113.241 E0.97299
G1 X124.657 Y113.299 E0.49923
M204 S1000
G1 E-0.80000 F2100.00000
G1 Z1.000 F10800.000
G1 X110.258 Y113.589
G1 Z0.400
G1 E0.80000 F2100.00000
M204 S800
G1 F1994
G1 X110.219 Y113.306 E0.00965
G1 X124.669 Y88.048 E0.98501
G1 X124.933 Y87.939 E0.00964
G1 X125.197 Y88.046 E0.00964
G1 X139.846 Y113.189 E0.98499
G1 X139.809 Y113.472 E0.00965
G1 X139.584 Y113.647 E0.00965
G1 X110.484 Y113.762 E0.98501
G1 X110.306 Y113.625 E0.00762
M204 S1000
G1 X110.377 Y113.330 F10800.000
G1 X111.857 Y112.491
G1 F1994
G1 X115.634 Y112.498 E0.15460
G1
G1 X126.963 Y112.520 E0.34036
G1
G1 X138.292 Y112.542 E0.21691
G1 X138.367 Y112.043 F10800.000
G1 F1994
G1 X136.567 Y108.911 E0.05406
G1
G1 X134.767 Y105.780 E0.04145
G1
G1 X132.967 Y102.648 E0.02883
G1 E-0.80000 F2100.00000
G1 Z1.000 F10800.000
G1 X120.199 Y97.276
G1 Z0.400
G1 E0.80000 F2100.00000
G1 F1994
G1 X118.349 Y100.467 E0.05630
M73 P2 R149
G1
G1 X116.498 Y103.657 E0.04305
G1
G1 X114.648 Y106.847 E0.02981
G1 E-0.80000 F2100.00000
G1 Z1.000 F10800.000
G1 X120.199 Y97.276
G1 Z0.400
G1 E0.80000 F2100.00000
G1 F1994
G1 X122.049 Y94.086 E0.06955
G1
G1 X123.899 Y90.896 E0.08279
G1
G1 X125.022 Y88.959 E0.05478
;BEFORE_LAYER_CHANGE
G92 E0.0
;0.43


G1 E-0.80000 F2100.00000
G1 Z1.000 F10800.000
;AFTER_LAYER_CHANGE
;0.43
G1 X135.214 Y91.771
G1 Z0.430
G1 E0.80000 F2100.00000
G1 F1642
G1 X131.854 Y95.132 E0.13662
G1 X133.485 Y96.763 E0.06632
G1 X138.379 Y91.869 E0.19897
G1 X140.011 Y93.500 E0.06632
G1 X141.642 Y91.869 E0.06632
G1 X133.485 Y100.026 E0.33162
G1 X135.116 Y101.657 E0.06632
G1 X143.273 Y93.500 E0.33162
G1 X144.905 Y95.132 E0.06632
G1 X136.748 Y103.288 E0.33162
G1 X138.379 Y101.657 E0.06632
G1 X140.011 Y103.288 E0.06632
G1 X143.273 Y100.026 E0.13265
G1 X144.905 Y101.657 E0.06632
G1 X141.642 Y104.920 E0.13265
G1 X143.273 Y106.551 E0.06632
