; generated by PrusaSlicer 2.1.1+win64 on 2020-04-27 at 21:37:37 UTC

; 

; external perimeters extrusion width = 0.45mm
; perimeters extrusion width = 0.45mm
; infill extrusion width = 0.45mm
; solid infill extrusion width = 0.45mm
; top infill extrusion width = 0.40mm
; support material extrusion width = 0.35mm
; first layer extrusion width = 0.42mm

M73 P0 R141
M201 X9000 Y9000 Z500 E10000 ; sets maximum accelerations, mm/sec^2
M203 X500 Y500 Z12 E120 ; sets maximum feedrates, mm/sec
M204 P2000 R1500 T2000 ; sets acceleration (P, T) and retract acceleration (R), mm/sec^2
M205 X10.00 Y10.00 Z0.20 E2.50 ; sets the jerk limits, mm/sec
M205 S0 T0 ; sets the minimum extruding and travel feed rate, mm/sec
M107
M862.3 P "MK2S" ; printer model check
M862.1 P0.4 ; nozzle diameter check
M115 U3.2.3 ; tell printer latest fw version
G90 ; use absolute coordinates
M83 ; extruder relative mode
M204 S2000 T1500 ; MK2 firmware only supports the old M204 format
M104 S215 ; set extruder temp
M140 S60 ; set bed temp
M190 S60 ; wait for bed temp
M109 S215 ; wait for extruder temp
G28 W ; home all without mesh bed level
G80 ; mesh bed leveling
G1 Y-3.0 F1000.0 ; go outside print area
G92 E0.0
G1 X60.0 E9.0  F1000.0 ; intro line
M73 P0 R141
G1 X100.0 E12.5 F1000.0 ; intro line
G92 E0.0
G21 ; set units to millimeters
G90 ; use absolute coordinates
M83 ; use relative distances for extrusion
M900 K30 ; Filament gcode
;BEFORE_LAYER_CHANGE
G92 E0.0
;0.2


G1 E-0.80000 F2100.00000
G1 Z0.600 F10800.000
;AFTER_LAYER_CHANGE
;0.2
G1 X111.105 Y79.738
G1 Z0.200
G1 E0.80000 F2100.00000
M204 S1000
G1 F1200
G1 X100.267 Y90.576 E0.48059
G1 X100.800 Y91.110 E0.02365
G1 X111.518 Y80.391 E0.47527
G1 X112.052 Y80.925 E0.02365
G1 X101.333 Y91.643 E0.47527
G1 X101.867 Y92.176 E0.02365
G1 X117.479 Y76.564 E0.69228
G1 X118.012 Y77.097 E0.02365
G1 X102.400 Y92.710 E0.69228
G1 X102.933 Y93.243 E0.02365
G1 X118.546 Y77.630 E0.69228
G1 X119.079 Y78.164 E0.02365
G1 X96.941 Y100.302 E0.98163
G1 X97.474 Y100.835 E0.02365
G1 X119.612 Y78.697 E0.98163
G1 X120.145 Y79.230 E0.02365
G1 X98.008 Y101.368 E0.98163
G1 X98.296 Y101.657 E0.01281
G1 X95.034 Y104.920 E0.14467
G1 X95.278 Y105.164 E0.01084
G1 X120.679 Y79.763 E1.12631
G1 X121.212 Y80.297 E0.02365
G1 X95.811 Y105.697 E1.12631
G1 X96.345 Y106.231 E0.02365
G1 X121.745 Y80.830 E1.12631
G1 X122.066 Y81.150 E0.01421
G1 X125.328 Y77.888 E0.14467
G1 X125.541 Y78.101 E0.00944
G1 X96.878 Y106.764 E1.27098
G1 X97.411 Y107.297 E0.02365
G1 X126.074 Y78.634 E1.27098
G1 X126.608 Y79.167 E0.02365
G1 X109.364 Y96.411 E0.76462
G1 X109.015 Y96.062 E0.01548
G1 X108.314 Y96.763 E0.03108
G1 X108.663 Y97.112 E0.01548
G1 X97.944 Y107.830 E0.47527
G1 X98.478 Y108.364 E0.02365
G1 X109.196 Y97.645 E0.47527
G1 X109.729 Y98.178 E0.02365
G1 X99.011 Y108.897 E0.47527
G1 X99.544 Y109.430 E0.02365
G1 X110.263 Y98.712 E0.47527
G1 X110.796 Y99.245 E0.02365
G1 X100.078 Y109.963 E0.47527
G1 X100.611 Y110.497 E0.02365
G1 X111.293 Y99.814 E0.47367
G1 X111.686 Y100.488 E0.02445
G1 X101.144 Y111.030 E0.46744
G1 X101.677 Y111.563 E0.02365
G1 X112.078 Y101.162 E0.46120
G1 X112.471 Y101.836 E0.02445
G1 X102.211 Y112.097 E0.45496
G1 X102.744 Y112.630 E0.02365
G1 X112.864 Y102.510 E0.44873
G1 X113.256 Y103.184 E0.02445
G1 X103.277 Y113.163 E0.44249
G1 X103.810 Y113.696 E0.02365
G1 X113.649 Y103.858 E0.43626
G1 X114.042 Y104.532 E0.02445
G1 X104.344 Y114.230 E0.43002
G1 X104.877 Y114.763 E0.02365
G1 X114.434 Y105.206 E0.42379
G1 X114.827 Y105.880 E0.02445
G1 X105.410 Y115.296 E0.41755
G1 X105.944 Y115.829 E0.02365
G1 X115.220 Y106.553 E0.41131
G1 X115.612 Y107.227 E0.02445
G1 X104.845 Y117.994 E0.47742
G1 X105.379 Y118.527 E0.02365
G1 X116.005 Y107.901 E0.47118
G1 X116.397 Y108.575 E0.02445
G1 X105.912 Y119.061 E0.46494
G1 X106.445 Y119.594 E0.02365
G1 X116.790 Y109.249 E0.45871
G1 X117.183 Y109.923 E0.02445
G1 X103.716 Y123.390 E0.59715
G1 X104.249 Y123.923 E0.02365
G1 X117.575 Y110.597 E0.59091
G1 X117.968 Y111.271 E0.02445
G1 X104.782 Y124.456 E0.58467
G1 X105.316 Y124.990 E0.02365
G1 X118.361 Y111.945 E0.57844
G1 X118.753 Y112.619 E0.02445
G1 X105.849 Y125.523 E0.57220
G1 X106.382 Y126.056 E0.02365
G1 X119.146 Y113.292 E0.56597
G1 X119.539 Y113.966 E0.02445
G1 X106.915 Y126.589 E0.55973
G1 X107.449 Y127.123 E0.02365
G1 X119.931 Y114.640 E0.55350
G1 X120.324 Y115.314 E0.02445
G1 X107.982 Y127.656 E0.54726
G1 X108.515 Y128.189 E0.02365
G1 X120.717 Y115.988 E0.54102
G1 X121.109 Y116.662 E0.02445
G1 X109.049 Y128.723 E0.53479
G1 X109.582 Y129.256 E0.02365
G1 X121.502 Y117.336 E0.52855
G1 X121.894 Y118.010 E0.02445
G1 X110.115 Y129.789 E0.52232
G1 X110.646 Y130.320 E0.02355
G1 X121.367 Y119.604 E0.47527
G1 X121.900 Y120.137 E0.02365
G1 X112.813 Y129.224 E0.40294
G1 X113.346 Y129.758 E0.02365
G1 X122.433 Y120.670 E0.40294
G1 X122.967 Y121.204 E0.02365
G1 X113.880 Y130.291 E0.40294
G1 X114.413 Y130.824 E0.02365
G1 X123.500 Y121.737 E0.40294
G1 X124.033 Y122.270 E0.02365
G1 X114.946 Y131.357 E0.40294
G1 X115.479 Y131.891 E0.02365
G1 X124.566 Y122.804 E0.40294
G1 X125.100 Y123.337 E0.02365
G1 X115.893 Y132.544 E0.40826
G1 E-0.80000 F2100.00000
G1 Z0.800 F10800.000
G1 X123.778 Y116.126
G1 Z0.200
G1 E0.80000 F2100.00000
G1 F1200
G1 X124.096 Y115.808 E0.01412
G1 X123.563 Y115.275 E0.02365
G1 X123.392 Y115.446 E0.00759
G1 X122.620 Y114.085 F10800.000
G1 F1200
G1 X122.871 Y113.834 E0.01112
G1 E-0.80000 F2100.00000
G1 Z0.800 F10800.000
G1 X133.307 Y108.730
G1 Z0.200
G1 E0.80000 F2100.00000
G1 F1200
G1 X141.476 Y100.561 E0.36222
M73 P0 R140
G1 X140.943 Y100.028 E0.02365
G1 X135.190 Y105.780 E0.25508
G1 X136.616 Y103.288 E0.09004
G1 X140.410 Y99.494 E0.16820
G1 X139.876 Y98.961 E0.02365
G1 X137.586 Y101.252 E0.10158
G1 E-0.80000 F2100.00000
G1 Z0.800 F10800.000
G1 X131.193 Y95.913
G1 Z0.200
G1 E0.80000 F2100.00000
G1 F1200
G1 X134.010 Y93.095 E0.12494
G1 X133.477 Y92.562 E0.02365
G1 X130.292 Y95.747 E0.14122
G1 X129.222 Y95.751 E0.03357
G1 X132.944 Y92.029 E0.16505
G1 X132.784 Y91.869 E0.00709
G1 X133.485 Y91.168 E0.03108
G1 X133.645 Y91.328 E0.00709
G1 X141.101 Y83.872 E0.33060
G1 X141.634 Y84.405 E0.02365
G1 X134.178 Y91.861 E0.33060
G1 X134.712 Y92.394 E0.02365
G1 X143.799 Y83.307 E0.40294
G1 X144.332 Y83.840 E0.02365
G1 X135.245 Y92.927 E0.40294
G1 X135.778 Y93.461 E0.02365
G1 X144.865 Y84.374 E0.40294
G1 X145.398 Y84.907 E0.02365
G1 X136.311 Y93.994 E0.40294
G1 X136.845 Y94.527 E0.02365
G1 X145.932 Y85.440 E0.40294
G1 X146.465 Y85.973 E0.02365
G1 X137.378 Y95.061 E0.40294
G1 X137.911 Y95.594 E0.02365
G1 X146.998 Y86.507 E0.40294
G1 X147.531 Y87.040 E0.02365
G1 X140.076 Y94.496 E0.33060
G1 X140.609 Y95.029 E0.02365
G1 X148.065 Y87.573 E0.33060
G1 X148.598 Y88.107 E0.02365
G1 X140.412 Y96.293 E0.36298
G1 X140.440 Y96.491 E0.00628
G1 X140.407 Y96.663 E0.00548
G1 X139.888 Y97.570 E0.03279
G1 X140.044 Y97.727 E0.00695
G1 X147.500 Y90.271 E0.33060
G1 X148.033 Y90.804 E0.02365
G1 X140.577 Y98.260 E0.33060
G1 X141.111 Y98.793 E0.02365
G1 X148.566 Y91.338 E0.33060
G1 X149.100 Y91.871 E0.02365
G1 X141.644 Y99.327 E0.33060
G1 X142.177 Y99.860 E0.02365
G1 X149.633 Y92.404 E0.33060
G1 X150.166 Y92.938 E0.02365
G1 X132.338 Y110.766 E0.79053
G1 X130.912 Y113.258 E0.09004
G1 X150.700 Y93.471 E0.87741
G1 X151.233 Y94.004 E0.02365
G1 X129.486 Y115.751 E0.96429
G1 X128.060 Y118.243 E0.09004
G1 X151.766 Y94.537 E1.05117
G1 X152.299 Y95.071 E0.02365
G1 X128.530 Y118.840 E1.05397
G1 X129.063 Y119.373 E0.02365
G1 X152.833 Y95.604 E1.05397
G1 X153.366 Y96.137 E0.02365
G1 X116.546 Y132.957 E1.63266
G1 X117.079 Y133.490 E0.02365
G1 X153.899 Y96.670 E1.63266
G1 X153.992 Y96.763 E0.00410
G1 X152.360 Y98.394 E0.07234
G1 X152.801 Y98.835 E0.01955
G1 X119.244 Y132.392 E1.48799
G1 X119.777 Y132.926 E0.02365
G1 X153.334 Y99.368 E1.48799
G1 X153.868 Y99.902 E0.02365
G1 X120.310 Y133.459 E1.48799
G1 X120.434 Y133.583 E0.00550
G1 X122.066 Y131.952 E0.07234
G1 X122.475 Y132.361 E0.01815
G1 X147.876 Y106.960 E1.12631
G1 X148.409 Y107.494 E0.02365
G1 X123.008 Y132.894 E1.12631
G1 X123.541 Y133.427 E0.02365
G1 X148.942 Y108.027 E1.12631
G1 X149.475 Y108.560 E0.02365
G1 X128.969 Y129.067 E0.90929
G1 X129.502 Y129.600 E0.02365
G1 X150.009 Y109.093 E0.90929
G1 X150.542 Y109.627 E0.02365
G1 X130.035 Y130.133 E0.90929
G1 X130.569 Y130.666 E0.02365
G1 X146.181 Y115.054 E0.69228
G1 X146.714 Y115.587 E0.02365
G1 X131.102 Y131.200 E0.69228
G1 X131.635 Y131.733 E0.02365
G1 X147.248 Y116.120 E0.69228
G1 X147.466 Y116.339 E0.00969
G1 X140.941 Y122.864 E0.28935
G1 X141.256 Y123.179 E0.01395
G1 X133.800 Y130.635 E0.33060
G1 X134.333 Y131.168 E0.02365
G1 X141.789 Y123.712 E0.33060
G1 X142.322 Y124.246 E0.02365
G1 X134.746 Y131.821 E0.33592
G1 E-0.80000 F2100.00000
G1 Z0.800 F10800.000
G1 X128.066 Y99.040
G1 Z0.200
G1 E0.80000 F2100.00000
G1 F1200
G1 X128.475 Y98.630 E0.01815
G1 X127.980 Y95.926 F10800.000
G1 F1200
G1 X140.567 Y83.339 E0.55813
G1 X140.034 Y82.805 E0.02365
G1 X127.080 Y95.759 E0.57441
G1 X126.009 Y95.764 E0.03357
G1 X139.501 Y82.272 E0.59824
G1 X138.968 Y81.739 E0.02365
G1 X124.939 Y95.768 E0.62207
G1 X123.868 Y95.772 E0.03357
G1 X138.434 Y81.206 E0.64591
G1 X138.379 Y81.150 E0.00245
G1 X136.748 Y82.782 E0.07234
G1 X136.270 Y82.304 E0.02120
G1 X122.797 Y95.776 E0.59740
G1 X121.726 Y95.781 E0.03357
G1 X135.736 Y81.770 E0.62124
G1 X135.203 Y81.237 E0.02365
G1 X120.655 Y95.785 E0.64507
G1 X119.585 Y95.789 E0.03357
G1 X133.039 Y82.335 E0.59657
M73 P1 R139
G1 X132.505 Y81.802 E0.02365
G1 X118.514 Y95.793 E0.62040
G1 X117.443 Y95.797 E0.03357
G1 X131.972 Y81.269 E0.64423
G1 X131.439 Y80.735 E0.02365
G1 X116.372 Y95.802 E0.66807
G1 X115.302 Y95.806 E0.03357
G1 X130.905 Y80.202 E0.69190
G1 X130.372 Y79.669 E0.02365
G1 X114.760 Y95.281 E0.69228
G1 X114.226 Y94.748 E0.02365
G1 X129.839 Y79.136 E0.69228
G1 X129.306 Y78.602 E0.02365
G1 X112.089 Y95.819 E0.76340
G1 X111.019 Y95.823 E0.03357
G1 X128.892 Y77.949 E0.79255
G1 E-0.80000 F2100.00000
G1 Z0.800 F10800.000
G1 X125.301 Y98.605
G1 Z0.200
G1 E0.80000 F2100.00000
G1 F1200
G1 X124.835 Y99.071 E0.02065
G1 X122.126 Y98.581 F10800.000
G1 F1200
G1 X121.604 Y99.103 E0.02314
G1 X118.951 Y98.556 F10800.000
G1 F1200
G1 X118.373 Y99.134 E0.02564
G1 E-0.80000 F2100.00000
G1 Z0.800 F10800.000
G1 X124.822 Y119.881
G1 Z0.200
G1 E0.80000 F2100.00000
G1 F1200
G1 X112.166 Y97.560 E0.80454
G1 X137.705 Y97.759 E0.80077
G1 X124.852 Y119.829 E0.80079
G1 X124.826 Y119.124 F10800.000
G1 F1200
G1 X112.816 Y97.942 E0.76349
G1 X137.052 Y98.131 E0.75991
G1 X124.857 Y119.072 E0.75983
G1 X124.624 Y119.469 F10800.000
G1 X125.064 Y121.239
G1 F1200
G1 X110.905 Y96.936 E0.88188
G1 X139.031 Y96.825 E0.88190
G1 X125.094 Y121.187 E0.88000
G1 X125.067 Y121.993 F10800.000
G1 F1200
G1 X110.250 Y96.562 E0.92284
G1 X139.683 Y96.446 E0.92286
G1 X125.097 Y121.941 E0.92095
G1 X125.467 Y121.991 F10800.000
G1 X124.914 Y120.606
G1 F1200
G1 X127.564 Y116.015 E0.22452
G1 X130.214 Y111.424 E0.20680
G1 X132.864 Y106.833 E0.18908
G1 X135.514 Y102.242 E0.17136
G1 X138.164 Y97.650 E0.15365
G1 X138.172 Y97.539 E0.00323
G1 X138.180 Y97.428 E0.00420
G1 X138.188 Y97.317 E0.00510
G1 X138.033 Y97.295 E0.00713
G1 X134.292 Y97.288 E0.17139
G1 X130.550 Y97.281 E0.15894
G1 X126.808 Y97.274 E0.14527
G1 X123.067 Y97.266 E0.13160
G1 X119.325 Y97.259 E0.11793
G1 X115.584 Y97.252 E0.10426
G1 X111.842 Y97.245 E0.09059
G1 X111.731 Y97.295 E0.00296
G1 X111.619 Y97.345 E0.00403
G1 X111.666 Y97.468 E0.00433
G1 X112.545 Y98.997 E0.05816
G1 X114.584 Y102.545 E0.13008
G1 X116.623 Y106.093 E0.11370
G1 X118.662 Y109.640 E0.09732
G1 X120.701 Y113.188 E0.08093
G1 X122.740 Y116.735 E0.06455
G1 X124.779 Y120.283 E0.04816
G1 X125.035 Y120.372 E0.00319
G1 X125.292 Y120.461 E0.00625
M106 S255
;BEFORE_LAYER_CHANGE
G92 E0.0
;0.4


G1 E-0.80000 F2100.00000
G1 Z0.800 F10800.000
;AFTER_LAYER_CHANGE
;0.4
M104 S210 ; set temperature
G1 X124.821 Y119.995
G1 Z0.400
G1 E0.80000 F2100.00000
M204 S800
G1 F1250
G1 X112.088 Y97.538 E0.87383
G1 X137.787 Y97.738 E0.86989
G1 X124.852 Y119.943 E0.86984
M204 S1000
G1 X124.826 Y119.178 F10800.000
M204 S800
G1 F1250
G1 X112.790 Y97.950 E0.82599
G1 X137.082 Y98.140 E0.82226
G1 X124.856 Y119.126 E0.82211
M204 S1000
G1 X124.623 Y119.523 F10800.000
G1 X125.065 Y121.596
M204 S800
G1 F1250
G1 X110.594 Y96.759 E0.97299
G1 X139.340 Y96.646 E0.97301
G1 X125.095 Y121.544 E0.97095
M204 S1000
G1 X125.067 Y122.061 F10800.000
M204 S800
G1 F1250
G1 X124.803 Y121.954 E0.00964
G1 X110.154 Y96.811 E0.98499
G1 X110.191 Y96.528 E0.00965
G1 X110.416 Y96.353 E0.00965
G1 X139.516 Y96.238 E0.98501
G1 X139.742 Y96.411 E0.00965
G1 X139.781 Y96.694 E0.00965
G1 X125.331 Y121.952 E0.98501
G1 X125.123 Y122.038 E0.00761
M204 S1000
G1 X124.903 Y121.829 F10800.000
G1 X125.026 Y120.569
G1 F1250
G1 X125.061 Y120.584 E0.00195
G1 X125.079 Y120.555 E0.00172
G1 X127.737 Y115.952 E0.26729
G1
G1 X130.394 Y111.349 E0.24811
G1
G1 X133.052 Y106.745 E0.22990
G1
G1 X135.709 Y102.142 E0.21170
G1
G1 X138.367 Y97.539 E0.19349
G1 X137.735 Y97.616 F10800.000
M204 S2000
G1 F1250
G1 X138.396 Y96.955 E0.03392
G1 X137.776 Y96.957 E0.02250
G1 X137.304 Y97.429 E0.02422
G1 X136.692 Y97.424 E0.02223
G1 X137.157 Y96.960 E0.02385
G1 X136.537 Y96.962 E0.02250
G1 X136.079 Y97.419 E0.02348
G1 X135.467 Y97.415 E0.02223
G1 X136.101 Y96.780 E0.03255
M204 S1000
G1 X135.089 Y97.190 F10800.000
G1 F1250
G1 X131.197 Y97.182 E0.20831
G1
G1 X127.306 Y97.175 E0.19372
G1
G1 X123.414 Y97.167 E0.17913
G1
G1 X119.522 Y97.160 E0.16455
G1
G1 X115.631 Y97.152 E0.14996
G1
G1 X111.739 Y97.145 E0.13538
G1 X111.569 Y97.209 E0.00632
G1
G1 X111.456 Y97.252 E0.00547
G1 X111.522 Y97.454 E0.00958
G1
G1 X112.872 Y99.803 E0.11178
G1
G1 X114.850 Y103.244 E0.15318
G1
G1 X116.828 Y106.685 E0.13776
G1
G1 X118.806 Y110.126 E0.12235
G1
G1 X120.783 Y113.567 E0.10693
G1
G1 X122.761 Y117.008 E0.09152
G1
G1 X124.739 Y120.449 E0.07611
G1 X124.811 Y120.479 E0.00149
G1
G1 X124.882 Y120.509 E0.00209
G1
G1 X124.954 Y120.539 E0.00270
G1
G1 X125.026 Y120.569 E0.00330
;BEFORE_LAYER_CHANGE
G92 E0.0
;0.45


G1 E-0.80000 F2100.00000
G1 Z1.000 F10800.000
;AFTER_LAYER_CHANGE
;0.45
G1 X123.599 Y129.488
G1 Z0.450
G1 E0.80000 F2100.00000
G1 F1811
G1 X125.328 Y127.759 E0.07532
G1 X123.697 Y126.127 E0.07106
G1 X120.434 Y129.390 E0.14213
G1 X118.803 Y127.759 E0.07106
G1 X117.172 Y129.390 E0.07106
G1 X122.066 Y124.496 E0.21319
G1 X120.434 Y122.864 E0.07106
G1 X115.540 Y127.759 E0.21319
G1 X113.909 Y126.127 E0.07106
G1 X118.803 Y121.233 E0.21319
G1 X117.172 Y119.602 E0.07106
G1 X120.434 Y116.339 E0.14213
G1 X110.646 Y126.127 E0.42638
G1 X109.015 Y124.496 E0.07106
G1 X119.239 Y114.271 E0.44538
G1 X118.038 Y112.210 E0.07349
G1 X107.383 Y122.864 E0.46412
G1 X110.646 Y119.602 E0.14213
G1 X109.015 Y117.970 E0.07106
G1 X116.837 Y110.148 E0.34074
G1 X115.903 Y108.545 E0.05717
G1 X115.540 Y108.182 E0.01579
G1 X109.015 Y114.708 E0.28425
G1 X107.383 Y113.076 E0.07106
G1 X113.909 Y106.551 E0.28425
G1 X112.278 Y104.920 E0.07106
G1 X105.752 Y111.445 E0.28425
G1 X104.121 Y109.814 E0.07106
G1 X110.646 Y103.288 E0.28425
G1 X107.383 Y106.551 E0.14213
G1 X105.752 Y104.920 E0.07106
G1 X102.489 Y108.182 E0.14213
G1 X100.858 Y106.551 E0.07106
G1 X107.384 Y100.026 E0.28425
G1 X105.752 Y98.394 E0.07106
G1 X99.227 Y104.920 E0.28425
G1 X102.489 Y101.657 E0.14213
G1 X100.858 Y100.026 E0.07106
G1 X104.219 Y96.665 E0.14638
G1 E-0.80000 F2100.00000
G1 Z1.050 F10800.000
G1 X104.023 Y90.335
G1 Z0.450
G1 E0.80000 F2100.00000
G1 F1811
G1 X110.646 Y83.712 E0.28851
G1 X112.278 Y85.343 E0.07106
G1 X117.172 Y80.449 E0.21319
G1 X105.752 Y91.869 E0.49744
M73 P2 R138
G1 X107.383 Y93.500 E0.07106
G1 X118.803 Y82.081 E0.49744
G1 X117.172 Y83.712 E0.07106
G1 X118.803 Y85.343 E0.07106
G1 X115.540 Y88.606 E0.14213
G1 X113.909 Y86.975 E0.07106
G1 X110.646 Y90.237 E0.14212
G1 X112.278 Y91.869 E0.07106
G1 X110.548 Y93.598 E0.07532
G1 E-0.80000 F2100.00000
G1 Z1.050 F10800.000
G1 X120.337 Y87.073
G1 Z0.450
G1 E0.80000 F2100.00000
G1 F1811
G1 X125.328 Y82.081 E0.21745
G1 X126.960 Y83.712 E0.07106
G1 X128.591 Y82.081 E0.07106
G1 X117.172 Y93.500 E0.49744
G1 X118.803 Y95.132 E0.07106
G1 X130.222 Y83.712 E0.49744
G1 X131.854 Y85.343 E0.07106
