; generated by PrusaSlicer 2.1.0+ on 2019-10-25 at 17:21:59 UTC

; 

; external perimeters extrusion width = 0.45mm
; perimeters extrusion width = 0.45mm
; infill extrusion width = 0.45mm
; solid infill extrusion width = 0.45mm
; top infill extrusion width = 0.40mm
; first layer extrusion width = 0.42mm

M73 P0 R19
M201 X9000 Y9000 Z500 E10000 ; sets maximum accelerations, mm/sec^2
M203 X500 Y500 Z12 E120 ; sets maximum feedrates, mm/sec
M204 P2000 R1500 T2000 ; sets acceleration (P, T) and retract acceleration (R), mm/sec^2
M205 X10.00 Y10.00 Z0.20 E2.50 ; sets the jerk limits, mm/sec
M205 S0 T0 ; sets the minimum extruding and travel feed rate, mm/sec
M107
M862.3 P "MK2S" ; printer model check
M862.1 P0.4 ; nozzle diameter check
M115 U3.2.3 ; tell printer latest fw version
G90 ; use absolute coordinates
M83 ; extruder relative mode
M204 S2000 T1500 ; MK2 firmware only supports the old M204 format
M104 S215 ; set extruder temp
M140 S60 ; set bed temp
M190 S60 ; wait for bed temp
M109 S215 ; wait for extruder temp
G28 W ; home all without mesh bed level
G80 ; mesh bed leveling
G1 Y-3.0 F1000.0 ; go outside print area
G92 E0.0
G1 X60.0 E9.0  F1000.0 ; intro line
M73 P0 R19
G1 X100.0 E12.5 F1000.0 ; intro line
G92 E0.0
G21 ; set units to millimeters
G90 ; use absolute coordinates
M83 ; use relative distances for extrusion
M900 K30 ; Filament gcode
;BEFORE_LAYER_CHANGE
G92 E0.0
;0.2


G1 E-0.80000 F2100.00000
G1 Z0.600 F10800.000
;AFTER_LAYER_CHANGE
;0.2
G1 X109.982 Y92.405
G1 Z0.200
G1 E0.80000 F2100.00000
M204 S1000
G1 F1200
G1 X111.353 Y90.932 E0.06309
G1 X112.436 Y89.957 E0.04570
G1 X114.074 Y88.728 E0.06421
G1 X115.801 Y87.693 E0.06312
G1 X117.650 Y86.830 E0.06398
G1 X119.552 Y86.173 E0.06308
G1 X120.969 Y85.820 E0.04579
G1 X122.947 Y85.508 E0.06279
G1 X125.003 Y85.400 E0.06454
G1 X127.040 Y85.507 E0.06395
G1 X129.034 Y85.820 E0.06330
G1 X131.013 Y86.346 E0.06420
G1 X132.376 Y86.842 E0.04548
G1 X134.203 Y87.695 E0.06322
G1 X135.953 Y88.747 E0.06402
G1 X137.589 Y89.978 E0.06420
G1 X139.067 Y91.352 E0.06327
G1 X140.416 Y92.897 E0.06432
G1 X141.272 Y94.074 E0.04562
G1 X142.306 Y95.800 E0.06309
G1 X143.172 Y97.657 E0.06423
G1 X143.838 Y99.590 E0.06411
G1 X144.293 Y101.546 E0.06296
G1 X144.496 Y102.992 E0.04581
G1 X144.600 Y105.002 E0.06309
G1 X144.493 Y107.040 E0.06398
G1 X144.181 Y109.027 E0.06309
G1 X143.656 Y111.006 E0.06420
G1 X143.159 Y112.374 E0.04562
G1 X142.305 Y114.203 E0.06330
G1 X141.253 Y115.953 E0.06402
G1 X140.018 Y117.595 E0.06442
G1 X138.653 Y119.062 E0.06284
G1 X137.564 Y120.043 E0.04595
G1 X135.925 Y121.272 E0.06425
G1 X134.199 Y122.307 E0.06309
G1 X132.344 Y123.172 E0.06417
G1 X130.405 Y123.840 E0.06432
G1 X128.455 Y124.292 E0.06274
G1 X127.017 Y124.495 E0.04553
G1 X125.008 Y124.600 E0.06308
G1 X123.000 Y124.497 E0.06305
G1 X121.553 Y124.294 E0.04582
G1 X119.595 Y123.840 E0.06301
G1 X117.663 Y123.174 E0.06408
G1 X115.807 Y122.310 E0.06420
G1 X114.074 Y121.272 E0.06333
G1 X112.436 Y120.043 E0.06420
G1 X111.353 Y119.068 E0.04570
G1 X109.984 Y117.596 E0.06301
G1 X108.750 Y115.959 E0.06429
G1 X107.695 Y114.203 E0.06423
G1 X106.843 Y112.381 E0.06305
G1 X106.172 Y110.446 E0.06420
G1 X105.821 Y109.039 E0.04548
G1 X105.507 Y107.047 E0.06322
G1 X105.400 Y105.001 E0.06423
G1 X105.507 Y102.954 E0.06429
G1 X105.819 Y100.973 E0.06287
G1 X106.172 Y99.555 E0.04582
G1 X106.842 Y97.624 E0.06407
G1 X107.695 Y95.797 E0.06322
G1 X108.748 Y94.044 E0.06411
G1 X109.946 Y92.453 E0.06245
G1 X110.247 Y92.680 F10800.000
G1 F1200
G1 X111.620 Y91.199 E0.06331
G1 X112.673 Y90.250 E0.04446
G1 X114.279 Y89.045 E0.06296
G1 X115.977 Y88.026 E0.06208
G1 X117.791 Y87.180 E0.06276
G1 X119.658 Y86.535 E0.06194
G1 X121.041 Y86.190 E0.04468
G1 X122.986 Y85.883 E0.06174
G1 X125.002 Y85.777 E0.06330
G1 X127.000 Y85.882 E0.06273
G1 X128.962 Y86.190 E0.06227
G1 X130.903 Y86.706 E0.06297
G1 X132.229 Y87.189 E0.04424
G1 X134.026 Y88.028 E0.06217
G1 X135.742 Y89.059 E0.06278
G1 X137.350 Y90.269 E0.06309
G1 X138.800 Y91.619 E0.06213
G1 X140.123 Y93.135 E0.06309
G1 X140.955 Y94.279 E0.04436
G1 X141.973 Y95.976 E0.06206
G1 X142.822 Y97.797 E0.06300
G1 X143.466 Y99.662 E0.06184
G1 X143.810 Y101.041 E0.04456
G1 X144.118 Y102.992 E0.06193
G1 X144.223 Y105.001 E0.06309
G1 X144.118 Y107.000 E0.06276
G1 X143.811 Y108.955 E0.06206
G1 X143.296 Y110.896 E0.06297
G1 X142.813 Y112.226 E0.04436
G1 X141.972 Y114.026 E0.06227
G1 X140.941 Y115.742 E0.06278
G1 X139.727 Y117.355 E0.06330
G1 X138.386 Y118.795 E0.06170
G1 X137.327 Y119.750 E0.04471
G1 X135.720 Y120.956 E0.06298
G1 X134.023 Y121.974 E0.06206
G1 X132.203 Y122.822 E0.06295
G1 X130.301 Y123.477 E0.06309
G1 X128.383 Y123.922 E0.06173
G1 X126.981 Y124.120 E0.04439
G1 X125.009 Y124.223 E0.06194
G1 X123.033 Y124.121 E0.06203
G1 X121.624 Y123.924 E0.04459
G1 X119.700 Y123.478 E0.06195
G1 X117.804 Y122.825 E0.06284
G1 X115.984 Y121.977 E0.06297
G1 X114.280 Y120.955 E0.06230
G1 X112.673 Y119.750 E0.06297
G1 X111.620 Y118.801 E0.04446
G1 X110.273 Y117.355 E0.06195
G1 X109.063 Y115.748 E0.06306
G1 X108.028 Y114.026 E0.06300
G1 X107.191 Y112.234 E0.06203
G1 X106.533 Y110.336 E0.06297
G1 X106.192 Y108.969 E0.04417
G1 X105.882 Y107.008 E0.06225
G1 X105.777 Y105.002 E0.06300
G1 X105.882 Y102.993 E0.06306
G1 X106.189 Y101.045 E0.06184
G1 X106.533 Y99.665 E0.04459
G1 X107.189 Y97.771 E0.06284
G1 X108.028 Y95.974 E0.06217
G1 X109.060 Y94.256 E0.06287
G1 X110.211 Y92.728 E0.05997
G1 E-0.80000 F2100.00000
G1 Z0.800 F10800.000
G1 X125.000 Y121.125
G1 Z0.200
G1 E0.80000 F2100.00000
G1 F1200
G1 X124.436 Y121.125 E0.01767
G1 X123.398 Y121.054 E0.03262
G1 X122.203 Y120.891 E0.03784
G1 X121.185 Y120.676 E0.03261
G1 X120.008 Y120.344 E0.03835
G1 X119.486 Y120.164 E0.01730
G1 X118.433 Y119.738 E0.03563
G1 X117.931 Y119.504 E0.01734
G1 X116.928 Y118.971 E0.03563
G1 X116.454 Y118.686 E0.01735
G1 X115.590 Y118.106 E0.03261
G1 X114.628 Y117.359 E0.03819
G1 X113.788 Y116.603 E0.03544
G1 X113.013 Y115.800 E0.03499
G1 X112.282 Y114.930 E0.03563
G1 X111.949 Y114.488 E0.01734
G1 X111.317 Y113.550 E0.03547
G1 X110.751 Y112.570 E0.03547
G1 X110.262 Y111.567 E0.03500
G1 X109.871 Y110.603 E0.03261
G1 X109.490 Y109.446 E0.03819
G1 X109.216 Y108.350 E0.03544
G1 X109.023 Y107.251 E0.03499
G1 X108.904 Y106.120 E0.03563
G1 X108.875 Y105.568 E0.01734
G1 X108.875 Y104.432 E0.03563
G1 X108.904 Y103.879 E0.01735
G1 X109.011 Y102.844 E0.03261
G1 X109.219 Y101.639 E0.03835
G1 X109.343 Y101.101 E0.01730
G1 X109.655 Y100.014 E0.03547
G1 X110.042 Y98.951 E0.03547
G1 X110.258 Y98.441 E0.01735
G1 X110.715 Y97.501 E0.03278
G1 X111.025 Y96.936 E0.02022
G1 X111.623 Y95.977 E0.03543
G1 X112.288 Y95.062 E0.03547
G1 X113.006 Y94.207 E0.03499
G1 X113.792 Y93.393 E0.03547
G1 X114.632 Y92.636 E0.03547
G1 X115.062 Y92.288 E0.01734
G1 X115.977 Y91.623 E0.03547
G1 X116.937 Y91.024 E0.03547
G1 X117.420 Y90.756 E0.01734
G1 X118.442 Y90.258 E0.03563
G1 X119.477 Y89.840 E0.03499
G1 X120.553 Y89.490 E0.03549
G1 X121.562 Y89.237 E0.03262
G1 X122.749 Y89.023 E0.03782
G1 X123.880 Y88.904 E0.03563
G1 X124.432 Y88.875 E0.01735
G1 X125.472 Y88.873 E0.03261
G1 X126.688 Y88.954 E0.03820
G1 X127.718 Y89.097 E0.03259
G1 X128.898 Y89.343 E0.03782
G1 X129.986 Y89.655 E0.03547
G1 X131.049 Y90.042 E0.03547
G1 X131.558 Y90.258 E0.01734
G1 X132.580 Y90.756 E0.03563
G1 X133.068 Y91.026 E0.01750
G1 X133.546 Y91.314 E0.01751
G1 X134.410 Y91.894 E0.03261
G1 X135.376 Y92.644 E0.03835
G1 X135.793 Y93.006 E0.01730
G1 X136.607 Y93.792 E0.03547
G1 X137.364 Y94.632 E0.03547
G1 X137.715 Y95.066 E0.01750
G1 X138.051 Y95.512 E0.01750
G1 X138.683 Y96.450 E0.03547
G1 X139.249 Y97.429 E0.03547
G1 X139.502 Y97.927 E0.01750
G1 X139.738 Y98.433 E0.01750
G1 X140.164 Y99.486 E0.03563
G1 X140.344 Y100.009 E0.01734
G1 X140.656 Y101.097 E0.03547
G1 X140.891 Y102.203 E0.03547
G1 X140.977 Y102.749 E0.01734
G1 X141.096 Y103.880 E0.03563
G1 X141.125 Y104.432 E0.01734
G1 X141.125 Y105.563 E0.03547
G1 X141.046 Y106.692 E0.03547
G1 X140.979 Y107.241 E0.01734
G1 X140.782 Y108.360 E0.03563
G1 X140.657 Y108.898 E0.01734
G1 X140.345 Y109.986 E0.03549
G1 X139.991 Y110.965 E0.03262
G1 X139.742 Y111.559 E0.02022
G1 X139.244 Y112.580 E0.03559
G1 X138.686 Y113.546 E0.03499
G1 X138.053 Y114.484 E0.03549
G1 X137.414 Y115.305 E0.03262
G1 X136.610 Y116.205 E0.03782
G1 X135.793 Y116.994 E0.03563
G1 X135.375 Y117.357 E0.01734
G1 X134.484 Y118.054 E0.03549
G1 X133.622 Y118.637 E0.03262
G1 X133.066 Y118.974 E0.02038
G1 X132.580 Y119.244 E0.01745
G1 X131.563 Y119.740 E0.03547
G1 X130.519 Y120.162 E0.03531
G1 X129.443 Y120.512 E0.03547
G1 X128.908 Y120.655 E0.01735
G1 X127.886 Y120.874 E0.03278
G1 X127.249 Y120.978 E0.02023
G1 X126.211 Y121.088 E0.03274
G1 X125.567 Y121.125 E0.02022
G1 X125.060 Y121.125 E0.01589
G1 X125.000 Y121.502 F10800.000
G1 F1200
G1 X124.424 Y121.502 E0.01807
G1 X123.363 Y121.430 E0.03332
G1 X122.134 Y121.262 E0.03890
G1 X121.095 Y121.042 E0.03331
G1 X119.895 Y120.704 E0.03908
G1 X119.354 Y120.517 E0.01794
G1 X118.282 Y120.084 E0.03625
G1 X117.763 Y119.842 E0.01796
G1 X116.742 Y119.299 E0.03625
G1 X116.251 Y119.004 E0.01796
G1 X115.369 Y118.411 E0.03331
G1 X114.386 Y117.649 E0.03902
G1 X113.528 Y116.877 E0.03618
G1 X112.730 Y116.050 E0.03602
G1 X111.987 Y115.165 E0.03625
G1 X111.642 Y114.707 E0.01796
G1 X110.997 Y113.750 E0.03619
G1 X110.420 Y112.750 E0.03619
G1 X109.916 Y111.718 E0.03603
G1 X109.516 Y110.733 E0.03331
G1 X109.127 Y109.551 E0.03902
G1 X108.848 Y108.431 E0.03618
G1 X108.649 Y107.300 E0.03602
G1 X108.528 Y106.150 E0.03625
G1 X108.498 Y105.578 E0.01796
G1 X108.498 Y104.422 E0.03625
G1 X108.528 Y103.850 E0.01796
G1 X108.637 Y102.793 E0.03331
G1 X108.849 Y101.565 E0.03908
G1 X108.978 Y101.007 E0.01794
G1 X109.296 Y99.897 E0.03619
G1 X109.691 Y98.813 E0.03619
G1 X109.914 Y98.285 E0.01796
G1 X110.380 Y97.328 E0.03337
G1 X110.699 Y96.745 E0.02084
G1 X111.311 Y95.766 E0.03618
G1 X111.989 Y94.832 E0.03619
G1 X112.728 Y93.952 E0.03602
G1 X113.530 Y93.122 E0.03619
G1 X114.387 Y92.350 E0.03619
G1 X114.833 Y91.989 E0.01796
G1 X115.766 Y91.311 E0.03619
G1 X116.745 Y90.699 E0.03619
G1 X117.246 Y90.421 E0.01796
G1 X118.285 Y89.914 E0.03625
G1 X119.351 Y89.484 E0.03602
G1 X120.449 Y89.127 E0.03620
G1 X121.479 Y88.869 E0.03332
G1 X122.700 Y88.649 E0.03889
G1 X123.850 Y88.528 E0.03625
G1 X124.422 Y88.498 E0.01796
G1 X125.485 Y88.496 E0.03331
G1 X126.727 Y88.578 E0.03903
G1 X127.779 Y88.724 E0.03330
G1 X128.993 Y88.978 E0.03889
G1 X130.103 Y89.296 E0.03619
G1 X131.187 Y89.691 E0.03619
G1 X131.715 Y89.914 E0.01796
G1 X132.754 Y90.421 E0.03625
G1 X133.256 Y90.700 E0.01801
G1 X133.749 Y90.996 E0.01802
G1 X134.631 Y91.589 E0.03331
G1 X135.616 Y92.352 E0.03908
G1 X136.048 Y92.728 E0.01794
G1 X136.878 Y93.530 E0.03619
G1 X137.650 Y94.387 E0.03619
G1 X138.012 Y94.834 E0.01801
G1 X138.358 Y95.293 E0.01801
G1 X139.003 Y96.250 E0.03619
G1 X139.580 Y97.250 E0.03619
G1 X139.841 Y97.761 E0.01801
G1 X140.084 Y98.282 E0.01801
G1 X140.517 Y99.354 E0.03625
G1 X140.704 Y99.896 E0.01796
G1 X141.022 Y101.005 E0.03619
G1 X141.262 Y102.134 E0.03619
G1 X141.351 Y102.700 E0.01796
G1 X141.472 Y103.850 E0.03625
G1 X141.502 Y104.422 E0.01796
G1 X141.502 Y105.576 E0.03619
G1 X141.422 Y106.728 E0.03619
G1 X141.352 Y107.296 E0.01796
G1 X141.151 Y108.435 E0.03625
G1 X141.022 Y108.993 E0.01796
G1 X140.704 Y110.103 E0.03620
G1 X140.342 Y111.102 E0.03332
G1 X140.085 Y111.715 E0.02084
G1 X139.579 Y112.754 E0.03624
G1 X139.004 Y113.749 E0.03602
G1 X138.359 Y114.706 E0.03620
G1 X137.706 Y115.544 E0.03332
G1 X136.879 Y116.469 E0.03889
G1 X136.048 Y117.272 E0.03625
G1 X135.615 Y117.648 E0.01796
G1 X134.706 Y118.359 E0.03620
G1 X133.826 Y118.954 E0.03332
G1 X133.256 Y119.300 E0.02090
G1 X132.754 Y119.579 E0.01800
G1 X131.716 Y120.085 E0.03619
G1 X130.648 Y120.517 E0.03614
G1 X129.550 Y120.873 E0.03619
G1 X128.996 Y121.022 E0.01796
G1 X127.956 Y121.244 E0.03337
G1 X127.299 Y121.352 E0.02085
G1 X126.241 Y121.464 E0.03336
G1 X125.578 Y121.502 E0.02084
G1 X125.060 Y121.502 E0.01623
G1 X124.797 Y121.158 F10800.000
G1 E-0.80000 F2100.00000
G1 Z0.800 F10800.000
G1 X116.999 Y118.881
G1 Z0.200
G1 E0.80000 F2100.00000
G1 F1200
G1 X111.145 Y113.026 E0.25981
G1 X110.532 Y111.880 F10800.000
G1 F1200
G1 X117.729 Y119.076 E0.31934
G1 X118.058 Y119.251 E0.01169
G1 X118.746 Y119.560 E0.02366
G1 X110.440 Y111.254 E0.36859
G1 X110.092 Y110.373 E0.02971
G1 X119.636 Y119.916 E0.42351
G1 X120.419 Y120.166 E0.02579
G1 X109.831 Y109.577 E0.46989
G1 X109.631 Y108.844 E0.02384
G1 X121.163 Y120.376 E0.51175
G1 X121.848 Y120.527 E0.02200
G1 X109.468 Y108.147 E0.54938
G1 X109.353 Y107.499 E0.02065
G1 X122.501 Y120.646 E0.58342
G1 X123.119 Y120.731 E0.01958
G1 X109.268 Y106.880 E0.61465
G1 X109.205 Y106.283 E0.01882
G1 X123.714 Y120.792 E0.64385
G1 X124.287 Y120.832 E0.01802
G1 X109.165 Y105.710 E0.67104
G1 X109.158 Y105.168 E0.01699
G1 X124.832 Y120.842 E0.69555
G1 X125.365 Y120.842 E0.01675
G1 X109.158 Y104.635 E0.71924
G1 X109.174 Y104.118 E0.01623
G1 X125.881 Y120.824 E0.74136
G1 X126.377 Y120.786 E0.01561
G1 X109.214 Y103.624 E0.76159
G1 X109.265 Y103.141 E0.01526
G1 X126.859 Y120.735 E0.78077
G1 X127.335 Y120.677 E0.01504
G1 X109.328 Y102.670 E0.79908
G1 X109.406 Y102.215 E0.01449
G1 X127.794 Y120.602 E0.81595
G1 X128.235 Y120.510 E0.01415
G1 X109.485 Y101.760 E0.83205
G1 X109.582 Y101.323 E0.01404
G1 X128.674 Y120.416 E0.84725
G1 X129.102 Y120.310 E0.01383
G1 X109.694 Y100.902 E0.86126
G1 X109.813 Y100.487 E0.01354
G1 X129.516 Y120.190 E0.87435
G1 X129.919 Y120.059 E0.01329
G1 X109.934 Y100.074 E0.88688
G1 X110.076 Y99.683 E0.01307
G1 X130.322 Y119.929 E0.89843
G1 X130.708 Y119.781 E0.01296
G1 X110.219 Y99.291 E0.90923
G1 X110.368 Y98.907 E0.01295
G1 X131.088 Y119.627 E0.91949
G1 X131.467 Y119.472 E0.01284
G1 X110.528 Y98.533 E0.92920
G1 X110.702 Y98.174 E0.01253
G1 X131.825 Y119.297 E0.93737
G1 X132.184 Y119.122 E0.01252
G1 X110.877 Y97.815 E0.94555
M73 P5 R18
G1 X111.058 Y97.463 E0.01243
G1 X132.537 Y118.942 E0.95315
G1 X132.874 Y118.745 E0.01225
G1 X111.247 Y97.118 E0.95973
G1 X111.451 Y96.788 E0.01217
G1 X133.212 Y118.549 E0.96567
G1 X133.544 Y118.348 E0.01220
G1 X111.656 Y96.459 E0.97134
G1 X111.861 Y96.131 E0.01215
G1 X133.863 Y118.132 E0.97634
G1 X134.181 Y117.917 E0.01206
G1 X112.086 Y95.822 E0.98050
G1 X112.311 Y95.513 E0.01199
G1 X134.489 Y117.691 E0.98418
G1 X134.788 Y117.457 E0.01193
G1 X112.537 Y95.206 E0.98742
G1 X112.781 Y94.916 E0.01189
G1 X135.088 Y117.223 E0.98991
G1 X135.378 Y116.980 E0.01189
G1 X113.024 Y94.625 E0.99200
G1 X113.272 Y94.339 E0.01187
G1 X135.661 Y116.728 E0.99356
G1 X135.932 Y116.466 E0.01184
G1 X113.534 Y94.068 E0.99397
G1 X113.796 Y93.796 E0.01184
G1 X136.204 Y116.204 E0.99438
G1 X136.470 Y115.937 E0.01184
G1 X114.063 Y93.530 E0.99435
G1 X114.344 Y93.277 E0.01186
G1 X136.722 Y115.655 E0.99307
G1 X136.974 Y115.373 E0.01186
G1 X114.625 Y93.024 E0.99178
G1 X114.910 Y92.775 E0.01187
G1 X137.224 Y115.089 E0.99020
G1 X137.457 Y114.789 E0.01193
G1 X115.205 Y92.537 E0.98748
G1 X115.513 Y92.311 E0.01198
G1 X137.691 Y114.489 E0.98420
G1 X137.917 Y114.181 E0.01198
G1 X115.822 Y92.086 E0.98049
G1 X116.131 Y91.862 E0.01199
G1 X138.132 Y113.862 E0.97632
G1 X138.347 Y113.544 E0.01206
G1 X116.459 Y91.656 E0.97129
G1 X116.787 Y91.451 E0.01215
G1 X138.551 Y113.214 E0.96579
G1 X138.746 Y112.876 E0.01226
G1 X117.117 Y91.247 E0.95981
G1 X117.461 Y91.057 E0.01232
G1 X138.942 Y112.538 E0.95324
G1 X139.122 Y112.184 E0.01245
G1 X117.816 Y90.878 E0.94551
G1 X118.174 Y90.703 E0.01252
G1 X139.297 Y111.826 E0.93736
G1 X139.472 Y111.467 E0.01252
G1 X118.533 Y90.528 E0.92920
G1 X118.559 Y90.515 E0.00092
G1 X118.906 Y90.368 E0.01184
G1 X139.631 Y111.092 E0.91967
G1 X139.782 Y110.710 E0.01290
G1 X119.288 Y90.215 E0.90948
G1 X119.678 Y90.072 E0.01305
G1 X139.924 Y110.318 E0.89847
G1 X140.066 Y109.926 E0.01307
G1 X120.081 Y89.941 E0.88689
G1 X120.483 Y89.810 E0.01329
G1 X140.187 Y109.513 E0.87436
G1 X140.306 Y109.098 E0.01354
G1 X120.901 Y89.694 E0.86110
G1 X121.328 Y89.587 E0.01380
G1 X140.418 Y108.677 E0.84715
G1 X140.515 Y108.241 E0.01403
G1 X121.760 Y89.486 E0.83229
G1 X122.205 Y89.397 E0.01424
G1 X140.595 Y107.787 E0.81609
