; generated by PrusaSlicer 2.1.0+ on 2019-09-19 at 21:10:23 UTC

; 

; external perimeters extrusion width = 0.45mm
; perimeters extrusion width = 0.45mm
; infill extrusion width = 0.45mm
; solid infill extrusion width = 0.45mm
; top infill extrusion width = 0.40mm
; first layer extrusion width = 0.42mm

M73 P0 R14
M201 X9000 Y9000 Z500 E10000 ; sets maximum accelerations, mm/sec^2
M203 X500 Y500 Z12 E120 ; sets maximum feedrates, mm/sec
M204 P2000 R1500 T2000 ; sets acceleration (P, T) and retract acceleration (R), mm/sec^2
M205 X10.00 Y10.00 Z0.20 E2.50 ; sets the jerk limits, mm/sec
M205 S0 T0 ; sets the minimum extruding and travel feed rate, mm/sec
M107
M862.3 P "MK2S" ; printer model check
M862.1 P0.4 ; nozzle diameter check
M115 U3.2.3 ; tell printer latest fw version
G90 ; use absolute coordinates
M83 ; extruder relative mode
M204 S2000 T1500 ; MK2 firmware only supports the old M204 format
M104 S230 ; set extruder temp
M140 S60 ; set bed temp
M190 S60 ; wait for bed temp
M109 S230 ; wait for extruder temp
G28 W ; home all without mesh bed level
G80 ; mesh bed leveling
G1 Y-3.0 F1000.0 ; go outside print area
G92 E0.0
G1 X60.0 E9.0  F1000.0 ; intro line
M73 P0 R14
G1 X100.0 E12.5 F1000.0 ; intro line
G92 E0.0
G21 ; set units to millimeters
G90 ; use absolute coordinates
M83 ; use relative distances for extrusion
M900 K30 ; Filament gcode
;BEFORE_LAYER_CHANGE
G92 E0.0
;0.2


G1 E-0.80000 F2100.00000
G1 Z0.600 F10800.000
;AFTER_LAYER_CHANGE
;0.2
G1 X160.711 Y142.359
G1 Z0.200
G1 E0.80000 F2100.00000
M204 S1000
G1 F1200
G1 X159.851 Y142.537 E0.02754
G1 X117.181 Y142.537 E1.33788
G1 X101.810 Y142.454 E0.48196
G1 X101.196 Y142.353 E0.01953
G1 X100.631 Y142.080 E0.01964
G1 X100.170 Y141.662 E0.01953
G1 X99.845 Y141.131 E0.01953
G1 X88.071 Y92.969 E1.55454
G1 X87.929 Y91.849 E0.03541
G1 X87.954 Y90.760 E0.03416
G1 X88.141 Y89.675 E0.03449
G1 X88.470 Y88.668 E0.03323
G1 X89.170 Y87.345 E0.04693
G1 X90.087 Y86.222 E0.04546
G1 X106.684 Y69.625 E0.73593
G1 X107.498 Y68.927 E0.03361
G1 X108.428 Y68.339 E0.03450
G1 X109.126 Y68.013 E0.02417
G1 X110.074 Y67.699 E0.03130
G1 X111.579 Y67.472 E0.04774
G1 X128.498 Y67.463 E0.53047
G1 X129.636 Y67.552 E0.03578
G1 X130.957 Y67.882 E0.04270
G1 X132.002 Y68.340 E0.03576
G1 X132.940 Y68.935 E0.03484
G1 X154.559 Y85.695 E0.85770
G1 X155.310 Y86.407 E0.03243
G1 X155.809 Y87.009 E0.02454
G1 X156.242 Y87.662 E0.02453
G1 X156.699 Y88.573 E0.03197
G1 X161.937 Y102.005 E0.45203
G1 X162.075 Y102.623 E0.01987
G1 X162.033 Y140.423 E1.18518
G1 X161.926 Y141.029 E0.01930
G1 X161.655 Y141.581 E0.01930
G1 X161.237 Y142.039 E0.01942
G1 X160.763 Y142.328 E0.01742
G1 F8640
G1 X159.851 Y142.537 E-0.21594
G1 X157.495 Y142.537 E-0.54406
G1 E-0.04000 F2100.00000
G1 Z0.800 F10800.000
G1 X137.932 Y125.237
G1 Z0.200
G1 E0.80000 F2100.00000
G1 F1200
G1 X123.776 Y125.161 E0.44386
G1 X123.816 Y117.814 E0.23035
G1 X137.971 Y117.891 E0.44386
G1 X137.932 Y125.177 E0.22847
G1 X138.307 Y125.617 F10800.000
G1 F1200
G1 X123.397 Y125.536 E0.46750
G1 X123.441 Y117.435 E0.25400
G1 X138.351 Y117.516 E0.46750
G1 X138.307 Y125.557 E0.25211
G1 X137.913 Y125.548 F10800.000
G1 F8640
G1 X135.016 Y125.552 E-0.76000
G1 E-0.04000 F2100.00000
G1 Z0.800 F10800.000
G1 X137.854 Y118.773
G1 Z0.200
G1 E0.80000 F2100.00000
G1 F1200
G1 X137.251 Y118.170 E0.02711
G1 X136.707 Y118.167 E0.01729
G1 X137.682 Y119.142 E0.04383
G1 X137.679 Y119.680 E0.01710
G1 X136.163 Y118.164 E0.06815
G1 X135.620 Y118.161 E0.01729
G1 X137.676 Y120.217 E0.09246
G1 X137.673 Y120.755 E0.01710
G1 X135.076 Y118.158 E0.11677
G1 X134.532 Y118.155 E0.01729
G1 X137.670 Y121.293 E0.14109
G1 X137.667 Y121.831 E0.01710
G1 X133.989 Y118.152 E0.16540
G1 X133.445 Y118.149 E0.01729
G1 X137.664 Y122.369 E0.18972
G1 X137.662 Y122.907 E0.01710
G1 X132.901 Y118.146 E0.21403
G1 X132.358 Y118.143 E0.01729
G1 X137.659 Y123.444 E0.23834
G1 X137.656 Y123.982 E0.01710
G1 X131.814 Y118.140 E0.26266
G1 X131.270 Y118.137 E0.01729
G1 X137.653 Y124.520 E0.28697
G1 X137.650 Y124.953 E0.01377
G1 X137.545 Y124.953 E0.00336
G1 X130.727 Y118.135 E0.30656
G1 X130.183 Y118.132 E0.01729
G1 X137.001 Y124.950 E0.30656
G1 X136.457 Y124.947 E0.01729
G1 X129.639 Y118.129 E0.30656
G1 X129.096 Y118.126 E0.01729
G1 X135.914 Y124.944 E0.30656
G1 X135.370 Y124.941 E0.01729
G1 X128.552 Y118.123 E0.30656
G1 X128.008 Y118.120 E0.01729
G1 X134.826 Y124.938 E0.30656
G1 X134.283 Y124.935 E0.01729
G1 X127.465 Y118.117 E0.30656
G1 X126.921 Y118.114 E0.01729
G1 X133.739 Y124.932 E0.30656
G1 X133.195 Y124.929 E0.01729
G1 X126.377 Y118.111 E0.30656
G1 X125.833 Y118.108 E0.01729
G1 X132.652 Y124.926 E0.30656
G1 X132.108 Y124.923 E0.01729
G1 X125.290 Y118.105 E0.30656
G1 X124.746 Y118.102 E0.01729
G1 X131.564 Y124.920 E0.30656
G1 X131.021 Y124.917 E0.01729
G1 X124.202 Y118.099 E0.30656
G1 X124.097 Y118.099 E0.00336
G1 X124.094 Y118.532 E0.01378
G1 X130.477 Y124.914 E0.28697
G1 X129.933 Y124.911 E0.01729
G1 X124.092 Y119.070 E0.26265
G1 X124.089 Y119.608 E0.01710
G1 X129.390 Y124.908 E0.23834
G1 X128.846 Y124.905 E0.01729
G1 X124.086 Y120.145 E0.21402
G1 X124.083 Y120.683 E0.01710
G1 X128.302 Y124.903 E0.18971
G1 X127.758 Y124.900 E0.01729
G1 X124.080 Y121.221 E0.16540
G1 X124.077 Y121.759 E0.01710
G1 X127.215 Y124.897 E0.14108
G1 X126.671 Y124.894 E0.01729
G1 X124.074 Y122.297 E0.11677
G1 X124.071 Y122.834 E0.01710
G1 X126.127 Y124.891 E0.09246
G1 X125.584 Y124.888 E0.01729
G1 X124.068 Y123.372 E0.06814
G1 X124.065 Y123.910 E0.01710
G1 X125.040 Y124.885 E0.04383
G1 X124.496 Y124.882 E0.01729
G1 X123.894 Y124.279 E0.02710
G1 F8640
G1 X124.496 Y124.882 E-0.19684
G1 X125.040 Y124.885 E-0.12554
G1 X124.065 Y123.910 E-0.31831
G1 X124.068 Y123.393 E-0.11931
G1 E-0.04000 F2100.00000
G1 Z0.800 F10800.000
G1 X123.968 Y110.641
G1 Z0.200
G1 E0.80000 F2100.00000
G1 F1200
G1 X123.776 Y110.640 E0.00601
G1 X123.816 Y103.293 E0.23035
G1 X137.971 Y103.370 E0.44386
G1 X137.932 Y110.716 E0.23035
G1 X124.028 Y110.641 E0.43596
G1 X123.397 Y111.015 F10800.000
G1 F1200
G1 X123.441 Y102.914 E0.25400
G1 X138.351 Y102.995 E0.46750
G1 X138.307 Y111.096 E0.25399
G1 X123.457 Y111.015 E0.46562
G1 X123.539 Y110.641 F10800.000
G1 F8640
G1 X123.450 Y107.724 E-0.76000
G1 E-0.04000 F2100.00000
G1 Z0.800 F10800.000
G1 X123.894 Y109.758
G1 Z0.200
G1 E0.80000 F2100.00000
G1 F1200
G1 X124.496 Y110.361 E0.02710
G1 X125.040 Y110.364 E0.01729
G1 X124.065 Y109.389 E0.04383
G1 X124.068 Y108.851 E0.01710
G1 X125.584 Y110.367 E0.06814
G1 X126.127 Y110.370 E0.01729
G1 X124.071 Y108.313 E0.09246
G1 X124.074 Y107.776 E0.01710
G1 X126.671 Y110.373 E0.11677
G1 X127.215 Y110.376 E0.01729
G1 X124.077 Y107.238 E0.14108
G1 X124.080 Y106.700 E0.01710
G1 X127.758 Y110.379 E0.16540
G1 X128.302 Y110.382 E0.01729
G1 X124.083 Y106.162 E0.18971
G1 X124.086 Y105.624 E0.01710
G1 X128.846 Y110.384 E0.21402
G1 X129.390 Y110.387 E0.01729
G1 X124.089 Y105.087 E0.23834
G1 X124.092 Y104.549 E0.01710
G1 X129.933 Y110.390 E0.26265
G1 X130.477 Y110.393 E0.01729
G1 X124.094 Y104.011 E0.28697
G1 X124.097 Y103.578 E0.01378
G1 X124.202 Y103.578 E0.00336
G1 X131.021 Y110.396 E0.30656
G1 X131.564 Y110.399 E0.01729
G1 X124.746 Y103.581 E0.30656
G1 X125.290 Y103.584 E0.01729
G1 X132.108 Y110.402 E0.30656
G1 X132.652 Y110.405 E0.01729
G1 X125.833 Y103.587 E0.30656
G1 X126.377 Y103.590 E0.01729
G1 X133.195 Y110.408 E0.30656
G1 X133.739 Y110.411 E0.01729
G1 X126.921 Y103.593 E0.30656
G1 X127.465 Y103.596 E0.01729
G1 X134.283 Y110.414 E0.30656
G1 X134.826 Y110.417 E0.01729
G1 X128.008 Y103.599 E0.30656
G1 X128.552 Y103.602 E0.01729
G1 X135.370 Y110.420 E0.30656
G1 X135.914 Y110.423 E0.01729
G1 X129.096 Y103.605 E0.30656
G1 X129.639 Y103.608 E0.01729
G1 X136.457 Y110.426 E0.30656
G1 X137.001 Y110.429 E0.01729
G1 X130.183 Y103.611 E0.30656
G1 X130.727 Y103.613 E0.01729
G1 X137.545 Y110.432 E0.30656
G1 X137.650 Y110.432 E0.00336
G1 X137.653 Y109.999 E0.01377
G1 X131.270 Y103.616 E0.28697
G1 X131.814 Y103.619 E0.01729
G1 X137.656 Y109.461 E0.26266
G1 X137.659 Y108.923 E0.01710
G1 X132.358 Y103.622 E0.23834
G1 X132.901 Y103.625 E0.01729
G1 X137.662 Y108.386 E0.21403
G1 X137.664 Y107.848 E0.01710
G1 X133.445 Y103.628 E0.18972
G1 X133.989 Y103.631 E0.01729
G1 X137.667 Y107.310 E0.16540
G1 X137.670 Y106.772 E0.01710
G1 X134.532 Y103.634 E0.14109
G1 X135.076 Y103.637 E0.01729
G1 X137.673 Y106.234 E0.11677
G1 X137.676 Y105.696 E0.01710
G1 X135.620 Y103.640 E0.09246
G1 X136.163 Y103.643 E0.01729
G1 X137.679 Y105.159 E0.06815
G1 X137.682 Y104.621 E0.01710
G1 X136.707 Y103.646 E0.04383
G1 X137.251 Y103.649 E0.01729
G1 X137.854 Y104.252 E0.02711
G1 F8640
G1 X137.251 Y103.649 E-0.19687
G1 X136.707 Y103.646 E-0.12554
G1 X137.682 Y104.621 E-0.31834
G1 X137.679 Y105.137 E-0.11924
G1 E-0.04000 F2100.00000
G1 Z0.800 F10800.000
G1 X137.897 Y96.195
G1 Z0.200
G1 E0.80000 F2100.00000
G1 F1200
G1 X123.776 Y96.119 E0.44277
G1 X123.816 Y88.772 E0.23035
G1 X137.971 Y88.849 E0.44386
G1 X137.932 Y96.170 E0.22955
G1 X138.307 Y96.575 F10800.000
G1 F1200
G1 X123.397 Y96.494 E0.46750
G1 X123.441 Y88.393 E0.25400
G1 X138.351 Y88.474 E0.46750
G1 X138.307 Y96.515 E0.25211
G1 X137.913 Y96.506 F10800.000
G1 F8640
G1 X135.016 Y96.510 E-0.76000
G1 E-0.04000 F2100.00000
G1 Z0.800 F10800.000
G1 X137.854 Y89.731
G1 Z0.200
G1 E0.80000 F2100.00000
G1 F1200
G1 X137.251 Y89.128 E0.02711
G1 X136.707 Y89.125 E0.01729
G1 X137.682 Y90.100 E0.04383
G1 X137.679 Y90.638 E0.01710
G1 X136.163 Y89.122 E0.06815
G1 X135.620 Y89.119 E0.01729
G1 X137.676 Y91.175 E0.09246
M73 P7 R13
G1 X137.673 Y91.713 E0.01710
G1 X135.076 Y89.116 E0.11677
G1 X134.532 Y89.113 E0.01729
G1 X137.670 Y92.251 E0.14109
G1 X137.667 Y92.789 E0.01710
G1 X133.989 Y89.110 E0.16540
G1 X133.445 Y89.107 E0.01729
G1 X137.664 Y93.327 E0.18972
G1 X137.662 Y93.864 E0.01710
G1 X132.901 Y89.104 E0.21403
G1 X132.358 Y89.101 E0.01729
G1 X137.659 Y94.402 E0.23834
G1 X137.656 Y94.940 E0.01710
G1 X131.814 Y89.098 E0.26266
G1 X131.270 Y89.095 E0.01729
G1 X137.653 Y95.478 E0.28697
G1 X137.650 Y95.911 E0.01377
G1 X137.545 Y95.911 E0.00336
G1 X130.727 Y89.092 E0.30656
G1 X130.183 Y89.090 E0.01729
G1 X137.001 Y95.908 E0.30656
G1 X136.457 Y95.905 E0.01729
G1 X129.639 Y89.087 E0.30656
G1 X129.096 Y89.084 E0.01729
G1 X135.914 Y95.902 E0.30656
G1 X135.370 Y95.899 E0.01729
G1 X128.552 Y89.081 E0.30656
G1 X128.008 Y89.078 E0.01729
G1 X134.826 Y95.896 E0.30656
G1 X134.283 Y95.893 E0.01729
G1 X127.465 Y89.075 E0.30656
G1 X126.921 Y89.072 E0.01729
G1 X133.739 Y95.890 E0.30656
G1 X133.195 Y95.887 E0.01729
G1 X126.377 Y89.069 E0.30656
G1 X125.833 Y89.066 E0.01729
G1 X132.652 Y95.884 E0.30656
G1 X132.108 Y95.881 E0.01729
G1 X125.290 Y89.063 E0.30656
G1 X124.746 Y89.060 E0.01729
G1 X131.564 Y95.878 E0.30656
G1 X131.021 Y95.875 E0.01729
G1 X124.202 Y89.057 E0.30656
G1 X124.097 Y89.057 E0.00336
G1 X124.094 Y89.490 E0.01378
G1 X130.477 Y95.872 E0.28697
G1 X129.933 Y95.869 E0.01729
G1 X124.092 Y90.028 E0.26265
G1 X124.089 Y90.566 E0.01710
G1 X129.390 Y95.866 E0.23834
G1 X128.846 Y95.863 E0.01729
G1 X124.086 Y91.103 E0.21402
G1 X124.083 Y91.641 E0.01710
G1 X128.302 Y95.861 E0.18971
G1 X127.758 Y95.858 E0.01729
G1 X124.080 Y92.179 E0.16540
G1 X124.077 Y92.717 E0.01710
G1 X127.215 Y95.855 E0.14108
G1 X126.671 Y95.852 E0.01729
G1 X124.074 Y93.255 E0.11677
G1 X124.071 Y93.792 E0.01710
G1 X126.127 Y95.849 E0.09246
G1 X125.584 Y95.846 E0.01729
G1 X124.068 Y94.330 E0.06814
G1 X124.065 Y94.868 E0.01710
G1 X125.040 Y95.843 E0.04383
G1 X124.496 Y95.840 E0.01729
G1 X123.894 Y95.237 E0.02710
G1 F8640
G1 X124.496 Y95.840 E-0.19684
G1 X125.040 Y95.843 E-0.12554
G1 X124.065 Y94.868 E-0.31831
G1 X124.068 Y94.351 E-0.11931
G1 E-0.04000 F2100.00000
G1 Z0.800 F10800.000
G1 X116.641 Y103.370
G1 Z0.200
G1 E0.80000 F2100.00000
G1 F1200
G1 X116.601 Y110.716 E0.23035
G1 X102.445 Y110.640 E0.44386
G1 X102.485 Y103.293 E0.23035
G1 X116.581 Y103.370 E0.44197
G1 X117.020 Y102.995 F10800.000
G1 F1200
G1 X116.976 Y111.096 E0.25399
G1 X102.066 Y111.015 E0.46750
G1 X102.110 Y102.914 E0.25400
G1 X116.960 Y102.995 E0.46562
G1 X116.878 Y103.369 F10800.000
G1 F8640
G1 X116.967 Y106.286 E-0.76000
G1 E-0.04000 F2100.00000
G1 Z0.800 F10800.000
G1 X116.523 Y104.252
G1 Z0.200
G1 E0.80000 F2100.00000
G1 F1200
G1 X115.920 Y103.649 E0.02711
G1 X115.376 Y103.646 E0.01729
G1 X116.351 Y104.621 E0.04383
G1 X116.348 Y105.159 E0.01710
G1 X114.833 Y103.643 E0.06815
G1 X114.289 Y103.640 E0.01729
G1 X116.345 Y105.696 E0.09246
G1 X116.343 Y106.234 E0.01710
G1 X113.745 Y103.637 E0.11677
G1 X113.202 Y103.634 E0.01729
G1 X116.340 Y106.772 E0.14109
G1 X116.337 Y107.310 E0.01710
G1 X112.658 Y103.631 E0.16540
G1 X112.114 Y103.628 E0.01729
G1 X116.334 Y107.848 E0.18972
G1 X116.331 Y108.386 E0.01710
G1 X111.571 Y103.625 E0.21403
G1 X111.027 Y103.622 E0.01729
G1 X116.328 Y108.923 E0.23834
G1 X116.325 Y109.461 E0.01710
G1 X110.483 Y103.619 E0.26266
G1 X109.940 Y103.616 E0.01729
G1 X116.322 Y109.999 E0.28697
G1 X116.320 Y110.432 E0.01377
G1 X116.214 Y110.432 E0.00336
G1 X109.396 Y103.613 E0.30656
G1 X108.852 Y103.611 E0.01729
G1 X115.670 Y110.429 E0.30656
G1 X115.127 Y110.426 E0.01729
G1 X108.309 Y103.608 E0.30656
G1 X107.765 Y103.605 E0.01729
G1 X114.583 Y110.423 E0.30656
G1 X114.039 Y110.420 E0.01729
G1 X107.221 Y103.602 E0.30656
G1 X106.678 Y103.599 E0.01729
G1 X113.496 Y110.417 E0.30656
G1 X112.952 Y110.414 E0.01729
G1 X106.134 Y103.596 E0.30656
G1 X105.590 Y103.593 E0.01729
G1 X112.408 Y110.411 E0.30656
G1 X111.865 Y110.408 E0.01729
G1 X105.047 Y103.590 E0.30656
G1 X104.503 Y103.587 E0.01729
G1 X111.321 Y110.405 E0.30656
G1 X110.777 Y110.402 E0.01729
G1 X103.959 Y103.584 E0.30656
G1 X103.416 Y103.581 E0.01729
G1 X110.234 Y110.399 E0.30656
G1 X109.690 Y110.396 E0.01729
G1 X102.872 Y103.578 E0.30656
G1 X102.766 Y103.578 E0.00336
G1 X102.764 Y104.011 E0.01378
G1 X109.146 Y110.393 E0.28697
G1 X108.603 Y110.390 E0.01729
G1 X102.761 Y104.549 E0.26265
G1 X102.758 Y105.087 E0.01710
G1 X108.059 Y110.387 E0.23834
G1 X107.515 Y110.384 E0.01729
G1 X102.755 Y105.624 E0.21402
G1 X102.752 Y106.162 E0.01710
G1 X106.972 Y110.382 E0.18971
G1 X106.428 Y110.379 E0.01729
G1 X102.749 Y106.700 E0.16540
G1 X102.746 Y107.238 E0.01710
G1 X105.884 Y110.376 E0.14108
G1 X105.341 Y110.373 E0.01729
G1 X102.743 Y107.776 E0.11677
G1 X102.741 Y108.313 E0.01710
G1 X104.797 Y110.370 E0.09246
G1 X104.253 Y110.367 E0.01729
G1 X102.738 Y108.851 E0.06814
G1 X102.735 Y109.389 E0.01710
G1 X103.710 Y110.364 E0.04383
G1 X103.166 Y110.361 E0.01729
G1 X102.563 Y109.758 E0.02710
G1 F8640
G1 X103.166 Y110.361 E-0.19684
G1 X103.710 Y110.364 E-0.12554
G1 X102.735 Y109.389 E-0.31831
G1 X102.738 Y108.872 E-0.11931
G1 E-0.04000 F2100.00000
G1 Z0.800 F10800.000
G1 X102.519 Y117.814
G1 Z0.200
G1 E0.80000 F2100.00000
G1 F1200
G1 X116.641 Y117.891 E0.44277
G1 X116.601 Y125.237 E0.23035
G1 X102.445 Y125.161 E0.44386
G1 X102.485 Y117.840 E0.22955
G1 X102.110 Y117.435 F10800.000
G1 F1200
G1 X117.020 Y117.516 E0.46750
G1 X116.976 Y125.617 E0.25399
G1 X102.066 Y125.536 E0.46750
G1 X102.110 Y117.495 E0.25211
G1 X102.504 Y117.503 F10800.000
G1 F8640
G1 X105.401 Y117.500 E-0.76000
G1 E-0.04000 F2100.00000
G1 Z0.800 F10800.000
G1 X102.563 Y124.279
G1 Z0.200
G1 E0.80000 F2100.00000
G1 F1200
G1 X103.166 Y124.882 E0.02710
G1 X103.710 Y124.885 E0.01729
G1 X102.735 Y123.910 E0.04383
G1 X102.738 Y123.372 E0.01710
G1 X104.253 Y124.888 E0.06814
G1 X104.797 Y124.891 E0.01729
G1 X102.741 Y122.834 E0.09246
G1 X102.743 Y122.297 E0.01710
G1 X105.341 Y124.894 E0.11677
G1 X105.884 Y124.897 E0.01729
G1 X102.746 Y121.759 E0.14108
G1 X102.749 Y121.221 E0.01710
G1 X106.428 Y124.900 E0.16540
G1 X106.972 Y124.903 E0.01729
G1 X102.752 Y120.683 E0.18971
G1 X102.755 Y120.145 E0.01710
G1 X107.515 Y124.905 E0.21402
G1 X108.059 Y124.908 E0.01729
G1 X102.758 Y119.608 E0.23834
G1 X102.761 Y119.070 E0.01710
G1 X108.603 Y124.911 E0.26265
G1 X109.146 Y124.914 E0.01729
G1 X102.764 Y118.532 E0.28697
G1 X102.766 Y118.099 E0.01378
G1 X102.872 Y118.099 E0.00336
G1 X109.690 Y124.917 E0.30656
G1 X110.234 Y124.920 E0.01729
G1 X103.416 Y118.102 E0.30656
G1 X103.959 Y118.105 E0.01729
G1 X110.777 Y124.923 E0.30656
G1 X111.321 Y124.926 E0.01729
