; generated by PrusaSlicer 2.3.1+win64 on 2022-01-13 at 16:10:29 UTC

; 

; external perimeters extrusion width = 0.45mm
; perimeters extrusion width = 0.45mm
; infill extrusion width = 0.45mm
; solid infill extrusion width = 0.45mm
; top infill extrusion width = 0.40mm
; first layer extrusion width = 0.42mm

M73 P0 R21
M201 X9000 Y9000 Z500 E10000 ; sets maximum accelerations, mm/sec^2
M203 X500 Y500 Z12 E120 ; sets maximum feedrates, mm/sec
M204 P2000 R1500 T2000 ; sets acceleration (P, T) and retract acceleration (R), mm/sec^2
M205 X10.00 Y10.00 Z0.20 E2.50 ; sets the jerk limits, mm/sec
M205 S0 T0 ; sets the minimum extruding and travel feed rate, mm/sec
M107
;TYPE:Custom
M862.3 P "MK2.5SMMU2S" ; printer model check
M862.1 P0.4 ; nozzle diameter check
M115 U3.8.0 ; tell printer latest fw version
G90 ; use absolute coordinates
M83 ; extruder relative mode
M104 S215 ; set extruder temp
M140 S60 ; set bed temp
Tx
M190 S60 ; wait for bed temp
M109 S215 ; wait for extruder temp
G28 W ; home all without mesh bed level
G80 ; mesh bed leveling

G21 ; set units to millimeters

;go outside print area
G1 Y-3.0 F1000.0
G1 Z0.4 F1000.0
; select extruder
Tc
; purge line
G1 X55.0 F2000.0
G1 Z0.3 F1000.0
G92 E0.0
G1 X240.0 E25.0 F2200.0
G1 Y-2.0 F1000.0
G1 X55.0 E25 F1400.0
M73 P1 R21
G1 Z0.20 F1000.0
G1 X5.0 E4.0 F1000.0
G92 E0.0
G21 ; set units to millimeters
G90 ; use absolute coordinates
M83 ; use relative distances for extrusion
M900 K0.05 ; Filament gcode LA 1.5
M900 K30 ; Filament gcode LA 1.0
;LAYER_CHANGE
;Z:0.2
;HEIGHT:0.2
;BEFORE_LAYER_CHANGE
G92 E0.0
;0.2


G1 E-0.80000 F2100.000
G1 Z0.600 F10800.000
;AFTER_LAYER_CHANGE
;0.2
G1 X118.523 Y94.277
G1 Z0.200
G1 E0.80000 F2100.000
M204 S1000
;TYPE:Skirt
;WIDTH:0.42
G1 F1200.000
G1 X118.801 Y93.492 E0.02610
G1 X119.165 Y92.937 E0.02080
G1 X119.637 Y92.472 E0.02080
G1 X120.197 Y92.116 E0.02080
G1 X120.819 Y91.886 E0.02080
G1 X128.552 Y91.024 E0.24396
G1 X129.540 Y91.185 E0.03139
G1 X130.430 Y91.652 E0.03153
G1 X131.124 Y92.374 E0.03139
G1 X131.554 Y93.278 E0.03139
G1 X132.549 Y101.907 E0.27235
G1 X132.489 Y102.746 E0.02637
G1 X132.208 Y103.539 E0.02637
G1 X131.815 Y104.127 E0.02216
G1 X131.298 Y104.614 E0.02229
G1 X130.683 Y104.972 E0.02229
G1 X130.008 Y105.182 E0.02216
G1 X122.628 Y106.001 E0.23282
G1 X121.802 Y105.936 E0.02597
G1 X121.027 Y105.658 E0.02583
G1 X120.432 Y105.260 E0.02243
G1 X119.944 Y104.738 E0.02243
G1 X119.588 Y104.122 E0.02229
G1 X119.380 Y103.438 E0.02243
G1 X118.461 Y95.103 E0.26292
G1 X118.518 Y94.337 E0.02409
G1 X118.893 Y94.365 F10800.000
G1 F1200.000
G1 X119.154 Y93.632 E0.02440
G1 X119.481 Y93.147 E0.01835
G1 X119.904 Y92.742 E0.01835
G1 X120.399 Y92.437 E0.01822
G1 X120.951 Y92.242 E0.01835
G1 X128.551 Y91.401 E0.23977
G1 X129.433 Y91.547 E0.02803
G1 X130.219 Y91.965 E0.02790
G1 X130.830 Y92.612 E0.02790
G1 X131.204 Y93.424 E0.02803
G1 X132.172 Y101.923 E0.26822
G1 X132.117 Y102.682 E0.02383
G1 X131.857 Y103.396 E0.02383
G1 X131.506 Y103.909 E0.01950
G1 X131.045 Y104.332 E0.01963
G1 X130.504 Y104.639 E0.01950
G1 X129.908 Y104.817 E0.01950
G1 X122.614 Y105.624 E0.23009
G1 X121.872 Y105.565 E0.02333
G1 X121.170 Y105.308 E0.02345
G1 X120.654 Y104.954 E0.01963
G1 X120.229 Y104.489 E0.01975
G1 X119.922 Y103.943 E0.01963
G1 X119.746 Y103.343 E0.01963
G1 X118.838 Y95.092 E0.26026
G1 X118.889 Y94.425 E0.02097
G1 X119.267 Y94.405 F10800.000
G1 F1200.000
G1 X119.504 Y93.777 E0.02107
G1 X119.793 Y93.362 E0.01585
G1 X120.161 Y93.020 E0.01574
G1 X120.595 Y92.762 E0.01585
G1 X121.075 Y92.601 E0.01585
G1 X128.552 Y91.778 E0.23585
G1 X129.322 Y91.907 E0.02449
G1 X130.006 Y92.277 E0.02437
G1 X130.534 Y92.848 E0.02437
G1 X130.850 Y93.562 E0.02449
G1 X131.796 Y101.945 E0.26450
M73 P2 R21
G1 X131.745 Y102.618 E0.02119
G1 X131.507 Y103.251 E0.02119
G1 X131.197 Y103.688 E0.01680
G1 X130.798 Y104.045 E0.01680
G1 X130.332 Y104.302 E0.01668
G1 X129.817 Y104.450 E0.01680
G1 X122.602 Y105.247 E0.22758
M73 P2 R20
G1 X121.936 Y105.193 E0.02095
G1 X121.315 Y104.958 E0.02083
G1 X120.875 Y104.646 E0.01692
G1 X120.518 Y104.245 E0.01680
G1 X120.259 Y103.772 E0.01692
G1 X120.114 Y103.256 E0.01680
G1 X119.215 Y95.075 E0.25805
G1 X119.262 Y94.465 E0.01919
G1 E-0.80000 F2100.000
G1 Z0.800 F10800.000
G1 X124.192 Y89.984
G1 Z0.200
G1 E0.80000 F2100.000
G1 F1200.000
G1 X123.461 Y89.971 E0.02293
G1 X120.668 Y90.278 E0.08811
G1 X119.583 Y90.619 E0.03565
G1 X118.247 Y91.555 E0.05117
G1 X117.515 Y92.500 E0.03747
G1 X117.044 Y93.554 E0.03621
G1 X116.857 Y94.979 E0.04506
G1 X117.836 Y103.892 E0.28113
G1 X118.281 Y105.113 E0.04076
G1 X119.016 Y106.114 E0.03893
G1 X120.022 Y106.931 E0.04064
G1 X121.043 Y107.398 E0.03521
G1 X122.146 Y107.602 E0.03517
G1 X125.452 Y107.279 E0.10413
G1 X126.297 Y107.029 E0.02765
G1 X126.480 Y106.937 E0.00640
G1 X127.351 Y107.063 E0.02762
G1 X130.435 Y106.737 E0.09723
G1 X131.663 Y106.291 E0.04096
G1 X132.646 Y105.575 E0.03814
G1 X133.429 Y104.647 E0.03806
G1 X134.039 Y103.212 E0.04890
G1 X134.156 Y102.083 E0.03557
G1 X134.032 Y100.888 E0.03768
G1 X133.527 Y99.484 E0.04679
G1 X132.274 Y97.873 E0.06398
G1 E-0.80000 F2100.000
G1 Z0.800 F10800.000
G1 X130.956 Y96.179
G1 Z0.200
G1 E0.80000 F2100.000
G1 F1200.000
G1 X129.052 Y93.731 E0.09722
G1 X128.097 Y92.963 E0.03843
G1 X127.948 Y92.882 E0.00531
G1 X127.818 Y92.563 E0.01077
G1 X127.473 Y92.086 E0.01847
G1 X126.523 Y91.060 F10800.000
G1 F1200.000
G1 X125.674 Y90.444 E0.03289
G1 X124.192 Y89.984 E0.04865
G1 X123.490 Y90.347 F10800.000
G1 F1200.000
G1 X120.727 Y90.651 E0.08717
G1 X119.773 Y90.946 E0.03128
G1 X118.525 Y91.810 E0.04760
G1 X117.850 Y92.675 E0.03441
G1 X117.400 Y93.683 E0.03461
G1 X117.234 Y94.960 E0.04039
G1 X118.208 Y103.827 E0.27969
G1 X118.625 Y104.956 E0.03774
G1 X119.304 Y105.869 E0.03566
G1 X120.240 Y106.622 E0.03767
G1 X121.135 Y107.032 E0.03085
G1 X122.188 Y107.226 E0.03359
G1 X125.396 Y106.905 E0.10106
G1 X126.169 Y106.674 E0.02530
G1 X126.411 Y106.545 E0.00861
G1 X127.336 Y106.685 E0.02936
G1 X130.372 Y106.365 E0.09570
G1 X131.507 Y105.947 E0.03792
G1 X132.404 Y105.286 E0.03494
G1 X133.121 Y104.428 E0.03506
G1 X133.679 Y103.093 E0.04536
G1 X133.779 Y102.067 E0.03233
G1 X133.660 Y100.951 E0.03518
G1 X133.183 Y99.641 E0.04372
G1 X132.355 Y98.580 E0.04219
G1 E-0.80000 F2100.000
G1 Z0.800 F10800.000
G1 X131.036 Y96.888
G1 Z0.200
G1 E0.80000 F2100.000
G1 F1200.000
G1 X128.768 Y93.981 E0.11559
G1 X127.879 Y93.272 E0.03565
G1 X127.648 Y93.154 E0.00814
G1 X127.496 Y92.761 E0.01321
G1 X127.047 Y92.133 E0.02420
G1 X125.975 Y91.121 F10800.000
G1 F1200.000
G1 X125.530 Y90.794 E0.01733
G1 X124.157 Y90.360 E0.04515
G1 X123.490 Y90.347 E0.02092
G1 X124.120 Y90.737 F10800.000
G1 F1200.000
G1 X123.519 Y90.723 E0.01888
G1 X120.785 Y91.023 E0.08624
G1 X119.962 Y91.273 E0.02697
G1 X118.804 Y92.066 E0.04397
G1 X118.162 Y92.888 E0.03274
G1 X117.756 Y93.809 E0.03155
G1 X117.612 Y94.941 E0.03578
G1 X118.580 Y103.762 E0.27825
G1 X118.968 Y104.798 E0.03467
G1 X119.590 Y105.622 E0.03238
G1 X120.456 Y106.312 E0.03471
G1 X121.268 Y106.678 E0.02792
G1 X122.228 Y106.851 E0.03060
G1 X125.338 Y106.532 E0.09803
G1 X126.038 Y106.320 E0.02291
G1 X126.340 Y106.151 E0.01085
G1 X127.322 Y106.308 E0.03119
G1 X130.308 Y105.992 E0.09414
G1 X131.349 Y105.604 E0.03483
G1 X132.159 Y104.998 E0.03173
G1 X132.812 Y104.210 E0.03208
G1 X133.320 Y102.977 E0.04180
G1 X133.401 Y102.053 E0.02908
G1 X133.288 Y101.016 E0.03272
G1 X132.839 Y99.799 E0.04066
G1 X132.436 Y99.284 E0.02051
G1 E-0.80000 F2100.000
G1 Z0.800 F10800.000
G1 X131.115 Y97.594
G1 Z0.200
G1 E0.80000 F2100.000
G1 F1200.000
G1 X128.486 Y94.231 E0.13385
G1 X127.664 Y93.582 E0.03283
G1 X127.345 Y93.429 E0.01108
G1 X127.173 Y92.956 E0.01580
G1 X126.625 Y92.180 E0.02978
G1 X125.436 Y91.182 F10800.000
G1 F1200.000
G1 X125.384 Y91.143 E0.00203
G1 X124.120 Y90.737 E0.04162
G1 X123.547 Y91.099 F10800.000
G1 F1200.000
G1 X124.083 Y91.113 E0.01680
G1 X124.582 Y91.277 E0.01650
G1 X123.547 Y91.099 F10800.000
G1 F1200.000
G1 X120.842 Y91.397 E0.08532
G1 X120.148 Y91.603 E0.02271
G1 X119.081 Y92.323 E0.04035
G1 X118.497 Y93.063 E0.02956
G1 X118.112 Y93.936 E0.02992
G1 X117.989 Y94.922 E0.03115
G1 X118.952 Y103.697 E0.27679
G1 X119.310 Y104.637 E0.03154
G1 X119.874 Y105.374 E0.02909
G1 X120.670 Y106.001 E0.03176
G1 X121.398 Y106.324 E0.02499
G1 X122.266 Y106.475 E0.02763
G1 X125.280 Y106.159 E0.09501
G1 X125.904 Y105.966 E0.02048
G1 X126.202 Y105.794 E0.01077
G1 X126.378 Y105.775 F10800.000
G1 F1200.000
G1 X127.309 Y105.930 E0.02959
G1 X130.244 Y105.620 E0.09254
G1 X131.189 Y105.261 E0.03169
G1 X131.913 Y104.712 E0.02850
G1 X132.501 Y103.994 E0.02911
G1 X132.959 Y102.863 E0.03824
G1 X133.025 Y102.077 E0.02474
G1 X132.915 Y101.081 E0.03142
G1 X132.522 Y100.027 E0.03527
G1 E-0.80000 F2100.000
G1 Z0.800 F10800.000
G1 X131.195 Y98.298
G1 Z0.200
M73 P3 R20
G1 E0.80000 F2100.000
G1 F1200.000
G1 X128.203 Y94.483 E0.15202
G1 X127.451 Y93.894 E0.02995
G1 X127.041 Y93.706 E0.01414
G1 X126.847 Y93.148 E0.01852
G1 X126.206 Y92.226 E0.03521
G1 E-0.80000 F2100.000
G1 Z0.800 F10800.000
G1 X131.274 Y98.999
G1 Z0.200
G1 E0.80000 F2100.000
G1 F1200.000
G1 X127.922 Y94.734 E0.17008
G1 X127.240 Y94.208 E0.02702
G1 X126.735 Y93.984 E0.01730
G1 X126.520 Y93.337 E0.02139
G1 X125.953 Y92.506 E0.03154
G1 X125.666 Y92.285 E0.01136
G1 E-0.80000 F2100.000
G1 Z0.800 F10800.000
G1 X131.353 Y99.697
G1 Z0.200
G1 E0.80000 F2100.000
G1 F1200.000
G1 X127.641 Y94.987 E0.18804
G1 X127.031 Y94.522 E0.02403
G1 X126.372 Y94.240 E0.02248
G1 X126.328 Y93.927 E0.00993
G1 X126.193 Y93.526 E0.01327
G1 X125.696 Y92.783 E0.02801
G1 X125.135 Y92.344 E0.02234
G1 X124.476 Y92.416 F10800.000
G1 F1200.000
G1 X124.724 Y92.500 E0.00819
G1 X125.439 Y93.061 E0.02850
G1 X125.843 Y93.669 E0.02289
G1 X125.964 Y94.028 E0.01186
G1 X126.031 Y94.566 E0.01701
G1 X126.309 Y94.624 E0.00892
G1 X126.825 Y94.839 E0.01752
G1 X127.360 Y95.241 E0.02099
G1 X131.431 Y100.393 E0.20589
G1 E-0.80000 F2100.000
G1 Z0.800 F10800.000
G1 X126.515 Y104.625
G1 Z0.200
G1 E0.80000 F2100.000
G1 F1200.000
G1 X126.144 Y104.457 E0.01278
G1 X125.999 Y104.594 E0.00626
G1 X125.823 Y104.702 E0.00646
G1 E-0.80000 F2100.000
G1 Z0.800 F10800.000
G1 X125.687 Y94.892
G1 Z0.200
G1 E0.80000 F2100.000
G1 F1200.000
G1 X126.185 Y94.981 E0.01587
G1 X126.658 Y95.178 E0.01607
G1 X127.080 Y95.494 E0.01652
G1 X131.133 Y100.612 E0.20471
G1 X131.427 Y101.346 E0.02478
G1 X131.519 Y102.181 E0.02635
G1 X131.508 Y102.439 E0.00808
G1 X131.250 Y103.144 E0.02354
G1 X130.851 Y103.642 E0.02000
G1 X130.523 Y103.904 E0.01318
G1 X129.979 Y104.131 E0.01848
G1 X127.264 Y104.418 E0.08560
G1 X126.707 Y104.303 E0.01781
G1 X126.486 Y104.203 E0.00762
G1 X126.103 Y103.913 E0.01505
G1 X125.770 Y104.292 E0.01580
G1 X125.277 Y104.594 E0.01813
G1 X125.009 Y104.675 E0.00879
G1 X122.362 Y104.968 E0.08350
G1 X121.785 Y104.865 E0.01838
G1 X121.516 Y104.749 E0.00919
G1 X120.932 Y104.299 E0.02311
G1 X120.666 Y103.969 E0.01328
G1 X120.440 Y103.427 E0.01842
G1 X119.497 Y94.840 E0.27084
G1 X119.543 Y94.423 E0.01318
G1 X119.767 Y93.879 E0.01842
G1 X120.182 Y93.361 E0.02082
G1 X120.814 Y92.956 E0.02354
G1 X121.063 Y92.890 E0.00808
G1 X123.656 Y92.605 E0.08177
G1 X123.915 Y92.616 E0.00812
G1 X124.567 Y92.844 E0.02167
G1 X125.179 Y93.336 E0.02461
G1 X125.493 Y93.813 E0.01791
G1 X125.600 Y94.128 E0.01045
G1 X125.680 Y94.832 E0.02220
G1 X125.355 Y95.311 F10800.000
G1 F1200.000
G1 X125.731 Y95.283 E0.01180
G1 X126.062 Y95.337 E0.01051
G1 X126.492 Y95.517 E0.01461
G1 X126.800 Y95.748 E0.01207
G1 X130.795 Y100.781 E0.20149
G1 X131.055 Y101.414 E0.02147
G1 X131.142 Y102.207 E0.02499
G1 X131.133 Y102.391 E0.00579
G1 X130.936 Y102.932 E0.01806
G1 X130.569 Y103.390 E0.01841
G1 X130.348 Y103.569 E0.00892
G1 X129.909 Y103.759 E0.01498
G1 X127.255 Y104.040 E0.08370
G1 X126.846 Y103.952 E0.01311
G1 X126.664 Y103.869 E0.00627
G1 X126.044 Y103.386 E0.02465
G1 X125.545 Y103.988 E0.02454
G1 X125.105 Y104.257 E0.01617
G1 X124.925 Y104.307 E0.00584
G1 X122.350 Y104.590 E0.08123
G1 X121.880 Y104.500 E0.01500
G1 X121.693 Y104.415 E0.00643
G1 X121.181 Y104.015 E0.02039
G1 X121.001 Y103.794 E0.00894
G1 X120.812 Y103.356 E0.01496
G1 X119.874 Y94.819 E0.26930
G1 X119.904 Y94.536 E0.00892
G1 X120.079 Y94.092 E0.01496
G1 X120.457 Y93.621 E0.01892
G1 X120.942 Y93.312 E0.01806
G1 X121.120 Y93.263 E0.00579
G1 X123.681 Y92.981 E0.08077
G1 X123.866 Y92.991 E0.00579
G1 X124.406 Y93.187 E0.01802
G1 X124.916 Y93.607 E0.02073
G1 X125.146 Y93.959 E0.01318
G1 X125.228 Y94.193 E0.00778
G1 X125.349 Y95.252 E0.03339
G1 X125.021 Y95.730 F10800.000
G1 F1200.000
G1 X125.702 Y95.660 E0.02146
G1 X125.943 Y95.696 E0.00764
G1 X126.292 Y95.837 E0.01180
G1 X126.522 Y96.003 E0.00891
G1 X130.483 Y100.995 E0.19979
G1 X130.683 Y101.482 E0.01651
G1 X130.765 Y102.230 E0.02362
G1 X130.759 Y102.340 E0.00345
G1 X130.622 Y102.721 E0.01269
G1 X130.286 Y103.140 E0.01682
G1 X130.167 Y103.238 E0.00484
G1 X129.838 Y103.388 E0.01135
G1 X127.249 Y103.661 E0.08162
G1 X126.956 Y103.591 E0.00944
G1 X126.847 Y103.539 E0.00379
G1 X126.399 Y103.184 E0.01795
G1 X126.200 Y102.878 E0.01144
G1 X126.109 Y102.629 E0.00831
G1 X125.814 Y102.661 E0.00931
G1 X125.781 Y102.924 E0.00832
G1 X125.652 Y103.266 E0.01145
G1 X125.315 Y103.688 E0.01693
G1 X124.972 Y103.904 E0.01269
G1 X124.867 Y103.934 E0.00345
G1 X122.340 Y104.212 E0.07968
G1 X121.984 Y104.137 E0.01144
G1 X121.877 Y104.086 E0.00371
G1 X121.431 Y103.732 E0.01785
G1 X121.333 Y103.613 E0.00482
G1 X121.183 Y103.284 E0.01136
G1 X120.251 Y94.796 E0.26771
G1 X120.266 Y94.643 E0.00484
G1 X120.393 Y94.303 E0.01136
G1 X120.731 Y93.882 E0.01693
G1 X121.073 Y93.666 E0.01269
G1 X121.179 Y93.636 E0.00345
G1 X123.705 Y93.358 E0.07968
G1 X123.815 Y93.365 E0.00345
G1 X124.196 Y93.501 E0.01270
G1 X124.617 Y93.839 E0.01693
G1 X124.815 Y94.143 E0.01136
G1 X124.863 Y94.290 E0.00484
G1 X125.015 Y95.670 E0.04355
G1 X124.687 Y96.143 F10800.000
G1 F1200.000
G1 X125.712 Y96.038 E0.03230
G1 X125.854 Y96.063 E0.00450
G1 X126.127 Y96.177 E0.00929
G1 X126.244 Y96.260 E0.00448
G1 X130.171 Y101.208 E0.19809
G1 X130.311 Y101.549 E0.01156
G1 X130.386 Y102.283 E0.02313
G1 X130.307 Y102.512 E0.00757
G1 X129.978 Y102.911 E0.01622
G1 X129.761 Y103.017 E0.00757
G1 X127.305 Y103.287 E0.07749
G1 X127.041 Y103.216 E0.00857
G1 X126.662 Y102.912 E0.01522
G1 X126.526 Y102.675 E0.00857
G1 X126.329 Y100.879 E0.05666
G1 X125.221 Y101.001 E0.03496
G1 X125.415 Y102.830 E0.05766
G1 X125.336 Y103.058 E0.00757
G1 X125.042 Y103.425 E0.01477
G1 X124.836 Y103.552 E0.00757
G1 X122.334 Y103.833 E0.07893
G1 X122.070 Y103.762 E0.00857
G1 X121.660 Y103.425 E0.01666
G1 X121.554 Y103.208 E0.00757
G1 X120.628 Y94.773 E0.26606
G1 X120.709 Y94.512 E0.00856
G1 X121.004 Y94.144 E0.01477
G1 X121.241 Y94.008 E0.00856
G1 X123.726 Y93.735 E0.07838
G1 X123.986 Y93.817 E0.00857
G1 X124.354 Y94.111 E0.01477
G1 X124.490 Y94.348 E0.00857
G1 X124.681 Y96.084 E0.05474
G1 X124.354 Y96.560 F10800.000
G1 F1200.000
G1 X125.686 Y96.414 E0.04201
G1 X125.995 Y96.543 E0.01051
G1 X129.859 Y101.421 E0.19513
G1 X129.939 Y101.617 E0.00661
G1 X130.007 Y102.236 E0.01955
G1 X129.986 Y102.308 E0.00235
G1 X129.744 Y102.610 E0.01215
G1 X129.678 Y102.647 E0.00235
G1 X127.305 Y102.907 E0.07486
G1 X127.233 Y102.886 E0.00235
G1 X126.931 Y102.644 E0.01215
G1 X126.895 Y102.578 E0.00235
G1 X126.662 Y100.463 E0.06673
G1 X124.805 Y100.667 E0.05860
G1 X125.037 Y102.783 E0.06673
G1 X125.016 Y102.855 E0.00235
G1 X124.774 Y103.157 E0.01215
G1 X124.708 Y103.193 E0.00235
G1 X122.335 Y103.454 E0.07486
M73 P4 R20
G1 X122.263 Y103.433 E0.00235
G1 X121.960 Y103.190 E0.01215
G1 X121.924 Y103.125 E0.00235
G1 X121.009 Y94.787 E0.26299
G1 X121.030 Y94.715 E0.00235
G1 X121.272 Y94.413 E0.01215
G1 X121.338 Y94.377 E0.00235
G1 X123.711 Y94.116 E0.07486
G1 X123.783 Y94.137 E0.00235
G1 X124.085 Y94.379 E0.01215
G1 X124.121 Y94.445 E0.00235
G1 X124.347 Y96.501 E0.06484
G1 X124.020 Y96.977 F10800.000
G1 F1200.000
G1 X125.655 Y96.797 E0.05156
G1 X125.744 Y96.834 E0.00305
G1 X129.547 Y101.635 E0.19202
G1 X129.567 Y101.684 E0.00167
G1 X129.620 Y102.163 E0.01509
G1 X129.522 Y102.284 E0.00490
G1 X127.379 Y102.520 E0.06761
G1 X127.257 Y102.422 E0.00490
