; generated by PrusaSlicer 2.3.1+win64 on 2021-10-20 at 16:07:46 UTC

; 

; external perimeters extrusion width = 0.45mm
; perimeters extrusion width = 0.45mm
; infill extrusion width = 0.45mm
; solid infill extrusion width = 0.45mm
; top infill extrusion width = 0.40mm
; first layer extrusion width = 0.42mm

M73 P0 R112
M201 X9000 Y9000 Z500 E10000 ; sets maximum accelerations, mm/sec^2
M203 X500 Y500 Z12 E120 ; sets maximum feedrates, mm/sec
M204 P2000 R1500 T2000 ; sets acceleration (P, T) and retract acceleration (R), mm/sec^2
M205 X10.00 Y10.00 Z0.20 E2.50 ; sets the jerk limits, mm/sec
M205 S0 T0 ; sets the minimum extruding and travel feed rate, mm/sec
M107
;TYPE:Custom
M862.3 P "MK2S" ; printer model check
M862.1 P0.4 ; nozzle diameter check
M115 U3.2.3 ; tell printer latest fw version
G90 ; use absolute coordinates
M83 ; extruder relative mode
M204 S2000 T1500 ; MK2 firmware only supports the old M204 format
M104 S215 ; set extruder temp
M140 S60 ; set bed temp
M190 S60 ; wait for bed temp
M109 S215 ; wait for extruder temp
G28 W ; home all without mesh bed level
G80 ; mesh bed leveling
G1 Y-3.0 F1000.0 ; go outside print area
G92 E0.0
G1 X60.0 E9.0  F1000.0 ; intro line
G1 X100.0 E12.5 F1000.0 ; intro line
G92 E0.0
G21 ; set units to millimeters
G90 ; use absolute coordinates
M83 ; use relative distances for extrusion
M900 K0.05 ; Filament gcode LA 1.5
M900 K30 ; Filament gcode LA 1.0
;LAYER_CHANGE
;Z:0.2
;HEIGHT:0.2
;BEFORE_LAYER_CHANGE
G92 E0.0
;0.2


G1 E-0.80000 F2100.000
G1 Z0.600 F10800.000
;AFTER_LAYER_CHANGE
;0.2
G1 X82.504 Y72.873
G1 Z0.200
G1 E0.80000 F2100.000
M204 S1000
;TYPE:Perimeter
;WIDTH:0.42
G1 F1200.000
G1 X82.036 Y73.256 E0.01894
G1 X81.504 Y73.541 E0.01894
G1 X80.925 Y73.716 E0.01894
G1 X80.324 Y73.776 E0.01894
G1 X79.723 Y73.716 E0.01894
G1 X79.145 Y73.541 E0.01894
G1 X78.612 Y73.256 E0.01894
G1 X78.145 Y72.873 E0.01894
G1 X77.762 Y72.406 E0.01894
G1 X77.477 Y71.873 E0.01894
G1 X77.301 Y71.295 E0.01894
G1 X77.242 Y70.694 E0.01894
G1 X77.301 Y70.092 E0.01894
G1 X77.477 Y69.514 E0.01894
G1 X77.762 Y68.981 E0.01894
G1 X78.145 Y68.514 E0.01894
G1 X78.612 Y68.131 E0.01894
G1 X79.145 Y67.846 E0.01894
G1 X79.723 Y67.671 E0.01894
G1 X80.324 Y67.612 E0.01894
G1 X80.925 Y67.671 E0.01894
G1 X81.504 Y67.846 E0.01894
G1 X82.036 Y68.131 E0.01894
G1 X82.504 Y68.514 E0.01894
G1 X82.887 Y68.981 E0.01894
G1 X83.172 Y69.514 E0.01894
G1 X83.347 Y70.092 E0.01894
G1 X83.406 Y70.694 E0.01894
G1 X83.347 Y71.295 E0.01894
G1 X83.172 Y71.873 E0.01894
G1 X82.887 Y72.406 E0.01894
G1 X82.542 Y72.827 E0.01706
G1 X80.852 Y73.345 F10800.000
;TYPE:External perimeter
G1 F1200.000
G1 X80.324 Y73.397 E0.01661
G1 X79.797 Y73.345 E0.01661
G1 X79.290 Y73.191 E0.01661
G1 X78.822 Y72.941 E0.01661
G1 X78.413 Y72.605 E0.01661
G1 X78.077 Y72.195 E0.01661
G1 X77.827 Y71.728 E0.01661
G1 X77.673 Y71.221 E0.01661
G1 X77.621 Y70.694 E0.01661
G1 X77.673 Y70.166 E0.01661
G1 X77.827 Y69.659 E0.01661
G1 X78.077 Y69.192 E0.01661
G1 X78.413 Y68.782 E0.01661
G1 X78.822 Y68.446 E0.01661
G1 X79.290 Y68.196 E0.01661
G1 X79.797 Y68.043 E0.01661
G1 X80.324 Y67.991 E0.01661
G1 X80.852 Y68.043 E0.01661
G1 X81.359 Y68.196 E0.01661
G1 X81.826 Y68.446 E0.01661
G1 X82.236 Y68.782 E0.01661
G1 X82.572 Y69.192 E0.01661
G1 X82.822 Y69.659 E0.01661
G1 X82.975 Y70.166 E0.01661
G1 X83.027 Y70.694 E0.01661
G1 X82.975 Y71.221 E0.01661
G1 X82.822 Y71.728 E0.01661
G1 X82.572 Y72.195 E0.01661
G1 X82.236 Y72.605 E0.01661
G1 X81.826 Y72.941 E0.01661
G1 X81.359 Y73.191 E0.01661
G1 X80.909 Y73.327 E0.01473
G1 X80.723 Y73.724 F10800.000
G1 E-0.80000 F2100.000
G1 Z0.800 F10800.000
G1 X74.235 Y73.626
G1 Z0.200
G1 E0.80000 F2100.000
;TYPE:Perimeter
G1 F1200.000
G1 X73.614 Y73.668 E0.01951
G1 X73.019 Y73.609 E0.01875
G1 X72.438 Y73.433 E0.01905
G1 X71.902 Y73.146 E0.01905
G1 X71.432 Y72.761 E0.01905
G1 X71.047 Y72.291 E0.01905
G1 X70.760 Y71.755 E0.01905
G1 X70.591 Y71.196 E0.01833
G1 X70.480 Y70.577 E0.01972
G1 X70.590 Y69.944 E0.02015
G1 X70.760 Y69.383 E0.01837
G1 X71.047 Y68.847 E0.01905
G1 X71.432 Y68.378 E0.01905
G1 X71.902 Y67.992 E0.01905
G1 X72.438 Y67.706 E0.01905
G1 X73.019 Y67.530 E0.01905
G1 X73.606 Y67.472 E0.01848
G1 X74.227 Y67.529 E0.01955
G1 X74.810 Y67.706 E0.01911
G1 X75.346 Y67.992 E0.01905
G1 X75.816 Y68.378 E0.01905
G1 X76.184 Y68.827 E0.01822
G1 X76.527 Y69.350 E0.01962
G1 X76.666 Y69.988 E0.02047
G1 X76.723 Y70.569 E0.01831
G1 X76.664 Y71.174 E0.01905
G1 X76.487 Y71.755 E0.01905
G1 X76.201 Y72.291 E0.01905
G1 X75.816 Y72.761 E0.01905
G1 X75.346 Y73.146 E0.01905
G1 X74.819 Y73.428 E0.01875
G1 X74.292 Y73.607 E0.01744
G1 X74.161 Y73.253 F10800.000
;TYPE:External perimeter
G1 F1200.000
G1 X73.620 Y73.290 E0.01698
G1 X73.093 Y73.238 E0.01661
G1 X72.583 Y73.083 E0.01672
G1 X72.112 Y72.831 E0.01672
G1 X71.700 Y72.493 E0.01672
G1 X71.362 Y72.081 E0.01672
G1 X71.110 Y71.610 E0.01672
G1 X70.958 Y71.108 E0.01646
G1 X70.863 Y70.576 E0.01694
G1 X70.958 Y70.031 E0.01734
G1 X71.110 Y69.528 E0.01648
G1 X71.362 Y69.058 E0.01672
G1 X71.700 Y68.646 E0.01672
G1 X72.112 Y68.307 E0.01672
G1 X72.583 Y68.056 E0.01672
G1 X73.093 Y67.901 E0.01672
G1 X73.607 Y67.851 E0.01619
G1 X74.154 Y67.901 E0.01722
G1 X74.665 Y68.056 E0.01674
G1 X75.135 Y68.307 E0.01672
G1 X75.548 Y68.646 E0.01672
G1 X75.880 Y69.051 E0.01643
G1 X76.174 Y69.499 E0.01680
G1 X76.293 Y70.047 E0.01760
G1 X76.344 Y70.569 E0.01646
G1 X76.292 Y71.100 E0.01672
G1 X76.137 Y71.610 E0.01672
G1 X75.886 Y72.081 E0.01672
G1 X75.548 Y72.493 E0.01672
G1 X75.135 Y72.831 E0.01672
G1 X74.668 Y73.081 E0.01661
G1 X74.218 Y73.234 E0.01492
G1 X74.026 Y73.630 F10800.000
G1 E-0.80000 F2100.000
G1 Z0.800 F10800.000
G1 X113.549 Y77.542
G1 Z0.200
G1 E0.80000 F2100.000
;TYPE:Perimeter
G1 F1200.000
G1 X113.549 Y75.133 E0.07554
G1 X69.240 Y75.133 E1.38927
G1 X69.240 Y66.069 E0.28420
G1 X113.549 Y66.069 E1.38927
G1 X113.549 Y63.660 E0.07555
G1 X122.413 Y63.660 E0.27792
G1 X122.413 Y77.542 E0.43529
G1 X113.609 Y77.542 E0.27604
G1 X113.172 Y77.920 F10800.000
;TYPE:External perimeter
G1 F1200.000
G1 X113.172 Y75.510 E0.07554
G1 X68.863 Y75.510 E1.38927
G1 X68.863 Y65.692 E0.30784
G1 X113.172 Y65.692 E1.38927
G1 X113.172 Y63.282 E0.07555
G1 X122.790 Y63.282 E0.30157
G1 X122.790 Y77.920 E0.45894
G1 X113.232 Y77.920 E0.29969
G1 X113.249 Y77.527 F10800.000
G1 X114.303 Y77.429
;TYPE:Solid infill
;WIDTH:0.42163
G1 F1200.000
G1 X113.832 Y76.958 E0.02099
G1 X113.832 Y76.422 E0.01687
G1 X114.669 Y77.260 E0.03729
G1 X115.205 Y77.260 E0.01687
G1 X113.832 Y75.887 E0.06114
G1 X113.832 Y75.351 E0.01687
G1 X115.740 Y77.260 E0.08499
G1 X116.276 Y77.260 E0.01687
G1 X105.368 Y66.352 E0.48575
G1 X105.904 Y66.352 E0.01687
G1 X116.811 Y77.260 E0.48575
G1 X117.347 Y77.260 E0.01687
G1 X106.439 Y66.352 E0.48575
G1 X106.975 Y66.352 E0.01687
G1 X117.883 Y77.260 E0.48575
G1 X118.418 Y77.260 E0.01687
G1 X107.511 Y66.352 E0.48575
G1 X108.046 Y66.352 E0.01687
G1 X118.954 Y77.260 E0.48575
G1 X119.489 Y77.260 E0.01687
G1 X108.582 Y66.352 E0.48575
G1 X109.117 Y66.352 E0.01687
G1 X120.025 Y77.260 E0.48575
G1 X120.561 Y77.260 E0.01687
G1 X109.653 Y66.352 E0.48575
G1 X110.188 Y66.352 E0.01687
G1 X121.096 Y77.260 E0.48575
G1 X121.632 Y77.260 E0.01687
G1 X110.724 Y66.352 E0.48575
G1 X111.260 Y66.352 E0.01687
G1 X122.130 Y77.223 E0.48410
G1 X122.130 Y76.687 E0.01687
G1 X111.795 Y66.352 E0.46025
G1 X112.331 Y66.352 E0.01687
G1 X122.130 Y76.151 E0.43640
G1 X122.130 Y75.616 E0.01687
G1 X112.866 Y66.352 E0.41255
G1 X113.402 Y66.352 E0.01687
G1 X122.130 Y75.080 E0.38870
G1 X122.130 Y74.545 E0.01687
G1 X113.832 Y66.246 E0.36955
G1 X113.832 Y65.711 E0.01687
G1 X122.130 Y74.009 E0.36955
G1 X122.130 Y73.473 E0.01687
G1 X113.832 Y65.175 E0.36955
G1 X113.832 Y64.640 E0.01687
G1 X122.130 Y72.938 E0.36955
G1 X122.130 Y72.402 E0.01687
G1 X113.832 Y64.104 E0.36955
G1 X113.832 Y63.942 E0.00509
G1 X114.206 Y63.942 E0.01177
G1 X122.130 Y71.867 E0.35290
G1 X122.130 Y71.331 E0.01687
G1 X114.741 Y63.942 E0.32905
G1 X115.277 Y63.942 E0.01687
G1 X122.130 Y70.796 E0.30520
G1 X122.130 Y70.260 E0.01687
G1 X115.812 Y63.942 E0.28135
G1 X116.348 Y63.942 E0.01687
G1 X122.130 Y69.724 E0.25750
G1 X122.130 Y69.189 E0.01687
G1 X116.884 Y63.942 E0.23365
G1 X117.419 Y63.942 E0.01687
G1 X122.130 Y68.653 E0.20980
G1 X122.130 Y68.118 E0.01687
G1 X117.955 Y63.942 E0.18594
G1 X118.490 Y63.942 E0.01687
G1 X122.130 Y67.582 E0.16209
G1 X122.130 Y67.047 E0.01687
G1 X119.026 Y63.942 E0.13824
G1 X119.561 Y63.942 E0.01687
G1 X122.130 Y66.511 E0.11439
G1 X122.130 Y65.975 E0.01687
G1 X120.097 Y63.942 E0.09054
G1 X120.633 Y63.942 E0.01687
G1 X122.130 Y65.440 E0.06669
G1 X122.130 Y64.904 E0.01687
G1 X121.168 Y63.942 E0.04284
G1 X121.704 Y63.942 E0.01687
G1 X122.300 Y64.538 E0.02654
G1 E-0.80000 F2100.000
G1 Z0.800 F10800.000
G1 X113.501 Y75.020
G1 Z0.200
G1 E0.80000 F2100.000
G1 F1200.000
G1 X104.833 Y66.352 E0.38602
G1 X104.297 Y66.352 E0.01687
G1 X112.796 Y74.850 E0.37846
G1 X112.260 Y74.850 E0.01687
G1 X103.762 Y66.352 E0.37846
G1 X103.226 Y66.352 E0.01687
G1 X111.724 Y74.850 E0.37846
G1 X111.189 Y74.850 E0.01687
G1 X102.690 Y66.352 E0.37846
G1 X102.155 Y66.352 E0.01687
G1 X110.653 Y74.850 E0.37846
G1 X110.118 Y74.850 E0.01687
G1 X101.619 Y66.352 E0.37846
G1 X101.084 Y66.352 E0.01687
G1 X109.582 Y74.850 E0.37846
G1 X109.047 Y74.850 E0.01687
G1 X100.548 Y66.352 E0.37846
G1 X100.013 Y66.352 E0.01687
G1 X108.511 Y74.850 E0.37846
G1 X107.975 Y74.850 E0.01687
G1 X99.477 Y66.352 E0.37846
G1 X98.941 Y66.352 E0.01687
G1 X107.440 Y74.850 E0.37846
G1 X106.904 Y74.850 E0.01687
G1 X98.406 Y66.352 E0.37846
G1 X97.870 Y66.352 E0.01687
G1 X106.369 Y74.850 E0.37846
G1 X105.833 Y74.850 E0.01687
G1 X97.335 Y66.352 E0.37846
G1 X96.799 Y66.352 E0.01687
G1 X105.298 Y74.850 E0.37846
G1 X104.762 Y74.850 E0.01687
G1 X96.263 Y66.352 E0.37846
G1 X95.728 Y66.352 E0.01687
G1 X104.226 Y74.850 E0.37846
M73 P0 R111
G1 X103.691 Y74.850 E0.01687
G1 X95.192 Y66.352 E0.37846
G1 X94.657 Y66.352 E0.01687
G1 X103.155 Y74.850 E0.37846
G1 X102.620 Y74.850 E0.01687
G1 X94.121 Y66.352 E0.37846
G1 X93.586 Y66.352 E0.01687
G1 X102.084 Y74.850 E0.37846
G1 X101.548 Y74.850 E0.01687
G1 X93.050 Y66.352 E0.37846
G1 X92.514 Y66.352 E0.01687
G1 X101.013 Y74.850 E0.37846
G1 X100.477 Y74.850 E0.01687
G1 X91.979 Y66.352 E0.37846
G1 X91.443 Y66.352 E0.01687
G1 X99.942 Y74.850 E0.37846
G1 X99.406 Y74.850 E0.01687
G1 X90.908 Y66.352 E0.37846
G1 X90.372 Y66.352 E0.01687
G1 X98.871 Y74.850 E0.37846
G1 X98.335 Y74.850 E0.01687
G1 X89.837 Y66.352 E0.37846
G1 X89.301 Y66.352 E0.01687
G1 X97.799 Y74.850 E0.37846
G1 X97.264 Y74.850 E0.01687
G1 X88.765 Y66.352 E0.37846
G1 X88.230 Y66.352 E0.01687
G1 X96.728 Y74.850 E0.37846
G1 X96.193 Y74.850 E0.01687
G1 X87.694 Y66.352 E0.37846
M73 P1 R111
G1 X87.159 Y66.352 E0.01687
G1 X95.657 Y74.850 E0.37846
G1 X95.122 Y74.850 E0.01687
G1 X86.623 Y66.352 E0.37846
G1 X86.088 Y66.352 E0.01687
G1 X94.586 Y74.850 E0.37846
G1 X94.050 Y74.850 E0.01687
G1 X85.552 Y66.352 E0.37846
G1 X85.016 Y66.352 E0.01687
G1 X93.515 Y74.850 E0.37846
G1 X92.979 Y74.850 E0.01687
G1 X84.481 Y66.352 E0.37846
G1 X83.945 Y66.352 E0.01687
G1 X92.444 Y74.850 E0.37846
G1 X91.908 Y74.850 E0.01687
G1 X83.410 Y66.352 E0.37846
G1 X82.874 Y66.352 E0.01687
G1 X91.373 Y74.850 E0.37846
G1 X90.837 Y74.850 E0.01687
G1 X82.338 Y66.352 E0.37846
G1 X81.803 Y66.352 E0.01687
G1 X90.301 Y74.850 E0.37846
G1 X89.766 Y74.850 E0.01687
G1 X81.267 Y66.352 E0.37846
G1 X80.732 Y66.352 E0.01687
G1 X89.230 Y74.850 E0.37846
G1 X88.695 Y74.850 E0.01687
G1 X83.515 Y69.670 E0.23069
G1 X83.626 Y70.037 E0.01206
G1 X83.656 Y70.348 E0.00983
G1 X88.159 Y74.850 E0.20052
G1 X87.623 Y74.850 E0.01687
G1 X83.670 Y70.897 E0.17605
G1 X83.617 Y71.379 E0.01528
G1 X87.088 Y74.850 E0.15458
G1 X86.552 Y74.850 E0.01687
G1 X83.492 Y71.790 E0.13628
G1 X83.434 Y71.982 E0.00630
G1 X83.335 Y72.168 E0.00666
G1 X86.017 Y74.850 E0.11945
G1 X85.481 Y74.850 E0.01687
G1 X83.148 Y72.517 E0.10391
G1 X82.914 Y72.819 E0.01202
G1 X84.946 Y74.850 E0.09048
G1 X84.410 Y74.850 E0.01687
G1 X82.665 Y73.106 E0.07769
G1 X82.371 Y73.347 E0.01198
G1 X83.874 Y74.850 E0.06694
G1 X83.339 Y74.850 E0.01687
G1 X82.055 Y73.567 E0.05716
G1 X81.706 Y73.753 E0.01246
G1 X82.803 Y74.850 E0.04886
G1 X82.268 Y74.850 E0.01687
G1 X81.312 Y73.895 E0.04256
G1 X80.981 Y73.995 E0.01089
G1 X80.886 Y74.004 E0.00300
G1 X81.732 Y74.850 E0.03768
G1 X81.197 Y74.850 E0.01687
G1 X80.399 Y74.053 E0.03554
G1 X80.324 Y74.060 E0.00235
G1 X79.821 Y74.010 E0.01593
G1 X80.661 Y74.850 E0.03742
G1 X80.125 Y74.850 E0.01687
G1 X79.097 Y73.822 E0.04580
G1 X78.454 Y73.493 E0.02275
G1 X77.944 Y73.074 E0.02078
G1 X77.525 Y72.564 E0.02078
G1 X77.196 Y71.921 E0.02275
G1 X77.128 Y71.853 E0.00301
G1 X76.753 Y71.853 E0.01181
G1 X76.699 Y71.960 E0.00376
G1 X79.590 Y74.850 E0.12874
G1 X79.054 Y74.850 E0.01687
G1 X76.512 Y72.309 E0.11320
G1 X76.437 Y72.449 E0.00502
G1 X76.293 Y72.625 E0.00716
G1 X78.519 Y74.850 E0.09911
G1 X77.983 Y74.850 E0.01687
G1 X76.052 Y72.919 E0.08601
G1 X75.765 Y73.168 E0.01195
G1 X77.448 Y74.850 E0.07492
G1 X76.912 Y74.850 E0.01687
G1 X75.465 Y73.403 E0.06444
G1 X75.116 Y73.590 E0.01246
G1 X76.376 Y74.850 E0.05613
G1 X75.841 Y74.850 E0.01687
G1 X74.743 Y73.753 E0.04889
G1 X74.343 Y73.888 E0.01330
G1 X75.305 Y74.850 E0.04284
G1 X74.770 Y74.850 E0.01687
G1 X73.854 Y73.935 E0.04076
G1 X73.610 Y73.952 E0.00772
G1 X73.305 Y73.922 E0.00964
G1 X74.234 Y74.850 E0.04137
G1 X73.698 Y74.850 E0.01687
G1 X72.376 Y73.528 E0.05889
G1 X70.119 Y75.020 F10800.000
G1 F1200.000
G1 X69.523 Y74.424 E0.02654
G1 X69.523 Y73.889 E0.01687
G1 X70.485 Y74.850 E0.04283
G1 X71.021 Y74.850 E0.01687
G1 X69.523 Y73.353 E0.06668
G1 X69.523 Y72.818 E0.01687
G1 X71.556 Y74.850 E0.09053
G1 X72.092 Y74.850 E0.01687
G1 X69.523 Y72.282 E0.11439
G1 X69.523 Y71.746 E0.01687
G1 X72.627 Y74.850 E0.13824
G1 X73.163 Y74.850 E0.01687
G1 X69.523 Y71.211 E0.16209
G1 X69.523 Y70.675 E0.01687
G1 X70.405 Y71.557 E0.03925
G1 X70.315 Y71.262 E0.00969
G1 X70.244 Y70.860 E0.01287
G1 X69.523 Y70.140 E0.03208
G1 X69.523 Y69.604 E0.01687
G1 X70.238 Y70.319 E0.03184
G1 X70.319 Y69.864 E0.01455
G1 X69.523 Y69.068 E0.03544
G1 X69.523 Y68.533 E0.01687
G1 X70.444 Y69.453 E0.04099
G1 X70.498 Y69.275 E0.00588
G1 X70.603 Y69.077 E0.00704
G1 X69.523 Y67.997 E0.04810
G1 X69.523 Y67.462 E0.01687
G1 X70.790 Y68.728 E0.05641
G1 X71.025 Y68.428 E0.01201
G1 X69.523 Y66.926 E0.06689
G1 X69.523 Y66.391 E0.01687
G1 X71.274 Y68.142 E0.07798
G1 X71.568 Y67.900 E0.01198
G1 X70.020 Y66.352 E0.06895
G1 X70.556 Y66.352 E0.01687
G1 X71.885 Y67.681 E0.05918
G1 X72.234 Y67.494 E0.01246
G1 X71.091 Y66.352 E0.05087
G1 X71.627 Y66.352 E0.01687
G1 X72.628 Y67.353 E0.04457
G1 X72.964 Y67.251 E0.01106
G1 X73.053 Y67.242 E0.00281
G1 X72.163 Y66.352 E0.03964
G1 X72.698 Y66.352 E0.01687
G1 X73.540 Y67.194 E0.03750
G1 X74.116 Y67.235 E0.01819
G1 X73.234 Y66.352 E0.03931
G1 X73.769 Y66.352 E0.01687
G1 X74.835 Y67.418 E0.04747
G1 X74.919 Y67.443 E0.00275
G1 X75.504 Y67.756 E0.02089
G1 X76.016 Y68.177 E0.02089
G1 X76.412 Y68.659 E0.01965
G1 X76.793 Y69.239 E0.02183
G1 X76.830 Y69.413 E0.00561
G1 X76.905 Y69.488 E0.00334
G1 X76.999 Y69.261 E0.00773
G1 X77.238 Y69.360 E0.00815
G1 X77.264 Y69.312 E0.00174
G1 X74.305 Y66.352 E0.13180
G1 X74.840 Y66.352 E0.01687
G1 X77.451 Y68.963 E0.11626
G1 X77.525 Y68.824 E0.00497
G1 X77.671 Y68.647 E0.00721
G1 X75.376 Y66.352 E0.10218
G1 X75.912 Y66.352 E0.01687
G1 X77.912 Y68.352 E0.08908
G1 X78.199 Y68.104 E0.01196
G1 X76.447 Y66.352 E0.07802
G1 X76.983 Y66.352 E0.01687
G1 X78.501 Y67.870 E0.06760
G1 X78.850 Y67.683 E0.01246
G1 X77.518 Y66.352 E0.05929
G1 X78.054 Y66.352 E0.01687
G1 X79.227 Y67.526 E0.05227
G1 X79.638 Y67.401 E0.01352
G1 X78.589 Y66.352 E0.04671
G1 X79.125 Y66.352 E0.01687
G1 X80.121 Y67.348 E0.04433
G1 X80.324 Y67.328 E0.00644
G1 X80.670 Y67.362 E0.01095
G1 X79.661 Y66.352 E0.04496
G1 X80.196 Y66.352 E0.01687
G1 X81.629 Y67.785 E0.06382
G1 X77.213 Y69.656 F10800.000
;TYPE:Gap fill
;WIDTH:0.13127
G1 F1200.000
G1 X77.020 Y70.151 E0.00390
;WIDTH:0.256324
G1 X76.989 Y70.254 E0.00190
G1 X76.989 Y70.408 E0.00274
;WIDTH:0.226099
G1 X76.989 Y70.562 E0.00235
;WIDTH:0.195874
G1 X76.977 Y71.049 E0.00620
