; generated by PrusaSlicer 2.1.1+win64 on 2020-04-21 at 18:55:48 UTC

; 

; external perimeters extrusion width = 0.45mm
; perimeters extrusion width = 0.45mm
; infill extrusion width = 0.45mm
; solid infill extrusion width = 0.45mm
; top infill extrusion width = 0.40mm
; first layer extrusion width = 0.42mm

M73 P0 R74
M201 X9000 Y9000 Z500 E10000 ; sets maximum accelerations, mm/sec^2
M203 X500 Y500 Z12 E120 ; sets maximum feedrates, mm/sec
M204 P2000 R1500 T2000 ; sets acceleration (P, T) and retract acceleration (R), mm/sec^2
M205 X10.00 Y10.00 Z0.20 E2.50 ; sets the jerk limits, mm/sec
M205 S0 T0 ; sets the minimum extruding and travel feed rate, mm/sec
M107
M862.3 P "MK2S" ; printer model check
M862.1 P0.4 ; nozzle diameter check
M115 U3.2.3 ; tell printer latest fw version
G90 ; use absolute coordinates
M83 ; extruder relative mode
M204 S2000 T1500 ; MK2 firmware only supports the old M204 format
M104 S215 ; set extruder temp
M140 S60 ; set bed temp
M190 S60 ; wait for bed temp
M109 S215 ; wait for extruder temp
G28 W ; home all without mesh bed level
G80 ; mesh bed leveling
G1 Y-3.0 F1000.0 ; go outside print area
G92 E0.0
G1 X60.0 E9.0  F1000.0 ; intro line
M73 P0 R74
G1 X100.0 E12.5 F1000.0 ; intro line
G92 E0.0
G21 ; set units to millimeters
G90 ; use absolute coordinates
M83 ; use relative distances for extrusion
M900 K30 ; Filament gcode
;BEFORE_LAYER_CHANGE
G92 E0.0
;0.2


G1 E-0.80000 F2100.00000
G1 Z0.600 F10800.000
;AFTER_LAYER_CHANGE
;0.2
G1 X143.239 Y143.128
G1 Z0.200
G1 E0.80000 F2100.00000
M204 S1000
G1 F1200
G1 X128.953 Y143.128 E0.44793
G1 X133.885 Y107.402 E1.13080
G1 X152.593 Y107.402 E0.58660
G1 X157.525 Y143.128 E1.13080
G1 X143.299 Y143.128 E0.44605
G1 X143.239 Y143.505 F10800.000
G1 F1200
G1 X128.520 Y143.505 E0.46149
G1 X133.556 Y107.024 E1.15467
G1 X152.922 Y107.024 E0.60721
G1 X157.958 Y143.505 E1.15467
G1 X143.299 Y143.505 E0.45961
G1 X142.911 Y143.276 F10800.000
G1 E-0.80000 F2100.00000
G1 Z0.800 F10800.000
G1 X129.847 Y143.015
G1 Z0.200
G1 E0.80000 F2100.00000
G1 F1200
G1 X129.326 Y142.494 E0.02322
G1 X129.391 Y142.023 E0.01500
G1 X130.213 Y142.845 E0.03666
G1 X130.749 Y142.845 E0.01691
G1 X129.456 Y141.552 E0.05767
G1 X129.521 Y141.080 E0.01500
G1 X131.286 Y142.845 E0.07869
G1 X131.822 Y142.845 E0.01691
G1 X129.586 Y140.609 E0.09970
G1 X129.651 Y140.138 E0.01500
G1 X132.358 Y142.845 E0.12071
G1 X132.894 Y142.845 E0.01691
G1 X129.716 Y139.667 E0.14172
G1 X129.781 Y139.196 E0.01500
G1 X133.431 Y142.845 E0.16273
G1 X133.967 Y142.845 E0.01691
G1 X129.846 Y138.724 E0.18374
G1 X129.911 Y138.253 E0.01500
G1 X134.503 Y142.845 E0.20475
G1 X135.039 Y142.845 E0.01691
G1 X129.976 Y137.782 E0.22576
G1 X130.041 Y137.311 E0.01500
G1 X135.576 Y142.845 E0.24677
G1 X136.112 Y142.845 E0.01691
G1 X130.106 Y136.840 E0.26778
G1 X130.171 Y136.368 E0.01500
G1 X136.648 Y142.845 E0.28880
G1 X137.184 Y142.845 E0.01691
G1 X130.237 Y135.897 E0.30981
G1 X130.302 Y135.426 E0.01500
G1 X137.721 Y142.845 E0.33082
G1 X138.257 Y142.845 E0.01691
G1 X130.367 Y134.955 E0.35183
G1 X130.432 Y134.484 E0.01500
G1 X138.793 Y142.845 E0.37284
G1 X139.330 Y142.845 E0.01691
G1 X130.497 Y134.012 E0.39385
G1 X130.562 Y133.541 E0.01500
G1 X139.866 Y142.845 E0.41486
G1 X140.402 Y142.845 E0.01691
G1 X130.627 Y133.070 E0.43587
G1 X130.692 Y132.599 E0.01500
G1 X140.938 Y142.845 E0.45688
G1 X141.475 Y142.845 E0.01691
G1 X130.757 Y132.127 E0.47789
G1 X130.822 Y131.656 E0.01500
G1 X142.011 Y142.845 E0.49891
G1 X142.547 Y142.845 E0.01691
G1 X130.887 Y131.185 E0.51992
G1 X130.952 Y130.714 E0.01500
G1 X143.083 Y142.845 E0.54093
G1 X143.620 Y142.845 E0.01691
G1 X131.017 Y130.243 E0.56194
G1 X131.082 Y129.771 E0.01500
G1 X144.156 Y142.845 E0.58295
G1 X144.692 Y142.845 E0.01691
G1 X131.147 Y129.300 E0.60396
G1 X131.212 Y128.829 E0.01500
G1 X145.228 Y142.845 E0.62497
G1 X145.765 Y142.845 E0.01691
G1 X131.277 Y128.358 E0.64598
G1 X131.342 Y127.887 E0.01500
G1 X146.301 Y142.845 E0.66699
G1 X146.837 Y142.845 E0.01691
G1 X131.407 Y127.415 E0.68800
G1 X131.472 Y126.944 E0.01500
G1 X147.373 Y142.845 E0.70902
G1 X147.910 Y142.845 E0.01691
G1 X131.537 Y126.473 E0.73003
G1 X131.602 Y126.002 E0.01500
G1 X148.446 Y142.845 E0.75104
G1 X148.982 Y142.845 E0.01691
G1 X131.668 Y125.531 E0.77205
G1 X131.733 Y125.059 E0.01500
G1 X149.518 Y142.845 E0.79306
G1 X150.055 Y142.845 E0.01691
G1 X131.798 Y124.588 E0.81407
G1 X131.863 Y124.117 E0.01500
G1 X150.591 Y142.845 E0.83508
G1 X151.127 Y142.845 E0.01691
G1 X131.928 Y123.646 E0.85609
G1 X131.993 Y123.175 E0.01500
G1 X151.663 Y142.845 E0.87710
G1 X152.200 Y142.845 E0.01691
G1 X132.058 Y122.703 E0.89811
G1 X132.123 Y122.232 E0.01500
G1 X152.736 Y142.845 E0.91913
G1 X153.272 Y142.845 E0.01691
G1 X132.188 Y121.761 E0.94014
G1 X132.253 Y121.290 E0.01500
G1 X153.808 Y142.845 E0.96115
G1 X154.345 Y142.845 E0.01691
G1 X132.318 Y120.818 E0.98216
G1 X132.383 Y120.347 E0.01500
G1 X154.881 Y142.845 E1.00317
G1 X155.417 Y142.845 E0.01691
G1 X132.448 Y119.876 E1.02418
G1 X132.513 Y119.405 E0.01500
G1 X155.953 Y142.845 E1.04519
G1 X156.490 Y142.845 E0.01691
G1 X132.578 Y118.934 E1.06620
M73 P1 R73
G1 X132.643 Y118.462 E0.01500
G1 X157.026 Y142.845 E1.08721
G1 X157.200 Y142.845 E0.00550
G1 X157.142 Y142.425 E0.01336
G1 X132.708 Y117.991 E1.08951
G1 X132.773 Y117.520 E0.01500
G1 X157.057 Y141.803 E1.08278
G1 X156.971 Y141.181 E0.01980
G1 X132.838 Y117.049 E1.07605
G1 X132.903 Y116.578 E0.01500
G1 X156.885 Y140.559 E1.06932
G1 X156.799 Y139.937 E0.01980
G1 X132.968 Y116.106 E1.06259
G1 X133.033 Y115.635 E0.01500
G1 X156.713 Y139.315 E1.05586
G1 X156.627 Y138.693 E0.01980
G1 X133.098 Y115.164 E1.04913
G1 X133.164 Y114.693 E0.01500
G1 X156.541 Y138.071 E1.04241
G1 X156.455 Y137.448 E0.01980
G1 X133.229 Y114.222 E1.03568
G1 X133.294 Y113.750 E0.01500
G1 X156.370 Y136.826 E1.02895
G1 X156.284 Y136.204 E0.01980
G1 X133.359 Y113.279 E1.02222
G1 X133.424 Y112.808 E0.01500
G1 X156.198 Y135.582 E1.01549
G1 X156.112 Y134.960 E0.01980
G1 X133.489 Y112.337 E1.00876
G1 X133.554 Y111.866 E0.01500
G1 X156.026 Y134.338 E1.00203
G1 X155.940 Y133.716 E0.01980
G1 X133.619 Y111.394 E0.99530
G1 X133.684 Y110.923 E0.01500
G1 X155.854 Y133.094 E0.98857
G1 X155.768 Y132.471 E0.01980
G1 X133.749 Y110.452 E0.98184
G1 X133.814 Y109.981 E0.01500
G1 X155.683 Y131.849 E0.97511
G1 X155.597 Y131.227 E0.01980
G1 X133.879 Y109.509 E0.96838
G1 X133.944 Y109.038 E0.01500
G1 X155.511 Y130.605 E0.96165
G1 X155.425 Y129.983 E0.01980
G1 X134.009 Y108.567 E0.95492
G1 X134.074 Y108.096 E0.01500
G1 X155.339 Y129.361 E0.94819
G1 X155.253 Y128.739 E0.01980
G1 X134.199 Y107.684 E0.93880
G1 X134.735 Y107.684 E0.01691
G1 X155.167 Y128.116 E0.91106
G1 X155.081 Y127.494 E0.01980
G1 X135.271 Y107.684 E0.88332
G1 X135.808 Y107.684 E0.01691
G1 X154.996 Y126.872 E0.85558
G1 X154.910 Y126.250 E0.01980
G1 X136.344 Y107.684 E0.82784
G1 X136.880 Y107.684 E0.01691
G1 X154.824 Y125.628 E0.80010
G1 X154.738 Y125.006 E0.01980
G1 X137.416 Y107.684 E0.77236
G1 X137.953 Y107.684 E0.01691
G1 X154.652 Y124.384 E0.74462
G1 X154.566 Y123.762 E0.01980
G1 X138.489 Y107.684 E0.71688
G1 X139.025 Y107.684 E0.01691
G1 X154.480 Y123.139 E0.68914
G1 X154.394 Y122.517 E0.01980
G1 X139.561 Y107.684 E0.66139
G1 X140.098 Y107.684 E0.01691
G1 X154.308 Y121.895 E0.63365
G1 X154.223 Y121.273 E0.01980
G1 X140.634 Y107.684 E0.60591
G1 X141.170 Y107.684 E0.01691
G1 X154.137 Y120.651 E0.57817
G1 X154.051 Y120.029 E0.01980
G1 X141.706 Y107.684 E0.55043
G1 X142.243 Y107.684 E0.01691
G1 X153.965 Y119.407 E0.52269
G1 X153.879 Y118.785 E0.01980
G1 X142.779 Y107.684 E0.49495
G1 X143.315 Y107.684 E0.01691
G1 X153.793 Y118.162 E0.46721
G1 X153.707 Y117.540 E0.01980
G1 X143.851 Y107.684 E0.43947
G1 X144.388 Y107.684 E0.01691
G1 X153.621 Y116.918 E0.41173
M73 P2 R72
G1 X153.536 Y116.296 E0.01980
G1 X144.924 Y107.684 E0.38399
G1 X145.460 Y107.684 E0.01691
G1 X153.450 Y115.674 E0.35625
G1 X153.364 Y115.052 E0.01980
G1 X145.996 Y107.684 E0.32851
G1 X146.533 Y107.684 E0.01691
G1 X153.278 Y114.430 E0.30077
G1 X153.192 Y113.807 E0.01980
G1 X147.069 Y107.684 E0.27303
G1 X147.605 Y107.684 E0.01691
G1 X153.106 Y113.185 E0.24529
G1 X153.020 Y112.563 E0.01980
G1 X148.141 Y107.684 E0.21755
G1 X148.678 Y107.684 E0.01691
G1 X152.934 Y111.941 E0.18981
G1 X152.849 Y111.319 E0.01980
G1 X149.214 Y107.684 E0.16206
G1 X149.750 Y107.684 E0.01691
G1 X152.763 Y110.697 E0.13432
G1 X152.677 Y110.075 E0.01980
G1 X150.286 Y107.684 E0.10658
G1 X150.823 Y107.684 E0.01691
G1 X152.591 Y109.453 E0.07884
G1 X152.505 Y108.830 E0.01980
G1 X151.359 Y107.684 E0.05110
G1 X151.895 Y107.684 E0.01691
G1 X152.618 Y108.407 E0.03222
G1 E-0.80000 F2100.00000
G1 Z0.800 F10800.000
G1 X106.762 Y145.499
G1 Z0.200
G1 E0.80000 F2100.00000
G1 F1200
G1 X92.475 Y145.499 E0.44793
G1 X97.407 Y109.772 E1.13081
G1 X116.116 Y109.772 E0.58661
G1 X121.048 Y145.499 E1.13081
G1 X106.822 Y145.499 E0.44605
G1 X106.762 Y145.876 F10800.000
G1 F1200
G1 X92.043 Y145.876 E0.46150
G1 X97.078 Y109.395 E1.15468
G1 X116.445 Y109.395 E0.60721
G1 X121.480 Y145.876 E1.15468
G1 X106.822 Y145.876 E0.45962
G1 X106.434 Y145.647 F10800.000
G1 E-0.80000 F2100.00000
G1 Z0.800 F10800.000
G1 X93.369 Y145.386
G1 Z0.200
G1 E0.80000 F2100.00000
G1 F1200
G1 X92.848 Y144.865 E0.02322
G1 X92.913 Y144.394 E0.01500
G1 X93.736 Y145.216 E0.03666
G1 X94.272 Y145.216 E0.01691
G1 X92.978 Y143.923 E0.05768
G1 X93.044 Y143.451 E0.01500
G1 X94.808 Y145.216 E0.07869
G1 X95.344 Y145.216 E0.01691
G1 X93.109 Y142.980 E0.09970
G1 X93.174 Y142.509 E0.01500
G1 X95.881 Y145.216 E0.12071
G1 X96.417 Y145.216 E0.01691
G1 X93.239 Y142.038 E0.14172
G1 X93.304 Y141.567 E0.01500
G1 X96.953 Y145.216 E0.16273
G1 X97.490 Y145.216 E0.01691
G1 X93.369 Y141.095 E0.18374
G1 X93.434 Y140.624 E0.01500
G1 X98.026 Y145.216 E0.20476
G1 X98.562 Y145.216 E0.01691
G1 X93.499 Y140.153 E0.22577
G1 X93.564 Y139.682 E0.01500
G1 X99.098 Y145.216 E0.24678
G1 X99.635 Y145.216 E0.01691
G1 X93.629 Y139.211 E0.26779
G1 X93.694 Y138.739 E0.01500
G1 X100.171 Y145.216 E0.28880
G1 X100.707 Y145.216 E0.01691
G1 X93.759 Y138.268 E0.30981
G1 X93.824 Y137.797 E0.01500
G1 X101.243 Y145.216 E0.33083
G1 X101.780 Y145.216 E0.01691
G1 X93.889 Y137.326 E0.35184
G1 X93.954 Y136.854 E0.01500
G1 X102.316 Y145.216 E0.37285
G1 X102.852 Y145.216 E0.01691
G1 X94.019 Y136.383 E0.39386
G1 X94.084 Y135.912 E0.01500
G1 X103.388 Y145.216 E0.41487
G1 X103.925 Y145.216 E0.01691
G1 X94.149 Y135.441 E0.43588
G1 X94.214 Y134.970 E0.01500
G1 X104.461 Y145.216 E0.45689
G1 X104.997 Y145.216 E0.01691
G1 X94.279 Y134.498 E0.47791
G1 X94.344 Y134.027 E0.01500
G1 X105.533 Y145.216 E0.49892
G1 X106.070 Y145.216 E0.01691
G1 X94.409 Y133.556 E0.51993
G1 X94.475 Y133.085 E0.01500
G1 X106.606 Y145.216 E0.54094
G1 X107.142 Y145.216 E0.01691
G1 X94.540 Y132.614 E0.56195
G1 X94.605 Y132.142 E0.01500
G1 X107.678 Y145.216 E0.58296
G1 X108.215 Y145.216 E0.01691
G1 X94.670 Y131.671 E0.60398
G1 X94.735 Y131.200 E0.01500
G1 X108.751 Y145.216 E0.62499
G1 X109.287 Y145.216 E0.01691
G1 X94.800 Y130.729 E0.64600
G1 X94.865 Y130.257 E0.01500
G1 X109.823 Y145.216 E0.66701
G1 X110.360 Y145.216 E0.01691
G1 X94.930 Y129.786 E0.68802
G1 X94.995 Y129.315 E0.01500
G1 X110.896 Y145.216 E0.70903
G1 X111.432 Y145.216 E0.01691
G1 X95.060 Y128.844 E0.73004
G1 X95.125 Y128.373 E0.01500
G1 X111.969 Y145.216 E0.75106
G1 X112.505 Y145.216 E0.01691
G1 X95.190 Y127.901 E0.77207
G1 X95.255 Y127.430 E0.01500
G1 X113.041 Y145.216 E0.79308
G1 X113.577 Y145.216 E0.01691
G1 X95.320 Y126.959 E0.81409
G1 X95.385 Y126.488 E0.01500
G1 X114.114 Y145.216 E0.83510
G1 X114.650 Y145.216 E0.01691
G1 X95.450 Y126.017 E0.85611
G1 X95.515 Y125.545 E0.01500
G1 X115.186 Y145.216 E0.87713
G1 X115.722 Y145.216 E0.01691
G1 X95.580 Y125.074 E0.89814
G1 X95.645 Y124.603 E0.01500
G1 X116.259 Y145.216 E0.91915
G1 X116.795 Y145.216 E0.01691
G1 X95.710 Y124.132 E0.94016
G1 X95.775 Y123.660 E0.01500
G1 X117.331 Y145.216 E0.96117
G1 X117.867 Y145.216 E0.01691
G1 X95.840 Y123.189 E0.98218
G1 X95.906 Y122.718 E0.01500
G1 X118.404 Y145.216 E1.00319
G1 X118.940 Y145.216 E0.01691
G1 X95.971 Y122.247 E1.02421
M73 P4 R71
G1 X96.036 Y121.776 E0.01500
G1 X119.476 Y145.216 E1.04522
G1 X120.012 Y145.216 E0.01691
G1 X96.101 Y121.304 E1.06623
G1 X96.166 Y120.833 E0.01500
G1 X120.549 Y145.216 E1.08724
G1 X120.723 Y145.216 E0.00550
G1 X120.665 Y144.797 E0.01336
G1 X96.231 Y120.362 E1.08954
G1 X96.296 Y119.891 E0.01500
G1 X120.579 Y144.174 E1.08281
G1 X120.494 Y143.552 E0.01980
G1 X96.361 Y119.420 E1.07608
G1 X96.426 Y118.948 E0.01500
G1 X120.408 Y142.930 E1.06935
G1 X120.322 Y142.308 E0.01980
G1 X96.491 Y118.477 E1.06262
G1 X96.556 Y118.006 E0.01500
G1 X120.236 Y141.686 E1.05589
G1 X120.150 Y141.064 E0.01980
G1 X96.621 Y117.535 E1.04916
G1 X96.686 Y117.063 E0.01500
G1 X120.064 Y140.442 E1.04243
G1 X119.978 Y139.819 E0.01980
G1 X96.751 Y116.592 E1.03570
G1 X96.816 Y116.121 E0.01500
G1 X119.892 Y139.197 E1.02897
G1 X119.807 Y138.575 E0.01980
G1 X96.881 Y115.650 E1.02224
G1 X96.946 Y115.179 E0.01500
G1 X119.721 Y137.953 E1.01551
G1 X119.635 Y137.331 E0.01980
G1 X97.011 Y114.707 E1.00878
G1 X97.076 Y114.236 E0.01500
G1 X119.549 Y136.709 E1.00205
G1 X119.463 Y136.087 E0.01980
G1 X97.141 Y113.765 E0.99533
G1 X97.206 Y113.294 E0.01500
G1 X119.377 Y135.464 E0.98860
G1 X119.291 Y134.842 E0.01980
G1 X97.271 Y112.823 E0.98187
G1 X97.337 Y112.351 E0.01500
G1 X119.205 Y134.220 E0.97514
G1 X119.119 Y133.598 E0.01980
G1 X97.402 Y111.880 E0.96841
G1 X97.467 Y111.409 E0.01500
G1 X119.034 Y132.976 E0.96168
G1 X118.948 Y132.354 E0.01980
G1 X97.532 Y110.938 E0.95495
G1 X97.597 Y110.466 E0.01500
G1 X118.862 Y131.732 E0.94822
G1 X118.776 Y131.109 E0.01980
G1 X97.721 Y110.055 E0.93882
G1 X98.258 Y110.055 E0.01691
G1 X118.690 Y130.487 E0.91108
G1 X118.604 Y129.865 E0.01980
G1 X98.794 Y110.055 E0.88334
G1 X99.330 Y110.055 E0.01691
G1 X118.518 Y129.243 E0.85560
G1 X118.432 Y128.621 E0.01980
G1 X99.866 Y110.055 E0.82786
G1 X100.403 Y110.055 E0.01691
G1 X118.347 Y127.999 E0.80012
G1 X118.261 Y127.377 E0.01980
G1 X100.939 Y110.055 E0.77238
G1 X101.475 Y110.055 E0.01691
G1 X118.175 Y126.755 E0.74464
G1 X118.089 Y126.132 E0.01980
G1 X102.012 Y110.055 E0.71689
G1 X102.548 Y110.055 E0.01691
G1 X118.003 Y125.510 E0.68915
G1 X117.917 Y124.888 E0.01980
G1 X103.084 Y110.055 E0.66141
G1 X103.620 Y110.055 E0.01691
G1 X117.831 Y124.266 E0.63367
G1 X117.745 Y123.644 E0.01980
G1 X104.157 Y110.055 E0.60593
G1 X104.693 Y110.055 E0.01691
G1 X117.660 Y123.022 E0.57819
G1 X117.574 Y122.400 E0.01980
G1 X105.229 Y110.055 E0.55045
G1 X105.765 Y110.055 E0.01691
G1 X117.488 Y121.777 E0.52271
M73 P5 R70
G1 X117.402 Y121.155 E0.01980
G1 X106.302 Y110.055 E0.49496
G1 X106.838 Y110.055 E0.01691
G1 X117.316 Y120.533 E0.46722
G1 X117.230 Y119.911 E0.01980
G1 X107.374 Y110.055 E0.43948
G1 X107.910 Y110.055 E0.01691
G1 X117.144 Y119.289 E0.41174
G1 X117.058 Y118.667 E0.01980
G1 X108.447 Y110.055 E0.38400
G1 X108.983 Y110.055 E0.01691
G1 X116.973 Y118.045 E0.35626
G1 X116.887 Y117.422 E0.01980
G1 X109.519 Y110.055 E0.32852
G1 X110.055 Y110.055 E0.01691
G1 X116.801 Y116.800 E0.30078
G1 X116.715 Y116.178 E0.01980
G1 X110.592 Y110.055 E0.27303
G1 X111.128 Y110.055 E0.01691
G1 X116.629 Y115.556 E0.24529
G1 X116.543 Y114.934 E0.01980
G1 X111.664 Y110.055 E0.21755
G1 X112.200 Y110.055 E0.01691
G1 X116.457 Y114.312 E0.18981
G1 X116.371 Y113.690 E0.01980
G1 X112.737 Y110.055 E0.16207
G1 X113.273 Y110.055 E0.01691
G1 X116.285 Y113.067 E0.13433
G1 X116.200 Y112.445 E0.01980
G1 X113.809 Y110.055 E0.10659
G1 X114.346 Y110.055 E0.01691
G1 X116.114 Y111.823 E0.07885
G1 X116.028 Y111.201 E0.01980
G1 X114.882 Y110.055 E0.05110
G1 X115.418 Y110.055 E0.01691
G1 X116.141 Y110.778 E0.03222
G1 E-0.80000 F2100.00000
G1 Z0.800 F10800.000
G1 X143.239 Y100.227
G1 Z0.200
G1 E0.80000 F2100.00000
G1 F1200
G1 X128.953 Y100.227 E0.44793
G1 X133.885 Y64.501 E1.13080
G1 X152.593 Y64.501 E0.58660
G1 X157.525 Y100.227 E1.13080
G1 X143.299 Y100.227 E0.44605
G1 X143.239 Y100.604 F10800.000
G1 F1200
G1 X128.520 Y100.604 E0.46149
G1 X133.556 Y64.124 E1.15467
G1 X152.922 Y64.124 E0.60721
G1 X157.958 Y100.604 E1.15467
G1 X143.299 Y100.604 E0.45961
