; generated by PrusaSlicer 2.1.1+win64 on 2020-01-24 at 21:41:47 UTC

; 

; external perimeters extrusion width = 0.60mm
; perimeters extrusion width = 0.43mm
; infill extrusion width = 0.45mm
; solid infill extrusion width = 0.70mm
; top infill extrusion width = 0.43mm
; first layer extrusion width = 0.42mm

M73 P0 R92
M201 X9000 Y9000 Z500 E10000 ; sets maximum accelerations, mm/sec^2
M203 X500 Y500 Z12 E120 ; sets maximum feedrates, mm/sec
M204 P2000 R1500 T2000 ; sets acceleration (P, T) and retract acceleration (R), mm/sec^2
M205 X10.00 Y10.00 Z0.20 E2.50 ; sets the jerk limits, mm/sec
M205 S0 T0 ; sets the minimum extruding and travel feed rate, mm/sec
M107
M862.3 P "MK2S" ; printer model check
M862.1 P0.4 ; nozzle diameter check
M115 U3.2.3 ; tell printer latest fw version
G90 ; use absolute coordinates
M83 ; extruder relative mode
M204 S2000 T1500 ; MK2 firmware only supports the old M204 format
M104 S215 ; set extruder temp
M140 S60 ; set bed temp
M190 S60 ; wait for bed temp
M109 S215 ; wait for extruder temp
G28 W ; home all without mesh bed level
G80 ; mesh bed leveling
G1 Y-3.0 F1000.0 ; go outside print area
G92 E0.0
G1 X60.0 E9.0  F1000.0 ; intro line
M73 P0 R92
G1 X100.0 E12.5 F1000.0 ; intro line
G92 E0.0
G21 ; set units to millimeters
G90 ; use absolute coordinates
M83 ; use relative distances for extrusion
M900 K30 ; Filament gcode
;BEFORE_LAYER_CHANGE
G92 E0.0
;0.2


G1 E-0.80000 F2100.00000
G1 Z0.600 F10800.000
;AFTER_LAYER_CHANGE
;0.2
G1 X79.556 Y50.994
G1 Z0.200
G1 E0.80000 F2100.00000
M204 S1000
G1 F1200
G1 X79.896 Y50.511 E0.01851
G1 X80.352 Y50.137 E0.01851
G1 X80.892 Y49.898 E0.01851
G1 X81.472 Y49.812 E0.01839
G1 X168.504 Y49.811 E2.72881
G1 X169.330 Y49.975 E0.02642
G1 X170.031 Y50.436 E0.02631
G1 X170.507 Y51.127 E0.02631
G1 X170.688 Y51.947 E0.02631
G1 X170.689 Y130.007 E2.44754
G1 X170.626 Y130.521 E0.01623
G1 X170.444 Y131.006 E0.01623
G1 X169.969 Y131.622 E0.02439
G1 X138.964 Y159.627 E1.30997
G1 X138.463 Y159.965 E0.01896
G1 X138.003 Y160.130 E0.01532
G1 X137.518 Y160.188 E0.01532
G1 X112.500 Y160.189 E0.78442
G1 X111.982 Y160.126 E0.01635
G1 X111.494 Y159.944 E0.01635
G1 X111.035 Y159.626 E0.01749
G1 X80.022 Y131.614 E1.31033
G1 X79.643 Y131.158 E0.01862
G1 X79.400 Y130.616 E0.01862
G1 X79.311 Y130.003 E0.01942
G1 X79.311 Y51.996 E2.44583
G1 X79.374 Y51.479 E0.01635
G1 X79.535 Y51.050 E0.01435
G1 E-0.80000 F2100.00000
G1 Z0.800 F10800.000
G1 X119.413 Y84.413
G1 Z0.200
G1 E0.80000 F2100.00000
G1 F1200
G1 X130.587 Y84.413 E0.35036
G1 X130.587 Y95.587 E0.35036
G1 X119.413 Y95.587 E0.35036
G1 X119.413 Y84.473 E0.34848
G1 X119.790 Y84.790 F10800.000
G1 F1200
G1 X130.210 Y84.790 E0.32671
G1 X130.210 Y95.210 E0.32671
G1 X119.790 Y95.210 E0.32671
G1 X119.790 Y84.850 E0.32483
G1 X119.686 Y84.404 F10800.000
G1 E-0.80000 F2100.00000
G1 Z0.800 F10800.000
G1 X113.087 Y80.587
G1 Z0.200
G1 E0.80000 F2100.00000
G1 F1200
G1 X136.913 Y80.587 E0.74704
G1 X136.913 Y101.413 E0.65298
G1 X113.087 Y101.413 E0.74704
G1 X113.087 Y80.647 E0.65110
G1 X112.710 Y80.210 F10800.000
G1 F1200
G1 X137.290 Y80.210 E0.77069
G1 X137.290 Y101.790 E0.67663
G1 X112.710 Y101.790 E0.77069
G1 X112.710 Y80.270 E0.67474
G1 X113.099 Y80.305 F10800.000
G1 E-0.80000 F2100.00000
G1 Z0.800 F10800.000
G1 X119.300 Y95.435
G1 Z0.200
G1 E0.80000 F2100.00000
G1 F1200
G1 X113.370 Y89.505 E0.26302
G1 X113.370 Y88.972 E0.01673
G1 X119.130 Y94.732 E0.25550
G1 X119.130 Y94.198 E0.01673
G1 X113.370 Y88.438 E0.25550
G1 X113.370 Y87.905 E0.01673
G1 X119.130 Y93.665 E0.25550
G1 X119.130 Y93.132 E0.01673
G1 X113.370 Y87.371 E0.25550
G1 X113.370 Y86.838 E0.01673
G1 X119.130 Y92.598 E0.25550
G1 X119.130 Y92.065 E0.01673
G1 X113.370 Y86.304 E0.25550
G1 X113.370 Y85.771 E0.01673
G1 X119.130 Y91.531 E0.25550
G1 X119.130 Y90.998 E0.01673
G1 X113.370 Y85.238 E0.25550
G1 X113.370 Y84.704 E0.01673
G1 X119.130 Y90.464 E0.25550
G1 X119.130 Y89.931 E0.01673
G1 X113.370 Y84.171 E0.25550
G1 X113.370 Y83.637 E0.01673
G1 X119.130 Y89.398 E0.25550
G1 X119.130 Y88.864 E0.01673
G1 X113.370 Y83.104 E0.25550
G1 X113.370 Y82.570 E0.01673
G1 X119.130 Y88.331 E0.25550
G1 X119.130 Y87.797 E0.01673
G1 X113.370 Y82.037 E0.25550
G1 X113.370 Y81.504 E0.01673
G1 X119.130 Y87.264 E0.25550
G1 X119.130 Y86.730 E0.01673
G1 X113.370 Y80.970 E0.25550
G1 X113.370 Y80.870 E0.00315
G1 X113.803 Y80.870 E0.01358
G1 X119.130 Y86.197 E0.23628
G1 X119.130 Y85.664 E0.01673
G1 X114.336 Y80.870 E0.21262
G1 X114.870 Y80.870 E0.01673
G1 X119.130 Y85.130 E0.18896
G1 X119.130 Y84.597 E0.01673
G1 X115.403 Y80.870 E0.16530
G1 X115.937 Y80.870 E0.01673
G1 X119.197 Y84.130 E0.14461
G1 X119.730 Y84.130 E0.01673
G1 X116.470 Y80.870 E0.14461
G1 X117.004 Y80.870 E0.01673
G1 X120.264 Y84.130 E0.14461
G1 X120.797 Y84.130 E0.01673
G1 X117.537 Y80.870 E0.14461
G1 X118.070 Y80.870 E0.01673
G1 X121.331 Y84.130 E0.14461
G1 X121.864 Y84.130 E0.01673
G1 X118.604 Y80.870 E0.14461
G1 X119.137 Y80.870 E0.01673
G1 X122.398 Y84.130 E0.14461
G1 X122.931 Y84.130 E0.01673
G1 X119.671 Y80.870 E0.14461
G1 X120.204 Y80.870 E0.01673
G1 X123.464 Y84.130 E0.14461
G1 X123.998 Y84.130 E0.01673
G1 X120.738 Y80.870 E0.14461
G1 X121.271 Y80.870 E0.01673
G1 X124.531 Y84.130 E0.14461
G1 X125.065 Y84.130 E0.01673
G1 X121.804 Y80.870 E0.14461
G1 X122.338 Y80.870 E0.01673
G1 X125.598 Y84.130 E0.14461
G1 X126.132 Y84.130 E0.01673
G1 X122.871 Y80.870 E0.14461
G1 X123.405 Y80.870 E0.01673
G1 X126.665 Y84.130 E0.14461
G1 X127.198 Y84.130 E0.01673
G1 X123.938 Y80.870 E0.14461
G1 X124.472 Y80.870 E0.01673
G1 X127.732 Y84.130 E0.14461
G1 X128.265 Y84.130 E0.01673
G1 X125.005 Y80.870 E0.14461
G1 X125.538 Y80.870 E0.01673
G1 X128.799 Y84.130 E0.14461
G1 X129.332 Y84.130 E0.01673
G1 X126.072 Y80.870 E0.14461
G1 X126.605 Y80.870 E0.01673
G1 X129.866 Y84.130 E0.14461
G1 X130.399 Y84.130 E0.01673
G1 X127.139 Y80.870 E0.14461
G1 X127.672 Y80.870 E0.01673
G1 X136.630 Y89.828 E0.39733
G1 X136.630 Y89.294 E0.01673
G1 X128.206 Y80.870 E0.37367
G1 X128.739 Y80.870 E0.01673
G1 X136.630 Y88.761 E0.35001
G1 X136.630 Y88.228 E0.01673
G1 X129.272 Y80.870 E0.32635
G1 X129.806 Y80.870 E0.01673
G1 X136.630 Y87.694 E0.30269
G1 X136.630 Y87.161 E0.01673
G1 X130.339 Y80.870 E0.27903
G1 X130.873 Y80.870 E0.01673
G1 X136.630 Y86.627 E0.25537
G1 X136.630 Y86.094 E0.01673
G1 X131.406 Y80.870 E0.23171
G1 X131.940 Y80.870 E0.01673
G1 X136.630 Y85.560 E0.20805
G1 X136.630 Y85.027 E0.01673
G1 X132.473 Y80.870 E0.18439
G1 X133.006 Y80.870 E0.01673
G1 X136.630 Y84.494 E0.16073
G1 X136.630 Y83.960 E0.01673
G1 X133.540 Y80.870 E0.13707
G1 X134.073 Y80.870 E0.01673
G1 X136.630 Y83.427 E0.11341
G1 X136.630 Y82.893 E0.01673
G1 X134.607 Y80.870 E0.08975
G1 X135.140 Y80.870 E0.01673
G1 X136.630 Y82.360 E0.06609
G1 X136.630 Y81.826 E0.01673
G1 X135.674 Y80.870 E0.04243
G1 X136.207 Y80.870 E0.01673
G1 X136.800 Y81.463 E0.02629
G1 E-0.80000 F2100.00000
G1 Z0.800 F10800.000
G1 X136.800 Y90.531
G1 Z0.200
G1 E0.80000 F2100.00000
G1 F1200
G1 X130.870 Y84.601 E0.26302
G1 X130.870 Y85.134 E0.01673
G1 X136.630 Y90.895 E0.25550
G1 X136.630 Y91.428 E0.01673
G1 X130.870 Y85.668 E0.25550
G1 X130.870 Y86.201 E0.01673
G1 X136.630 Y91.962 E0.25550
G1 X136.630 Y92.495 E0.01673
G1 X130.870 Y86.735 E0.25550
G1 X130.870 Y87.268 E0.01673
M73 P1 R91
G1 X136.630 Y93.028 E0.25550
G1 X136.630 Y93.562 E0.01673
G1 X130.870 Y87.802 E0.25550
G1 X130.870 Y88.335 E0.01673
G1 X136.630 Y94.095 E0.25550
G1 X136.630 Y94.629 E0.01673
G1 X130.870 Y88.868 E0.25550
G1 X130.870 Y89.402 E0.01673
G1 X136.630 Y95.162 E0.25550
G1 X136.630 Y95.696 E0.01673
G1 X130.870 Y89.935 E0.25550
G1 X130.870 Y90.469 E0.01673
G1 X136.630 Y96.229 E0.25550
G1 X136.630 Y96.762 E0.01673
G1 X130.870 Y91.002 E0.25550
G1 X130.870 Y91.536 E0.01673
G1 X136.630 Y97.296 E0.25550
G1 X136.630 Y97.829 E0.01673
G1 X130.870 Y92.069 E0.25550
G1 X130.870 Y92.602 E0.01673
G1 X136.630 Y98.363 E0.25550
G1 X136.630 Y98.896 E0.01673
G1 X130.870 Y93.136 E0.25550
G1 X130.870 Y93.669 E0.01673
G1 X136.630 Y99.430 E0.25550
G1 X136.630 Y99.963 E0.01673
G1 X130.870 Y94.203 E0.25550
G1 X130.870 Y94.736 E0.01673
G1 X136.630 Y100.496 E0.25550
G1 X136.630 Y101.030 E0.01673
G1 X130.870 Y95.270 E0.25550
G1 X130.870 Y95.803 E0.01673
G1 X136.197 Y101.130 E0.23628
G1 X135.664 Y101.130 E0.01673
G1 X130.403 Y95.870 E0.23332
G1 X129.870 Y95.870 E0.01673
G1 X135.130 Y101.130 E0.23332
G1 X134.597 Y101.130 E0.01673
G1 X129.336 Y95.870 E0.23332
G1 X128.803 Y95.870 E0.01673
G1 X134.063 Y101.130 E0.23332
G1 X133.530 Y101.130 E0.01673
G1 X128.270 Y95.870 E0.23332
G1 X127.736 Y95.870 E0.01673
G1 X132.996 Y101.130 E0.23332
G1 X132.463 Y101.130 E0.01673
G1 X127.203 Y95.870 E0.23332
G1 X126.669 Y95.870 E0.01673
G1 X131.930 Y101.130 E0.23332
G1 X131.396 Y101.130 E0.01673
G1 X126.136 Y95.870 E0.23332
G1 X125.602 Y95.870 E0.01673
G1 X130.863 Y101.130 E0.23332
G1 X130.329 Y101.130 E0.01673
G1 X125.069 Y95.870 E0.23332
G1 X124.536 Y95.870 E0.01673
G1 X129.796 Y101.130 E0.23332
G1 X129.262 Y101.130 E0.01673
G1 X124.002 Y95.870 E0.23332
G1 X123.469 Y95.870 E0.01673
G1 X128.729 Y101.130 E0.23332
G1 X128.196 Y101.130 E0.01673
G1 X122.935 Y95.870 E0.23332
G1 X122.402 Y95.870 E0.01673
G1 X127.662 Y101.130 E0.23332
G1 X127.129 Y101.130 E0.01673
G1 X121.868 Y95.870 E0.23332
G1 X121.335 Y95.870 E0.01673
G1 X126.595 Y101.130 E0.23332
G1 X126.062 Y101.130 E0.01673
G1 X120.802 Y95.870 E0.23332
G1 X120.268 Y95.870 E0.01673
G1 X125.528 Y101.130 E0.23332
G1 X124.995 Y101.130 E0.01673
G1 X119.565 Y95.700 E0.24084
G1 E-0.80000 F2100.00000
G1 Z0.800 F10800.000
G1 X124.631 Y101.300
G1 Z0.200
G1 E0.80000 F2100.00000
G1 F1200
G1 X113.370 Y90.038 E0.49950
G1 X113.370 Y90.572 E0.01673
G1 X123.928 Y101.130 E0.46831
G1 X123.395 Y101.130 E0.01673
G1 X113.370 Y91.105 E0.44465
G1 X113.370 Y91.639 E0.01673
G1 X122.861 Y101.130 E0.42099
G1 X122.328 Y101.130 E0.01673
G1 X113.370 Y92.172 E0.39733
G1 X113.370 Y92.706 E0.01673
G1 X121.794 Y101.130 E0.37367
G1 X121.261 Y101.130 E0.01673
G1 X113.370 Y93.239 E0.35001
G1 X113.370 Y93.772 E0.01673
G1 X120.728 Y101.130 E0.32635
G1 X120.194 Y101.130 E0.01673
G1 X113.370 Y94.306 E0.30269
G1 X113.370 Y94.839 E0.01673
G1 X119.661 Y101.130 E0.27903
G1 X119.127 Y101.130 E0.01673
G1 X113.370 Y95.373 E0.25537
G1 X113.370 Y95.906 E0.01673
G1 X118.594 Y101.130 E0.23171
G1 X118.060 Y101.130 E0.01673
G1 X113.370 Y96.440 E0.20805
G1 X113.370 Y96.973 E0.01673
G1 X117.527 Y101.130 E0.18439
G1 X116.994 Y101.130 E0.01673
G1 X113.370 Y97.506 E0.16073
G1 X113.370 Y98.040 E0.01673
G1 X116.460 Y101.130 E0.13707
G1 X115.927 Y101.130 E0.01673
G1 X113.370 Y98.573 E0.11341
G1 X113.370 Y99.107 E0.01673
G1 X115.393 Y101.130 E0.08975
G1 X114.860 Y101.130 E0.01673
G1 X113.370 Y99.640 E0.06609
G1 X113.370 Y100.174 E0.01673
G1 X114.326 Y101.130 E0.04243
G1 X113.793 Y101.130 E0.01673
G1 X113.200 Y100.537 E0.02629
G1 E-0.80000 F2100.00000
G1 Z0.800 F10800.000
G1 X119.413 Y112.413
G1 Z0.200
G1 E0.80000 F2100.00000
G1 F1200
G1 X130.587 Y112.413 E0.35036
G1 X130.587 Y123.587 E0.35036
G1 X119.413 Y123.587 E0.35036
G1 X119.413 Y112.473 E0.34848
G1 X119.790 Y112.790 F10800.000
G1 F1200
G1 X130.210 Y112.790 E0.32671
G1 X130.210 Y123.210 E0.32671
G1 X119.790 Y123.210 E0.32671
G1 X119.790 Y112.850 E0.32483
G1 X119.686 Y112.404 F10800.000
G1 E-0.80000 F2100.00000
G1 Z0.800 F10800.000
G1 X113.087 Y108.587
G1 Z0.200
G1 E0.80000 F2100.00000
G1 F1200
G1 X136.913 Y108.587 E0.74704
G1 X136.913 Y129.413 E0.65298
G1 X113.087 Y129.413 E0.74704
G1 X113.087 Y108.647 E0.65110
G1 X112.710 Y108.210 F10800.000
G1 F1200
G1 X137.290 Y108.210 E0.77069
G1 X137.290 Y129.790 E0.67663
G1 X112.710 Y129.790 E0.77069
G1 X112.710 Y108.270 E0.67474
G1 X113.099 Y108.305 F10800.000
G1 E-0.80000 F2100.00000
G1 Z0.800 F10800.000
G1 X119.300 Y123.435
G1 Z0.200
G1 E0.80000 F2100.00000
G1 F1200
G1 X113.370 Y117.505 E0.26302
G1 X113.370 Y116.972 E0.01673
G1 X119.130 Y122.732 E0.25550
G1 X119.130 Y122.198 E0.01673
G1 X113.370 Y116.438 E0.25550
G1 X113.370 Y115.905 E0.01673
G1 X119.130 Y121.665 E0.25550
G1 X119.130 Y121.132 E0.01673
G1 X113.370 Y115.371 E0.25550
G1 X113.370 Y114.838 E0.01673
G1 X119.130 Y120.598 E0.25550
G1 X119.130 Y120.065 E0.01673
G1 X113.370 Y114.304 E0.25550
G1 X113.370 Y113.771 E0.01673
G1 X119.130 Y119.531 E0.25550
G1 X119.130 Y118.998 E0.01673
G1 X113.370 Y113.238 E0.25550
G1 X113.370 Y112.704 E0.01673
G1 X119.130 Y118.464 E0.25550
G1 X119.130 Y117.931 E0.01673
G1 X113.370 Y112.171 E0.25550
G1 X113.370 Y111.637 E0.01673
G1 X119.130 Y117.398 E0.25550
G1 X119.130 Y116.864 E0.01673
G1 X113.370 Y111.104 E0.25550
G1 X113.370 Y110.570 E0.01673
G1 X119.130 Y116.331 E0.25550
G1 X119.130 Y115.797 E0.01673
G1 X113.370 Y110.037 E0.25550
G1 X113.370 Y109.504 E0.01673
G1 X119.130 Y115.264 E0.25550
G1 X119.130 Y114.730 E0.01673
G1 X113.370 Y108.970 E0.25550
G1 X113.370 Y108.870 E0.00315
G1 X113.803 Y108.870 E0.01358
G1 X119.130 Y114.197 E0.23628
G1 X119.130 Y113.664 E0.01673
G1 X114.336 Y108.870 E0.21262
G1 X114.870 Y108.870 E0.01673
G1 X119.130 Y113.130 E0.18896
G1 X119.130 Y112.597 E0.01673
G1 X115.403 Y108.870 E0.16530
G1 X115.937 Y108.870 E0.01673
G1 X119.197 Y112.130 E0.14461
G1 X119.730 Y112.130 E0.01673
G1 X116.470 Y108.870 E0.14461
G1 X117.004 Y108.870 E0.01673
G1 X120.264 Y112.130 E0.14461
G1 X120.797 Y112.130 E0.01673
G1 X117.537 Y108.870 E0.14461
G1 X118.070 Y108.870 E0.01673
G1 X121.331 Y112.130 E0.14461
G1 X121.864 Y112.130 E0.01673
G1 X118.604 Y108.870 E0.14461
G1 X119.137 Y108.870 E0.01673
G1 X122.398 Y112.130 E0.14461
G1 X122.931 Y112.130 E0.01673
G1 X119.671 Y108.870 E0.14461
G1 X120.204 Y108.870 E0.01673
G1 X123.464 Y112.130 E0.14461
G1 X123.998 Y112.130 E0.01673
G1 X120.738 Y108.870 E0.14461
G1 X121.271 Y108.870 E0.01673
G1 X124.531 Y112.130 E0.14461
G1 X125.065 Y112.130 E0.01673
G1 X121.804 Y108.870 E0.14461
G1 X122.338 Y108.870 E0.01673
G1 X125.598 Y112.130 E0.14461
G1 X126.132 Y112.130 E0.01673
G1 X122.871 Y108.870 E0.14461
G1 X123.405 Y108.870 E0.01673
G1 X126.665 Y112.130 E0.14461
G1 X127.198 Y112.130 E0.01673
G1 X123.938 Y108.870 E0.14461
G1 X124.472 Y108.870 E0.01673
G1 X127.732 Y112.130 E0.14461
G1 X128.265 Y112.130 E0.01673
G1 X125.005 Y108.870 E0.14461
G1 X125.538 Y108.870 E0.01673
G1 X128.799 Y112.130 E0.14461
G1 X129.332 Y112.130 E0.01673
G1 X126.072 Y108.870 E0.14461
G1 X126.605 Y108.870 E0.01673
G1 X129.866 Y112.130 E0.14461
G1 X130.399 Y112.130 E0.01673
G1 X127.139 Y108.870 E0.14461
G1 X127.672 Y108.870 E0.01673
G1 X136.630 Y117.828 E0.39733
G1 X136.630 Y117.294 E0.01673
G1 X128.206 Y108.870 E0.37367
G1 X128.739 Y108.870 E0.01673
G1 X136.630 Y116.761 E0.35001
G1 X136.630 Y116.228 E0.01673
G1 X129.272 Y108.870 E0.32635
G1 X129.806 Y108.870 E0.01673
G1 X136.630 Y115.694 E0.30269
G1 X136.630 Y115.161 E0.01673
G1 X130.339 Y108.870 E0.27903
G1 X130.873 Y108.870 E0.01673
G1 X136.630 Y114.627 E0.25537
G1 X136.630 Y114.094 E0.01673
G1 X131.406 Y108.870 E0.23171
G1 X131.940 Y108.870 E0.01673
G1 X136.630 Y113.560 E0.20805
G1 X136.630 Y113.027 E0.01673
G1 X132.473 Y108.870 E0.18439
M73 P2 R90
G1 X133.006 Y108.870 E0.01673
G1 X136.630 Y112.494 E0.16073
G1 X136.630 Y111.960 E0.01673
G1 X133.540 Y108.870 E0.13707
G1 X134.073 Y108.870 E0.01673
G1 X136.630 Y111.427 E0.11341
G1 X136.630 Y110.893 E0.01673
G1 X134.607 Y108.870 E0.08975
G1 X135.140 Y108.870 E0.01673
G1 X136.630 Y110.360 E0.06609
G1 X136.630 Y109.826 E0.01673
G1 X135.674 Y108.870 E0.04243
G1 X136.207 Y108.870 E0.01673
G1 X136.800 Y109.463 E0.02629
G1 E-0.80000 F2100.00000
G1 Z0.800 F10800.000
G1 X136.800 Y118.531
G1 Z0.200
G1 E0.80000 F2100.00000
G1 F1200
G1 X130.870 Y112.601 E0.26302
G1 X130.870 Y113.134 E0.01673
G1 X136.630 Y118.895 E0.25550
G1 X136.630 Y119.428 E0.01673
G1 X130.870 Y113.668 E0.25550
G1 X130.870 Y114.201 E0.01673
G1 X136.630 Y119.962 E0.25550
G1 X136.630 Y120.495 E0.01673
G1 X130.870 Y114.735 E0.25550
G1 X130.870 Y115.268 E0.01673
G1 X136.630 Y121.028 E0.25550
G1 X136.630 Y121.562 E0.01673
G1 X130.870 Y115.802 E0.25550
G1 X130.870 Y116.335 E0.01673
G1 X136.630 Y122.095 E0.25550
G1 X136.630 Y122.629 E0.01673
G1 X130.870 Y116.868 E0.25550
G1 X130.870 Y117.402 E0.01673
G1 X136.630 Y123.162 E0.25550
G1 X136.630 Y123.696 E0.01673
