; generated by PrusaSlicer 2.2.0+win64 on 2020-09-09 at 18:53:12 UTC

; 

; external perimeters extrusion width = 0.60mm
; perimeters extrusion width = 0.43mm
; infill extrusion width = 0.45mm
; solid infill extrusion width = 0.70mm
; top infill extrusion width = 0.43mm
; first layer extrusion width = 0.42mm

M73 P0 R77
M201 X9000 Y9000 Z500 E10000 ; sets maximum accelerations, mm/sec^2
M203 X500 Y500 Z12 E120 ; sets maximum feedrates, mm/sec
M204 P2000 R1500 T2000 ; sets acceleration (P, T) and retract acceleration (R), mm/sec^2
M205 X10.00 Y10.00 Z0.20 E2.50 ; sets the jerk limits, mm/sec
M205 S0 T0 ; sets the minimum extruding and travel feed rate, mm/sec
M107
M862.3 P "MK2S" ; printer model check
M862.1 P0.4 ; nozzle diameter check
M115 U3.2.3 ; tell printer latest fw version
G90 ; use absolute coordinates
M83 ; extruder relative mode
M204 S2000 T1500 ; MK2 firmware only supports the old M204 format
M104 S215 ; set extruder temp
M140 S60 ; set bed temp
M190 S60 ; wait for bed temp
M109 S215 ; wait for extruder temp
G28 W ; home all without mesh bed level
G80 ; mesh bed leveling
G1 Y-3.0 F1000.0 ; go outside print area
G92 E0.0
G1 X60.0 E9.0  F1000.0 ; intro line
M73 P0 R77
G1 X100.0 E12.5 F1000.0 ; intro line
G92 E0.0
G21 ; set units to millimeters
G90 ; use absolute coordinates
M83 ; use relative distances for extrusion
M900 K0.06 ; Filament gcode LA 1.5
M900 K30 ; Filament gcode LA 1.0
;BEFORE_LAYER_CHANGE
G92 E0.0
;0.2


G1 E-0.80000 F2100.00000
G1 Z0.600 F10800.000
;AFTER_LAYER_CHANGE
;0.2
G1 X64.187 Y59.962
G1 Z0.200
G1 E0.80000 F2100.00000
M204 S1000
G1 F1200.000
G1 X64.761 Y59.472 E0.02367
G1 X65.463 Y59.184 E0.02378
G1 X66.000 Y59.123 E0.01696
G1 X184.004 Y59.123 E3.69993
G1 X184.892 Y59.297 E0.02837
G1 X185.653 Y59.792 E0.02849
G1 X186.172 Y60.534 E0.02837
G1 X186.376 Y61.415 E0.02837
G1 X186.377 Y117.511 E1.75886
G1 X186.311 Y118.055 E0.01716
G1 X186.125 Y118.565 E0.01704
G1 X185.783 Y119.072 E0.01917
G1 X185.323 Y119.475 E0.01917
G1 X138.812 Y150.482 E1.75267
G1 X138.036 Y150.816 E0.02649
G1 X137.507 Y150.877 E0.01668
G1 X112.454 Y150.877 E0.78552
G1 X111.654 Y150.722 E0.02555
G1 X110.954 Y150.305 E0.02555
G1 X110.600 Y149.928 E0.01621
G1 X64.096 Y87.923 E2.43016
G1 X63.844 Y87.502 E0.01538
G1 X63.685 Y87.038 E0.01538
G1 X63.623 Y86.506 E0.01680
G1 X63.628 Y61.348 E0.78882
G1 X63.797 Y60.608 E0.02378
G1 X64.156 Y60.014 E0.02178
G1 X66.787 Y62.287 F10800.000
G1 F1200.000
G1 X90.213 Y62.287 E0.73450
G1 X90.213 Y85.713 E0.73450
G1 X66.787 Y85.713 E0.73450
G1 X66.787 Y62.347 E0.73262
G1 X66.410 Y61.910 F10800.000
G1 F1200.000
G1 X90.590 Y61.910 E0.75815
G1 X90.590 Y86.090 E0.75815
G1 X66.410 Y86.090 E0.75815
G1 X66.410 Y61.970 E0.75627
G1 X66.796 Y62.014 F10800.000
G1 E-0.80000 F2100.00000
G1 Z0.800 F10800.000
G1 X90.100 Y63.164
G1 Z0.200
G1 E0.80000 F2100.00000
G1 F1200.000
G1 X89.506 Y62.570 E0.02638
G1 X88.972 Y62.570 E0.01678
G1 X89.930 Y63.528 E0.04257
G1 X89.930 Y64.063 E0.01678
G1 X88.437 Y62.570 E0.06630
G1 X87.903 Y62.570 E0.01678
G1 X89.930 Y64.597 E0.09003
G1 X89.930 Y65.131 E0.01678
G1 X87.369 Y62.570 E0.11376
G1 X86.835 Y62.570 E0.01678
G1 X89.930 Y65.665 E0.13748
G1 X89.930 Y66.199 E0.01678
G1 X86.301 Y62.570 E0.16121
G1 X85.767 Y62.570 E0.01678
G1 X89.930 Y66.733 E0.18494
G1 X89.930 Y67.268 E0.01678
G1 X85.232 Y62.570 E0.20867
G1 X84.698 Y62.570 E0.01678
G1 X89.930 Y67.802 E0.23240
G1 X89.930 Y68.336 E0.01678
G1 X84.164 Y62.570 E0.25612
G1 X83.630 Y62.570 E0.01678
G1 X89.930 Y68.870 E0.27985
G1 X89.930 Y69.404 E0.01678
G1 X83.096 Y62.570 E0.30358
G1 X82.561 Y62.570 E0.01678
G1 X89.930 Y69.939 E0.32731
G1 X89.930 Y70.473 E0.01678
G1 X82.027 Y62.570 E0.35103
G1 X81.493 Y62.570 E0.01678
G1 X89.930 Y71.007 E0.37476
G1 X89.930 Y71.541 E0.01678
G1 X80.959 Y62.570 E0.39849
G1 X80.425 Y62.570 E0.01678
G1 X89.930 Y72.075 E0.42222
G1 X89.930 Y72.610 E0.01678
G1 X79.890 Y62.570 E0.44595
G1 X79.356 Y62.570 E0.01678
G1 X89.930 Y73.144 E0.46967
G1 X89.930 Y73.678 E0.01678
G1 X78.822 Y62.570 E0.49340
G1 X78.288 Y62.570 E0.01678
G1 X89.930 Y74.212 E0.51713
G1 X89.930 Y74.746 E0.01678
G1 X77.754 Y62.570 E0.54086
G1 X77.219 Y62.570 E0.01678
G1 X89.930 Y75.281 E0.56458
G1 X89.930 Y75.815 E0.01678
G1 X76.685 Y62.570 E0.58831
G1 X76.151 Y62.570 E0.01678
G1 X89.930 Y76.349 E0.61204
G1 X89.930 Y76.883 E0.01678
G1 X75.617 Y62.570 E0.63577
G1 X75.083 Y62.570 E0.01678
G1 X89.930 Y77.417 E0.65950
G1 X89.930 Y77.951 E0.01678
G1 X74.548 Y62.570 E0.68322
G1 X74.014 Y62.570 E0.01678
G1 X89.930 Y78.486 E0.70695
G1 X89.930 Y79.020 E0.01678
G1 X73.480 Y62.570 E0.73068
G1 X72.946 Y62.570 E0.01678
G1 X89.930 Y79.554 E0.75441
G1 X89.930 Y80.088 E0.01678
G1 X72.412 Y62.570 E0.77813
G1 X71.878 Y62.570 E0.01678
G1 X89.930 Y80.622 E0.80186
G1 X89.930 Y81.157 E0.01678
G1 X71.343 Y62.570 E0.82559
G1 X70.809 Y62.570 E0.01678
G1 X89.930 Y81.691 E0.84932
G1 X89.930 Y82.225 E0.01678
G1 X70.275 Y62.570 E0.87305
G1 X69.741 Y62.570 E0.01678
G1 X89.930 Y82.759 E0.89677
M73 P1 R76
G1 X89.930 Y83.293 E0.01678
G1 X69.207 Y62.570 E0.92050
G1 X68.672 Y62.570 E0.01678
G1 X89.930 Y83.828 E0.94423
G1 X89.930 Y84.362 E0.01678
G1 X68.138 Y62.570 E0.96796
G1 X67.604 Y62.570 E0.01678
G1 X89.930 Y84.896 E0.99168
G1 X89.930 Y85.430 E0.01678
G1 X67.070 Y62.570 E1.01541
G1 X67.070 Y63.104 E0.01678
G1 X89.396 Y85.430 E0.99168
G1 X88.862 Y85.430 E0.01678
G1 X67.070 Y63.638 E0.96795
G1 X67.070 Y64.172 E0.01678
G1 X88.327 Y85.430 E0.94422
G1 X87.793 Y85.430 E0.01678
G1 X67.070 Y64.707 E0.92050
G1 X67.070 Y65.241 E0.01678
G1 X87.259 Y85.430 E0.89677
G1 X86.725 Y85.430 E0.01678
G1 X67.070 Y65.775 E0.87304
G1 X67.070 Y66.309 E0.01678
G1 X86.191 Y85.430 E0.84931
G1 X85.657 Y85.430 E0.01678
G1 X67.070 Y66.843 E0.82559
G1 X67.070 Y67.378 E0.01678
G1 X85.122 Y85.430 E0.80186
G1 X84.588 Y85.430 E0.01678
G1 X67.070 Y67.912 E0.77813
G1 X67.070 Y68.446 E0.01678
G1 X84.054 Y85.430 E0.75440
G1 X83.520 Y85.430 E0.01678
G1 X67.070 Y68.980 E0.73067
G1 X67.070 Y69.514 E0.01678
G1 X82.986 Y85.430 E0.70695
G1 X82.451 Y85.430 E0.01678
G1 X67.070 Y70.049 E0.68322
G1 X67.070 Y70.583 E0.01678
G1 X81.917 Y85.430 E0.65949
G1 X81.383 Y85.430 E0.01678
G1 X67.070 Y71.117 E0.63576
G1 X67.070 Y71.651 E0.01678
G1 X80.849 Y85.430 E0.61204
G1 X80.315 Y85.430 E0.01678
G1 X67.070 Y72.185 E0.58831
G1 X67.070 Y72.720 E0.01678
G1 X79.780 Y85.430 E0.56458
G1 X79.246 Y85.430 E0.01678
G1 X67.070 Y73.254 E0.54085
G1 X67.070 Y73.788 E0.01678
G1 X78.712 Y85.430 E0.51712
G1 X78.178 Y85.430 E0.01678
G1 X67.070 Y74.322 E0.49340
G1 X67.070 Y74.856 E0.01678
G1 X77.644 Y85.430 E0.46967
G1 X77.109 Y85.430 E0.01678
G1 X67.070 Y75.391 E0.44594
G1 X67.070 Y75.925 E0.01678
G1 X76.575 Y85.430 E0.42221
G1 X76.041 Y85.430 E0.01678
G1 X67.070 Y76.459 E0.39849
G1 X67.070 Y76.993 E0.01678
G1 X75.507 Y85.430 E0.37476
G1 X74.973 Y85.430 E0.01678
G1 X67.070 Y77.527 E0.35103
G1 X67.070 Y78.061 E0.01678
G1 X74.439 Y85.430 E0.32730
G1 X73.904 Y85.430 E0.01678
G1 X67.070 Y78.596 E0.30357
G1 X67.070 Y79.130 E0.01678
G1 X73.370 Y85.430 E0.27985
G1 X72.836 Y85.430 E0.01678
G1 X67.070 Y79.664 E0.25612
G1 X67.070 Y80.198 E0.01678
G1 X72.302 Y85.430 E0.23239
G1 X71.768 Y85.430 E0.01678
G1 X67.070 Y80.732 E0.20866
G1 X67.070 Y81.267 E0.01678
G1 X71.233 Y85.430 E0.18494
G1 X70.699 Y85.430 E0.01678
G1 X67.070 Y81.801 E0.16121
G1 X67.070 Y82.335 E0.01678
G1 X70.165 Y85.430 E0.13748
G1 X69.631 Y85.430 E0.01678
G1 X67.070 Y82.869 E0.11375
G1 X67.070 Y83.403 E0.01678
G1 X69.097 Y85.430 E0.09002
G1 X68.562 Y85.430 E0.01678
G1 X67.070 Y83.938 E0.06630
G1 X67.070 Y84.472 E0.01678
G1 X68.028 Y85.430 E0.04257
G1 X67.494 Y85.430 E0.01678
G1 X66.900 Y84.836 E0.02638
G1 E-0.80000 F2100.00000
G1 Z0.800 F10800.000
G1 X113.287 Y124.287
G1 Z0.200
G1 E0.80000 F2100.00000
G1 F1200.000
G1 X136.713 Y124.287 E0.73450
G1 X136.713 Y147.713 E0.73450
G1 X113.287 Y147.713 E0.73450
G1 X113.287 Y124.347 E0.73262
G1 X112.910 Y123.910 F10800.000
G1 F1200.000
G1 X137.090 Y123.910 E0.75815
G1 X137.090 Y148.090 E0.75815
G1 X112.910 Y148.090 E0.75815
G1 X112.910 Y123.970 E0.75627
G1 X113.296 Y124.014 F10800.000
G1 E-0.80000 F2100.00000
G1 Z0.800 F10800.000
G1 X136.600 Y125.164
G1 Z0.200
G1 E0.80000 F2100.00000
G1 F1200.000
G1 X136.006 Y124.570 E0.02638
G1 X135.472 Y124.570 E0.01678
G1 X136.430 Y125.528 E0.04257
G1 X136.430 Y126.063 E0.01678
G1 X134.937 Y124.570 E0.06630
G1 X134.403 Y124.570 E0.01678
G1 X136.430 Y126.597 E0.09003
G1 X136.430 Y127.131 E0.01678
G1 X133.869 Y124.570 E0.11376
G1 X133.335 Y124.570 E0.01678
G1 X136.430 Y127.665 E0.13748
G1 X136.430 Y128.199 E0.01678
G1 X132.801 Y124.570 E0.16121
G1 X132.267 Y124.570 E0.01678
G1 X136.430 Y128.733 E0.18494
G1 X136.430 Y129.268 E0.01678
G1 X131.732 Y124.570 E0.20867
G1 X131.198 Y124.570 E0.01678
G1 X136.430 Y129.802 E0.23240
G1 X136.430 Y130.336 E0.01678
G1 X130.664 Y124.570 E0.25612
G1 X130.130 Y124.570 E0.01678
G1 X136.430 Y130.870 E0.27985
G1 X136.430 Y131.404 E0.01678
G1 X129.596 Y124.570 E0.30358
G1 X129.061 Y124.570 E0.01678
G1 X136.430 Y131.939 E0.32731
G1 X136.430 Y132.473 E0.01678
G1 X128.527 Y124.570 E0.35103
G1 X127.993 Y124.570 E0.01678
G1 X136.430 Y133.007 E0.37476
G1 X136.430 Y133.541 E0.01678
G1 X127.459 Y124.570 E0.39849
M73 P2 R75
G1 X126.925 Y124.570 E0.01678
G1 X136.430 Y134.075 E0.42222
G1 X136.430 Y134.610 E0.01678
G1 X126.390 Y124.570 E0.44595
G1 X125.856 Y124.570 E0.01678
G1 X136.430 Y135.144 E0.46967
G1 X136.430 Y135.678 E0.01678
G1 X125.322 Y124.570 E0.49340
G1 X124.788 Y124.570 E0.01678
G1 X136.430 Y136.212 E0.51713
G1 X136.430 Y136.746 E0.01678
G1 X124.254 Y124.570 E0.54086
G1 X123.719 Y124.570 E0.01678
G1 X136.430 Y137.281 E0.56458
G1 X136.430 Y137.815 E0.01678
G1 X123.185 Y124.570 E0.58831
G1 X122.651 Y124.570 E0.01678
G1 X136.430 Y138.349 E0.61204
G1 X136.430 Y138.883 E0.01678
G1 X122.117 Y124.570 E0.63577
G1 X121.583 Y124.570 E0.01678
G1 X136.430 Y139.417 E0.65950
G1 X136.430 Y139.952 E0.01678
G1 X121.048 Y124.570 E0.68322
G1 X120.514 Y124.570 E0.01678
G1 X136.430 Y140.486 E0.70695
G1 X136.430 Y141.020 E0.01678
G1 X119.980 Y124.570 E0.73068
G1 X119.446 Y124.570 E0.01678
G1 X136.430 Y141.554 E0.75441
G1 X136.430 Y142.088 E0.01678
G1 X118.912 Y124.570 E0.77813
G1 X118.378 Y124.570 E0.01678
G1 X136.430 Y142.622 E0.80186
G1 X136.430 Y143.157 E0.01678
G1 X117.843 Y124.570 E0.82559
G1 X117.309 Y124.570 E0.01678
G1 X136.430 Y143.691 E0.84932
G1 X136.430 Y144.225 E0.01678
G1 X116.775 Y124.570 E0.87305
G1 X116.241 Y124.570 E0.01678
G1 X136.430 Y144.759 E0.89677
G1 X136.430 Y145.293 E0.01678
G1 X115.707 Y124.570 E0.92050
G1 X115.172 Y124.570 E0.01678
G1 X136.430 Y145.828 E0.94423
G1 X136.430 Y146.362 E0.01678
G1 X114.638 Y124.570 E0.96796
G1 X114.104 Y124.570 E0.01678
G1 X136.430 Y146.896 E0.99168
G1 X136.430 Y147.430 E0.01678
G1 X113.570 Y124.570 E1.01541
G1 X113.570 Y125.104 E0.01678
G1 X135.896 Y147.430 E0.99168
G1 X135.362 Y147.430 E0.01678
G1 X113.570 Y125.638 E0.96795
G1 X113.570 Y126.172 E0.01678
G1 X134.827 Y147.430 E0.94422
G1 X134.293 Y147.430 E0.01678
G1 X113.570 Y126.707 E0.92050
G1 X113.570 Y127.241 E0.01678
G1 X133.759 Y147.430 E0.89677
G1 X133.225 Y147.430 E0.01678
G1 X113.570 Y127.775 E0.87304
G1 X113.570 Y128.309 E0.01678
G1 X132.691 Y147.430 E0.84931
G1 X132.157 Y147.430 E0.01678
G1 X113.570 Y128.843 E0.82559
G1 X113.570 Y129.378 E0.01678
G1 X131.622 Y147.430 E0.80186
G1 X131.088 Y147.430 E0.01678
G1 X113.570 Y129.912 E0.77813
G1 X113.570 Y130.446 E0.01678
G1 X130.554 Y147.430 E0.75440
G1 X130.020 Y147.430 E0.01678
G1 X113.570 Y130.980 E0.73067
G1 X113.570 Y131.514 E0.01678
G1 X129.486 Y147.430 E0.70695
G1 X128.951 Y147.430 E0.01678
G1 X113.570 Y132.049 E0.68322
G1 X113.570 Y132.583 E0.01678
G1 X128.417 Y147.430 E0.65949
G1 X127.883 Y147.430 E0.01678
G1 X113.570 Y133.117 E0.63576
G1 X113.570 Y133.651 E0.01678
G1 X127.349 Y147.430 E0.61204
G1 X126.815 Y147.430 E0.01678
G1 X113.570 Y134.185 E0.58831
G1 X113.570 Y134.720 E0.01678
G1 X126.280 Y147.430 E0.56458
G1 X125.746 Y147.430 E0.01678
G1 X113.570 Y135.254 E0.54085
G1 X113.570 Y135.788 E0.01678
G1 X125.212 Y147.430 E0.51712
G1 X124.678 Y147.430 E0.01678
G1 X113.570 Y136.322 E0.49340
G1 X113.570 Y136.856 E0.01678
G1 X124.144 Y147.430 E0.46967
G1 X123.609 Y147.430 E0.01678
G1 X113.570 Y137.391 E0.44594
G1 X113.570 Y137.925 E0.01678
G1 X123.075 Y147.430 E0.42221
G1 X122.541 Y147.430 E0.01678
G1 X113.570 Y138.459 E0.39849
M73 P3 R74
G1 X113.570 Y138.993 E0.01678
G1 X122.007 Y147.430 E0.37476
G1 X121.473 Y147.430 E0.01678
G1 X113.570 Y139.527 E0.35103
G1 X113.570 Y140.061 E0.01678
G1 X120.939 Y147.430 E0.32730
G1 X120.404 Y147.430 E0.01678
G1 X113.570 Y140.596 E0.30357
G1 X113.570 Y141.130 E0.01678
G1 X119.870 Y147.430 E0.27985
G1 X119.336 Y147.430 E0.01678
G1 X113.570 Y141.664 E0.25612
G1 X113.570 Y142.198 E0.01678
G1 X118.802 Y147.430 E0.23239
G1 X118.268 Y147.430 E0.01678
G1 X113.570 Y142.732 E0.20866
G1 X113.570 Y143.267 E0.01678
G1 X117.733 Y147.430 E0.18494
G1 X117.199 Y147.430 E0.01678
G1 X113.570 Y143.801 E0.16121
G1 X113.570 Y144.335 E0.01678
G1 X116.665 Y147.430 E0.13748
G1 X116.131 Y147.430 E0.01678
G1 X113.570 Y144.869 E0.11375
G1 X113.570 Y145.403 E0.01678
G1 X115.597 Y147.430 E0.09002
G1 X115.062 Y147.430 E0.01678
G1 X113.570 Y145.938 E0.06630
G1 X113.570 Y146.472 E0.01678
G1 X114.528 Y147.430 E0.04257
G1 X113.994 Y147.430 E0.01678
G1 X113.400 Y146.836 E0.02638
G1 E-0.80000 F2100.00000
G1 Z0.800 F10800.000
G1 X128.787 Y116.713
G1 Z0.200
G1 E0.80000 F2100.00000
G1 F1200.000
G1 X128.787 Y93.287 E0.73450
G1 X152.213 Y93.287 E0.73450
G1 X152.213 Y116.713 E0.73450
G1 X128.847 Y116.713 E0.73262
G1 X128.410 Y117.090 F10800.000
G1 F1200.000
G1 X128.410 Y92.910 E0.75815
G1 X152.590 Y92.910 E0.75815
G1 X152.590 Y117.090 E0.75815
G1 X128.470 Y117.090 E0.75627
G1 X128.514 Y116.704 F10800.000
G1 E-0.80000 F2100.00000
G1 Z0.800 F10800.000
G1 X152.100 Y94.164
G1 Z0.200
G1 E0.80000 F2100.00000
G1 F1200.000
G1 X151.506 Y93.570 E0.02638
G1 X150.972 Y93.570 E0.01678
G1 X151.930 Y94.528 E0.04257
G1 X151.930 Y95.063 E0.01678
G1 X150.437 Y93.570 E0.06630
G1 X149.903 Y93.570 E0.01678
G1 X151.930 Y95.597 E0.09003
G1 X151.930 Y96.131 E0.01678
G1 X149.369 Y93.570 E0.11376
G1 X148.835 Y93.570 E0.01678
G1 X151.930 Y96.665 E0.13748
G1 X151.930 Y97.199 E0.01678
G1 X148.301 Y93.570 E0.16121
G1 X147.767 Y93.570 E0.01678
G1 X151.930 Y97.733 E0.18494
G1 X151.930 Y98.268 E0.01678
G1 X147.232 Y93.570 E0.20867
G1 X146.698 Y93.570 E0.01678
G1 X151.930 Y98.802 E0.23240
G1 X151.930 Y99.336 E0.01678
G1 X146.164 Y93.570 E0.25612
G1 X145.630 Y93.570 E0.01678
G1 X151.930 Y99.870 E0.27985
G1 X151.930 Y100.404 E0.01678
G1 X145.096 Y93.570 E0.30358
G1 X144.561 Y93.570 E0.01678
G1 X151.930 Y100.939 E0.32731
G1 X151.930 Y101.473 E0.01678
G1 X144.027 Y93.570 E0.35103
G1 X143.493 Y93.570 E0.01678
G1 X151.930 Y102.007 E0.37476
G1 X151.930 Y102.541 E0.01678
G1 X142.959 Y93.570 E0.39849
G1 X142.425 Y93.570 E0.01678
G1 X151.930 Y103.075 E0.42222
G1 X151.930 Y103.610 E0.01678
G1 X141.890 Y93.570 E0.44595
G1 X141.356 Y93.570 E0.01678
G1 X151.930 Y104.144 E0.46967
G1 X151.930 Y104.678 E0.01678
G1 X140.822 Y93.570 E0.49340
G1 X140.288 Y93.570 E0.01678
G1 X151.930 Y105.212 E0.51713
G1 X151.930 Y105.746 E0.01678
G1 X139.754 Y93.570 E0.54086
G1 X139.219 Y93.570 E0.01678
G1 X151.930 Y106.281 E0.56458
G1 X151.930 Y106.815 E0.01678
G1 X138.685 Y93.570 E0.58831
G1 X138.151 Y93.570 E0.01678
G1 X151.930 Y107.349 E0.61204
G1 X151.930 Y107.883 E0.01678
G1 X137.617 Y93.570 E0.63577
G1 X137.083 Y93.570 E0.01678
G1 X151.930 Y108.417 E0.65950
G1 X151.930 Y108.951 E0.01678
G1 X136.548 Y93.570 E0.68322
G1 X136.014 Y93.570 E0.01678
G1 X151.930 Y109.486 E0.70695
G1 X151.930 Y110.020 E0.01678
G1 X135.480 Y93.570 E0.73068
G1 X134.946 Y93.570 E0.01678
G1 X151.930 Y110.554 E0.75441
G1 X151.930 Y111.088 E0.01678
G1 X134.412 Y93.570 E0.77813
G1 X133.878 Y93.570 E0.01678
G1 X151.930 Y111.622 E0.80186
G1 X151.930 Y112.157 E0.01678
G1 X133.343 Y93.570 E0.82559
G1 X132.809 Y93.570 E0.01678
G1 X151.930 Y112.691 E0.84932
G1 X151.930 Y113.225 E0.01678
G1 X132.275 Y93.570 E0.87305
G1 X131.741 Y93.570 E0.01678
G1 X151.930 Y113.759 E0.89677
G1 X151.930 Y114.293 E0.01678
