; generated by PrusaSlicer 2.2.0+win64 on 2020-09-09 at 18:52:58 UTC

; 

; external perimeters extrusion width = 0.60mm
; perimeters extrusion width = 0.43mm
; infill extrusion width = 0.45mm
; solid infill extrusion width = 0.70mm
; top infill extrusion width = 0.43mm
; first layer extrusion width = 0.42mm

M73 P0 R42
M201 X9000 Y9000 Z500 E10000 ; sets maximum accelerations, mm/sec^2
M203 X500 Y500 Z12 E120 ; sets maximum feedrates, mm/sec
M204 P2000 R1500 T2000 ; sets acceleration (P, T) and retract acceleration (R), mm/sec^2
M205 X10.00 Y10.00 Z0.20 E2.50 ; sets the jerk limits, mm/sec
M205 S0 T0 ; sets the minimum extruding and travel feed rate, mm/sec
M107
M862.3 P "MK2S" ; printer model check
M862.1 P0.4 ; nozzle diameter check
M115 U3.2.3 ; tell printer latest fw version
G90 ; use absolute coordinates
M83 ; extruder relative mode
M204 S2000 T1500 ; MK2 firmware only supports the old M204 format
M104 S215 ; set extruder temp
M140 S60 ; set bed temp
M190 S60 ; wait for bed temp
M109 S215 ; wait for extruder temp
G28 W ; home all without mesh bed level
G80 ; mesh bed leveling
G1 Y-3.0 F1000.0 ; go outside print area
G92 E0.0
G1 X60.0 E9.0  F1000.0 ; intro line
M73 P0 R42
G1 X100.0 E12.5 F1000.0 ; intro line
G92 E0.0
G21 ; set units to millimeters
G90 ; use absolute coordinates
M83 ; use relative distances for extrusion
M900 K0.06 ; Filament gcode LA 1.5
M900 K30 ; Filament gcode LA 1.0
;BEFORE_LAYER_CHANGE
G92 E0.0
;0.2


G1 E-0.80000 F2100.00000
G1 Z0.600 F10800.000
;AFTER_LAYER_CHANGE
;0.2
G1 X95.284 Y75.355
G1 Z0.200
G1 E0.80000 F2100.00000
M204 S1000
G1 F1200.000
G1 X96.051 Y74.821 E0.02931
G1 X96.968 Y74.623 E0.02942
G1 X153.004 Y74.623 E1.75695
G1 X153.895 Y74.798 E0.02849
G1 X154.659 Y75.297 E0.02860
G1 X155.178 Y76.048 E0.02860
G1 X155.376 Y76.934 E0.02849
G1 X155.377 Y133.027 E1.75874
G1 X155.201 Y133.899 E0.02790
G1 X154.716 Y134.645 E0.02790
G1 X153.935 Y135.185 E0.02977
G1 X153.005 Y135.377 E0.02977
G1 X96.973 Y135.377 E1.75683
G1 X96.101 Y135.201 E0.02790
G1 X95.355 Y134.716 E0.02790
G1 X94.815 Y133.935 E0.02977
G1 X94.623 Y133.005 E0.02977
G1 X94.623 Y76.973 E1.75683
G1 X94.799 Y76.101 E0.02790
G1 X95.251 Y75.405 E0.02602
G1 E-0.80000 F2100.00000
G1 Z0.800 F10800.000
G1 X128.787 Y108.787
G1 Z0.200
G1 E0.80000 F2100.00000
G1 F1200.000
G1 X152.213 Y108.787 E0.73450
G1 X152.213 Y132.213 E0.73450
G1 X128.787 Y132.213 E0.73450
G1 X128.787 Y108.847 E0.73262
G1 X128.410 Y108.410 F10800.000
G1 F1200.000
G1 X152.590 Y108.410 E0.75815
G1 X152.590 Y132.590 E0.75815
G1 X128.410 Y132.590 E0.75815
G1 X128.410 Y108.470 E0.75627
G1 X128.796 Y108.514 F10800.000
G1 E-0.80000 F2100.00000
G1 Z0.800 F10800.000
G1 X152.100 Y109.664
G1 Z0.200
G1 E0.80000 F2100.00000
G1 F1200.000
G1 X151.506 Y109.070 E0.02638
G1 X150.972 Y109.070 E0.01678
G1 X151.930 Y110.028 E0.04257
G1 X151.930 Y110.563 E0.01678
G1 X150.437 Y109.070 E0.06630
G1 X149.903 Y109.070 E0.01678
G1 X151.930 Y111.097 E0.09003
G1 X151.930 Y111.631 E0.01678
G1 X149.369 Y109.070 E0.11376
G1 X148.835 Y109.070 E0.01678
G1 X151.930 Y112.165 E0.13748
G1 X151.930 Y112.699 E0.01678
G1 X148.301 Y109.070 E0.16121
G1 X147.767 Y109.070 E0.01678
G1 X151.930 Y113.233 E0.18494
G1 X151.930 Y113.768 E0.01678
G1 X147.232 Y109.070 E0.20867
G1 X146.698 Y109.070 E0.01678
G1 X151.930 Y114.302 E0.23240
G1 X151.930 Y114.836 E0.01678
G1 X146.164 Y109.070 E0.25612
G1 X145.630 Y109.070 E0.01678
G1 X151.930 Y115.370 E0.27985
G1 X151.930 Y115.904 E0.01678
G1 X145.096 Y109.070 E0.30358
G1 X144.561 Y109.070 E0.01678
G1 X151.930 Y116.439 E0.32731
G1 X151.930 Y116.973 E0.01678
G1 X144.027 Y109.070 E0.35103
G1 X143.493 Y109.070 E0.01678
G1 X151.930 Y117.507 E0.37476
G1 X151.930 Y118.041 E0.01678
G1 X142.959 Y109.070 E0.39849
G1 X142.425 Y109.070 E0.01678
G1 X151.930 Y118.575 E0.42222
G1 X151.930 Y119.110 E0.01678
G1 X141.890 Y109.070 E0.44595
G1 X141.356 Y109.070 E0.01678
G1 X151.930 Y119.644 E0.46967
G1 X151.930 Y120.178 E0.01678
G1 X140.822 Y109.070 E0.49340
G1 X140.288 Y109.070 E0.01678
G1 X151.930 Y120.712 E0.51713
G1 X151.930 Y121.246 E0.01678
G1 X139.754 Y109.070 E0.54086
G1 X139.219 Y109.070 E0.01678
G1 X151.930 Y121.781 E0.56458
G1 X151.930 Y122.315 E0.01678
G1 X138.685 Y109.070 E0.58831
G1 X138.151 Y109.070 E0.01678
G1 X151.930 Y122.849 E0.61204
G1 X151.930 Y123.383 E0.01678
G1 X137.617 Y109.070 E0.63577
G1 X137.083 Y109.070 E0.01678
G1 X151.930 Y123.917 E0.65950
G1 X151.930 Y124.451 E0.01678
G1 X136.548 Y109.070 E0.68322
G1 X136.014 Y109.070 E0.01678
G1 X151.930 Y124.986 E0.70695
G1 X151.930 Y125.520 E0.01678
G1 X135.480 Y109.070 E0.73068
G1 X134.946 Y109.070 E0.01678
G1 X151.930 Y126.054 E0.75441
G1 X151.930 Y126.588 E0.01678
G1 X134.412 Y109.070 E0.77813
G1 X133.878 Y109.070 E0.01678
G1 X151.930 Y127.122 E0.80186
G1 X151.930 Y127.657 E0.01678
G1 X133.343 Y109.070 E0.82559
G1 X132.809 Y109.070 E0.01678
G1 X151.930 Y128.191 E0.84932
G1 X151.930 Y128.725 E0.01678
G1 X132.275 Y109.070 E0.87305
G1 X131.741 Y109.070 E0.01678
G1 X151.930 Y129.259 E0.89677
G1 X151.930 Y129.793 E0.01678
G1 X131.207 Y109.070 E0.92050
G1 X130.672 Y109.070 E0.01678
G1 X151.930 Y130.328 E0.94423
G1 X151.930 Y130.862 E0.01678
G1 X130.138 Y109.070 E0.96796
G1 X129.604 Y109.070 E0.01678
G1 X151.930 Y131.396 E0.99168
M73 P2 R41
G1 X151.930 Y131.930 E0.01678
G1 X129.070 Y109.070 E1.01541
G1 X129.070 Y109.604 E0.01678
G1 X151.396 Y131.930 E0.99168
G1 X150.862 Y131.930 E0.01678
G1 X129.070 Y110.138 E0.96795
G1 X129.070 Y110.672 E0.01678
G1 X150.327 Y131.930 E0.94422
G1 X149.793 Y131.930 E0.01678
G1 X129.070 Y111.207 E0.92050
G1 X129.070 Y111.741 E0.01678
G1 X149.259 Y131.930 E0.89677
G1 X148.725 Y131.930 E0.01678
G1 X129.070 Y112.275 E0.87304
G1 X129.070 Y112.809 E0.01678
G1 X148.191 Y131.930 E0.84931
G1 X147.657 Y131.930 E0.01678
G1 X129.070 Y113.343 E0.82559
G1 X129.070 Y113.878 E0.01678
G1 X147.122 Y131.930 E0.80186
G1 X146.588 Y131.930 E0.01678
G1 X129.070 Y114.412 E0.77813
G1 X129.070 Y114.946 E0.01678
G1 X146.054 Y131.930 E0.75440
G1 X145.520 Y131.930 E0.01678
G1 X129.070 Y115.480 E0.73067
G1 X129.070 Y116.014 E0.01678
G1 X144.986 Y131.930 E0.70695
G1 X144.451 Y131.930 E0.01678
G1 X129.070 Y116.549 E0.68322
G1 X129.070 Y117.083 E0.01678
G1 X143.917 Y131.930 E0.65949
G1 X143.383 Y131.930 E0.01678
G1 X129.070 Y117.617 E0.63576
G1 X129.070 Y118.151 E0.01678
G1 X142.849 Y131.930 E0.61204
G1 X142.315 Y131.930 E0.01678
G1 X129.070 Y118.685 E0.58831
G1 X129.070 Y119.220 E0.01678
G1 X141.780 Y131.930 E0.56458
G1 X141.246 Y131.930 E0.01678
G1 X129.070 Y119.754 E0.54085
G1 X129.070 Y120.288 E0.01678
G1 X140.712 Y131.930 E0.51712
G1 X140.178 Y131.930 E0.01678
G1 X129.070 Y120.822 E0.49340
G1 X129.070 Y121.356 E0.01678
G1 X139.644 Y131.930 E0.46967
G1 X139.109 Y131.930 E0.01678
G1 X129.070 Y121.891 E0.44594
G1 X129.070 Y122.425 E0.01678
G1 X138.575 Y131.930 E0.42221
G1 X138.041 Y131.930 E0.01678
G1 X129.070 Y122.959 E0.39849
G1 X129.070 Y123.493 E0.01678
G1 X137.507 Y131.930 E0.37476
G1 X136.973 Y131.930 E0.01678
G1 X129.070 Y124.027 E0.35103
G1 X129.070 Y124.561 E0.01678
G1 X136.439 Y131.930 E0.32730
G1 X135.904 Y131.930 E0.01678
G1 X129.070 Y125.096 E0.30357
G1 X129.070 Y125.630 E0.01678
G1 X135.370 Y131.930 E0.27985
G1 X134.836 Y131.930 E0.01678
G1 X129.070 Y126.164 E0.25612
G1 X129.070 Y126.698 E0.01678
G1 X134.302 Y131.930 E0.23239
G1 X133.768 Y131.930 E0.01678
G1 X129.070 Y127.232 E0.20866
G1 X129.070 Y127.767 E0.01678
G1 X133.233 Y131.930 E0.18494
G1 X132.699 Y131.930 E0.01678
G1 X129.070 Y128.301 E0.16121
G1 X129.070 Y128.835 E0.01678
G1 X132.165 Y131.930 E0.13748
G1 X131.631 Y131.930 E0.01678
G1 X129.070 Y129.369 E0.11375
G1 X129.070 Y129.903 E0.01678
G1 X131.097 Y131.930 E0.09002
G1 X130.562 Y131.930 E0.01678
G1 X129.070 Y130.438 E0.06630
G1 X129.070 Y130.972 E0.01678
G1 X130.028 Y131.930 E0.04257
G1 X129.494 Y131.930 E0.01678
G1 X128.900 Y131.336 E0.02638
G1 E-0.80000 F2100.00000
G1 Z0.800 F10800.000
G1 X121.213 Y132.213
G1 Z0.200
G1 E0.80000 F2100.00000
G1 F1200.000
G1 X97.787 Y132.213 E0.73450
G1 X97.787 Y108.787 E0.73450
G1 X121.213 Y108.787 E0.73450
G1 X121.213 Y132.153 E0.73262
G1 X121.590 Y132.590 F10800.000
G1 F1200.000
G1 X97.410 Y132.590 E0.75815
G1 X97.410 Y108.410 E0.75815
G1 X121.590 Y108.410 E0.75815
G1 X121.590 Y132.530 E0.75627
G1 X121.204 Y132.486 F10800.000
G1 E-0.80000 F2100.00000
G1 Z0.800 F10800.000
G1 X97.900 Y131.336
G1 Z0.200
G1 E0.80000 F2100.00000
G1 F1200.000
G1 X98.494 Y131.930 E0.02638
G1 X99.028 Y131.930 E0.01678
G1 X98.070 Y130.972 E0.04257
G1 X98.070 Y130.438 E0.01678
G1 X99.562 Y131.930 E0.06630
G1 X100.097 Y131.930 E0.01678
G1 X98.070 Y129.903 E0.09002
G1 X98.070 Y129.369 E0.01678
G1 X100.631 Y131.930 E0.11375
G1 X101.165 Y131.930 E0.01678
G1 X98.070 Y128.835 E0.13748
G1 X98.070 Y128.301 E0.01678
G1 X101.699 Y131.930 E0.16121
G1 X102.233 Y131.930 E0.01678
G1 X98.070 Y127.767 E0.18494
G1 X98.070 Y127.232 E0.01678
G1 X102.768 Y131.930 E0.20866
G1 X103.302 Y131.930 E0.01678
G1 X98.070 Y126.698 E0.23239
G1 X98.070 Y126.164 E0.01678
G1 X103.836 Y131.930 E0.25612
G1 X104.370 Y131.930 E0.01678
G1 X98.070 Y125.630 E0.27985
G1 X98.070 Y125.096 E0.01678
G1 X104.904 Y131.930 E0.30357
G1 X105.439 Y131.930 E0.01678
G1 X98.070 Y124.561 E0.32730
G1 X98.070 Y124.027 E0.01678
G1 X105.973 Y131.930 E0.35103
G1 X106.507 Y131.930 E0.01678
G1 X98.070 Y123.493 E0.37476
G1 X98.070 Y122.959 E0.01678
G1 X107.041 Y131.930 E0.39849
G1 X107.575 Y131.930 E0.01678
G1 X98.070 Y122.425 E0.42221
G1 X98.070 Y121.891 E0.01678
G1 X108.109 Y131.930 E0.44594
G1 X108.644 Y131.930 E0.01678
G1 X98.070 Y121.356 E0.46967
G1 X98.070 Y120.822 E0.01678
G1 X109.178 Y131.930 E0.49340
G1 X109.712 Y131.930 E0.01678
G1 X98.070 Y120.288 E0.51712
G1 X98.070 Y119.754 E0.01678
G1 X110.246 Y131.930 E0.54085
G1 X110.780 Y131.930 E0.01678
G1 X98.070 Y119.220 E0.56458
G1 X98.070 Y118.685 E0.01678
G1 X111.315 Y131.930 E0.58831
M73 P5 R40
G1 X111.849 Y131.930 E0.01678
G1 X98.070 Y118.151 E0.61204
G1 X98.070 Y117.617 E0.01678
G1 X112.383 Y131.930 E0.63576
G1 X112.917 Y131.930 E0.01678
G1 X98.070 Y117.083 E0.65949
G1 X98.070 Y116.549 E0.01678
G1 X113.451 Y131.930 E0.68322
G1 X113.986 Y131.930 E0.01678
G1 X98.070 Y116.014 E0.70695
G1 X98.070 Y115.480 E0.01678
G1 X114.520 Y131.930 E0.73067
G1 X115.054 Y131.930 E0.01678
G1 X98.070 Y114.946 E0.75440
G1 X98.070 Y114.412 E0.01678
G1 X115.588 Y131.930 E0.77813
G1 X116.122 Y131.930 E0.01678
G1 X98.070 Y113.878 E0.80186
G1 X98.070 Y113.343 E0.01678
G1 X116.657 Y131.930 E0.82559
G1 X117.191 Y131.930 E0.01678
G1 X98.070 Y112.809 E0.84931
G1 X98.070 Y112.275 E0.01678
G1 X117.725 Y131.930 E0.87304
G1 X118.259 Y131.930 E0.01678
G1 X98.070 Y111.741 E0.89677
G1 X98.070 Y111.207 E0.01678
G1 X118.793 Y131.930 E0.92050
G1 X119.327 Y131.930 E0.01678
G1 X98.070 Y110.672 E0.94422
G1 X98.070 Y110.138 E0.01678
G1 X119.862 Y131.930 E0.96795
G1 X120.396 Y131.930 E0.01678
G1 X98.070 Y109.604 E0.99168
G1 X98.070 Y109.070 E0.01678
G1 X120.930 Y131.930 E1.01541
G1 X120.930 Y131.396 E0.01678
G1 X98.604 Y109.070 E0.99168
G1 X99.138 Y109.070 E0.01678
G1 X120.930 Y130.862 E0.96796
G1 X120.930 Y130.328 E0.01678
G1 X99.672 Y109.070 E0.94423
G1 X100.207 Y109.070 E0.01678
G1 X120.930 Y129.793 E0.92050
G1 X120.930 Y129.259 E0.01678
G1 X100.741 Y109.070 E0.89677
G1 X101.275 Y109.070 E0.01678
G1 X120.930 Y128.725 E0.87305
G1 X120.930 Y128.191 E0.01678
G1 X101.809 Y109.070 E0.84932
G1 X102.343 Y109.070 E0.01678
G1 X120.930 Y127.657 E0.82559
G1 X120.930 Y127.122 E0.01678
G1 X102.878 Y109.070 E0.80186
G1 X103.412 Y109.070 E0.01678
G1 X120.930 Y126.588 E0.77813
G1 X120.930 Y126.054 E0.01678
G1 X103.946 Y109.070 E0.75441
G1 X104.480 Y109.070 E0.01678
G1 X120.930 Y125.520 E0.73068
G1 X120.930 Y124.986 E0.01678
G1 X105.014 Y109.070 E0.70695
G1 X105.548 Y109.070 E0.01678
G1 X120.930 Y124.451 E0.68322
G1 X120.930 Y123.917 E0.01678
G1 X106.083 Y109.070 E0.65950
G1 X106.617 Y109.070 E0.01678
G1 X120.930 Y123.383 E0.63577
G1 X120.930 Y122.849 E0.01678
G1 X107.151 Y109.070 E0.61204
G1 X107.685 Y109.070 E0.01678
G1 X120.930 Y122.315 E0.58831
G1 X120.930 Y121.781 E0.01678
G1 X108.219 Y109.070 E0.56458
G1 X108.754 Y109.070 E0.01678
G1 X120.930 Y121.246 E0.54086
G1 X120.930 Y120.712 E0.01678
G1 X109.288 Y109.070 E0.51713
G1 X109.822 Y109.070 E0.01678
G1 X120.930 Y120.178 E0.49340
G1 X120.930 Y119.644 E0.01678
G1 X110.356 Y109.070 E0.46967
G1 X110.890 Y109.070 E0.01678
G1 X120.930 Y119.110 E0.44595
G1 X120.930 Y118.575 E0.01678
G1 X111.425 Y109.070 E0.42222
G1 X111.959 Y109.070 E0.01678
G1 X120.930 Y118.041 E0.39849
G1 X120.930 Y117.507 E0.01678
G1 X112.493 Y109.070 E0.37476
G1 X113.027 Y109.070 E0.01678
G1 X120.930 Y116.973 E0.35103
G1 X120.930 Y116.439 E0.01678
G1 X113.561 Y109.070 E0.32731
G1 X114.096 Y109.070 E0.01678
G1 X120.930 Y115.904 E0.30358
G1 X120.930 Y115.370 E0.01678
G1 X114.630 Y109.070 E0.27985
G1 X115.164 Y109.070 E0.01678
G1 X120.930 Y114.836 E0.25612
G1 X120.930 Y114.302 E0.01678
G1 X115.698 Y109.070 E0.23240
G1 X116.232 Y109.070 E0.01678
G1 X120.930 Y113.768 E0.20867
G1 X120.930 Y113.233 E0.01678
G1 X116.767 Y109.070 E0.18494
G1 X117.301 Y109.070 E0.01678
G1 X120.930 Y112.699 E0.16121
G1 X120.930 Y112.165 E0.01678
G1 X117.835 Y109.070 E0.13748
G1 X118.369 Y109.070 E0.01678
G1 X120.930 Y111.631 E0.11376
G1 X120.930 Y111.097 E0.01678
G1 X118.903 Y109.070 E0.09003
G1 X119.437 Y109.070 E0.01678
G1 X120.930 Y110.563 E0.06630
G1 X120.930 Y110.028 E0.01678
G1 X119.972 Y109.070 E0.04257
G1 X120.506 Y109.070 E0.01678
G1 X121.100 Y109.664 E0.02638
G1 E-0.80000 F2100.00000
G1 Z0.800 F10800.000
G1 X121.100 Y101.213
G1 Z0.200
G1 E0.80000 F2100.00000
G1 F1200.000
G1 X97.787 Y101.213 E0.73095
M73 P7 R39
G1 X97.787 Y77.787 E0.73450
G1 X121.213 Y77.787 E0.73450
G1 X121.213 Y101.213 E0.73450
G1 X121.160 Y101.213 E0.00167
G1 X121.590 Y101.590 F10800.000
G1 F1200.000
G1 X97.410 Y101.590 E0.75815
G1 X97.410 Y77.410 E0.75815
G1 X121.590 Y77.410 E0.75815
G1 X121.590 Y101.530 E0.75627
G1 X121.204 Y101.486 F10800.000
G1 E-0.80000 F2100.00000
G1 Z0.800 F10800.000
G1 X97.900 Y100.336
G1 Z0.200
G1 E0.80000 F2100.00000
G1 F1200.000
G1 X98.494 Y100.930 E0.02638
G1 X99.028 Y100.930 E0.01678
G1 X98.070 Y99.972 E0.04257
G1 X98.070 Y99.438 E0.01678
G1 X99.562 Y100.930 E0.06630
G1 X100.097 Y100.930 E0.01678
G1 X98.070 Y98.903 E0.09002
G1 X98.070 Y98.369 E0.01678
G1 X100.631 Y100.930 E0.11375
G1 X101.165 Y100.930 E0.01678
G1 X98.070 Y97.835 E0.13748
G1 X98.070 Y97.301 E0.01678
G1 X101.699 Y100.930 E0.16121
G1 X102.233 Y100.930 E0.01678
G1 X98.070 Y96.767 E0.18494
G1 X98.070 Y96.232 E0.01678
G1 X102.768 Y100.930 E0.20866
G1 X103.302 Y100.930 E0.01678
G1 X98.070 Y95.698 E0.23239
G1 X98.070 Y95.164 E0.01678
G1 X103.836 Y100.930 E0.25612
G1 X104.370 Y100.930 E0.01678
G1 X98.070 Y94.630 E0.27985
G1 X98.070 Y94.096 E0.01678
G1 X104.904 Y100.930 E0.30357
G1 X105.439 Y100.930 E0.01678
G1 X98.070 Y93.561 E0.32730
G1 X98.070 Y93.027 E0.01678
G1 X105.973 Y100.930 E0.35103
G1 X106.507 Y100.930 E0.01678
G1 X98.070 Y92.493 E0.37476
G1 X98.070 Y91.959 E0.01678
G1 X107.041 Y100.930 E0.39849
G1 X107.575 Y100.930 E0.01678
G1 X98.070 Y91.425 E0.42221
G1 X98.070 Y90.891 E0.01678
G1 X108.109 Y100.930 E0.44594
G1 X108.644 Y100.930 E0.01678
G1 X98.070 Y90.356 E0.46967
G1 X98.070 Y89.822 E0.01678
G1 X109.178 Y100.930 E0.49340
G1 X109.712 Y100.930 E0.01678
G1 X98.070 Y89.288 E0.51712
G1 X98.070 Y88.754 E0.01678
G1 X110.246 Y100.930 E0.54085
G1 X110.780 Y100.930 E0.01678
G1 X98.070 Y88.220 E0.56458
G1 X98.070 Y87.685 E0.01678
G1 X111.315 Y100.930 E0.58831
G1 X111.849 Y100.930 E0.01678
G1 X98.070 Y87.151 E0.61204
G1 X98.070 Y86.617 E0.01678
G1 X112.383 Y100.930 E0.63576
G1 X112.917 Y100.930 E0.01678
G1 X98.070 Y86.083 E0.65949
G1 X98.070 Y85.549 E0.01678
G1 X113.451 Y100.930 E0.68322
G1 X113.986 Y100.930 E0.01678
G1 X98.070 Y85.014 E0.70695
G1 X98.070 Y84.480 E0.01678
G1 X114.520 Y100.930 E0.73067
G1 X115.054 Y100.930 E0.01678
G1 X98.070 Y83.946 E0.75440
G1 X98.070 Y83.412 E0.01678
G1 X115.588 Y100.930 E0.77813
G1 X116.122 Y100.930 E0.01678
G1 X98.070 Y82.878 E0.80186
G1 X98.070 Y82.343 E0.01678
G1 X116.657 Y100.930 E0.82559
G1 X117.191 Y100.930 E0.01678
