; generated by PrusaSlicer 2.2.0+win64 on 2020-09-09 at 18:53:45 UTC

; 

; external perimeters extrusion width = 0.60mm
; perimeters extrusion width = 0.43mm
; infill extrusion width = 0.45mm
; solid infill extrusion width = 0.70mm
; top infill extrusion width = 0.43mm
; first layer extrusion width = 0.42mm

M73 P0 R190
M201 X9000 Y9000 Z500 E10000 ; sets maximum accelerations, mm/sec^2
M203 X500 Y500 Z12 E120 ; sets maximum feedrates, mm/sec
M204 P2000 R1500 T2000 ; sets acceleration (P, T) and retract acceleration (R), mm/sec^2
M205 X10.00 Y10.00 Z0.20 E2.50 ; sets the jerk limits, mm/sec
M205 S0 T0 ; sets the minimum extruding and travel feed rate, mm/sec
M107
M862.3 P "MK2S" ; printer model check
M862.1 P0.4 ; nozzle diameter check
M115 U3.2.3 ; tell printer latest fw version
G90 ; use absolute coordinates
M83 ; extruder relative mode
M204 S2000 T1500 ; MK2 firmware only supports the old M204 format
M104 S215 ; set extruder temp
M140 S60 ; set bed temp
M190 S60 ; wait for bed temp
M109 S215 ; wait for extruder temp
G28 W ; home all without mesh bed level
G80 ; mesh bed leveling
G1 Y-3.0 F1000.0 ; go outside print area
G92 E0.0
G1 X60.0 E9.0  F1000.0 ; intro line
M73 P0 R190
G1 X100.0 E12.5 F1000.0 ; intro line
G92 E0.0
G21 ; set units to millimeters
G90 ; use absolute coordinates
M83 ; use relative distances for extrusion
M900 K0.06 ; Filament gcode LA 1.5
M900 K30 ; Filament gcode LA 1.0
;BEFORE_LAYER_CHANGE
G92 E0.0
;0.2


G1 E-0.80000 F2100.00000
G1 Z0.600 F10800.000
;AFTER_LAYER_CHANGE
;0.2
G1 X49.703 Y43.760
G1 Z0.200
G1 E0.80000 F2100.00000
M204 S1000
G1 F1200.000
G1 X50.491 Y43.623 E0.02508
G1 X199.504 Y43.623 E4.67218
G1 X200.406 Y43.802 E0.02884
G1 X201.172 Y44.311 E0.02884
G1 X201.688 Y45.072 E0.02884
G1 X201.877 Y45.972 E0.02884
G1 X201.877 Y164.019 E3.70127
G1 X201.815 Y164.540 E0.01645
G1 X201.640 Y165.035 E0.01645
G1 X201.361 Y165.479 E0.01645
G1 X200.994 Y165.849 E0.01633
G1 X200.297 Y166.240 E0.02508
G1 X199.509 Y166.377 E0.02508
G1 X50.496 Y166.377 E4.67218
G1 X49.975 Y166.318 E0.01645
G1 X49.476 Y166.145 E0.01657
G1 X49.027 Y165.866 E0.01657
G1 X48.651 Y165.494 E0.01657
G1 X48.260 Y164.797 E0.02508
G1 X48.123 Y164.009 E0.02508
G1 X48.123 Y45.992 E3.70032
G1 X48.183 Y45.467 E0.01657
G1 X48.357 Y44.972 E0.01645
G1 X48.636 Y44.524 E0.01657
G1 X49.006 Y44.151 E0.01645
G1 X49.651 Y43.790 E0.02320
G1 E-0.80000 F2100.00000
G1 Z0.800 F10800.000
G1 X51.287 Y108.787
G1 Z0.200
G1 E0.80000 F2100.00000
G1 F1200.000
G1 X74.713 Y108.787 E0.73450
G1 X74.713 Y132.213 E0.73450
G1 X51.287 Y132.213 E0.73450
G1 X51.287 Y108.847 E0.73262
G1 X50.910 Y108.410 F10800.000
G1 F1200.000
G1 X75.090 Y108.410 E0.75815
G1 X75.090 Y132.590 E0.75815
G1 X50.910 Y132.590 E0.75815
G1 X50.910 Y108.470 E0.75627
G1 X51.296 Y108.514 F10800.000
G1 E-0.80000 F2100.00000
G1 Z0.800 F10800.000
G1 X74.600 Y109.664
G1 Z0.200
G1 E0.80000 F2100.00000
G1 F1200.000
G1 X74.006 Y109.070 E0.02638
G1 X73.472 Y109.070 E0.01678
G1 X74.430 Y110.028 E0.04257
G1 X74.430 Y110.563 E0.01678
G1 X72.937 Y109.070 E0.06630
G1 X72.403 Y109.070 E0.01678
G1 X74.430 Y111.097 E0.09003
G1 X74.430 Y111.631 E0.01678
G1 X71.869 Y109.070 E0.11376
G1 X71.335 Y109.070 E0.01678
G1 X74.430 Y112.165 E0.13748
G1 X74.430 Y112.699 E0.01678
G1 X70.801 Y109.070 E0.16121
G1 X70.267 Y109.070 E0.01678
G1 X74.430 Y113.233 E0.18494
G1 X74.430 Y113.768 E0.01678
G1 X69.732 Y109.070 E0.20867
G1 X69.198 Y109.070 E0.01678
G1 X74.430 Y114.302 E0.23240
G1 X74.430 Y114.836 E0.01678
G1 X68.664 Y109.070 E0.25612
G1 X68.130 Y109.070 E0.01678
G1 X74.430 Y115.370 E0.27985
G1 X74.430 Y115.904 E0.01678
G1 X67.596 Y109.070 E0.30358
G1 X67.061 Y109.070 E0.01678
G1 X74.430 Y116.439 E0.32731
G1 X74.430 Y116.973 E0.01678
G1 X66.527 Y109.070 E0.35103
G1 X65.993 Y109.070 E0.01678
G1 X74.430 Y117.507 E0.37476
G1 X74.430 Y118.041 E0.01678
G1 X65.459 Y109.070 E0.39849
G1 X64.925 Y109.070 E0.01678
G1 X74.430 Y118.575 E0.42222
G1 X74.430 Y119.110 E0.01678
G1 X64.390 Y109.070 E0.44595
G1 X63.856 Y109.070 E0.01678
G1 X74.430 Y119.644 E0.46967
G1 X74.430 Y120.178 E0.01678
G1 X63.322 Y109.070 E0.49340
G1 X62.788 Y109.070 E0.01678
G1 X74.430 Y120.712 E0.51713
G1 X74.430 Y121.246 E0.01678
G1 X62.254 Y109.070 E0.54086
G1 X61.719 Y109.070 E0.01678
G1 X74.430 Y121.781 E0.56458
G1 X74.430 Y122.315 E0.01678
G1 X61.185 Y109.070 E0.58831
G1 X60.651 Y109.070 E0.01678
G1 X74.430 Y122.849 E0.61204
G1 X74.430 Y123.383 E0.01678
G1 X60.117 Y109.070 E0.63577
G1 X59.583 Y109.070 E0.01678
G1 X74.430 Y123.917 E0.65950
G1 X74.430 Y124.451 E0.01678
G1 X59.048 Y109.070 E0.68322
G1 X58.514 Y109.070 E0.01678
G1 X74.430 Y124.986 E0.70695
G1 X74.430 Y125.520 E0.01678
G1 X57.980 Y109.070 E0.73068
M73 P0 R189
G1 X57.446 Y109.070 E0.01678
G1 X74.430 Y126.054 E0.75441
G1 X74.430 Y126.588 E0.01678
G1 X56.912 Y109.070 E0.77813
G1 X56.378 Y109.070 E0.01678
G1 X74.430 Y127.122 E0.80186
G1 X74.430 Y127.657 E0.01678
G1 X55.843 Y109.070 E0.82559
G1 X55.309 Y109.070 E0.01678
G1 X74.430 Y128.191 E0.84932
G1 X74.430 Y128.725 E0.01678
G1 X54.775 Y109.070 E0.87305
G1 X54.241 Y109.070 E0.01678
G1 X74.430 Y129.259 E0.89677
G1 X74.430 Y129.793 E0.01678
G1 X53.707 Y109.070 E0.92050
G1 X53.172 Y109.070 E0.01678
G1 X74.430 Y130.328 E0.94423
G1 X74.430 Y130.862 E0.01678
G1 X52.638 Y109.070 E0.96796
G1 X52.104 Y109.070 E0.01678
G1 X74.430 Y131.396 E0.99168
G1 X74.430 Y131.930 E0.01678
G1 X51.570 Y109.070 E1.01541
G1 X51.570 Y109.604 E0.01678
G1 X73.896 Y131.930 E0.99168
G1 X73.362 Y131.930 E0.01678
G1 X51.570 Y110.138 E0.96795
G1 X51.570 Y110.672 E0.01678
G1 X72.827 Y131.930 E0.94422
G1 X72.293 Y131.930 E0.01678
G1 X51.570 Y111.207 E0.92050
G1 X51.570 Y111.741 E0.01678
G1 X71.759 Y131.930 E0.89677
G1 X71.225 Y131.930 E0.01678
G1 X51.570 Y112.275 E0.87304
G1 X51.570 Y112.809 E0.01678
G1 X70.691 Y131.930 E0.84931
G1 X70.157 Y131.930 E0.01678
G1 X51.570 Y113.343 E0.82559
G1 X51.570 Y113.878 E0.01678
G1 X69.622 Y131.930 E0.80186
G1 X69.088 Y131.930 E0.01678
G1 X51.570 Y114.412 E0.77813
G1 X51.570 Y114.946 E0.01678
G1 X68.554 Y131.930 E0.75440
G1 X68.020 Y131.930 E0.01678
G1 X51.570 Y115.480 E0.73067
G1 X51.570 Y116.014 E0.01678
G1 X67.486 Y131.930 E0.70695
G1 X66.951 Y131.930 E0.01678
G1 X51.570 Y116.549 E0.68322
G1 X51.570 Y117.083 E0.01678
G1 X66.417 Y131.930 E0.65949
G1 X65.883 Y131.930 E0.01678
G1 X51.570 Y117.617 E0.63576
G1 X51.570 Y118.151 E0.01678
G1 X65.349 Y131.930 E0.61204
G1 X64.815 Y131.930 E0.01678
G1 X51.570 Y118.685 E0.58831
G1 X51.570 Y119.220 E0.01678
G1 X64.280 Y131.930 E0.56458
G1 X63.746 Y131.930 E0.01678
G1 X51.570 Y119.754 E0.54085
G1 X51.570 Y120.288 E0.01678
G1 X63.212 Y131.930 E0.51712
G1 X62.678 Y131.930 E0.01678
G1 X51.570 Y120.822 E0.49340
G1 X51.570 Y121.356 E0.01678
G1 X62.144 Y131.930 E0.46967
G1 X61.609 Y131.930 E0.01678
G1 X51.570 Y121.891 E0.44594
G1 X51.570 Y122.425 E0.01678
G1 X61.075 Y131.930 E0.42221
G1 X60.541 Y131.930 E0.01678
G1 X51.570 Y122.959 E0.39849
G1 X51.570 Y123.493 E0.01678
G1 X60.007 Y131.930 E0.37476
G1 X59.473 Y131.930 E0.01678
G1 X51.570 Y124.027 E0.35103
G1 X51.570 Y124.561 E0.01678
G1 X58.939 Y131.930 E0.32730
G1 X58.404 Y131.930 E0.01678
G1 X51.570 Y125.096 E0.30357
G1 X51.570 Y125.630 E0.01678
G1 X57.870 Y131.930 E0.27985
G1 X57.336 Y131.930 E0.01678
G1 X51.570 Y126.164 E0.25612
G1 X51.570 Y126.698 E0.01678
G1 X56.802 Y131.930 E0.23239
G1 X56.268 Y131.930 E0.01678
G1 X51.570 Y127.232 E0.20866
G1 X51.570 Y127.767 E0.01678
G1 X55.733 Y131.930 E0.18494
G1 X55.199 Y131.930 E0.01678
G1 X51.570 Y128.301 E0.16121
G1 X51.570 Y128.835 E0.01678
G1 X54.665 Y131.930 E0.13748
G1 X54.131 Y131.930 E0.01678
G1 X51.570 Y129.369 E0.11375
G1 X51.570 Y129.903 E0.01678
G1 X53.597 Y131.930 E0.09002
G1 X53.062 Y131.930 E0.01678
G1 X51.570 Y130.438 E0.06630
G1 X51.570 Y130.972 E0.01678
G1 X52.528 Y131.930 E0.04257
G1 X51.994 Y131.930 E0.01678
G1 X51.400 Y131.336 E0.02638
G1 E-0.80000 F2100.00000
G1 Z0.800 F10800.000
G1 X51.400 Y139.787
G1 Z0.200
G1 E0.80000 F2100.00000
G1 F1200.000
G1 X74.713 Y139.787 E0.73095
G1 X74.713 Y163.213 E0.73450
G1 X51.287 Y163.213 E0.73450
G1 X51.287 Y139.787 E0.73450
G1 X51.340 Y139.787 E0.00167
G1 X50.910 Y139.410 F10800.000
G1 F1200.000
G1 X75.090 Y139.410 E0.75815
G1 X75.090 Y163.590 E0.75815
M73 P1 R188
G1 X50.910 Y163.590 E0.75815
G1 X50.910 Y139.470 E0.75627
G1 X51.296 Y139.514 F10800.000
G1 E-0.80000 F2100.00000
G1 Z0.800 F10800.000
G1 X74.600 Y140.664
G1 Z0.200
G1 E0.80000 F2100.00000
G1 F1200.000
G1 X74.006 Y140.070 E0.02638
G1 X73.472 Y140.070 E0.01678
G1 X74.430 Y141.028 E0.04257
G1 X74.430 Y141.563 E0.01678
G1 X72.937 Y140.070 E0.06630
G1 X72.403 Y140.070 E0.01678
G1 X74.430 Y142.097 E0.09003
G1 X74.430 Y142.631 E0.01678
G1 X71.869 Y140.070 E0.11376
G1 X71.335 Y140.070 E0.01678
G1 X74.430 Y143.165 E0.13748
G1 X74.430 Y143.699 E0.01678
G1 X70.801 Y140.070 E0.16121
G1 X70.267 Y140.070 E0.01678
G1 X74.430 Y144.233 E0.18494
G1 X74.430 Y144.768 E0.01678
G1 X69.732 Y140.070 E0.20867
G1 X69.198 Y140.070 E0.01678
G1 X74.430 Y145.302 E0.23240
G1 X74.430 Y145.836 E0.01678
G1 X68.664 Y140.070 E0.25612
G1 X68.130 Y140.070 E0.01678
G1 X74.430 Y146.370 E0.27985
G1 X74.430 Y146.904 E0.01678
G1 X67.596 Y140.070 E0.30358
G1 X67.061 Y140.070 E0.01678
G1 X74.430 Y147.439 E0.32731
G1 X74.430 Y147.973 E0.01678
G1 X66.527 Y140.070 E0.35103
G1 X65.993 Y140.070 E0.01678
G1 X74.430 Y148.507 E0.37476
G1 X74.430 Y149.041 E0.01678
G1 X65.459 Y140.070 E0.39849
G1 X64.925 Y140.070 E0.01678
G1 X74.430 Y149.575 E0.42222
G1 X74.430 Y150.110 E0.01678
G1 X64.390 Y140.070 E0.44595
G1 X63.856 Y140.070 E0.01678
G1 X74.430 Y150.644 E0.46967
G1 X74.430 Y151.178 E0.01678
G1 X63.322 Y140.070 E0.49340
G1 X62.788 Y140.070 E0.01678
G1 X74.430 Y151.712 E0.51713
G1 X74.430 Y152.246 E0.01678
G1 X62.254 Y140.070 E0.54086
G1 X61.719 Y140.070 E0.01678
G1 X74.430 Y152.781 E0.56458
G1 X74.430 Y153.315 E0.01678
G1 X61.185 Y140.070 E0.58831
G1 X60.651 Y140.070 E0.01678
G1 X74.430 Y153.849 E0.61204
G1 X74.430 Y154.383 E0.01678
G1 X60.117 Y140.070 E0.63577
G1 X59.583 Y140.070 E0.01678
G1 X74.430 Y154.917 E0.65950
G1 X74.430 Y155.452 E0.01678
G1 X59.048 Y140.070 E0.68322
G1 X58.514 Y140.070 E0.01678
G1 X74.430 Y155.986 E0.70695
G1 X74.430 Y156.520 E0.01678
G1 X57.980 Y140.070 E0.73068
G1 X57.446 Y140.070 E0.01678
G1 X74.430 Y157.054 E0.75441
G1 X74.430 Y157.588 E0.01678
G1 X56.912 Y140.070 E0.77813
G1 X56.378 Y140.070 E0.01678
G1 X74.430 Y158.122 E0.80186
G1 X74.430 Y158.657 E0.01678
G1 X55.843 Y140.070 E0.82559
G1 X55.309 Y140.070 E0.01678
G1 X74.430 Y159.191 E0.84932
G1 X74.430 Y159.725 E0.01678
G1 X54.775 Y140.070 E0.87305
G1 X54.241 Y140.070 E0.01678
G1 X74.430 Y160.259 E0.89677
G1 X74.430 Y160.793 E0.01678
G1 X53.707 Y140.070 E0.92050
G1 X53.172 Y140.070 E0.01678
G1 X74.430 Y161.328 E0.94423
G1 X74.430 Y161.862 E0.01678
G1 X52.638 Y140.070 E0.96796
G1 X52.104 Y140.070 E0.01678
G1 X74.430 Y162.396 E0.99168
G1 X74.430 Y162.930 E0.01678
G1 X51.570 Y140.070 E1.01541
G1 X51.570 Y140.604 E0.01678
G1 X73.896 Y162.930 E0.99168
G1 X73.362 Y162.930 E0.01678
G1 X51.570 Y141.138 E0.96795
G1 X51.570 Y141.672 E0.01678
G1 X72.827 Y162.930 E0.94422
G1 X72.293 Y162.930 E0.01678
G1 X51.570 Y142.207 E0.92050
G1 X51.570 Y142.741 E0.01678
G1 X71.759 Y162.930 E0.89677
G1 X71.225 Y162.930 E0.01678
G1 X51.570 Y143.275 E0.87304
G1 X51.570 Y143.809 E0.01678
G1 X70.691 Y162.930 E0.84931
G1 X70.157 Y162.930 E0.01678
G1 X51.570 Y144.343 E0.82559
G1 X51.570 Y144.878 E0.01678
G1 X69.622 Y162.930 E0.80186
G1 X69.088 Y162.930 E0.01678
G1 X51.570 Y145.412 E0.77813
G1 X51.570 Y145.946 E0.01678
G1 X68.554 Y162.930 E0.75440
G1 X68.020 Y162.930 E0.01678
G1 X51.570 Y146.480 E0.73067
G1 X51.570 Y147.014 E0.01678
G1 X67.486 Y162.930 E0.70695
G1 X66.951 Y162.930 E0.01678
G1 X51.570 Y147.549 E0.68322
G1 X51.570 Y148.083 E0.01678
G1 X66.417 Y162.930 E0.65949
M73 P1 R187
G1 X65.883 Y162.930 E0.01678
G1 X51.570 Y148.617 E0.63576
G1 X51.570 Y149.151 E0.01678
G1 X65.349 Y162.930 E0.61204
G1 X64.815 Y162.930 E0.01678
G1 X51.570 Y149.685 E0.58831
G1 X51.570 Y150.220 E0.01678
G1 X64.280 Y162.930 E0.56458
G1 X63.746 Y162.930 E0.01678
G1 X51.570 Y150.754 E0.54085
G1 X51.570 Y151.288 E0.01678
G1 X63.212 Y162.930 E0.51712
G1 X62.678 Y162.930 E0.01678
G1 X51.570 Y151.822 E0.49340
G1 X51.570 Y152.356 E0.01678
G1 X62.144 Y162.930 E0.46967
G1 X61.609 Y162.930 E0.01678
G1 X51.570 Y152.891 E0.44594
G1 X51.570 Y153.425 E0.01678
G1 X61.075 Y162.930 E0.42221
G1 X60.541 Y162.930 E0.01678
G1 X51.570 Y153.959 E0.39849
G1 X51.570 Y154.493 E0.01678
G1 X60.007 Y162.930 E0.37476
G1 X59.473 Y162.930 E0.01678
G1 X51.570 Y155.027 E0.35103
G1 X51.570 Y155.561 E0.01678
G1 X58.939 Y162.930 E0.32730
G1 X58.404 Y162.930 E0.01678
G1 X51.570 Y156.096 E0.30357
G1 X51.570 Y156.630 E0.01678
G1 X57.870 Y162.930 E0.27985
G1 X57.336 Y162.930 E0.01678
G1 X51.570 Y157.164 E0.25612
G1 X51.570 Y157.698 E0.01678
G1 X56.802 Y162.930 E0.23239
G1 X56.268 Y162.930 E0.01678
G1 X51.570 Y158.232 E0.20866
G1 X51.570 Y158.767 E0.01678
G1 X55.733 Y162.930 E0.18494
G1 X55.199 Y162.930 E0.01678
G1 X51.570 Y159.301 E0.16121
G1 X51.570 Y159.835 E0.01678
G1 X54.665 Y162.930 E0.13748
G1 X54.131 Y162.930 E0.01678
G1 X51.570 Y160.369 E0.11375
G1 X51.570 Y160.903 E0.01678
G1 X53.597 Y162.930 E0.09002
G1 X53.062 Y162.930 E0.01678
G1 X51.570 Y161.438 E0.06630
G1 X51.570 Y161.972 E0.01678
G1 X52.528 Y162.930 E0.04257
G1 X51.994 Y162.930 E0.01678
G1 X51.400 Y162.336 E0.02638
G1 E-0.80000 F2100.00000
G1 Z0.800 F10800.000
G1 X82.287 Y163.213
G1 Z0.200
G1 E0.80000 F2100.00000
G1 F1200.000
G1 X82.287 Y139.787 E0.73450
G1 X105.713 Y139.787 E0.73450
G1 X105.713 Y163.213 E0.73450
G1 X82.347 Y163.213 E0.73262
G1 X81.910 Y163.590 F10800.000
G1 F1200.000
G1 X81.910 Y139.410 E0.75815
G1 X106.090 Y139.410 E0.75815
G1 X106.090 Y163.590 E0.75815
G1 X81.970 Y163.590 E0.75627
G1 X82.014 Y163.204 F10800.000
G1 E-0.80000 F2100.00000
G1 Z0.800 F10800.000
G1 X105.600 Y140.664
G1 Z0.200
G1 E0.80000 F2100.00000
G1 F1200.000
G1 X105.006 Y140.070 E0.02638
G1 X104.472 Y140.070 E0.01678
G1 X105.430 Y141.028 E0.04257
G1 X105.430 Y141.563 E0.01678
G1 X103.937 Y140.070 E0.06630
G1 X103.403 Y140.070 E0.01678
G1 X105.430 Y142.097 E0.09003
G1 X105.430 Y142.631 E0.01678
G1 X102.869 Y140.070 E0.11376
G1 X102.335 Y140.070 E0.01678
G1 X105.430 Y143.165 E0.13748
G1 X105.430 Y143.699 E0.01678
G1 X101.801 Y140.070 E0.16121
G1 X101.267 Y140.070 E0.01678
G1 X105.430 Y144.233 E0.18494
G1 X105.430 Y144.768 E0.01678
G1 X100.732 Y140.070 E0.20867
G1 X100.198 Y140.070 E0.01678
G1 X105.430 Y145.302 E0.23240
G1 X105.430 Y145.836 E0.01678
G1 X99.664 Y140.070 E0.25612
G1 X99.130 Y140.070 E0.01678
G1 X105.430 Y146.370 E0.27985
G1 X105.430 Y146.904 E0.01678
G1 X98.596 Y140.070 E0.30358
G1 X98.061 Y140.070 E0.01678
G1 X105.430 Y147.439 E0.32731
G1 X105.430 Y147.973 E0.01678
G1 X97.527 Y140.070 E0.35103
G1 X96.993 Y140.070 E0.01678
G1 X105.430 Y148.507 E0.37476
G1 X105.430 Y149.041 E0.01678
G1 X96.459 Y140.070 E0.39849
G1 X95.925 Y140.070 E0.01678
G1 X105.430 Y149.575 E0.42222
G1 X105.430 Y150.110 E0.01678
G1 X95.390 Y140.070 E0.44595
G1 X94.856 Y140.070 E0.01678
G1 X105.430 Y150.644 E0.46967
G1 X105.430 Y151.178 E0.01678
G1 X94.322 Y140.070 E0.49340
G1 X93.788 Y140.070 E0.01678
G1 X105.430 Y151.712 E0.51713
G1 X105.430 Y152.246 E0.01678
G1 X93.254 Y140.070 E0.54086
G1 X92.719 Y140.070 E0.01678
G1 X105.430 Y152.781 E0.56458
G1 X105.430 Y153.315 E0.01678
G1 X92.185 Y140.070 E0.58831
G1 X91.651 Y140.070 E0.01678
G1 X105.430 Y153.849 E0.61204
G1 X105.430 Y154.383 E0.01678
G1 X91.117 Y140.070 E0.63577
G1 X90.583 Y140.070 E0.01678
G1 X105.430 Y154.917 E0.65950
G1 X105.430 Y155.452 E0.01678
G1 X90.048 Y140.070 E0.68322
G1 X89.514 Y140.070 E0.01678
G1 X105.430 Y155.986 E0.70695
G1 X105.430 Y156.520 E0.01678
G1 X88.980 Y140.070 E0.73068
G1 X88.446 Y140.070 E0.01678
G1 X105.430 Y157.054 E0.75441
G1 X105.430 Y157.588 E0.01678
G1 X87.912 Y140.070 E0.77813
G1 X87.378 Y140.070 E0.01678
G1 X105.430 Y158.122 E0.80186
G1 X105.430 Y158.657 E0.01678
G1 X86.843 Y140.070 E0.82559
G1 X86.309 Y140.070 E0.01678
G1 X105.430 Y159.191 E0.84932
G1 X105.430 Y159.725 E0.01678
G1 X85.775 Y140.070 E0.87305
