; generated by PrusaSlicer 2.3.1+win64 on 2021-10-15 at 22:43:12 UTC

; 

; external perimeters extrusion width = 0.45mm
; perimeters extrusion width = 0.45mm
; infill extrusion width = 0.45mm
; solid infill extrusion width = 0.45mm
; top infill extrusion width = 0.40mm
; first layer extrusion width = 0.42mm

M73 P0 R29
M201 X9000 Y9000 Z500 E10000 ; sets maximum accelerations, mm/sec^2
M203 X500 Y500 Z12 E120 ; sets maximum feedrates, mm/sec
M204 P2000 R1500 T2000 ; sets acceleration (P, T) and retract acceleration (R), mm/sec^2
M205 X10.00 Y10.00 Z0.20 E2.50 ; sets the jerk limits, mm/sec
M205 S0 T0 ; sets the minimum extruding and travel feed rate, mm/sec
M107
;TYPE:Custom
M862.3 P "MK2S" ; printer model check
M862.1 P0.4 ; nozzle diameter check
M115 U3.2.3 ; tell printer latest fw version
G90 ; use absolute coordinates
M83 ; extruder relative mode
M204 S2000 T1500 ; MK2 firmware only supports the old M204 format
M104 S215 ; set extruder temp
M140 S60 ; set bed temp
M190 S60 ; wait for bed temp
M109 S215 ; wait for extruder temp
G28 W ; home all without mesh bed level
G80 ; mesh bed leveling
G1 Y-3.0 F1000.0 ; go outside print area
G92 E0.0
G1 X60.0 E9.0  F1000.0 ; intro line
G1 X100.0 E12.5 F1000.0 ; intro line
G92 E0.0
G21 ; set units to millimeters
G90 ; use absolute coordinates
M83 ; use relative distances for extrusion
M900 K0.05 ; Filament gcode LA 1.5
M900 K30 ; Filament gcode LA 1.0
;LAYER_CHANGE
;Z:0.2
;HEIGHT:0.2
;BEFORE_LAYER_CHANGE
G92 E0.0
;0.2


G1 E-0.80000 F2100.000
G1 Z0.600 F10800.000
;AFTER_LAYER_CHANGE
;0.2
G1 X125.000 Y86.599
G1 Z0.200
G1 E0.80000 F2100.000
M204 S1000
;TYPE:Perimeter
;WIDTH:0.42
G1 F1200.000
G1 X125.252 Y86.599 E0.00791
G1 X125.752 Y86.657 E0.01579
G1 X126.243 Y86.771 E0.01579
G1 X126.717 Y86.940 E0.01579
G1 X127.170 Y87.162 E0.01579
G1 X127.593 Y87.435 E0.01579
G1 X127.979 Y87.751 E0.01564
G1 X128.335 Y88.115 E0.01596
G1 X128.642 Y88.514 E0.01579
G1 X128.900 Y88.941 E0.01564
G1 X129.111 Y89.404 E0.01596
G1 X129.267 Y89.882 E0.01579
G1 X129.367 Y90.376 E0.01579
G1 X129.410 Y90.878 E0.01579
G1 X129.396 Y91.382 E0.01579
G1 X129.324 Y91.880 E0.01579
G1 X129.196 Y92.367 E0.01579
G1 X129.010 Y92.845 E0.01606
G1 X128.783 Y93.275 E0.01527
G1 X128.494 Y93.698 E0.01606
G1 X128.164 Y94.079 E0.01579
G1 X127.793 Y94.420 E0.01579
G1 X127.385 Y94.716 E0.01579
G1 X126.947 Y94.963 E0.01579
G1 X126.483 Y95.159 E0.01579
G1 X125.999 Y95.301 E0.01579
G1 X125.503 Y95.387 E0.01579
G1 X125.000 Y95.416 E0.01579
G1 X124.497 Y95.387 E0.01579
G1 X124.001 Y95.301 E0.01579
G1 X123.517 Y95.159 E0.01579
G1 X123.053 Y94.963 E0.01579
G1 X122.619 Y94.718 E0.01564
G1 X122.207 Y94.419 E0.01596
G1 X121.836 Y94.079 E0.01579
G1 X121.506 Y93.698 E0.01579
G1 X121.222 Y93.282 E0.01579
G1 X120.987 Y92.837 E0.01579
G1 X120.804 Y92.367 E0.01579
G1 X120.676 Y91.880 E0.01579
G1 X120.604 Y91.382 E0.01579
G1 X120.590 Y90.878 E0.01579
G1 X120.633 Y90.381 E0.01564
G1 X120.733 Y89.882 E0.01596
G1 X120.889 Y89.403 E0.01579
G1 X121.098 Y88.945 E0.01579
G1 X121.358 Y88.514 E0.01579
G1 X121.666 Y88.115 E0.01579
G1 X122.017 Y87.754 E0.01579
G1 X122.407 Y87.435 E0.01579
G1 X122.830 Y87.162 E0.01579
G1 X123.283 Y86.940 E0.01579
G1 X123.752 Y86.772 E0.01564
G1 X124.248 Y86.657 E0.01596
G1 X124.748 Y86.599 E0.01579
G1 X124.940 Y86.599 E0.00601
G1 E-0.80000 F2100.000
G1 Z0.800 F10800.000
G1 X125.000 Y95.794
G1 Z0.200
G1 E0.80000 F2100.000
;TYPE:External perimeter
G1 F1200.000
G1 X124.454 Y95.763 E0.01715
G1 X123.915 Y95.669 E0.01715
G1 X123.390 Y95.515 E0.01715
G1 X122.887 Y95.302 E0.01715
G1 X122.415 Y95.036 E0.01699
G1 X121.968 Y94.712 E0.01731
G1 X121.565 Y94.342 E0.01714
G1 X121.207 Y93.929 E0.01715
G1 X120.898 Y93.477 E0.01715
G1 X120.643 Y92.994 E0.01715
G1 X120.445 Y92.484 E0.01715
G1 X120.306 Y91.955 E0.01715
G1 X120.228 Y91.414 E0.01715
G1 X120.212 Y90.867 E0.01715
G1 X120.259 Y90.328 E0.01699
G1 X120.368 Y89.786 E0.01731
G1 X120.537 Y89.266 E0.01714
G1 X120.764 Y88.769 E0.01715
G1 X121.046 Y88.301 E0.01715
G1 X121.380 Y87.868 E0.01715
G1 X121.761 Y87.475 E0.01715
G1 X122.185 Y87.129 E0.01715
G1 X122.645 Y86.834 E0.01715
G1 X123.136 Y86.592 E0.01715
G1 X123.646 Y86.410 E0.01699
G1 X124.183 Y86.285 E0.01731
G1 X124.727 Y86.222 E0.01714
G1 X125.273 Y86.222 E0.01715
G1 X125.817 Y86.285 E0.01715
G1 X126.349 Y86.408 E0.01715
G1 X126.864 Y86.592 E0.01715
G1 X127.355 Y86.834 E0.01715
G1 X127.815 Y87.129 E0.01715
G1 X128.235 Y87.472 E0.01699
G1 X128.620 Y87.868 E0.01731
G1 X128.954 Y88.301 E0.01714
G1 X129.234 Y88.765 E0.01699
G1 X129.463 Y89.266 E0.01731
G1 X129.632 Y89.786 E0.01714
G1 X129.741 Y90.322 E0.01715
G1 X129.788 Y90.867 E0.01715
G1 X129.772 Y91.414 E0.01715
G1 X129.694 Y91.955 E0.01715
G1 X129.555 Y92.484 E0.01715
G1 X129.356 Y92.997 E0.01724
G1 X129.103 Y93.475 E0.01696
G1 X128.793 Y93.929 E0.01724
G1 X128.435 Y94.342 E0.01715
G1 X128.032 Y94.712 E0.01715
G1 X127.589 Y95.033 E0.01715
G1 X127.113 Y95.302 E0.01715
G1 X126.610 Y95.515 E0.01715
G1 X126.085 Y95.669 E0.01715
G1 X125.546 Y95.763 E0.01715
G1 X125.060 Y95.790 E0.01527
G1 X124.800 Y95.447 F10800.000
G1 E-0.80000 F2100.000
G1 Z0.800 F10800.000
G1 X128.780 Y88.962
G1 Z0.200
G1 E0.80000 F2100.000
;TYPE:Solid infill
;WIDTH:0.435202
G1 F1200.000
G1 X127.730 Y87.912 E0.04846
G1 X127.427 Y87.664 E0.01276
G1 X127.030 Y87.409 E0.01538
G1 X126.607 Y87.201 E0.01538
G1 X126.385 Y87.122 E0.00769
G1 X128.885 Y89.622 E0.11531
G1 X128.993 Y89.954 E0.01142
G1 X129.077 Y90.368 E0.01377
G1 X125.637 Y86.928 E0.15870
G1 X125.236 Y86.882 E0.01317
G1 X125.036 Y86.882 E0.00652
G1 X129.125 Y90.971 E0.18861
G1 X129.094 Y91.495 E0.01712
G1 X124.510 Y86.911 E0.21143
G1 X124.296 Y86.936 E0.00702
G1 X124.040 Y86.996 E0.00859
G1 X129.009 Y91.965 E0.22924
G1 X128.883 Y92.393 E0.01456
G1 X123.612 Y87.123 E0.24312
G1 X123.220 Y87.286 E0.01384
G1 X128.723 Y92.788 E0.25382
G1 X128.528 Y93.148 E0.01335
G1 X122.860 Y87.480 E0.26146
G1 X122.527 Y87.702 E0.01305
G1 X128.302 Y93.477 E0.26642
G1 X128.050 Y93.779 E0.01285
G1 X122.222 Y87.951 E0.26883
G1 X122.208 Y87.962 E0.00057
G1 X121.947 Y88.231 E0.01223
G1 X127.771 Y94.056 E0.26867
G1 X127.467 Y94.306 E0.01285
G1 X121.698 Y88.537 E0.26616
G1 X121.474 Y88.868 E0.01304
G1 X127.137 Y94.531 E0.26121
G1 X126.779 Y94.727 E0.01333
G1 X121.280 Y89.228 E0.25367
M73 P0 R28
G1 X121.116 Y89.619 E0.01383
G1 X126.389 Y94.892 E0.24323
G1 X125.960 Y95.018 E0.01458
G1 X120.988 Y90.047 E0.22933
G1 X120.905 Y90.518 E0.01560
G1 X125.490 Y95.103 E0.21150
M73 P1 R28
G1 X124.963 Y95.131 E0.01720
G1 X120.878 Y91.045 E0.18846
G1 X120.886 Y91.357 E0.01018
G1 X120.929 Y91.651 E0.00968
G1 X124.353 Y95.075 E0.15795
G1 X124.065 Y95.025 E0.00953
G1 X123.617 Y94.894 E0.01524
G1 X121.118 Y92.396 E0.11523
G1 X121.244 Y92.719 E0.01132
G1 X121.464 Y93.136 E0.01538
G1 X121.730 Y93.525 E0.01538
G1 X121.972 Y93.804 E0.01205
G1 X122.934 Y94.766 E0.04436
G1 E-0.80000 F2100.000
G1 Z0.800 F10800.000
G1 X138.989 Y95.417
G1 Z0.200
G1 E0.80000 F2100.000
;TYPE:Perimeter
;WIDTH:0.42
G1 F1200.000
G1 X138.737 Y95.417 E0.00790
G1 X138.237 Y95.360 E0.01579
G1 X137.746 Y95.245 E0.01579
G1 X137.272 Y95.076 E0.01579
G1 X136.820 Y94.854 E0.01579
G1 X136.396 Y94.582 E0.01579
G1 X136.006 Y94.263 E0.01579
G1 X135.655 Y93.901 E0.01579
G1 X135.347 Y93.503 E0.01579
G1 X135.087 Y93.071 E0.01579
G1 X134.878 Y92.613 E0.01579
G1 X134.722 Y92.134 E0.01579
G1 X134.622 Y91.640 E0.01579
G1 X134.579 Y91.143 E0.01564
G1 X134.593 Y90.634 E0.01596
G1 X134.665 Y90.136 E0.01579
G1 X134.793 Y89.649 E0.01579
G1 X134.979 Y89.172 E0.01606
G1 X135.206 Y88.741 E0.01527
G1 X135.495 Y88.318 E0.01606
G1 X135.825 Y87.937 E0.01579
G1 X136.196 Y87.597 E0.01579
G1 X136.604 Y87.301 E0.01579
G1 X137.043 Y87.053 E0.01579
G1 X137.507 Y86.857 E0.01579
G1 X137.990 Y86.715 E0.01579
G1 X138.486 Y86.629 E0.01579
G1 X138.989 Y86.600 E0.01579
G1 X139.487 Y86.629 E0.01564
G1 X139.989 Y86.715 E0.01596
G1 X140.472 Y86.857 E0.01579
G1 X140.936 Y87.053 E0.01579
G1 X141.374 Y87.301 E0.01579
G1 X141.782 Y87.597 E0.01579
G1 X142.153 Y87.937 E0.01579
G1 X142.483 Y88.318 E0.01579
G1 X142.767 Y88.734 E0.01579
G1 X143.002 Y89.179 E0.01579
G1 X143.185 Y89.649 E0.01579
G1 X143.313 Y90.136 E0.01579
G1 X143.385 Y90.635 E0.01579
G1 X143.399 Y91.138 E0.01579
G1 X143.356 Y91.640 E0.01579
G1 X143.256 Y92.134 E0.01579
G1 X143.101 Y92.613 E0.01579
G1 X142.891 Y93.071 E0.01579
G1 X142.631 Y93.503 E0.01579
G1 X142.323 Y93.901 E0.01579
G1 X141.972 Y94.263 E0.01579
G1 X141.582 Y94.582 E0.01579
G1 X141.159 Y94.854 E0.01579
G1 X140.707 Y95.076 E0.01579
G1 X140.232 Y95.245 E0.01579
G1 X139.741 Y95.360 E0.01579
G1 X139.241 Y95.417 E0.01579
G1 X139.049 Y95.417 E0.00602
G1 X138.989 Y95.794 F10800.000
;TYPE:External perimeter
G1 F1200.000
G1 X138.716 Y95.794 E0.00857
G1 X138.172 Y95.732 E0.01715
G1 X137.640 Y95.608 E0.01715
G1 X137.125 Y95.424 E0.01715
G1 X136.634 Y95.183 E0.01715
G1 X136.174 Y94.887 E0.01715
G1 X135.751 Y94.541 E0.01715
G1 X135.369 Y94.149 E0.01715
G1 X135.035 Y93.716 E0.01715
G1 X134.753 Y93.247 E0.01715
G1 X134.526 Y92.750 E0.01715
G1 X134.357 Y92.230 E0.01715
G1 X134.248 Y91.694 E0.01715
G1 X134.202 Y91.154 E0.01699
G1 X134.217 Y90.602 E0.01731
G1 X134.295 Y90.061 E0.01714
G1 X134.434 Y89.532 E0.01715
G1 X134.633 Y89.020 E0.01724
G1 X134.886 Y88.541 E0.01696
G1 X135.196 Y88.087 E0.01724
G1 X135.554 Y87.674 E0.01715
G1 X135.957 Y87.304 E0.01715
G1 X136.400 Y86.983 E0.01715
G1 X136.876 Y86.714 E0.01715
G1 X137.380 Y86.501 E0.01715
G1 X137.904 Y86.347 E0.01715
G1 X138.443 Y86.254 E0.01715
G1 X138.989 Y86.223 E0.01715
G1 X139.530 Y86.254 E0.01699
G1 X140.074 Y86.347 E0.01731
G1 X140.599 Y86.501 E0.01714
G1 X141.102 Y86.714 E0.01715
G1 X141.579 Y86.983 E0.01715
G1 X142.021 Y87.304 E0.01715
G1 X142.424 Y87.674 E0.01715
G1 X142.782 Y88.087 E0.01715
G1 X143.091 Y88.539 E0.01715
G1 X143.346 Y89.023 E0.01715
G1 X143.544 Y89.532 E0.01715
G1 X143.683 Y90.061 E0.01715
G1 X143.761 Y90.602 E0.01715
G1 X143.777 Y91.149 E0.01715
G1 X143.730 Y91.694 E0.01715
G1 X143.621 Y92.230 E0.01715
G1 X143.452 Y92.750 E0.01715
G1 X143.225 Y93.247 E0.01715
G1 X142.943 Y93.716 E0.01715
G1 X142.609 Y94.149 E0.01715
G1 X142.228 Y94.541 E0.01715
G1 X141.804 Y94.887 E0.01715
G1 X141.344 Y95.183 E0.01715
G1 X140.854 Y95.424 E0.01715
G1 X140.339 Y95.608 E0.01715
G1 X139.806 Y95.732 E0.01715
G1 X139.263 Y95.794 E0.01715
G1 X139.049 Y95.794 E0.00669
G1 X138.846 Y95.561 F10800.000
G1 E-0.80000 F2100.000
G1 Z0.800 F10800.000
G1 X142.752 Y88.947
G1 Z0.200
G1 E0.80000 F2100.000
;TYPE:Solid infill
;WIDTH:0.435224
G1 F1200.000
G1 X141.603 Y87.816 E0.05260
G1 X141.221 Y87.539 E0.01538
G1 X140.811 Y87.307 E0.01538
G1 X140.372 Y87.122 E0.01552
G1 X142.871 Y89.621 E0.11526
G1 X143.036 Y90.192 E0.01940
G1 X143.061 Y90.365 E0.00570
G1 X139.637 Y86.941 E0.15795
G1 X139.455 Y86.910 E0.00601
G1 X139.026 Y86.886 E0.01402
G1 X143.112 Y90.971 E0.18848
G1 X143.116 Y91.130 E0.00518
G1 X143.085 Y91.499 E0.01207
G1 X138.499 Y86.914 E0.21152
G1 X138.029 Y86.998 E0.01559
G1 X143.001 Y91.970 E0.22936
G1 X142.873 Y92.397 E0.01454
G1 X137.600 Y87.124 E0.24325
G1 X137.210 Y87.289 E0.01381
G1 X142.710 Y92.788 E0.25369
G1 X142.515 Y93.148 E0.01335
G1 X136.852 Y87.485 E0.26123
G1 X136.522 Y87.710 E0.01303
G1 X142.291 Y93.480 E0.26618
G1 X142.042 Y93.785 E0.01286
G1 X136.218 Y87.961 E0.26869
G1 X136.028 Y88.135 E0.00839
G1 X135.939 Y88.237 E0.00443
G1 X141.767 Y94.065 E0.26885
G1 X141.462 Y94.315 E0.01286
G1 X135.687 Y88.539 E0.26643
G1 X135.461 Y88.869 E0.01302
G1 X141.129 Y94.537 E0.26147
G1 X140.768 Y94.731 E0.01336
G1 X135.266 Y89.229 E0.25383
G1 X135.106 Y89.624 E0.01390
G1 X140.376 Y94.894 E0.24312
G1 X140.152 Y94.974 E0.00776
G1 X139.949 Y95.021 E0.00681
G1 X134.980 Y90.052 E0.22924
G1 X134.895 Y90.522 E0.01559
G1 X139.478 Y95.105 E0.21142
G1 X139.225 Y95.134 E0.00832
G1 X138.953 Y95.134 E0.00888
G1 X134.865 Y91.047 E0.18857
G1 X134.912 Y91.649 E0.01971
G1 X138.352 Y95.088 E0.15866
G1 X137.826 Y94.974 E0.01755
G1 X137.603 Y94.894 E0.00773
G1 X135.105 Y92.396 E0.11524
G1 X135.338 Y92.939 E0.01928
G1 X135.581 Y93.343 E0.01538
G1 X135.866 Y93.712 E0.01520
G1 X136.942 Y94.788 E0.04966
G1 E-0.80000 F2100.000
G1 Z0.800 F10800.000
G1 X138.989 Y109.409
G1 Z0.200
G1 E0.80000 F2100.000
;TYPE:Perimeter
;WIDTH:0.42
G1 F1200.000
G1 X138.737 Y109.409 E0.00790
G1 X138.237 Y109.351 E0.01579
G1 X137.746 Y109.237 E0.01579
G1 X137.272 Y109.068 E0.01579
G1 X136.820 Y108.846 E0.01579
G1 X136.396 Y108.573 E0.01579
G1 X136.006 Y108.255 E0.01579
G1 X135.655 Y107.893 E0.01579
G1 X135.347 Y107.494 E0.01579
G1 X135.087 Y107.063 E0.01579
G1 X134.878 Y106.605 E0.01579
G1 X134.722 Y106.126 E0.01579
G1 X134.622 Y105.632 E0.01579
G1 X134.579 Y105.135 E0.01564
G1 X134.593 Y104.626 E0.01596
G1 X134.665 Y104.128 E0.01579
G1 X134.793 Y103.641 E0.01579
G1 X134.979 Y103.163 E0.01606
G1 X135.206 Y102.733 E0.01527
G1 X135.495 Y102.310 E0.01606
G1 X135.825 Y101.929 E0.01579
G1 X136.196 Y101.589 E0.01579
G1 X136.604 Y101.292 E0.01579
G1 X137.043 Y101.045 E0.01579
G1 X137.507 Y100.849 E0.01579
G1 X137.990 Y100.707 E0.01579
G1 X138.486 Y100.621 E0.01579
G1 X138.989 Y100.592 E0.01579
G1 X139.487 Y100.621 E0.01564
G1 X139.989 Y100.707 E0.01596
G1 X140.472 Y100.849 E0.01579
G1 X140.936 Y101.045 E0.01579
G1 X141.374 Y101.292 E0.01579
G1 X141.782 Y101.589 E0.01579
G1 X142.153 Y101.929 E0.01579
G1 X142.483 Y102.310 E0.01579
G1 X142.767 Y102.726 E0.01579
G1 X143.002 Y103.171 E0.01579
G1 X143.185 Y103.641 E0.01579
G1 X143.313 Y104.128 E0.01579
G1 X143.385 Y104.627 E0.01579
G1 X143.399 Y105.130 E0.01579
G1 X143.356 Y105.632 E0.01579
G1 X143.256 Y106.126 E0.01579
G1 X143.101 Y106.605 E0.01579
G1 X142.891 Y107.063 E0.01579
G1 X142.631 Y107.494 E0.01579
G1 X142.323 Y107.893 E0.01579
G1 X141.972 Y108.255 E0.01579
G1 X141.582 Y108.573 E0.01579
G1 X141.159 Y108.846 E0.01579
G1 X140.707 Y109.068 E0.01579
G1 X140.232 Y109.237 E0.01579
G1 X139.741 Y109.351 E0.01579
G1 X139.241 Y109.409 E0.01579
G1 X139.049 Y109.409 E0.00602
G1 X138.989 Y109.786 F10800.000
;TYPE:External perimeter
G1 F1200.000
G1 X138.716 Y109.786 E0.00857
G1 X138.172 Y109.724 E0.01715
G1 X137.640 Y109.600 E0.01715
G1 X137.125 Y109.416 E0.01715
G1 X136.634 Y109.175 E0.01715
G1 X136.174 Y108.879 E0.01715
G1 X135.751 Y108.533 E0.01715
G1 X135.369 Y108.141 E0.01715
G1 X135.035 Y107.708 E0.01715
G1 X134.753 Y107.239 E0.01715
G1 X134.526 Y106.742 E0.01715
G1 X134.357 Y106.222 E0.01715
G1 X134.248 Y105.686 E0.01715
G1 X134.202 Y105.146 E0.01699
G1 X134.217 Y104.594 E0.01731
G1 X134.295 Y104.053 E0.01714
G1 X134.434 Y103.524 E0.01715
G1 X134.633 Y103.012 E0.01724
G1 X134.886 Y102.533 E0.01696
G1 X135.196 Y102.079 E0.01724
G1 X135.554 Y101.666 E0.01715
G1 X135.957 Y101.296 E0.01715
G1 X136.400 Y100.975 E0.01715
G1 X136.876 Y100.706 E0.01715
G1 X137.380 Y100.493 E0.01715
G1 X137.904 Y100.339 E0.01715
G1 X138.443 Y100.246 E0.01715
G1 X138.989 Y100.214 E0.01715
G1 X139.530 Y100.245 E0.01699
G1 X140.074 Y100.339 E0.01731
G1 X140.599 Y100.493 E0.01714
G1 X141.102 Y100.706 E0.01715
G1 X141.579 Y100.975 E0.01715
G1 X142.021 Y101.296 E0.01715
G1 X142.424 Y101.666 E0.01715
G1 X142.782 Y102.079 E0.01715
G1 X143.091 Y102.531 E0.01715
G1 X143.346 Y103.014 E0.01715
G1 X143.544 Y103.524 E0.01715
G1 X143.683 Y104.053 E0.01715
G1 X143.761 Y104.594 E0.01715
G1 X143.777 Y105.141 E0.01715
G1 X143.730 Y105.686 E0.01715
G1 X143.621 Y106.222 E0.01715
G1 X143.452 Y106.742 E0.01715
G1 X143.225 Y107.239 E0.01715
G1 X142.943 Y107.708 E0.01715
G1 X142.609 Y108.141 E0.01715
G1 X142.228 Y108.533 E0.01715
G1 X141.804 Y108.879 E0.01715
G1 X141.344 Y109.175 E0.01715
G1 X140.854 Y109.416 E0.01715
G1 X140.339 Y109.600 E0.01715
G1 X139.806 Y109.724 E0.01715
G1 X139.263 Y109.786 E0.01715
G1 X139.049 Y109.786 E0.00669
G1 X138.846 Y109.553 F10800.000
G1 E-0.80000 F2100.000
G1 Z0.800 F10800.000
G1 X142.752 Y102.939
G1 Z0.200
G1 E0.80000 F2100.000
;TYPE:Solid infill
;WIDTH:0.435224
G1 F1200.000
G1 X141.603 Y101.808 E0.05260
G1 X141.221 Y101.531 E0.01538
G1 X140.811 Y101.299 E0.01538
G1 X140.372 Y101.114 E0.01552
G1 X142.871 Y103.613 E0.11526
G1 X143.036 Y104.184 E0.01940
G1 X143.061 Y104.357 E0.00570
G1 X139.637 Y100.933 E0.15795
