; generated by PrusaSlicer 2.3.1+win64 on 2021-10-15 at 22:42:30 UTC

; 

; external perimeters extrusion width = 0.45mm
; perimeters extrusion width = 0.45mm
; infill extrusion width = 0.45mm
; solid infill extrusion width = 0.45mm
; top infill extrusion width = 0.40mm
; first layer extrusion width = 0.42mm

M73 P0 R12
M201 X9000 Y9000 Z500 E10000 ; sets maximum accelerations, mm/sec^2
M203 X500 Y500 Z12 E120 ; sets maximum feedrates, mm/sec
M204 P2000 R1500 T2000 ; sets acceleration (P, T) and retract acceleration (R), mm/sec^2
M205 X10.00 Y10.00 Z0.20 E2.50 ; sets the jerk limits, mm/sec
M205 S0 T0 ; sets the minimum extruding and travel feed rate, mm/sec
M107
;TYPE:Custom
M862.3 P "MK2S" ; printer model check
M862.1 P0.4 ; nozzle diameter check
M115 U3.2.3 ; tell printer latest fw version
G90 ; use absolute coordinates
M83 ; extruder relative mode
M204 S2000 T1500 ; MK2 firmware only supports the old M204 format
M104 S215 ; set extruder temp
M140 S60 ; set bed temp
M190 S60 ; wait for bed temp
M109 S215 ; wait for extruder temp
G28 W ; home all without mesh bed level
G80 ; mesh bed leveling
G1 Y-3.0 F1000.0 ; go outside print area
G92 E0.0
G1 X60.0 E9.0  F1000.0 ; intro line
G1 X100.0 E12.5 F1000.0 ; intro line
G92 E0.0
G21 ; set units to millimeters
G90 ; use absolute coordinates
M83 ; use relative distances for extrusion
M900 K0.05 ; Filament gcode LA 1.5
M900 K30 ; Filament gcode LA 1.0
;LAYER_CHANGE
;Z:0.2
;HEIGHT:0.2
;BEFORE_LAYER_CHANGE
G92 E0.0
;0.2


G1 E-0.80000 F2100.000
G1 Z0.600 F10800.000
;AFTER_LAYER_CHANGE
;0.2
G1 X116.005 Y100.592
G1 Z0.200
G1 E0.80000 F2100.000
M204 S1000
;TYPE:Perimeter
;WIDTH:0.42
G1 F1200.000
G1 X116.503 Y100.621 E0.01564
G1 X117.004 Y100.707 E0.01596
G1 X117.487 Y100.849 E0.01579
G1 X117.951 Y101.045 E0.01579
M73 P1 R12
G1 X118.390 Y101.292 E0.01579
G1 X118.797 Y101.589 E0.01579
G1 X119.169 Y101.929 E0.01579
G1 X119.498 Y102.310 E0.01579
G1 X119.783 Y102.726 E0.01579
G1 X120.018 Y103.171 E0.01579
G1 X120.201 Y103.641 E0.01579
G1 X120.329 Y104.128 E0.01579
G1 X120.400 Y104.627 E0.01579
G1 X120.415 Y105.130 E0.01579
G1 X120.372 Y105.632 E0.01579
G1 X120.272 Y106.126 E0.01579
G1 X120.116 Y106.605 E0.01579
G1 X119.907 Y107.063 E0.01579
G1 X119.647 Y107.494 E0.01579
G1 X119.339 Y107.893 E0.01579
G1 X118.988 Y108.255 E0.01579
G1 X118.598 Y108.573 E0.01579
G1 X118.174 Y108.846 E0.01579
G1 X117.722 Y109.068 E0.01579
G1 X117.248 Y109.237 E0.01579
G1 X116.757 Y109.351 E0.01579
G1 X116.256 Y109.409 E0.01579
G1 X115.753 Y109.409 E0.01579
G1 X115.252 Y109.351 E0.01579
G1 X114.762 Y109.237 E0.01579
G1 X114.287 Y109.068 E0.01579
G1 X113.835 Y108.846 E0.01579
G1 X113.411 Y108.573 E0.01579
G1 X113.021 Y108.255 E0.01579
G1 X112.670 Y107.893 E0.01579
G1 X112.363 Y107.494 E0.01579
G1 X112.103 Y107.063 E0.01579
G1 X111.893 Y106.605 E0.01579
G1 X111.738 Y106.126 E0.01579
G1 X111.638 Y105.632 E0.01579
G1 X111.595 Y105.135 E0.01564
G1 X111.609 Y104.626 E0.01596
G1 X111.681 Y104.128 E0.01579
G1 X111.809 Y103.641 E0.01579
G1 X111.994 Y103.163 E0.01606
G1 X112.222 Y102.733 E0.01527
G1 X112.511 Y102.310 E0.01606
G1 X112.841 Y101.929 E0.01579
G1 X113.212 Y101.589 E0.01579
G1 X113.619 Y101.292 E0.01579
G1 X114.058 Y101.045 E0.01579
G1 X114.522 Y100.849 E0.01579
G1 X115.005 Y100.707 E0.01579
G1 X115.502 Y100.621 E0.01579
G1 X115.945 Y100.596 E0.01391
G1 E-0.80000 F2100.000
G1 Z0.800 F10800.000
G1 X116.005 Y109.786
G1 Z0.200
G1 E0.80000 F2100.000
;TYPE:External perimeter
G1 F1200.000
G1 X115.731 Y109.786 E0.00857
G1 X115.188 Y109.724 E0.01715
G1 X114.655 Y109.600 E0.01715
G1 X114.140 Y109.416 E0.01715
G1 X113.649 Y109.175 E0.01715
G1 X113.189 Y108.879 E0.01715
G1 X112.766 Y108.533 E0.01715
G1 X112.385 Y108.141 E0.01715
G1 X112.051 Y107.708 E0.01715
G1 X111.768 Y107.239 E0.01715
G1 X111.541 Y106.742 E0.01715
G1 X111.372 Y106.222 E0.01715
G1 X111.264 Y105.686 E0.01715
G1 X111.217 Y105.146 E0.01699
G1 X111.233 Y104.594 E0.01731
G1 X111.310 Y104.053 E0.01714
G1 X111.449 Y103.524 E0.01715
G1 X111.649 Y103.012 E0.01724
G1 X111.901 Y102.533 E0.01696
G1 X112.212 Y102.079 E0.01724
G1 X112.570 Y101.666 E0.01715
G1 X112.973 Y101.296 E0.01715
G1 X113.415 Y100.975 E0.01715
G1 X113.891 Y100.706 E0.01715
G1 X114.395 Y100.493 E0.01715
G1 X114.920 Y100.339 E0.01715
G1 X115.459 Y100.246 E0.01715
G1 X116.005 Y100.214 E0.01715
G1 X116.546 Y100.245 E0.01699
G1 X117.090 Y100.339 E0.01731
G1 X117.614 Y100.493 E0.01714
G1 X118.118 Y100.706 E0.01715
G1 X118.594 Y100.975 E0.01715
G1 X119.037 Y101.296 E0.01715
G1 X119.439 Y101.666 E0.01715
G1 X119.798 Y102.079 E0.01715
G1 X120.106 Y102.531 E0.01715
G1 X120.361 Y103.014 E0.01715
G1 X120.560 Y103.524 E0.01715
G1 X120.699 Y104.053 E0.01715
G1 X120.777 Y104.594 E0.01715
G1 X120.792 Y105.141 E0.01715
G1 X120.746 Y105.686 E0.01715
G1 X120.637 Y106.222 E0.01715
G1 X120.468 Y106.742 E0.01715
G1 X120.241 Y107.239 E0.01715
G1 X119.958 Y107.708 E0.01715
G1 X119.624 Y108.141 E0.01715
G1 X119.243 Y108.533 E0.01715
G1 X118.820 Y108.879 E0.01715
G1 X118.360 Y109.175 E0.01715
G1 X117.869 Y109.416 E0.01715
G1 X117.354 Y109.600 E0.01715
G1 X116.821 Y109.724 E0.01715
G1 X116.278 Y109.786 E0.01715
G1 X116.065 Y109.786 E0.00669
G1 X115.862 Y109.553 F10800.000
G1 E-0.80000 F2100.000
G1 Z0.800 F10800.000
G1 X119.767 Y102.939
G1 Z0.200
G1 E0.80000 F2100.000
;TYPE:Solid infill
;WIDTH:0.435224
G1 F1200.000
G1 X118.618 Y101.808 E0.05260
G1 X118.237 Y101.531 E0.01538
G1 X117.826 Y101.299 E0.01538
G1 X117.388 Y101.114 E0.01552
G1 X119.886 Y103.613 E0.11526
G1 X120.051 Y104.184 E0.01940
G1 X120.076 Y104.357 E0.00570
G1 X116.652 Y100.933 E0.15795
G1 X116.471 Y100.902 E0.00601
G1 X116.041 Y100.877 E0.01402
G1 X120.127 Y104.963 E0.18848
G1 X120.132 Y105.122 E0.00518
G1 X120.100 Y105.491 E0.01207
G1 X115.515 Y100.906 E0.21152
G1 X115.044 Y100.990 E0.01559
G1 X120.016 Y105.962 E0.22936
G1 X119.889 Y106.389 E0.01454
G1 X114.616 Y101.116 E0.24325
G1 X114.226 Y101.281 E0.01381
G1 X119.725 Y106.780 E0.25369
G1 X119.530 Y107.140 E0.01335
G1 X113.867 Y101.477 E0.26123
G1 X113.537 Y101.702 E0.01303
G1 X119.307 Y107.472 E0.26618
G1 X119.057 Y107.777 E0.01286
G1 X113.233 Y101.953 E0.26869
M73 P2 R12
G1 X113.044 Y102.127 E0.00839
G1 X112.955 Y102.229 E0.00443
G1 X118.783 Y108.057 E0.26885
G1 X118.477 Y108.307 E0.01286
G1 X112.702 Y102.531 E0.26643
G1 X112.477 Y102.861 E0.01302
G1 X118.145 Y108.529 E0.26147
G1 X117.784 Y108.723 E0.01336
G1 X112.282 Y103.220 E0.25383
G1 X112.122 Y103.616 E0.01390
G1 X117.392 Y108.886 E0.24312
G1 X117.168 Y108.966 E0.00776
G1 X116.964 Y109.013 E0.00681
G1 X111.995 Y104.044 E0.22924
G1 X111.911 Y104.514 E0.01559
G1 X116.494 Y109.097 E0.21142
G1 X116.240 Y109.126 E0.00832
G1 X115.968 Y109.126 E0.00888
G1 X111.880 Y105.038 E0.18857
G1 X111.928 Y105.641 E0.01971
G1 X115.367 Y109.080 E0.15866
G1 X114.841 Y108.966 E0.01755
G1 X114.618 Y108.886 E0.00773
G1 X112.120 Y106.388 E0.11524
G1 X112.353 Y106.931 E0.01928
G1 X112.596 Y107.334 E0.01538
G1 X112.881 Y107.703 E0.01520
G1 X113.957 Y108.780 E0.04966
G1 E-0.80000 F2100.000
G1 Z0.800 F10800.000
G1 X133.995 Y109.408
G1 Z0.200
G1 E0.80000 F2100.000
;TYPE:Perimeter
;WIDTH:0.42
G1 F1200.000
G1 X133.492 Y109.379 E0.01579
G1 X132.996 Y109.293 E0.01579
G1 X132.513 Y109.151 E0.01579
G1 X132.049 Y108.955 E0.01579
G1 X131.614 Y108.710 E0.01564
G1 X131.202 Y108.411 E0.01596
G1 X130.831 Y108.071 E0.01579
G1 X130.502 Y107.690 E0.01579
G1 X130.217 Y107.274 E0.01579
G1 X129.982 Y106.829 E0.01579
G1 X129.799 Y106.359 E0.01579
G1 X129.671 Y105.872 E0.01579
G1 X129.600 Y105.373 E0.01579
G1 X129.585 Y104.870 E0.01579
G1 X129.628 Y104.373 E0.01564
G1 X129.728 Y103.874 E0.01596
G1 X129.884 Y103.395 E0.01579
G1 X130.093 Y102.937 E0.01579
G1 X130.353 Y102.506 E0.01579
G1 X130.661 Y102.107 E0.01579
G1 X131.012 Y101.745 E0.01579
G1 X131.402 Y101.427 E0.01579
G1 X131.826 Y101.154 E0.01579
G1 X132.278 Y100.932 E0.01579
G1 X132.748 Y100.764 E0.01564
G1 X133.243 Y100.649 E0.01596
G1 X133.744 Y100.591 E0.01579
G1 X134.247 Y100.591 E0.01579
G1 X134.748 Y100.649 E0.01579
G1 X135.238 Y100.763 E0.01579
G1 X135.713 Y100.932 E0.01579
G1 X136.165 Y101.154 E0.01579
G1 X136.589 Y101.427 E0.01579
G1 X136.975 Y101.742 E0.01564
G1 X137.330 Y102.107 E0.01596
G1 X137.637 Y102.506 E0.01579
G1 X137.895 Y102.933 E0.01564
G1 X138.107 Y103.396 E0.01596
G1 X138.262 Y103.874 E0.01579
G1 X138.362 Y104.368 E0.01579
G1 X138.406 Y104.870 E0.01579
G1 X138.391 Y105.373 E0.01579
G1 X138.319 Y105.872 E0.01579
G1 X138.191 Y106.359 E0.01579
G1 X138.006 Y106.837 E0.01606
G1 X137.778 Y107.267 E0.01527
G1 X137.489 Y107.690 E0.01606
G1 X137.159 Y108.071 E0.01579
G1 X136.788 Y108.411 E0.01579
G1 X136.381 Y108.708 E0.01579
G1 X135.942 Y108.955 E0.01579
G1 X135.478 Y109.151 E0.01579
G1 X134.995 Y109.293 E0.01579
G1 X134.498 Y109.379 E0.01579
G1 X134.055 Y109.404 E0.01391
G1 X133.995 Y109.786 F10800.000
;TYPE:External perimeter
G1 F1200.000
G1 X133.449 Y109.754 E0.01715
G1 X132.911 Y109.661 E0.01715
G1 X132.386 Y109.507 E0.01715
G1 X131.882 Y109.294 E0.01715
G1 X131.410 Y109.028 E0.01699
G1 X130.963 Y108.704 E0.01731
G1 X130.561 Y108.334 E0.01714
G1 X130.202 Y107.921 E0.01715
G1 X129.894 Y107.469 E0.01715
G1 X129.639 Y106.986 E0.01715
G1 X129.440 Y106.476 E0.01715
G1 X129.301 Y105.947 E0.01715
G1 X129.223 Y105.406 E0.01715
G1 X129.208 Y104.859 E0.01715
G1 X129.254 Y104.319 E0.01699
G1 X129.363 Y103.778 E0.01731
G1 X129.532 Y103.258 E0.01714
G1 X129.759 Y102.761 E0.01715
G1 X130.042 Y102.292 E0.01715
G1 X130.376 Y101.859 E0.01715
G1 X130.757 Y101.467 E0.01715
G1 X131.180 Y101.121 E0.01715
G1 X131.640 Y100.825 E0.01715
G1 X132.131 Y100.584 E0.01715
G1 X132.641 Y100.402 E0.01699
G1 X133.179 Y100.276 E0.01731
G1 X133.722 Y100.214 E0.01714
G1 X134.269 Y100.214 E0.01715
G1 X134.812 Y100.276 E0.01715
G1 X135.345 Y100.400 E0.01715
G1 X135.860 Y100.584 E0.01715
G1 X136.351 Y100.825 E0.01715
G1 X136.811 Y101.121 E0.01715
G1 X137.230 Y101.464 E0.01699
G1 X137.615 Y101.859 E0.01731
G1 X137.949 Y102.292 E0.01714
G1 X138.229 Y102.756 E0.01699
G1 X138.459 Y103.258 E0.01731
G1 X138.628 Y103.778 E0.01714
G1 X138.736 Y104.314 E0.01715
G1 X138.783 Y104.859 E0.01715
M73 P3 R12
G1 X138.767 Y105.406 E0.01715
G1 X138.690 Y105.947 E0.01715
G1 X138.551 Y106.476 E0.01715
G1 X138.351 Y106.988 E0.01724
G1 X138.099 Y107.467 E0.01696
G1 X137.788 Y107.921 E0.01724
G1 X137.430 Y108.334 E0.01715
G1 X137.027 Y108.704 E0.01715
G1 X136.585 Y109.025 E0.01715
G1 X136.109 Y109.294 E0.01715
G1 X135.605 Y109.507 E0.01715
G1 X135.080 Y109.661 E0.01715
G1 X134.541 Y109.754 E0.01715
G1 X134.055 Y109.782 E0.01527
G1 X133.795 Y109.439 F10800.000
G1 E-0.80000 F2100.000
G1 Z0.800 F10800.000
G1 X137.776 Y102.954
G1 Z0.200
G1 E0.80000 F2100.000
;TYPE:Solid infill
;WIDTH:0.435202
G1 F1200.000
G1 X136.725 Y101.903 E0.04846
G1 X136.422 Y101.656 E0.01276
G1 X136.026 Y101.401 E0.01538
G1 X135.603 Y101.193 E0.01538
G1 X135.381 Y101.114 E0.00769
G1 X137.880 Y103.613 E0.11531
G1 X137.988 Y103.946 E0.01142
G1 X138.072 Y104.360 E0.01377
G1 X134.632 Y100.920 E0.15870
G1 X134.231 Y100.874 E0.01317
G1 X134.031 Y100.874 E0.00652
G1 X138.120 Y104.963 E0.18861
G1 X138.089 Y105.487 E0.01712
G1 X133.506 Y100.903 E0.21143
G1 X133.292 Y100.928 E0.00702
G1 X133.035 Y100.988 E0.00859
G1 X138.005 Y105.957 E0.22924
G1 X137.878 Y106.385 E0.01456
G1 X132.608 Y101.115 E0.24312
G1 X132.216 Y101.278 E0.01384
G1 X137.718 Y106.780 E0.25382
G1 X137.523 Y107.140 E0.01335
G1 X131.855 Y101.472 E0.26146
G1 X131.522 Y101.694 E0.01305
G1 X137.298 Y107.469 E0.26642
G1 X137.045 Y107.771 E0.01285
G1 X131.217 Y101.943 E0.26883
M73 P3 R11
G1 X131.204 Y101.954 E0.00057
G1 X130.942 Y102.223 E0.01223
G1 X136.767 Y108.047 E0.26867
G1 X136.463 Y108.298 E0.01285
G1 X130.693 Y102.528 E0.26616
G1 X130.470 Y102.860 E0.01304
G1 X136.133 Y108.523 E0.26121
G1 X135.774 Y108.719 E0.01333
G1 X130.275 Y103.220 E0.25367
G1 X130.111 Y103.611 E0.01383
G1 X135.384 Y108.884 E0.24323
G1 X134.955 Y109.010 E0.01458
G1 X129.984 Y104.038 E0.22933
G1 X129.900 Y104.509 E0.01560
G1 X134.485 Y109.094 E0.21150
M73 P4 R11
G1 X133.958 Y109.123 E0.01720
G1 X129.873 Y105.037 E0.18846
G1 X129.882 Y105.349 E0.01018
G1 X129.924 Y105.643 E0.00968
G1 X133.348 Y109.067 E0.15795
G1 X133.060 Y109.017 E0.00953
G1 X132.612 Y108.886 E0.01524
G1 X130.114 Y106.388 E0.11523
G1 X130.240 Y106.711 E0.01132
G1 X130.460 Y107.128 E0.01538
G1 X130.726 Y107.517 E0.01538
G1 X130.968 Y107.796 E0.01205
G1 X131.929 Y108.758 E0.04436
M106 S84.15
;LAYER_CHANGE
;Z:0.4
;HEIGHT:0.2
;BEFORE_LAYER_CHANGE
G92 E0.0
;0.4


G1 E-0.80000 F2100.000
G1 Z0.800 F10800.000
;AFTER_LAYER_CHANGE
;0.4
M104 S210 ; set temperature
G1 X116.005 Y109.364
G1 Z0.400
G1 E0.80000 F2100.000
M204 S800
;TYPE:Perimeter
;WIDTH:0.45
G1 F1500.000
G1 X115.755 Y109.364 E0.00844
G1 X115.260 Y109.307 E0.01688
G1 X114.774 Y109.194 E0.01688
G1 X114.305 Y109.027 E0.01688
G1 X113.857 Y108.807 E0.01688
G1 X113.438 Y108.537 E0.01688
G1 X113.052 Y108.221 E0.01688
G1 X112.704 Y107.864 E0.01688
G1 X112.400 Y107.469 E0.01688
G1 X112.142 Y107.042 E0.01688
G1 X111.935 Y106.588 E0.01688
G1 X111.786 Y106.128 E0.01638
G1 X111.682 Y105.625 E0.01740
G1 X111.639 Y105.129 E0.01684
G1 X111.654 Y104.630 E0.01688
G1 X111.725 Y104.137 E0.01688
G1 X111.851 Y103.655 E0.01688
G1 X112.036 Y103.182 E0.01718
G1 X112.260 Y102.756 E0.01627
G1 X112.546 Y102.337 E0.01718
G1 X112.873 Y101.961 E0.01688
G1 X113.240 Y101.623 E0.01688
G1 X113.644 Y101.330 E0.01688
G1 X114.078 Y101.085 E0.01688
G1 X114.537 Y100.891 E0.01688
G1 X115.016 Y100.751 E0.01688
G1 X115.507 Y100.666 E0.01688
G1 X116.005 Y100.637 E0.01688
G1 X116.488 Y100.665 E0.01638
G1 X116.995 Y100.751 E0.01740
G1 X117.472 Y100.891 E0.01684
G1 X117.931 Y101.085 E0.01688
G1 X118.366 Y101.330 E0.01688
G1 X118.769 Y101.623 E0.01688
G1 X119.136 Y101.961 E0.01688
G1 X119.463 Y102.337 E0.01688
G1 X119.744 Y102.749 E0.01688
G1 X119.977 Y103.190 E0.01688
G1 X120.158 Y103.655 E0.01688
G1 X120.285 Y104.137 E0.01688
G1 X120.355 Y104.630 E0.01688
G1 X120.370 Y105.129 E0.01688
G1 X120.327 Y105.626 E0.01688
G1 X120.228 Y106.114 E0.01688
G1 X120.074 Y106.588 E0.01688
G1 X119.867 Y107.042 E0.01688
G1 X119.609 Y107.469 E0.01688
G1 X119.314 Y107.852 E0.01638
G1 X118.957 Y108.222 E0.01740
G1 X118.571 Y108.537 E0.01684
G1 X118.152 Y108.807 E0.01688
G1 X117.704 Y109.027 E0.01688
G1 X117.235 Y109.194 E0.01688
G1 X116.749 Y109.307 E0.01688
G1 X116.254 Y109.364 E0.01688
G1 X116.065 Y109.364 E0.00641
M204 S1000
G1 X116.005 Y109.771 F10800.000
M204 S800
;TYPE:External perimeter
G1 F1500.000
G1 X115.732 Y109.771 E0.00923
G1 X115.190 Y109.709 E0.01845
G1 X114.659 Y109.585 E0.01845
G1 X114.146 Y109.402 E0.01845
G1 X113.657 Y109.162 E0.01845
G1 X113.198 Y108.867 E0.01845
G1 X112.776 Y108.522 E0.01845
G1 X112.396 Y108.131 E0.01845
G1 X112.063 Y107.699 E0.01845
G1 X111.782 Y107.232 E0.01845
G1 X111.555 Y106.736 E0.01845
G1 X111.392 Y106.232 E0.01794
G1 X111.279 Y105.683 E0.01898
G1 X111.232 Y105.140 E0.01844
G1 X111.247 Y104.595 E0.01845
G1 X111.325 Y104.056 E0.01845
G1 X111.464 Y103.529 E0.01845
G1 X111.663 Y103.018 E0.01856
G1 X111.914 Y102.541 E0.01824
G1 X112.224 Y102.088 E0.01856
G1 X112.581 Y101.676 E0.01845
G1 X112.982 Y101.308 E0.01845
G1 X113.423 Y100.987 E0.01845
G1 X113.898 Y100.719 E0.01845
G1 X114.400 Y100.507 E0.01845
G1 X114.923 Y100.354 E0.01845
G1 X115.460 Y100.261 E0.01845
G1 X116.005 Y100.229 E0.01845
G1 X116.534 Y100.260 E0.01794
G1 X117.086 Y100.354 E0.01898
G1 X117.609 Y100.507 E0.01844
G1 X118.111 Y100.719 E0.01845
G1 X118.586 Y100.987 E0.01845
G1 X119.027 Y101.308 E0.01845
G1 X119.429 Y101.676 E0.01845
G1 X119.786 Y102.088 E0.01845
G1 X120.093 Y102.538 E0.01845
G1 X120.348 Y103.021 E0.01845
G1 X120.546 Y103.529 E0.01845
G1 X120.684 Y104.056 E0.01845
G1 X120.762 Y104.595 E0.01845
G1 X120.777 Y105.140 E0.01845
G1 X120.731 Y105.684 E0.01845
G1 X120.622 Y106.218 E0.01845
G1 X120.454 Y106.736 E0.01845
G1 X120.227 Y107.232 E0.01845
G1 X119.946 Y107.699 E0.01845
G1 X119.622 Y108.119 E0.01794
G1 X119.233 Y108.522 E0.01898
G1 X118.811 Y108.867 E0.01844
G1 X118.352 Y109.162 E0.01845
G1 X117.863 Y109.402 E0.01845
G1 X117.350 Y109.585 E0.01845
G1 X116.819 Y109.709 E0.01845
