; generated by PrusaSlicer 2.1.1+win64 on 2020-06-17 at 17:22:35 UTC

; 

; external perimeters extrusion width = 0.45mm
; perimeters extrusion width = 0.45mm
; infill extrusion width = 0.45mm
; solid infill extrusion width = 0.45mm
; top infill extrusion width = 0.40mm
; first layer extrusion width = 0.42mm

M73 P0 R59
M201 X9000 Y9000 Z500 E10000 ; sets maximum accelerations, mm/sec^2
M203 X500 Y500 Z12 E120 ; sets maximum feedrates, mm/sec
M204 P2000 R1500 T2000 ; sets acceleration (P, T) and retract acceleration (R), mm/sec^2
M205 X10.00 Y10.00 Z0.20 E2.50 ; sets the jerk limits, mm/sec
M205 S0 T0 ; sets the minimum extruding and travel feed rate, mm/sec
M107
M862.3 P "MK2S" ; printer model check
M862.1 P0.4 ; nozzle diameter check
M115 U3.2.3 ; tell printer latest fw version
G90 ; use absolute coordinates
M83 ; extruder relative mode
M204 S2000 T1500 ; MK2 firmware only supports the old M204 format
M104 S215 ; set extruder temp
M140 S60 ; set bed temp
M190 S60 ; wait for bed temp
M109 S215 ; wait for extruder temp
G28 W ; home all without mesh bed level
G80 ; mesh bed leveling
G1 Y-3.0 F1000.0 ; go outside print area
G92 E0.0
G1 X60.0 E9.0  F1000.0 ; intro line
M73 P0 R59
G1 X100.0 E12.5 F1000.0 ; intro line
G92 E0.0
G21 ; set units to millimeters
G90 ; use absolute coordinates
M83 ; use relative distances for extrusion
M900 K30 ; Filament gcode
;BEFORE_LAYER_CHANGE
G92 E0.0
;0.2


G1 E-0.80000 F2100.00000
G1 Z0.600 F10800.000
;AFTER_LAYER_CHANGE
;0.2
G1 X120.048 Y95.181
G1 Z0.200
G1 E0.80000 F2100.00000
M204 S1000
G1 F1200
G1 X119.447 Y95.154 E0.01888
G1 X118.863 Y94.945 E0.01943
G1 X118.353 Y94.673 E0.01813
G1 X117.895 Y94.297 E0.01858
G1 X117.519 Y93.839 E0.01858
G1 X117.240 Y93.316 E0.01858
G1 X117.070 Y92.756 E0.01834
G1 X116.996 Y92.161 E0.01880
G1 X117.070 Y91.563 E0.01890
G1 X117.240 Y91.002 E0.01835
G1 X117.519 Y90.480 E0.01858
G1 X117.895 Y90.022 E0.01858
G1 X118.353 Y89.646 E0.01858
G1 X118.869 Y89.370 E0.01833
G1 X119.439 Y89.181 E0.01882
G1 X120.027 Y89.139 E0.01849
G1 X120.621 Y89.194 E0.01871
G1 X121.189 Y89.367 E0.01863
G1 X121.712 Y89.646 E0.01858
G1 X122.170 Y90.022 E0.01858
G1 X122.546 Y90.480 E0.01858
G1 X122.825 Y91.002 E0.01858
G1 X122.997 Y91.570 E0.01858
G1 X123.055 Y92.159 E0.01858
G1 X122.997 Y92.749 E0.01858
G1 X122.825 Y93.316 E0.01858
G1 X122.546 Y93.839 E0.01858
G1 X122.170 Y94.297 E0.01858
G1 X121.712 Y94.673 E0.01858
G1 X121.189 Y94.952 E0.01858
G1 X120.622 Y95.124 E0.01858
G1 X120.108 Y95.175 E0.01620
G1 X120.038 Y94.803 F10800.000
G1 F1200
G1 X119.520 Y94.779 E0.01625
G1 X119.016 Y94.599 E0.01678
G1 X118.564 Y94.358 E0.01609
G1 X118.163 Y94.029 E0.01625
G1 X117.834 Y93.628 E0.01625
G1 X117.590 Y93.171 E0.01625
G1 X117.440 Y92.678 E0.01617
G1 X117.376 Y92.161 E0.01633
G1 X117.440 Y91.641 E0.01642
G1 X117.590 Y91.147 E0.01617
G1 X117.834 Y90.690 E0.01625
G1 X118.163 Y90.290 E0.01625
G1 X118.564 Y89.961 E0.01625
G1 X119.018 Y89.718 E0.01616
G1 X119.513 Y89.554 E0.01633
G1 X120.023 Y89.517 E0.01603
G1 X120.548 Y89.566 E0.01654
G1 X121.044 Y89.717 E0.01627
G1 X121.501 Y89.961 E0.01625
G1 X121.902 Y90.290 E0.01625
G1 X122.231 Y90.690 E0.01625
G1 X122.475 Y91.147 E0.01625
G1 X122.626 Y91.643 E0.01625
G1 X122.677 Y92.159 E0.01625
G1 X122.626 Y92.675 E0.01625
G1 X122.475 Y93.171 E0.01625
G1 X122.231 Y93.628 E0.01625
G1 X121.902 Y94.029 E0.01625
G1 X121.501 Y94.358 E0.01625
G1 X121.044 Y94.602 E0.01625
G1 X120.548 Y94.752 E0.01625
G1 X120.098 Y94.797 E0.01419
G1 X119.851 Y95.156 F10800.000
G1 E-0.80000 F2100.00000
G1 Z0.800 F10800.000
G1 X124.431 Y152.763
G1 Z0.200
G1 E0.80000 F2100.00000
G1 F1200
G1 X112.662 Y152.763 E0.36901
G1 X112.662 Y96.983 E1.74895
G1 X113.265 Y90.946 E0.19022
G1 X116.347 Y82.477 E0.28258
G1 X128.046 Y86.736 E0.39036
G1 X124.935 Y95.285 E0.28526
G1 X124.431 Y96.862 E0.05190
G1 X124.431 Y152.703 E1.75085
G1 X124.808 Y153.140 F10800.000
G1 F1200
G1 X112.285 Y153.140 E0.39266
G1 X112.285 Y96.964 E1.76136
G1 X112.894 Y90.861 E0.19230
G1 X116.122 Y81.994 E0.29589
G1 X128.530 Y86.511 E0.41401
G1 X125.291 Y95.407 E0.29685
G1 X124.808 Y96.921 E0.04982
G1 X124.808 Y153.080 E1.76083
G1 X124.462 Y152.939 F10800.000
G1 E-0.80000 F2100.00000
G1 Z0.800 F10800.000
G1 X112.775 Y151.882
G1 Z0.200
G1 E0.80000 F2100.00000
G1 F1200
G1 X113.372 Y152.480 E0.02668
G1 X113.909 Y152.480 E0.01694
G1 X112.944 Y151.515 E0.04306
G1 X112.944 Y150.979 E0.01694
G1 X114.446 Y152.480 E0.06701
G1 X114.983 Y152.480 E0.01694
G1 X112.944 Y150.442 E0.09096
G1 X112.944 Y149.905 E0.01694
G1 X115.519 Y152.480 E0.11492
G1 X116.056 Y152.480 E0.01694
G1 X112.944 Y149.369 E0.13887
G1 X112.944 Y148.832 E0.01694
G1 X116.593 Y152.480 E0.16282
G1 X117.130 Y152.480 E0.01694
G1 X112.944 Y148.295 E0.18678
G1 X112.944 Y147.758 E0.01694
G1 X117.666 Y152.480 E0.21073
G1 X118.203 Y152.480 E0.01694
G1 X112.944 Y147.222 E0.23469
G1 X112.944 Y146.685 E0.01694
G1 X118.740 Y152.480 E0.25864
G1 X119.276 Y152.480 E0.01694
G1 X112.944 Y146.148 E0.28259
G1 X112.944 Y145.611 E0.01694
G1 X119.813 Y152.480 E0.30655
G1 X120.350 Y152.480 E0.01694
G1 X112.944 Y145.075 E0.33050
G1 X112.944 Y144.538 E0.01694
G1 X120.887 Y152.480 E0.35445
G1 X121.423 Y152.480 E0.01694
G1 X112.944 Y144.001 E0.37841
G1 X112.944 Y143.465 E0.01694
G1 X121.960 Y152.480 E0.40236
G1 X122.497 Y152.480 E0.01694
G1 X112.944 Y142.928 E0.42632
G1 X112.944 Y142.391 E0.01694
G1 X123.034 Y152.480 E0.45027
G1 X123.570 Y152.480 E0.01694
G1 X112.944 Y141.854 E0.47422
G1 X112.944 Y141.318 E0.01694
G1 X124.107 Y152.480 E0.49818
G1 X124.148 Y152.480 E0.00129
G1 X124.148 Y151.984 E0.01564
G1 X112.944 Y140.781 E0.50001
G1 X112.944 Y140.244 E0.01694
G1 X124.148 Y151.448 E0.50001
G1 X124.148 Y150.911 E0.01694
G1 X112.944 Y139.707 E0.50001
G1 X112.944 Y139.171 E0.01694
G1 X124.148 Y150.374 E0.50001
G1 X124.148 Y149.838 E0.01694
G1 X112.944 Y138.634 E0.50001
G1 X112.944 Y138.097 E0.01694
G1 X124.148 Y149.301 E0.50001
G1 X124.148 Y148.764 E0.01694
G1 X112.944 Y137.561 E0.50001
G1 X112.944 Y137.024 E0.01694
G1 X124.148 Y148.227 E0.50001
G1 X124.148 Y147.691 E0.01694
G1 X112.944 Y136.487 E0.50001
G1 X112.944 Y135.950 E0.01694
G1 X124.148 Y147.154 E0.50001
G1 X124.148 Y146.617 E0.01694
G1 X112.944 Y135.414 E0.50001
G1 X112.944 Y134.877 E0.01694
G1 X124.148 Y146.080 E0.50001
G1 X124.148 Y145.544 E0.01694
G1 X112.944 Y134.340 E0.50001
G1 X112.944 Y133.803 E0.01694
G1 X124.148 Y145.007 E0.50001
G1 X124.148 Y144.470 E0.01694
G1 X112.944 Y133.267 E0.50001
G1 X112.944 Y132.730 E0.01694
G1 X124.148 Y143.934 E0.50001
G1 X124.148 Y143.397 E0.01694
G1 X112.944 Y132.193 E0.50001
G1 X112.944 Y131.657 E0.01694
G1 X124.148 Y142.860 E0.50001
G1 X124.148 Y142.323 E0.01694
G1 X112.944 Y131.120 E0.50001
G1 X112.944 Y130.583 E0.01694
G1 X124.148 Y141.787 E0.50001
G1 X124.148 Y141.250 E0.01694
G1 X112.944 Y130.046 E0.50001
G1 X112.944 Y129.510 E0.01694
G1 X124.148 Y140.713 E0.50001
G1 X124.148 Y140.176 E0.01694
G1 X112.944 Y128.973 E0.50001
G1 X112.944 Y128.436 E0.01694
G1 X124.148 Y139.640 E0.50001
G1 X124.148 Y139.103 E0.01694
G1 X112.944 Y127.899 E0.50001
G1 X112.944 Y127.363 E0.01694
G1 X124.148 Y138.566 E0.50001
G1 X124.148 Y138.030 E0.01694
G1 X112.944 Y126.826 E0.50001
G1 X112.944 Y126.289 E0.01694
G1 X124.148 Y137.493 E0.50001
G1 X124.148 Y136.956 E0.01694
G1 X112.944 Y125.753 E0.50001
G1 X112.944 Y125.216 E0.01694
G1 X124.148 Y136.419 E0.50001
G1 X124.148 Y135.883 E0.01694
G1 X112.944 Y124.679 E0.50001
G1 X112.944 Y124.142 E0.01694
G1 X124.148 Y135.346 E0.50001
G1 X124.148 Y134.809 E0.01694
G1 X112.944 Y123.606 E0.50001
G1 X112.944 Y123.069 E0.01694
G1 X124.148 Y134.272 E0.50001
M73 P1 R58
G1 X124.148 Y133.736 E0.01694
G1 X112.944 Y122.532 E0.50001
G1 X112.944 Y121.995 E0.01694
G1 X124.148 Y133.199 E0.50001
G1 X124.148 Y132.662 E0.01694
G1 X112.944 Y121.459 E0.50001
G1 X112.944 Y120.922 E0.01694
G1 X124.148 Y132.126 E0.50001
G1 X124.148 Y131.589 E0.01694
G1 X112.944 Y120.385 E0.50001
G1 X112.944 Y119.849 E0.01694
G1 X124.148 Y131.052 E0.50001
G1 X124.148 Y130.515 E0.01694
G1 X112.944 Y119.312 E0.50001
G1 X112.944 Y118.775 E0.01694
G1 X124.148 Y129.979 E0.50001
G1 X124.148 Y129.442 E0.01694
G1 X112.944 Y118.238 E0.50001
G1 X112.944 Y117.702 E0.01694
G1 X124.148 Y128.905 E0.50001
G1 X124.148 Y128.368 E0.01694
G1 X112.944 Y117.165 E0.50001
G1 X112.944 Y116.628 E0.01694
G1 X124.148 Y127.832 E0.50001
G1 X124.148 Y127.295 E0.01694
G1 X112.944 Y116.091 E0.50001
G1 X112.944 Y115.555 E0.01694
G1 X124.148 Y126.758 E0.50001
G1 X124.148 Y126.222 E0.01694
G1 X112.944 Y115.018 E0.50001
G1 X112.944 Y114.481 E0.01694
G1 X124.148 Y125.685 E0.50001
G1 X124.148 Y125.148 E0.01694
G1 X112.944 Y113.944 E0.50001
G1 X112.944 Y113.408 E0.01694
G1 X124.148 Y124.611 E0.50001
G1 X124.148 Y124.075 E0.01694
G1 X112.944 Y112.871 E0.50001
G1 X112.944 Y112.334 E0.01694
G1 X124.148 Y123.538 E0.50001
G1 X124.148 Y123.001 E0.01694
G1 X112.944 Y111.798 E0.50001
G1 X112.944 Y111.261 E0.01694
G1 X124.148 Y122.464 E0.50001
G1 X124.148 Y121.928 E0.01694
G1 X112.944 Y110.724 E0.50001
G1 X112.944 Y110.187 E0.01694
G1 X124.148 Y121.391 E0.50001
G1 X124.148 Y120.854 E0.01694
G1 X112.944 Y109.651 E0.50001
G1 X112.944 Y109.114 E0.01694
G1 X124.148 Y120.318 E0.50001
G1 X124.148 Y119.781 E0.01694
G1 X112.944 Y108.577 E0.50001
G1 X112.944 Y108.040 E0.01694
G1 X124.148 Y119.244 E0.50001
G1 X124.148 Y118.707 E0.01694
G1 X112.944 Y107.504 E0.50001
G1 X112.944 Y106.967 E0.01694
G1 X124.148 Y118.171 E0.50001
G1 X124.148 Y117.634 E0.01694
G1 X112.944 Y106.430 E0.50001
G1 X112.944 Y105.894 E0.01694
G1 X124.148 Y117.097 E0.50001
G1 X124.148 Y116.560 E0.01694
G1 X112.944 Y105.357 E0.50001
G1 X112.944 Y104.820 E0.01694
G1 X124.148 Y116.024 E0.50001
G1 X124.148 Y115.487 E0.01694
G1 X112.944 Y104.283 E0.50001
G1 X112.944 Y103.747 E0.01694
G1 X124.148 Y114.950 E0.50001
G1 X124.148 Y114.414 E0.01694
G1 X112.944 Y103.210 E0.50001
G1 X112.944 Y102.673 E0.01694
G1 X124.148 Y113.877 E0.50001
G1 X124.148 Y113.340 E0.01694
G1 X112.944 Y102.136 E0.50001
G1 X112.944 Y101.600 E0.01694
G1 X124.148 Y112.803 E0.50001
G1 X124.148 Y112.267 E0.01694
G1 X112.944 Y101.063 E0.50001
G1 X112.944 Y100.526 E0.01694
G1 X124.148 Y111.730 E0.50001
G1 X124.148 Y111.193 E0.01694
G1 X112.944 Y99.990 E0.50001
G1 X112.944 Y99.453 E0.01694
G1 X124.148 Y110.656 E0.50001
G1 X124.148 Y110.120 E0.01694
G1 X112.944 Y98.916 E0.50001
G1 X112.944 Y98.379 E0.01694
G1 X124.148 Y109.583 E0.50001
G1 X124.148 Y109.046 E0.01694
G1 X112.944 Y97.843 E0.50001
G1 X112.944 Y97.306 E0.01694
G1 X124.148 Y108.510 E0.50001
G1 X124.148 Y107.973 E0.01694
G1 X112.965 Y96.790 E0.49908
G1 X113.014 Y96.302 E0.01548
G1 X124.148 Y107.436 E0.49691
G1 X124.148 Y106.899 E0.01694
G1 X113.063 Y95.814 E0.49473
G1 X113.111 Y95.326 E0.01548
G1 X124.148 Y106.363 E0.49255
G1 X124.148 Y105.826 E0.01694
G1 X113.160 Y94.838 E0.49038
G1 X113.209 Y94.350 E0.01548
G1 X124.148 Y105.289 E0.48820
G1 X124.148 Y104.752 E0.01694
G1 X113.258 Y93.862 E0.48602
G1 X113.306 Y93.374 E0.01548
G1 X124.148 Y104.216 E0.48385
G1 X124.148 Y103.679 E0.01694
G1 X113.355 Y92.886 E0.48167
G1 X113.404 Y92.398 E0.01548
G1 X124.148 Y103.142 E0.47950
G1 X124.148 Y102.606 E0.01694
G1 X113.453 Y91.910 E0.47732
G1 X113.502 Y91.422 E0.01548
G1 X124.148 Y102.069 E0.47514
G1 X124.148 Y101.532 E0.01694
G1 X113.565 Y90.949 E0.47232
G1 X113.708 Y90.555 E0.01322
G1 X124.318 Y101.165 E0.47350
G1 E-0.80000 F2100.00000
G1 Z0.800 F10800.000
G1 X118.975 Y95.285
G1 Z0.200
G1 E0.80000 F2100.00000
G1 F1200
G1 X124.148 Y100.459 E0.23088
G1 X124.148 Y99.922 E0.01694
G1 X119.673 Y95.447 E0.19972
G1 X120.056 Y95.464 E0.01210
G1 X120.211 Y95.449 E0.00493
G1 X124.148 Y99.385 E0.17568
G1 X124.148 Y98.848 E0.01694
G1 X120.697 Y95.397 E0.15403
G1 X121.108 Y95.272 E0.01358
G1 X124.148 Y98.312 E0.13566
G1 X124.148 Y97.775 E0.01694
G1 X121.487 Y95.114 E0.11877
G1 X121.836 Y94.927 E0.01252
G1 X124.148 Y97.238 E0.10316
G1 X124.148 Y96.818 E0.01326
G1 X124.176 Y96.730 E0.00293
G1 X122.137 Y94.690 E0.09103
G1 X122.421 Y94.437 E0.01200
G1 X124.306 Y96.323 E0.08416
G1 X124.436 Y95.916 E0.01348
G1 X122.662 Y94.142 E0.07916
G1 X122.782 Y93.996 E0.00596
G1 X122.877 Y93.820 E0.00632
G1 X124.566 Y95.509 E0.07540
G1 X124.699 Y95.106 E0.01342
G1 X123.064 Y93.470 E0.07299
G1 X123.197 Y93.066 E0.01341
G1 X124.842 Y94.712 E0.07345
G1 X124.985 Y94.319 E0.01322
G1 X123.294 Y92.627 E0.07551
G1 X123.337 Y92.133 E0.01563
G1 X125.129 Y93.925 E0.07996
G1 X125.272 Y93.532 E0.01321
G1 X123.278 Y91.538 E0.08897
G1 X123.088 Y90.894 E0.02120
G1 X122.993 Y90.716 E0.00638
G1 X125.548 Y93.270 E0.11402
G1 E-0.80000 F2100.00000
G1 Z0.800 F10800.000
G1 X127.696 Y87.368
G1 Z0.200
G1 E0.80000 F2100.00000
G1 F1200
G1 X126.975 Y86.647 E0.03218
G1 X126.131 Y86.340 E0.02834
G1 X127.420 Y87.629 E0.05754
G1 X127.277 Y88.023 E0.01321
G1 X125.287 Y86.032 E0.08882
G1 X124.443 Y85.725 E0.02834
G1 X127.134 Y88.416 E0.12009
G1 X126.991 Y88.810 E0.01322
G1 X123.599 Y85.418 E0.15137
G1 X122.755 Y85.111 E0.02834
G1 X126.847 Y89.203 E0.18264
G1 X126.704 Y89.597 E0.01321
G1 X121.911 Y84.803 E0.21391
G1 X121.067 Y84.496 E0.02834
G1 X126.561 Y89.990 E0.24519
G1 X126.418 Y90.384 E0.01321
G1 X120.223 Y84.189 E0.27646
G1 X119.379 Y83.882 E0.02834
G1 X126.274 Y90.777 E0.30774
G1 X126.131 Y91.171 E0.01321
G1 X118.535 Y83.574 E0.33901
G1 X117.691 Y83.267 E0.02834
G1 X125.988 Y91.564 E0.37029
G1 X125.845 Y91.958 E0.01322
G1 X116.847 Y82.960 E0.40156
M73 P3 R57
G1 X116.516 Y82.839 E0.01111
G1 X116.429 Y83.079 E0.00804
G1 X125.702 Y92.351 E0.41381
G1 X125.558 Y92.745 E0.01321
G1 X116.286 Y83.472 E0.41381
G1 X116.143 Y83.866 E0.01321
G1 X121.476 Y89.199 E0.23803
G1 X121.298 Y89.104 E0.00638
G1 X120.653 Y88.913 E0.02122
G1 X116.000 Y84.259 E0.20770
G1 X115.856 Y84.653 E0.01322
G1 X120.061 Y88.858 E0.18766
G1 X119.556 Y88.889 E0.01598
G1 X115.713 Y85.046 E0.17149
G1 X115.570 Y85.440 E0.01321
G1 X119.119 Y88.989 E0.15840
G1 X118.722 Y89.128 E0.01329
G1 X115.427 Y85.833 E0.14705
G1 X115.284 Y86.227 E0.01321
G1 X118.372 Y89.315 E0.13783
G1 X118.195 Y89.410 E0.00632
G1 X118.049 Y89.529 E0.00596
G1 X115.140 Y86.620 E0.12983
G1 X114.997 Y87.014 E0.01321
G1 X117.755 Y89.771 E0.12307
G1 X117.502 Y90.055 E0.01200
G1 X114.854 Y87.407 E0.11818
G1 X114.711 Y87.801 E0.01322
G1 X117.265 Y90.355 E0.11401
G1 X117.078 Y90.705 E0.01252
G1 X114.567 Y88.194 E0.11205
G1 X114.424 Y88.588 E0.01321
G1 X116.920 Y91.083 E0.11138
G1 X116.795 Y91.495 E0.01358
G1 X114.281 Y88.981 E0.11220
G1 X114.138 Y89.375 E0.01322
G1 X116.735 Y91.972 E0.11590
G1 X116.711 Y92.161 E0.00602
G1 X116.757 Y92.531 E0.01176
G1 X113.994 Y89.768 E0.12330
G1 X113.851 Y90.162 E0.01321
G1 X116.918 Y93.228 E0.13686
M106 S255
;BEFORE_LAYER_CHANGE
G92 E0.0
;0.4


G1 E-0.80000 F2100.00000
G1 Z0.800 F10800.000
;AFTER_LAYER_CHANGE
;0.4
M104 S210 ; set temperature
G1 X120.048 Y95.226
G1 Z0.400
G1 E0.80000 F2100.00000
M204 S800
G1 F1500
G1 X119.424 Y95.195 E0.02115
G1 X118.844 Y94.986 E0.02087
G1 X118.328 Y94.710 E0.01980
G1 X117.863 Y94.329 E0.02036
G1 X117.482 Y93.864 E0.02036
G1 X117.198 Y93.333 E0.02036
G1 X117.026 Y92.765 E0.02010
G1 X116.952 Y92.161 E0.02061
G1 X117.026 Y91.554 E0.02071
G1 X117.198 Y90.985 E0.02011
G1 X117.482 Y90.455 E0.02036
G1 X117.863 Y89.990 E0.02036
G1 X118.328 Y89.608 E0.02036
G1 X118.851 Y89.329 E0.02009
G1 X119.430 Y89.137 E0.02064
G1 X120.000 Y89.096 E0.01933
G1 X120.627 Y89.149 E0.02130
G1 X121.207 Y89.325 E0.02051
G1 X121.737 Y89.608 E0.02036
G1 X122.202 Y89.990 E0.02036
G1 X122.584 Y90.455 E0.02036
G1 X122.867 Y90.985 E0.02036
G1 X123.042 Y91.561 E0.02036
G1 X123.101 Y92.159 E0.02036
G1 X123.042 Y92.758 E0.02036
G1 X122.867 Y93.333 E0.02036
G1 X122.584 Y93.864 E0.02036
G1 X122.202 Y94.329 E0.02036
G1 X121.737 Y94.710 E0.02036
G1 X121.207 Y94.994 E0.02036
G1 X120.631 Y95.168 E0.02036
G1 X120.108 Y95.220 E0.01780
M204 S1000
G1 X120.038 Y94.818 F10800.000
M204 S800
G1 F1500
G1 X119.505 Y94.792 E0.01807
G1 X119.010 Y94.613 E0.01781
G1 X118.555 Y94.370 E0.01745
G1 X118.152 Y94.039 E0.01764
G1 X117.822 Y93.636 E0.01764
G1 X117.576 Y93.177 E0.01764
G1 X117.426 Y92.681 E0.01755
G1 X117.362 Y92.161 E0.01773
G1 X117.425 Y91.638 E0.01783
G1 X117.576 Y91.142 E0.01755
