; generated by PrusaSlicer 2.2.0+win64 on 2020-11-09 at 17:59:20 UTC

; 

; external perimeters extrusion width = 0.60mm
; perimeters extrusion width = 0.43mm
; infill extrusion width = 0.45mm
; solid infill extrusion width = 0.70mm
; top infill extrusion width = 0.43mm
; first layer extrusion width = 0.42mm

M73 P0 R48
M201 X9000 Y9000 Z500 E10000 ; sets maximum accelerations, mm/sec^2
M203 X500 Y500 Z12 E120 ; sets maximum feedrates, mm/sec
M204 P2000 R1500 T2000 ; sets acceleration (P, T) and retract acceleration (R), mm/sec^2
M205 X10.00 Y10.00 Z0.20 E2.50 ; sets the jerk limits, mm/sec
M205 S0 T0 ; sets the minimum extruding and travel feed rate, mm/sec
M107
M862.3 P "MK2S" ; printer model check
M862.1 P0.4 ; nozzle diameter check
M115 U3.2.3 ; tell printer latest fw version
G90 ; use absolute coordinates
M83 ; extruder relative mode
M204 S2000 T1500 ; MK2 firmware only supports the old M204 format
M104 S215 ; set extruder temp
M140 S60 ; set bed temp
M190 S60 ; wait for bed temp
M109 S215 ; wait for extruder temp
G28 W ; home all without mesh bed level
G80 ; mesh bed leveling
G1 Y-3.0 F1000.0 ; go outside print area
G92 E0.0
G1 X60.0 E9.0  F1000.0 ; intro line
M73 P0 R48
G1 X100.0 E12.5 F1000.0 ; intro line
G92 E0.0
G21 ; set units to millimeters
G90 ; use absolute coordinates
M83 ; use relative distances for extrusion
M900 K0.05 ; Filament gcode LA 1.5
M900 K30 ; Filament gcode LA 1.0
;BEFORE_LAYER_CHANGE
G92 E0.0
;0.2


G1 E-0.80000 F2100.00000
G1 Z0.600 F10800.000
;AFTER_LAYER_CHANGE
;0.2
G1 X111.214 Y69.050
G1 Z0.200
G1 E0.80000 F2100.00000
M204 S1000
G1 F1200.000
G1 X111.476 Y68.347 E0.02355
G1 X111.945 Y67.760 E0.02355
G1 X112.574 Y67.349 E0.02355
G1 X113.303 Y67.155 E0.02367
G1 X129.928 Y67.142 E0.52125
G1 X130.819 Y67.318 E0.02849
G1 X131.583 Y67.817 E0.02860
G1 X132.102 Y68.567 E0.02860
G1 X132.300 Y69.454 E0.02849
G1 X132.254 Y148.989 E2.49377
G1 X131.990 Y149.696 E0.02367
G1 X131.517 Y150.284 E0.02367
G1 X130.883 Y150.694 E0.02367
G1 X130.153 Y150.886 E0.02367
G1 X113.075 Y150.850 E0.53548
G1 X112.328 Y150.562 E0.02508
G1 X111.722 Y150.046 E0.02496
G1 X111.319 Y149.356 E0.02508
G1 X111.168 Y148.574 E0.02496
G1 X111.214 Y69.110 E2.49153
G1 E-0.80000 F2100.00000
G1 Z0.800 F10800.000
G1 X121.089 Y139.921
G1 Z0.200
G1 E0.80000 F2100.00000
G1 F1200.000
G1 X121.693 Y139.868 E0.01901
G1 X122.376 Y139.920 E0.02148
G1 X123.005 Y140.089 E0.02041
G1 X123.592 Y140.362 E0.02030
G1 X124.122 Y140.734 E0.02030
G1 X124.580 Y141.192 E0.02030
G1 X124.951 Y141.722 E0.02030
G1 X125.225 Y142.309 E0.02030
G1 X125.393 Y142.934 E0.02030
G1 X125.449 Y143.580 E0.02030
G1 X125.393 Y144.225 E0.02030
G1 X125.225 Y144.850 E0.02030
G1 X124.951 Y145.437 E0.02030
G1 X124.580 Y145.968 E0.02030
G1 X124.122 Y146.425 E0.02030
G1 X123.592 Y146.797 E0.02030
G1 X123.005 Y147.071 E0.02030
G1 X122.379 Y147.238 E0.02030
G1 X121.734 Y147.295 E0.02030
G1 X121.089 Y147.238 E0.02030
G1 X120.463 Y147.071 E0.02030
G1 X119.876 Y146.797 E0.02030
G1 X119.346 Y146.425 E0.02030
G1 X118.888 Y145.968 E0.02030
G1 X118.517 Y145.437 E0.02030
G1 X118.260 Y144.888 E0.01901
G1 X118.076 Y144.228 E0.02148
G1 X118.019 Y143.580 E0.02041
G1 X118.075 Y142.934 E0.02030
G1 X118.243 Y142.309 E0.02030
G1 X118.517 Y141.722 E0.02030
G1 X118.888 Y141.192 E0.02030
G1 X119.346 Y140.734 E0.02030
G1 X119.876 Y140.362 E0.02030
G1 X120.463 Y140.089 E0.02030
G1 X121.031 Y139.936 E0.01842
G1 X121.129 Y140.301 F10800.000
G1 F1200.000
G1 X121.695 Y140.246 E0.01784
G1 X122.312 Y140.293 E0.01941
G1 X122.875 Y140.444 E0.01827
G1 X123.402 Y140.690 E0.01824
G1 X123.879 Y141.024 E0.01824
G1 X124.290 Y141.435 E0.01824
G1 X124.624 Y141.911 E0.01824
G1 X124.869 Y142.438 E0.01824
G1 X125.020 Y143.000 E0.01824
G1 X125.071 Y143.580 E0.01824
G1 X125.020 Y144.159 E0.01824
G1 X124.869 Y144.721 E0.01824
G1 X124.624 Y145.248 E0.01824
G1 X124.290 Y145.724 E0.01824
G1 X123.879 Y146.136 E0.01824
G1 X123.402 Y146.469 E0.01824
G1 X122.875 Y146.715 E0.01824
G1 X122.313 Y146.865 E0.01824
G1 X121.734 Y146.916 E0.01824
G1 X121.155 Y146.865 E0.01824
G1 X120.593 Y146.715 E0.01824
G1 X120.066 Y146.469 E0.01824
G1 X119.589 Y146.136 E0.01824
G1 X119.178 Y145.724 E0.01824
G1 X118.844 Y145.248 E0.01824
G1 X118.615 Y144.756 E0.01701
G1 X118.448 Y144.160 E0.01941
G1 X118.397 Y143.580 E0.01827
G1 X118.448 Y143.000 E0.01824
G1 X118.599 Y142.438 E0.01824
G1 X118.844 Y141.911 E0.01824
G1 X119.178 Y141.435 E0.01824
G1 X119.589 Y141.024 E0.01824
G1 X120.066 Y140.690 E0.01824
G1 X120.593 Y140.444 E0.01824
G1 X121.071 Y140.316 E0.01551
G1 X121.263 Y139.924 F10800.000
G1 E-0.80000 F2100.00000
G1 Z0.800 F10800.000
G1 X114.331 Y147.732
G1 Z0.200
G1 E0.80000 F2100.00000
G1 F1200.000
G1 X114.331 Y70.307 E2.42763
G1 X129.137 Y70.307 E0.46423
G1 X129.137 Y147.732 E2.42763
G1 X114.391 Y147.732 E0.46235
G1 X113.954 Y148.110 F10800.000
G1 F1200.000
G1 X113.954 Y69.930 E2.45128
G1 X129.514 Y69.930 E0.48787
G1 X129.514 Y148.110 E2.45128
G1 X114.014 Y148.110 E0.48599
G1 X113.980 Y147.710 F10800.000
G1 X115.208 Y147.619
G1 F1200.000
G1 X114.614 Y147.026 E0.02636
G1 X114.614 Y146.492 E0.01677
G1 X115.572 Y147.450 E0.04254
G1 X116.106 Y147.450 E0.01677
G1 X114.614 Y145.958 E0.06626
G1 X114.614 Y145.424 E0.01677
G1 X116.640 Y147.450 E0.08997
G1 X117.174 Y147.450 E0.01677
G1 X114.614 Y144.890 E0.11368
G1 X114.614 Y144.355 E0.01677
G1 X117.708 Y147.450 E0.13740
G1 X118.242 Y147.450 E0.01677
G1 X114.614 Y143.821 E0.16111
G1 X114.614 Y143.287 E0.01677
G1 X118.776 Y147.450 E0.18483
G1 X119.310 Y147.450 E0.01677
G1 X114.614 Y142.753 E0.20854
G1 X114.614 Y142.219 E0.01677
G1 X119.844 Y147.450 E0.23226
G1 X120.074 Y147.450 E0.00721
G1 X120.105 Y147.215 E0.00742
G1 X119.735 Y147.043 E0.01282
G1 X119.163 Y146.643 E0.02189
G1 X118.671 Y146.150 E0.02189
G1 X118.271 Y145.579 E0.02189
G1 X118.064 Y145.135 E0.01537
G1 X114.614 Y141.685 E0.15320
G1 X114.614 Y141.151 E0.01677
G1 X117.817 Y144.355 E0.14226
G1 X117.796 Y144.279 E0.00248
G1 X117.750 Y143.754 E0.01656
G1 X114.614 Y140.617 E0.13927
G1 X114.614 Y140.083 E0.01677
G1 X117.765 Y143.235 E0.13994
G1 X117.796 Y142.885 E0.01101
G1 X117.828 Y142.764 E0.00395
G1 X114.614 Y139.549 E0.14274
G1 X114.614 Y139.015 E0.01677
G1 X117.941 Y142.342 E0.14775
G1 X117.976 Y142.212 E0.00425
G1 X118.093 Y141.961 E0.00870
G1 X114.614 Y138.481 E0.15451
G1 X114.614 Y137.947 E0.01677
G1 X118.263 Y141.596 E0.16205
G1 X118.481 Y141.280 E0.01206
G1 X114.614 Y137.413 E0.17172
G1 X114.614 Y136.879 E0.01677
G1 X118.707 Y140.972 E0.18177
G1 X118.974 Y140.705 E0.01186
G1 X114.614 Y136.345 E0.19363
G1 X114.614 Y135.811 E0.01677
G1 X119.255 Y140.452 E0.20609
G1 X119.569 Y140.232 E0.01204
G1 X114.614 Y135.277 E0.22004
G1 X114.614 Y134.743 E0.01677
G1 X119.907 Y140.036 E0.23504
G1 X120.271 Y139.866 E0.01262
G1 X114.614 Y134.209 E0.25122
G1 X114.614 Y133.675 E0.01677
G1 X120.677 Y139.738 E0.26926
G1 X121.108 Y139.635 E0.01391
G1 X114.614 Y133.141 E0.28840
G1 X114.614 Y132.607 E0.01677
G1 X121.600 Y139.592 E0.31020
G1 X121.691 Y139.584 E0.00289
G1 X122.161 Y139.620 E0.01480
G1 X114.614 Y132.073 E0.33515
G1 X114.614 Y131.539 E0.01677
G1 X123.069 Y139.994 E0.37546
G1 E-0.80000 F2100.00000
G1 Z0.800 F10800.000
G1 X120.366 Y147.394
G1 Z0.200
G1 E0.80000 F2100.00000
G1 F1200.000
G1 X120.591 Y147.424 E0.00498
G1 X121.040 Y147.483 E0.00637
G1 X121.737 Y147.514 E0.00349
G1 X122.077 Y147.499 E0.00255
G1 X122.428 Y147.483 E0.00355
G1 X122.652 Y147.454 E0.00318
G1 X122.877 Y147.424 E0.00408
G1 X123.102 Y147.394 E0.00498
G1 X123.752 Y147.619 F10800.000
G1 F1200.000
G1 X123.363 Y147.215 E0.01761
G1 X123.717 Y147.050 E0.01226
G1 X124.117 Y147.450 E0.01773
G1 X124.651 Y147.450 E0.01677
G1 X124.034 Y146.833 E0.02740
G1 X124.341 Y146.606 E0.01199
G1 X125.185 Y147.450 E0.03745
G1 X125.719 Y147.450 E0.01677
G1 X124.608 Y146.339 E0.04931
G1 X124.797 Y146.150 E0.00840
G1 X124.861 Y146.058 E0.00351
G1 X126.253 Y147.450 E0.06178
G1 X126.787 Y147.450 E0.01677
G1 X125.081 Y145.744 E0.07572
G1 X125.197 Y145.579 E0.00634
G1 X125.278 Y145.407 E0.00598
G1 X127.321 Y147.450 E0.09073
G1 X127.855 Y147.450 E0.01677
G1 X125.447 Y145.042 E0.10690
G1 X125.492 Y144.947 E0.00329
G1 X125.575 Y144.636 E0.01012
G1 X128.389 Y147.450 E0.12494
G1 X128.854 Y147.450 E0.01461
G1 X128.854 Y147.381 E0.00216
G1 X125.678 Y144.205 E0.14103
G1 X125.721 Y143.714 E0.01548
G1 X128.854 Y146.847 E0.13912
G1 X128.854 Y146.313 E0.01677
G1 X125.696 Y143.155 E0.14025
G1 X125.672 Y142.885 E0.00849
G1 X125.567 Y142.491 E0.01280
G1 X128.854 Y145.779 E0.14598
G1 X128.854 Y145.245 E0.01677
G1 X114.614 Y131.005 E0.63234
G1 X114.614 Y130.470 E0.01677
G1 X128.854 Y144.711 E0.63234
G1 X128.854 Y144.177 E0.01677
G1 X114.614 Y129.936 E0.63234
G1 X114.614 Y129.402 E0.01677
G1 X128.854 Y143.643 E0.63234
G1 X128.854 Y143.109 E0.01677
G1 X114.614 Y128.868 E0.63234
G1 X114.614 Y128.334 E0.01677
G1 X128.854 Y142.575 E0.63234
G1 X128.854 Y142.041 E0.01677
G1 X114.614 Y127.800 E0.63234
G1 X114.614 Y127.266 E0.01677
G1 X128.854 Y141.507 E0.63234
G1 X128.854 Y140.972 E0.01677
G1 X114.614 Y126.732 E0.63234
G1 X114.614 Y126.198 E0.01677
G1 X128.854 Y140.438 E0.63234
G1 X128.854 Y139.904 E0.01677
G1 X114.614 Y125.664 E0.63234
G1 X114.614 Y125.130 E0.01677
G1 X128.854 Y139.370 E0.63234
M73 P2 R47
G1 X128.854 Y138.836 E0.01677
G1 X114.614 Y124.596 E0.63234
G1 X114.614 Y124.062 E0.01677
G1 X128.854 Y138.302 E0.63234
G1 X128.854 Y137.768 E0.01677
G1 X114.614 Y123.528 E0.63234
G1 X114.614 Y122.994 E0.01677
G1 X128.854 Y137.234 E0.63234
G1 X128.854 Y136.700 E0.01677
G1 X114.614 Y122.460 E0.63234
G1 X114.614 Y121.926 E0.01677
G1 X128.854 Y136.166 E0.63234
G1 X128.854 Y135.632 E0.01677
G1 X114.614 Y121.392 E0.63234
G1 X114.614 Y120.858 E0.01677
G1 X128.854 Y135.098 E0.63234
G1 X128.854 Y134.564 E0.01677
G1 X114.614 Y120.324 E0.63234
G1 X114.614 Y119.790 E0.01677
G1 X128.854 Y134.030 E0.63234
G1 X128.854 Y133.496 E0.01677
G1 X114.614 Y119.256 E0.63234
G1 X114.614 Y118.722 E0.01677
G1 X128.854 Y132.962 E0.63234
G1 X128.854 Y132.428 E0.01677
G1 X114.614 Y118.188 E0.63234
G1 X114.614 Y117.654 E0.01677
G1 X128.854 Y131.894 E0.63234
G1 X128.854 Y131.360 E0.01677
G1 X114.614 Y117.120 E0.63234
G1 X114.614 Y116.586 E0.01677
G1 X128.854 Y130.826 E0.63234
G1 X128.854 Y130.292 E0.01677
G1 X114.614 Y116.051 E0.63234
G1 X114.614 Y115.517 E0.01677
G1 X128.854 Y129.758 E0.63234
G1 X128.854 Y129.224 E0.01677
G1 X114.614 Y114.983 E0.63234
G1 X114.614 Y114.449 E0.01677
G1 X128.854 Y128.690 E0.63234
G1 X128.854 Y128.156 E0.01677
G1 X114.614 Y113.915 E0.63234
G1 X114.614 Y113.381 E0.01677
G1 X128.854 Y127.622 E0.63234
G1 X128.854 Y127.087 E0.01677
G1 X114.614 Y112.847 E0.63234
G1 X114.614 Y112.313 E0.01677
G1 X128.854 Y126.553 E0.63234
G1 X128.854 Y126.019 E0.01677
G1 X114.614 Y111.779 E0.63234
G1 X114.614 Y111.245 E0.01677
G1 X128.854 Y125.485 E0.63234
G1 X128.854 Y124.951 E0.01677
G1 X114.614 Y110.711 E0.63234
G1 X114.614 Y110.177 E0.01677
G1 X128.854 Y124.417 E0.63234
G1 X128.854 Y123.883 E0.01677
G1 X114.614 Y109.643 E0.63234
G1 X114.614 Y109.109 E0.01677
G1 X128.854 Y123.349 E0.63234
G1 X128.854 Y122.815 E0.01677
G1 X114.614 Y108.575 E0.63234
G1 X114.614 Y108.041 E0.01677
G1 X128.854 Y122.281 E0.63234
G1 X128.854 Y121.747 E0.01677
G1 X114.614 Y107.507 E0.63234
G1 X114.614 Y106.973 E0.01677
G1 X128.854 Y121.213 E0.63234
G1 X128.854 Y120.679 E0.01677
G1 X114.614 Y106.439 E0.63234
G1 X114.614 Y105.905 E0.01677
G1 X128.854 Y120.145 E0.63234
G1 X128.854 Y119.611 E0.01677
G1 X114.614 Y105.371 E0.63234
G1 X114.614 Y104.837 E0.01677
G1 X128.854 Y119.077 E0.63234
G1 X128.854 Y118.543 E0.01677
G1 X114.614 Y104.303 E0.63234
G1 X114.614 Y103.769 E0.01677
G1 X128.854 Y118.009 E0.63234
G1 X128.854 Y117.475 E0.01677
G1 X114.614 Y103.235 E0.63234
G1 X114.614 Y102.701 E0.01677
G1 X128.854 Y116.941 E0.63234
G1 X128.854 Y116.407 E0.01677
G1 X114.614 Y102.166 E0.63234
G1 X114.614 Y101.632 E0.01677
G1 X128.854 Y115.873 E0.63234
G1 X128.854 Y115.339 E0.01677
G1 X114.614 Y101.098 E0.63234
G1 X114.614 Y100.564 E0.01677
G1 X128.854 Y114.805 E0.63234
G1 X128.854 Y114.271 E0.01677
G1 X114.614 Y100.030 E0.63234
G1 X114.614 Y99.496 E0.01677
G1 X128.854 Y113.737 E0.63234
G1 X128.854 Y113.202 E0.01677
G1 X114.614 Y98.962 E0.63234
G1 X114.614 Y98.428 E0.01677
G1 X128.854 Y112.668 E0.63234
G1 X128.854 Y112.134 E0.01677
G1 X114.614 Y97.894 E0.63234
G1 X114.614 Y97.360 E0.01677
G1 X128.854 Y111.600 E0.63234
G1 X128.854 Y111.066 E0.01677
G1 X114.614 Y96.826 E0.63234
G1 X114.614 Y96.292 E0.01677
G1 X128.854 Y110.532 E0.63234
G1 X128.854 Y109.998 E0.01677
G1 X114.614 Y95.758 E0.63234
G1 X114.614 Y95.224 E0.01677
G1 X128.854 Y109.464 E0.63234
G1 X128.854 Y108.930 E0.01677
G1 X114.614 Y94.690 E0.63234
G1 X114.614 Y94.156 E0.01677
G1 X128.854 Y108.396 E0.63234
M73 P4 R46
G1 X128.854 Y107.862 E0.01677
G1 X114.614 Y93.622 E0.63234
G1 X114.614 Y93.088 E0.01677
G1 X128.854 Y107.328 E0.63234
G1 X128.854 Y106.794 E0.01677
G1 X114.614 Y92.554 E0.63234
G1 X114.614 Y92.020 E0.01677
G1 X128.854 Y106.260 E0.63234
G1 X128.854 Y105.726 E0.01677
G1 X114.614 Y91.486 E0.63234
G1 X114.614 Y90.952 E0.01677
G1 X128.854 Y105.192 E0.63234
G1 X128.854 Y104.658 E0.01677
G1 X114.614 Y90.418 E0.63234
G1 X114.614 Y89.884 E0.01677
G1 X128.854 Y104.124 E0.63234
G1 X128.854 Y103.590 E0.01677
G1 X114.614 Y89.350 E0.63234
G1 X114.614 Y88.816 E0.01677
G1 X128.854 Y103.056 E0.63234
G1 X128.854 Y102.522 E0.01677
G1 X114.614 Y88.281 E0.63234
G1 X114.614 Y87.747 E0.01677
G1 X128.854 Y101.988 E0.63234
G1 X128.854 Y101.454 E0.01677
G1 X114.614 Y87.213 E0.63234
G1 X114.614 Y86.679 E0.01677
G1 X128.854 Y100.920 E0.63234
G1 X128.854 Y100.386 E0.01677
G1 X114.614 Y86.145 E0.63234
G1 X114.614 Y85.611 E0.01677
G1 X128.854 Y99.852 E0.63234
G1 X128.854 Y99.317 E0.01677
G1 X114.614 Y85.077 E0.63234
G1 X114.614 Y84.543 E0.01677
G1 X128.854 Y98.783 E0.63234
G1 X128.854 Y98.249 E0.01677
G1 X114.614 Y84.009 E0.63234
G1 X114.614 Y83.475 E0.01677
G1 X128.854 Y97.715 E0.63234
G1 X128.854 Y97.181 E0.01677
G1 X114.614 Y82.941 E0.63234
G1 X114.614 Y82.407 E0.01677
G1 X128.854 Y96.647 E0.63234
G1 X128.854 Y96.113 E0.01677
G1 X114.614 Y81.873 E0.63234
G1 X114.614 Y81.339 E0.01677
G1 X128.854 Y95.579 E0.63234
G1 X128.854 Y95.045 E0.01677
G1 X114.614 Y80.805 E0.63234
G1 X114.614 Y80.271 E0.01677
G1 X128.854 Y94.511 E0.63234
G1 X128.854 Y93.977 E0.01677
G1 X114.614 Y79.737 E0.63234
G1 X114.614 Y79.203 E0.01677
G1 X128.854 Y93.443 E0.63234
G1 X128.854 Y92.909 E0.01677
G1 X114.614 Y78.669 E0.63234
G1 X114.614 Y78.135 E0.01677
G1 X128.854 Y92.375 E0.63234
G1 X128.854 Y91.841 E0.01677
G1 X114.614 Y77.601 E0.63234
G1 X114.614 Y77.067 E0.01677
G1 X128.854 Y91.307 E0.63234
G1 X128.854 Y90.773 E0.01677
G1 X114.614 Y76.533 E0.63234
G1 X114.614 Y75.999 E0.01677
G1 X128.854 Y90.239 E0.63234
G1 X128.854 Y89.705 E0.01677
G1 X114.614 Y75.465 E0.63234
G1 X114.614 Y74.931 E0.01677
G1 X128.854 Y89.171 E0.63234
G1 X128.854 Y88.637 E0.01677
G1 X114.614 Y74.396 E0.63234
G1 X114.614 Y73.862 E0.01677
G1 X128.854 Y88.103 E0.63234
G1 X128.854 Y87.569 E0.01677
G1 X114.614 Y73.328 E0.63234
G1 X114.614 Y72.794 E0.01677
G1 X128.854 Y87.035 E0.63234
G1 X128.854 Y86.501 E0.01677
G1 X114.614 Y72.260 E0.63234
G1 X114.614 Y71.726 E0.01677
G1 X128.854 Y85.967 E0.63234
G1 X128.854 Y85.433 E0.01677
G1 X114.614 Y71.192 E0.63234
G1 X114.614 Y70.658 E0.01677
G1 X128.854 Y84.898 E0.63234
G1 X128.854 Y84.364 E0.01677
G1 X115.079 Y70.589 E0.61169
G1 X115.613 Y70.589 E0.01677
G1 X128.854 Y83.830 E0.58797
G1 X128.854 Y83.296 E0.01677
G1 X116.147 Y70.589 E0.56426
G1 X116.681 Y70.589 E0.01677
G1 X128.854 Y82.762 E0.54054
G1 X128.854 Y82.228 E0.01677
G1 X117.215 Y70.589 E0.51683
G1 X117.749 Y70.589 E0.01677
G1 X128.854 Y81.694 E0.49311
G1 X128.854 Y81.160 E0.01677
G1 X118.283 Y70.589 E0.46940
G1 X118.817 Y70.589 E0.01677
G1 X128.854 Y80.626 E0.44569
G1 X128.854 Y80.092 E0.01677
G1 X119.351 Y70.589 E0.42197
G1 X119.885 Y70.589 E0.01677
G1 X128.854 Y79.558 E0.39826
G1 X128.854 Y79.024 E0.01677
G1 X120.419 Y70.589 E0.37454
G1 X120.954 Y70.589 E0.01677
G1 X128.854 Y78.490 E0.35083
G1 X128.854 Y77.956 E0.01677
G1 X121.488 Y70.589 E0.32711
G1 X122.022 Y70.589 E0.01677
