; generated by PrusaSlicer 2.0.0+ on 2019-06-06 at 14:16:29

; 

; external perimeters extrusion width = 0.45mm
; perimeters extrusion width = 0.45mm
; infill extrusion width = 0.45mm
; solid infill extrusion width = 0.45mm
; top infill extrusion width = 0.40mm
; support material extrusion width = 0.35mm
; first layer extrusion width = 0.42mm

M73 P0 R33
M201 X9000 Y9000 Z500 E10000 ; sets maximum accelerations, mm/sec^2
M203 X500 Y500 Z12 E120 ; sets maximum feedrates, mm/sec
M204 P2000 R1500 T2000 ; sets acceleration (P, T) and retract acceleration (R), mm/sec^2
M205 X10.00 Y10.00 Z0.20 E2.50 ; sets the jerk limits, mm/sec
M205 S0 T0 ; sets the minimum extruding and travel feed rate, mm/sec
M107
M115 U3.1.0 ; tell printer latest fw version
G90 ; use absolute coordinates
M83 ; extruder relative mode
M204 S2000 T1500 ; MK2 firmware only supports the old M204 format
M104 S200 ; set extruder temp
M140 S60 ; set bed temp
M190 S60 ; wait for bed temp
M109 S200 ; wait for extruder temp
G28 W ; home all without mesh bed level
G80 ; mesh bed leveling
G1 Y-3.0 F1000.0 ; go outside print area
G92 E0.0
G1 X60.0 E9.0  F1000.0 ; intro line
M73 P0 R33
G1 X100.0 E12.5 F1000.0 ; intro line
G92 E0.0
M900 K30 ; Filament gcode
G21 ; set units to millimeters
G90 ; use absolute coordinates
M83 ; use relative distances for extrusion
;BEFORE_LAYER_CHANGE
G92 E0.0
;0.2


G1 E-0.80000 F2100.00000
G1 Z0.600 F10800.000
;AFTER_LAYER_CHANGE
;0.2
G1 X112.975 Y95.132
G1 Z0.200
G1 E0.80000 F2100.00000
M204 S1000
G1 F1200
G1 X114.001 Y94.000 E0.04792
G1 X115.132 Y92.974 E0.04786
G1 X116.357 Y92.066 E0.04781
G1 X117.668 Y91.280 E0.04792
G1 X119.046 Y90.629 E0.04781
G1 X120.484 Y90.114 E0.04786
G1 X121.966 Y89.743 E0.04792
G1 X123.476 Y89.519 E0.04786
G1 X125.001 Y89.444 E0.04786
G1 X126.526 Y89.519 E0.04786
G1 X128.034 Y89.743 E0.04781
G1 X129.517 Y90.114 E0.04792
G1 X130.952 Y90.628 E0.04781
G1 X132.332 Y91.281 E0.04786
G1 X133.642 Y92.065 E0.04786
G1 X134.868 Y92.975 E0.04786
G1 X136.000 Y94.001 E0.04792
G1 X137.025 Y95.132 E0.04786
G1 X137.934 Y96.357 E0.04781
G1 X138.719 Y97.666 E0.04786
G1 X139.371 Y99.046 E0.04786
G1 X139.886 Y100.485 E0.04792
G1 X140.257 Y101.964 E0.04781
G1 X140.481 Y103.474 E0.04786
G1 X140.556 Y105.001 E0.04792
G1 X140.481 Y106.524 E0.04781
G1 X140.257 Y108.034 E0.04786
G1 X139.886 Y109.517 E0.04792
G1 X139.372 Y110.952 E0.04781
G1 X138.719 Y112.332 E0.04786
G1 X137.935 Y113.642 E0.04786
G1 X137.025 Y114.868 E0.04786
G1 X136.000 Y115.999 E0.04786
G1 X134.869 Y117.024 E0.04786
G1 X133.643 Y117.934 E0.04786
G1 X132.334 Y118.719 E0.04786
G1 X130.954 Y119.371 E0.04786
G1 X129.516 Y119.886 E0.04786
G1 X128.034 Y120.257 E0.04792
G1 X126.524 Y120.481 E0.04786
G1 X124.999 Y120.556 E0.04786
G1 X123.476 Y120.481 E0.04781
G1 X121.964 Y120.257 E0.04792
G1 X120.483 Y119.886 E0.04786
G1 X119.046 Y119.371 E0.04787
G1 X117.666 Y118.719 E0.04786
G1 X116.358 Y117.935 E0.04781
G1 X115.131 Y117.024 E0.04792
G1 X114.000 Y115.999 E0.04787
G1 X112.975 Y114.868 E0.04786
G1 X112.065 Y113.642 E0.04787
G1 X111.281 Y112.334 E0.04781
G1 X110.628 Y110.952 E0.04792
G1 X110.114 Y109.516 E0.04781
G1 X109.743 Y108.034 E0.04792
G1 X109.519 Y106.526 E0.04781
G1 X109.444 Y104.999 E0.04792
G1 X109.519 Y103.476 E0.04781
G1 X109.743 Y101.966 E0.04786
G1 X110.114 Y100.483 E0.04792
G1 X110.628 Y99.048 E0.04781
G1 X111.281 Y97.668 E0.04786
G1 X112.065 Y96.358 E0.04787
G1 X112.939 Y95.180 E0.04598
G1 X113.241 Y95.405 F10800.000
G1 F1200
G1 X114.267 Y94.267 E0.04802
G1 X115.370 Y93.267 E0.04670
G1 X116.567 Y92.379 E0.04670
G1 X117.845 Y91.614 E0.04670
G1 X119.191 Y90.977 E0.04670
G1 X120.594 Y90.475 E0.04670
G1 X122.038 Y90.113 E0.04670
G1 X123.512 Y89.894 E0.04670
G1 X125.001 Y89.821 E0.04674
G1 X126.487 Y89.894 E0.04667
G1 X127.961 Y90.113 E0.04670
G1 X129.406 Y90.475 E0.04670
G1 X130.808 Y90.976 E0.04670
G1 X132.155 Y91.613 E0.04670
G1 X133.433 Y92.379 E0.04670
G1 X134.629 Y93.266 E0.04670
G1 X135.733 Y94.267 E0.04670
G1 X136.733 Y95.370 E0.04670
G1 X137.621 Y96.567 E0.04670
G1 X138.386 Y97.844 E0.04670
G1 X139.023 Y99.191 E0.04670
G1 X139.525 Y100.593 E0.04670
G1 X139.887 Y102.038 E0.04670
G1 X140.106 Y103.512 E0.04670
G1 X140.179 Y105.000 E0.04670
G1 X140.106 Y106.487 E0.04670
G1 X139.887 Y107.961 E0.04670
G1 X139.525 Y109.406 E0.04670
G1 X139.024 Y110.808 E0.04670
G1 X138.387 Y112.155 E0.04670
G1 X137.621 Y113.433 E0.04670
G1 X136.734 Y114.629 E0.04670
G1 X135.733 Y115.733 E0.04670
G1 X134.630 Y116.733 E0.04670
G1 X133.433 Y117.621 E0.04670
G1 X132.156 Y118.386 E0.04670
G1 X130.809 Y119.023 E0.04670
G1 X129.406 Y119.525 E0.04670
G1 X127.962 Y119.887 E0.04670
G1 X126.488 Y120.106 E0.04670
G1 X125.000 Y120.179 E0.04670
G1 X123.513 Y120.106 E0.04670
G1 X122.039 Y119.887 E0.04670
G1 X120.594 Y119.525 E0.04670
G1 X119.192 Y119.024 E0.04670
G1 X117.845 Y118.387 E0.04670
G1 X116.567 Y117.621 E0.04670
G1 X115.371 Y116.734 E0.04670
G1 X114.267 Y115.733 E0.04670
G1 X113.267 Y114.630 E0.04670
G1 X112.379 Y113.433 E0.04670
G1 X111.614 Y112.156 E0.04670
G1 X110.977 Y110.809 E0.04670
G1 X110.475 Y109.406 E0.04670
G1 X110.113 Y107.962 E0.04670
G1 X109.894 Y106.488 E0.04670
G1 X109.821 Y105.000 E0.04670
G1 X109.894 Y103.513 E0.04670
G1 X110.113 Y102.039 E0.04670
G1 X110.475 Y100.594 E0.04670
G1 X110.977 Y99.192 E0.04670
G1 X111.613 Y97.845 E0.04670
G1 X112.379 Y96.567 E0.04670
G1 X113.206 Y95.453 E0.04351
G1 F8640
G1 X114.267 Y94.267 E-0.36740
G1 X115.370 Y93.267 E-0.34395
G1 X115.540 Y93.141 E-0.04865
G1 E-0.04000 F2100.00000
G1 Z0.800 F10800.000
G1 X125.000 Y118.516
G1 Z0.200
G1 E0.80000 F2100.00000
G1 F1200
G1 X124.337 Y118.499 E0.02080
G1 X123.675 Y118.451 E0.02080
G1 X123.017 Y118.369 E0.02080
G1 X122.363 Y118.256 E0.02080
G1 X121.716 Y118.111 E0.02080
G1 X121.077 Y117.934 E0.02080
G1 X120.447 Y117.726 E0.02080
G1 X119.828 Y117.487 E0.02080
G1 X119.221 Y117.218 E0.02080
G1 X118.629 Y116.920 E0.02080
G1 X118.052 Y116.593 E0.02080
G1 X117.491 Y116.238 E0.02080
G1 X116.949 Y115.856 E0.02080
G1 X116.426 Y115.448 E0.02080
G1 X115.923 Y115.014 E0.02080
G1 X115.443 Y114.557 E0.02080
G1 X114.986 Y114.077 E0.02080
G1 X114.552 Y113.574 E0.02080
G1 X114.144 Y113.051 E0.02080
G1 X113.762 Y112.509 E0.02080
G1 X113.407 Y111.948 E0.02080
G1 X113.080 Y111.371 E0.02080
G1 X112.782 Y110.779 E0.02080
G1 X112.513 Y110.172 E0.02080
G1 X112.274 Y109.553 E0.02080
G1 X112.066 Y108.923 E0.02080
G1 X111.889 Y108.284 E0.02080
G1 X111.744 Y107.637 E0.02080
G1 X111.631 Y106.983 E0.02080
G1 X111.549 Y106.325 E0.02080
G1 X111.501 Y105.663 E0.02080
G1 X111.484 Y105.000 E0.02080
G1 X111.501 Y104.337 E0.02080
G1 X111.549 Y103.675 E0.02080
G1 X111.631 Y103.017 E0.02080
G1 X111.744 Y102.363 E0.02080
G1 X111.889 Y101.716 E0.02080
G1 X112.066 Y101.077 E0.02080
G1 X112.274 Y100.447 E0.02080
G1 X112.513 Y99.828 E0.02080
G1 X112.782 Y99.221 E0.02080
G1 X113.080 Y98.629 E0.02080
G1 X113.407 Y98.052 E0.02080
G1 X113.762 Y97.491 E0.02080
G1 X114.144 Y96.949 E0.02080
G1 X114.552 Y96.426 E0.02080
G1 X114.986 Y95.923 E0.02080
G1 X115.443 Y95.443 E0.02080
G1 X115.923 Y94.985 E0.02080
G1 X116.426 Y94.552 E0.02080
G1 X116.949 Y94.144 E0.02080
G1 X117.491 Y93.762 E0.02080
G1 X118.052 Y93.407 E0.02080
G1 X118.629 Y93.080 E0.02080
G1 X119.221 Y92.782 E0.02080
G1 X119.828 Y92.513 E0.02080
G1 X120.447 Y92.274 E0.02080
G1 X121.077 Y92.066 E0.02080
G1 X121.716 Y91.889 E0.02080
G1 X122.363 Y91.744 E0.02080
G1 X123.017 Y91.631 E0.02080
G1 X123.675 Y91.549 E0.02080
G1 X124.337 Y91.501 E0.02080
G1 X124.995 Y91.484 E0.02063
G1 X125.663 Y91.501 E0.02097
G1 X126.325 Y91.549 E0.02080
G1 X126.983 Y91.631 E0.02080
G1 X127.637 Y91.744 E0.02080
G1 X128.284 Y91.889 E0.02080
G1 X128.923 Y92.066 E0.02080
G1 X129.553 Y92.274 E0.02080
G1 X130.172 Y92.513 E0.02080
G1 X130.779 Y92.782 E0.02080
G1 X131.371 Y93.080 E0.02080
G1 X131.948 Y93.407 E0.02080
G1 X132.509 Y93.762 E0.02080
G1 X133.051 Y94.144 E0.02080
G1 X133.574 Y94.552 E0.02080
G1 X134.077 Y94.986 E0.02080
G1 X134.557 Y95.443 E0.02080
G1 X135.014 Y95.923 E0.02080
G1 X135.448 Y96.426 E0.02080
G1 X135.856 Y96.949 E0.02080
G1 X136.238 Y97.491 E0.02080
G1 X136.593 Y98.052 E0.02080
G1 X136.920 Y98.629 E0.02080
G1 X137.218 Y99.221 E0.02080
G1 X137.487 Y99.828 E0.02080
G1 X137.726 Y100.447 E0.02080
G1 X137.934 Y101.077 E0.02080
G1 X138.111 Y101.716 E0.02080
G1 X138.256 Y102.363 E0.02080
G1 X138.369 Y103.017 E0.02080
G1 X138.451 Y103.675 E0.02080
G1 X138.499 Y104.337 E0.02080
G1 X138.516 Y105.000 E0.02080
G1 X138.499 Y105.663 E0.02080
G1 X138.451 Y106.325 E0.02080
G1 X138.369 Y106.983 E0.02080
G1 X138.256 Y107.637 E0.02080
G1 X138.111 Y108.284 E0.02080
G1 X137.934 Y108.923 E0.02080
G1 X137.726 Y109.553 E0.02080
G1 X137.487 Y110.172 E0.02080
G1 X137.218 Y110.779 E0.02080
G1 X136.920 Y111.371 E0.02080
G1 X136.593 Y111.948 E0.02080
G1 X136.238 Y112.509 E0.02080
G1 X135.856 Y113.051 E0.02080
G1 X135.448 Y113.574 E0.02080
G1 X135.014 Y114.077 E0.02080
G1 X134.557 Y114.557 E0.02080
G1 X134.077 Y115.014 E0.02080
G1 X133.574 Y115.448 E0.02080
G1 X133.051 Y115.856 E0.02080
G1 X132.509 Y116.238 E0.02080
G1 X131.948 Y116.593 E0.02080
G1 X131.371 Y116.920 E0.02080
G1 X130.779 Y117.218 E0.02080
G1 X130.172 Y117.487 E0.02080
G1 X129.553 Y117.726 E0.02080
G1 X128.923 Y117.934 E0.02080
G1 X128.284 Y118.111 E0.02080
G1 X127.637 Y118.256 E0.02080
G1 X126.983 Y118.369 E0.02080
G1 X126.325 Y118.451 E0.02080
G1 X125.663 Y118.499 E0.02080
G1 X125.060 Y118.514 E0.01892
G1 X125.000 Y118.139 F10800.000
G1 F1200
G1 X124.355 Y118.123 E0.02022
G1 X123.712 Y118.075 E0.02022
G1 X123.072 Y117.996 E0.02022
G1 X122.437 Y117.886 E0.02022
G1 X121.808 Y117.745 E0.02022
G1 X121.186 Y117.573 E0.02022
G1 X120.574 Y117.370 E0.02022
G1 X119.972 Y117.138 E0.02022
G1 X119.383 Y116.877 E0.02022
G1 X118.807 Y116.587 E0.02022
G1 X118.245 Y116.269 E0.02022
G1 X117.701 Y115.924 E0.02022
G1 X117.173 Y115.553 E0.02022
G1 X116.665 Y115.156 E0.02022
G1 X116.177 Y114.735 E0.02022
G1 X115.710 Y114.290 E0.02022
G1 X115.265 Y113.823 E0.02022
G1 X114.844 Y113.335 E0.02022
G1 X114.447 Y112.827 E0.02022
G1 X114.076 Y112.299 E0.02022
G1 X113.731 Y111.755 E0.02022
G1 X113.413 Y111.193 E0.02022
G1 X113.123 Y110.617 E0.02022
G1 X112.862 Y110.028 E0.02022
G1 X112.630 Y109.426 E0.02022
G1 X112.427 Y108.814 E0.02022
G1 X112.255 Y108.192 E0.02022
G1 X112.114 Y107.563 E0.02022
G1 X112.004 Y106.928 E0.02022
G1 X111.925 Y106.288 E0.02022
G1 X111.877 Y105.645 E0.02022
G1 X111.861 Y105.000 E0.02022
G1 X111.877 Y104.355 E0.02022
G1 X111.925 Y103.712 E0.02022
G1 X112.004 Y103.072 E0.02022
G1 X112.114 Y102.437 E0.02022
G1 X112.255 Y101.808 E0.02022
G1 X112.427 Y101.186 E0.02022
G1 X112.630 Y100.574 E0.02022
G1 X112.862 Y99.972 E0.02022
G1 X113.123 Y99.383 E0.02022
G1 X113.413 Y98.807 E0.02022
G1 X113.731 Y98.245 E0.02022
G1 X114.076 Y97.701 E0.02022
G1 X114.447 Y97.173 E0.02022
G1 X114.844 Y96.665 E0.02022
G1 X115.265 Y96.177 E0.02022
G1 X115.710 Y95.710 E0.02022
G1 X116.177 Y95.265 E0.02022
G1 X116.665 Y94.844 E0.02022
G1 X117.173 Y94.447 E0.02022
G1 X117.701 Y94.076 E0.02022
G1 X118.245 Y93.731 E0.02022
G1 X118.807 Y93.413 E0.02022
G1 X119.383 Y93.123 E0.02022
G1 X119.972 Y92.862 E0.02022
G1 X120.574 Y92.630 E0.02022
G1 X121.186 Y92.427 E0.02022
G1 X121.808 Y92.255 E0.02022
G1 X122.437 Y92.114 E0.02022
G1 X123.072 Y92.004 E0.02022
G1 X123.712 Y91.925 E0.02022
G1 X124.355 Y91.877 E0.02022
G1 X124.995 Y91.862 E0.02005
G1 X125.645 Y91.877 E0.02039
G1 X126.288 Y91.925 E0.02022
G1 X126.928 Y92.004 E0.02022
G1 X127.563 Y92.114 E0.02022
G1 X128.192 Y92.255 E0.02022
G1 X128.814 Y92.427 E0.02022
G1 X129.426 Y92.630 E0.02022
G1 X130.028 Y92.862 E0.02022
G1 X130.617 Y93.123 E0.02022
G1 X131.193 Y93.413 E0.02022
G1 X131.755 Y93.731 E0.02022
G1 X132.299 Y94.076 E0.02022
G1 X132.827 Y94.447 E0.02022
G1 X133.335 Y94.844 E0.02022
G1 X133.823 Y95.265 E0.02022
G1 X134.290 Y95.710 E0.02022
G1 X134.735 Y96.177 E0.02022
G1 X135.156 Y96.665 E0.02022
G1 X135.553 Y97.173 E0.02022
G1 X135.924 Y97.701 E0.02022
G1 X136.269 Y98.245 E0.02022
G1 X136.587 Y98.807 E0.02022
G1 X136.877 Y99.383 E0.02022
G1 X137.138 Y99.972 E0.02022
G1 X137.370 Y100.574 E0.02022
G1 X137.573 Y101.186 E0.02022
G1 X137.745 Y101.808 E0.02022
G1 X137.886 Y102.437 E0.02022
G1 X137.996 Y103.072 E0.02022
G1 X138.075 Y103.712 E0.02022
G1 X138.123 Y104.355 E0.02022
G1 X138.139 Y105.000 E0.02022
G1 X138.123 Y105.645 E0.02022
G1 X138.075 Y106.288 E0.02022
G1 X137.996 Y106.928 E0.02022
G1 X137.886 Y107.563 E0.02022
G1 X137.745 Y108.192 E0.02022
G1 X137.573 Y108.814 E0.02022
G1 X137.370 Y109.426 E0.02022
G1 X137.138 Y110.028 E0.02022
G1 X136.877 Y110.617 E0.02022
G1 X136.587 Y111.193 E0.02022
G1 X136.269 Y111.755 E0.02022
G1 X135.924 Y112.299 E0.02022
G1 X135.553 Y112.827 E0.02022
G1 X135.156 Y113.335 E0.02022
G1 X134.735 Y113.823 E0.02022
G1 X134.290 Y114.290 E0.02022
G1 X133.823 Y114.735 E0.02022
G1 X133.335 Y115.156 E0.02022
G1 X132.827 Y115.553 E0.02022
G1 X132.299 Y115.924 E0.02022
G1 X131.755 Y116.269 E0.02022
G1 X131.193 Y116.587 E0.02022
G1 X130.617 Y116.877 E0.02022
G1 X130.028 Y117.138 E0.02022
G1 X129.426 Y117.370 E0.02022
G1 X128.814 Y117.573 E0.02022
G1 X128.192 Y117.745 E0.02022
G1 X127.563 Y117.886 E0.02022
G1 X126.928 Y117.996 E0.02022
G1 X126.288 Y118.075 E0.02022
G1 X125.645 Y118.123 E0.02022
G1 X125.060 Y118.137 E0.01834
G1 X124.800 Y118.485 F10800.000
G1 F8640
G1 X124.355 Y118.123 E-0.16273
G1 X123.712 Y118.075 E-0.14890
G1 X123.072 Y117.996 E-0.14890
G1 X122.437 Y117.886 E-0.14890
G1 X121.808 Y117.745 E-0.14890
G1 X121.801 Y117.743 E-0.00166
G1 E-0.04000 F2100.00000
G1 Z0.800 F10800.000
G1 X125.000 Y119.378
G1 Z0.200
G1 E0.80000 F2100.00000
G1 F1200
G1 X124.295 Y119.360 E0.02213
G1 X123.591 Y119.309 E0.02213
G1 X122.890 Y119.222 E0.02213
G1 X122.195 Y119.102 E0.02213
G1 X121.507 Y118.947 E0.02213
G1 X120.826 Y118.759 E0.02213
G1 X120.156 Y118.537 E0.02213
G1 X119.498 Y118.283 E0.02213
G1 X118.853 Y117.997 E0.02213
G1 X118.222 Y117.680 E0.02213
G1 X117.608 Y117.332 E0.02213
G1 X117.012 Y116.955 E0.02213
G1 X116.435 Y116.548 E0.02213
G1 X115.879 Y116.114 E0.02213
G1 X115.344 Y115.653 E0.02213
G1 X114.833 Y115.167 E0.02213
G1 X114.347 Y114.656 E0.02213
G1 X113.886 Y114.121 E0.02213
G1 X113.452 Y113.565 E0.02213
G1 X113.045 Y112.988 E0.02213
G1 X112.668 Y112.392 E0.02213
G1 X112.320 Y111.778 E0.02213
G1 X112.003 Y111.147 E0.02213
G1 X111.717 Y110.502 E0.02213
G1 X111.463 Y109.844 E0.02213
G1 X111.241 Y109.174 E0.02213
G1 X111.053 Y108.494 E0.02213
G1 X110.898 Y107.805 E0.02213
G1 X110.778 Y107.110 E0.02213
G1 X110.691 Y106.409 E0.02213
G1 X110.640 Y105.705 E0.02213
G1 X110.622 Y105.000 E0.02213
G1 X110.640 Y104.294 E0.02213
G1 X110.691 Y103.591 E0.02213
G1 X110.778 Y102.890 E0.02213
G1 X110.898 Y102.195 E0.02213
G1 X111.053 Y101.506 E0.02213
G1 X111.241 Y100.826 E0.02213
G1 X111.463 Y100.156 E0.02213
G1 X111.717 Y99.498 E0.02213
G1 X112.003 Y98.853 E0.02213
G1 X112.320 Y98.222 E0.02213
G1 X112.668 Y97.608 E0.02213
G1 X113.045 Y97.012 E0.02213
G1 X113.452 Y96.435 E0.02213
G1 X113.886 Y95.879 E0.02213
G1 X114.347 Y95.344 E0.02213
G1 X114.833 Y94.833 E0.02213
G1 X115.345 Y94.347 E0.02213
G1 X115.879 Y93.886 E0.02213
G1 X116.435 Y93.452 E0.02213
G1 X117.012 Y93.045 E0.02213
G1 X117.608 Y92.668 E0.02213
G1 X118.222 Y92.320 E0.02213
G1 X118.853 Y92.003 E0.02213
G1 X119.498 Y91.717 E0.02213
G1 X120.156 Y91.463 E0.02213
G1 X120.826 Y91.241 E0.02213
G1 X121.507 Y91.053 E0.02213
G1 X122.195 Y90.898 E0.02213
G1 X122.890 Y90.778 E0.02213
G1 X123.591 Y90.691 E0.02213
G1 X124.295 Y90.640 E0.02213
G1 X125.000 Y90.622 E0.02213
G1 X125.620 Y90.637 E0.01943
G1 X126.411 Y90.692 E0.02487
G1 X127.110 Y90.778 E0.02208
G1 X127.805 Y90.898 E0.02213
G1 X128.494 Y91.053 E0.02213
G1 X129.174 Y91.241 E0.02213
G1 X129.844 Y91.463 E0.02213
G1 X130.502 Y91.717 E0.02213
G1 X131.147 Y92.003 E0.02213
G1 X131.778 Y92.320 E0.02213
G1 X132.392 Y92.668 E0.02213
G1 X132.988 Y93.045 E0.02213
G1 X133.565 Y93.452 E0.02213
G1 X134.121 Y93.886 E0.02213
G1 X134.656 Y94.347 E0.02213
G1 X135.167 Y94.833 E0.02213
G1 X135.653 Y95.344 E0.02213
G1 X136.114 Y95.879 E0.02213
G1 X136.548 Y96.435 E0.02213
G1 X136.955 Y97.012 E0.02213
