; generated by PrusaSlicer 2.2.0+win64 on 2021-01-11 at 23:02:43 UTC

; 

; external perimeters extrusion width = 0.45mm
; perimeters extrusion width = 0.45mm
; infill extrusion width = 0.45mm
; solid infill extrusion width = 0.45mm
; top infill extrusion width = 0.40mm
; first layer extrusion width = 0.42mm

M73 P0 R35
M201 X9000 Y9000 Z500 E10000 ; sets maximum accelerations, mm/sec^2
M203 X500 Y500 Z12 E120 ; sets maximum feedrates, mm/sec
M204 P2000 R1500 T2000 ; sets acceleration (P, T) and retract acceleration (R), mm/sec^2
M205 X10.00 Y10.00 Z0.20 E2.50 ; sets the jerk limits, mm/sec
M205 S0 T0 ; sets the minimum extruding and travel feed rate, mm/sec
M107
M862.3 P "MK2S" ; printer model check
M862.1 P0.4 ; nozzle diameter check
M115 U3.2.3 ; tell printer latest fw version
G90 ; use absolute coordinates
M83 ; extruder relative mode
M204 S2000 T1500 ; MK2 firmware only supports the old M204 format
M104 S215 ; set extruder temp
M140 S60 ; set bed temp
M190 S60 ; wait for bed temp
M109 S215 ; wait for extruder temp
G28 W ; home all without mesh bed level
G80 ; mesh bed leveling
G1 Y-3.0 F1000.0 ; go outside print area
G92 E0.0
G1 X60.0 E9.0  F1000.0 ; intro line
M73 P0 R35
G1 X100.0 E12.5 F1000.0 ; intro line
G92 E0.0
G21 ; set units to millimeters
G90 ; use absolute coordinates
M83 ; use relative distances for extrusion
M900 K0.05 ; Filament gcode LA 1.5
M900 K30 ; Filament gcode LA 1.0
;BEFORE_LAYER_CHANGE
G92 E0.0
;0.2


G1 E-0.80000 F2100.00000
G1 Z0.600 F10800.000
;AFTER_LAYER_CHANGE
;0.2
G1 X76.582 Y75.289
G1 Z0.200
G1 E0.80000 F2100.00000
M204 S1000
G1 F1200.000
G1 X161.046 Y75.289 E2.64830
G1 X171.044 Y73.829 E0.31681
G1 X173.418 Y73.829 E0.07442
G1 X173.418 Y82.655 E0.27673
G1 X171.044 Y82.655 E0.07442
G1 X161.046 Y81.195 E0.31681
G1 X105.415 Y81.195 E1.74427
G1 X105.415 Y136.216 E1.72512
G1 X99.588 Y136.216 E0.18271
G1 X99.588 Y81.195 E1.72512
G1 X76.582 Y81.195 E0.72132
G1 X76.582 Y75.349 E0.18330
G1 E-0.80000 F2100.00000
G1 Z0.800 F10800.000
G1 X105.792 Y81.572
G1 Z0.200
G1 E0.80000 F2100.00000
G1 F1200.000
G1 X105.792 Y136.593 E1.72512
G1 X99.211 Y136.593 E0.20635
G1 X99.211 Y81.572 E1.72512
G1 X76.205 Y81.572 E0.72132
G1 X76.205 Y74.912 E0.20883
G1 X161.019 Y74.912 E2.65927
G1 X171.017 Y73.452 E0.31681
G1 X173.795 Y73.452 E0.08710
G1 X173.795 Y83.032 E0.30037
G1 X171.017 Y83.032 E0.08710
G1 X161.019 Y81.572 E0.31681
G1 X105.852 Y81.572 E1.72971
G1 X105.392 Y81.569 F10800.000
G1 E-0.80000 F2100.00000
G1 Z0.800 F10800.000
G1 X99.460 Y81.082
G1 Z0.200
G1 E0.80000 F2100.00000
G1 F1200.000
G1 X93.950 Y75.572 E0.24503
G1 X93.415 Y75.572 E0.01682
G1 X98.756 Y80.913 E0.23749
G1 X98.221 Y80.913 E0.01682
G1 X92.880 Y75.572 E0.23749
G1 X92.345 Y75.572 E0.01682
G1 X97.686 Y80.913 E0.23749
G1 X97.151 Y80.913 E0.01682
G1 X91.811 Y75.572 E0.23749
G1 X91.276 Y75.572 E0.01682
G1 X96.616 Y80.913 E0.23749
G1 X96.082 Y80.913 E0.01682
G1 X90.741 Y75.572 E0.23749
G1 X90.206 Y75.572 E0.01682
G1 X95.547 Y80.913 E0.23749
G1 X95.012 Y80.913 E0.01682
G1 X89.671 Y75.572 E0.23749
G1 X89.137 Y75.572 E0.01682
G1 X94.477 Y80.913 E0.23749
G1 X93.942 Y80.913 E0.01682
G1 X88.602 Y75.572 E0.23749
G1 X88.067 Y75.572 E0.01682
G1 X93.408 Y80.913 E0.23749
G1 X92.873 Y80.913 E0.01682
G1 X87.532 Y75.572 E0.23749
G1 X86.997 Y75.572 E0.01682
G1 X92.338 Y80.913 E0.23749
G1 X91.803 Y80.913 E0.01682
G1 X86.463 Y75.572 E0.23749
G1 X85.928 Y75.572 E0.01682
G1 X91.268 Y80.913 E0.23749
G1 X90.734 Y80.913 E0.01682
G1 X85.393 Y75.572 E0.23749
G1 X84.858 Y75.572 E0.01682
G1 X90.199 Y80.913 E0.23749
G1 X89.664 Y80.913 E0.01682
G1 X84.323 Y75.572 E0.23749
G1 X83.789 Y75.572 E0.01682
G1 X89.129 Y80.913 E0.23749
G1 X88.594 Y80.913 E0.01682
G1 X83.254 Y75.572 E0.23749
G1 X82.719 Y75.572 E0.01682
G1 X88.060 Y80.913 E0.23749
G1 X87.525 Y80.913 E0.01682
G1 X82.184 Y75.572 E0.23749
G1 X81.649 Y75.572 E0.01682
G1 X86.990 Y80.913 E0.23749
G1 X86.455 Y80.913 E0.01682
G1 X81.115 Y75.572 E0.23749
G1 X80.580 Y75.572 E0.01682
G1 X85.920 Y80.913 E0.23749
G1 X85.386 Y80.913 E0.01682
G1 X80.045 Y75.572 E0.23749
G1 X79.510 Y75.572 E0.01682
G1 X84.851 Y80.913 E0.23749
G1 X84.316 Y80.913 E0.01682
G1 X78.975 Y75.572 E0.23749
G1 X78.441 Y75.572 E0.01682
G1 X83.781 Y80.913 E0.23749
G1 X83.246 Y80.913 E0.01682
G1 X77.906 Y75.572 E0.23749
G1 X77.371 Y75.572 E0.01682
G1 X82.712 Y80.913 E0.23749
G1 X82.177 Y80.913 E0.01682
G1 X76.865 Y75.601 E0.23621
G1 X76.865 Y76.136 E0.01682
G1 X81.642 Y80.913 E0.21243
G1 X81.107 Y80.913 E0.01682
G1 X76.865 Y76.670 E0.18865
G1 X76.865 Y77.205 E0.01682
G1 X80.572 Y80.913 E0.16487
G1 X80.038 Y80.913 E0.01682
G1 X76.865 Y77.740 E0.14108
G1 X76.865 Y78.275 E0.01682
G1 X79.503 Y80.913 E0.11730
G1 X78.968 Y80.913 E0.01682
G1 X76.865 Y78.810 E0.09352
G1 X76.865 Y79.344 E0.01682
G1 X78.433 Y80.913 E0.06974
G1 X77.898 Y80.913 E0.01682
G1 X76.865 Y79.879 E0.04596
G1 X76.865 Y80.414 E0.01682
G1 X77.533 Y81.082 E0.02972
G1 E-0.80000 F2100.00000
G1 Z0.800 F10800.000
G1 X100.466 Y136.102
G1 Z0.200
G1 E0.80000 F2100.00000
G1 F1200.000
G1 X99.871 Y135.507 E0.02646
G1 X99.871 Y134.973 E0.01682
G1 X100.831 Y135.933 E0.04270
G1 X101.365 Y135.933 E0.01682
G1 X99.871 Y134.438 E0.06648
G1 X99.871 Y133.903 E0.01682
G1 X101.900 Y135.933 E0.09026
G1 X102.435 Y135.933 E0.01682
G1 X99.871 Y133.368 E0.11404
G1 X99.871 Y132.833 E0.01682
G1 X102.970 Y135.933 E0.13782
G1 X103.505 Y135.933 E0.01682
G1 X99.871 Y132.299 E0.16160
G1 X99.871 Y131.764 E0.01682
G1 X104.039 Y135.933 E0.18539
G1 X104.574 Y135.933 E0.01682
G1 X99.871 Y131.229 E0.20917
G1 X99.871 Y130.694 E0.01682
G1 X105.109 Y135.933 E0.23295
G1 X105.132 Y135.933 E0.00073
G1 X105.132 Y135.421 E0.01609
G1 X99.871 Y130.160 E0.23398
G1 X99.871 Y129.625 E0.01682
G1 X105.132 Y134.886 E0.23398
G1 X105.132 Y134.351 E0.01682
G1 X99.871 Y129.090 E0.23398
G1 X99.871 Y128.555 E0.01682
G1 X105.132 Y133.817 E0.23398
G1 X105.132 Y133.282 E0.01682
G1 X99.871 Y128.020 E0.23398
G1 X99.871 Y127.486 E0.01682
G1 X105.132 Y132.747 E0.23398
G1 X105.132 Y132.212 E0.01682
G1 X99.871 Y126.951 E0.23398
G1 X99.871 Y126.416 E0.01682
G1 X105.132 Y131.677 E0.23398
G1 X105.132 Y131.143 E0.01682
G1 X99.871 Y125.881 E0.23398
G1 X99.871 Y125.346 E0.01682
G1 X105.132 Y130.608 E0.23398
G1 X105.132 Y130.073 E0.01682
G1 X99.871 Y124.812 E0.23398
G1 X99.871 Y124.277 E0.01682
G1 X105.132 Y129.538 E0.23398
G1 X105.132 Y129.003 E0.01682
G1 X99.871 Y123.742 E0.23398
M73 P3 R34
G1 X99.871 Y123.207 E0.01682
G1 X105.132 Y128.469 E0.23398
G1 X105.132 Y127.934 E0.01682
G1 X99.871 Y122.672 E0.23398
G1 X99.871 Y122.138 E0.01682
G1 X105.132 Y127.399 E0.23398
G1 X105.132 Y126.864 E0.01682
G1 X99.871 Y121.603 E0.23398
G1 X99.871 Y121.068 E0.01682
G1 X105.132 Y126.330 E0.23398
G1 X105.132 Y125.795 E0.01682
G1 X99.871 Y120.533 E0.23398
G1 X99.871 Y119.998 E0.01682
G1 X105.132 Y125.260 E0.23398
G1 X105.132 Y124.725 E0.01682
G1 X99.871 Y119.464 E0.23398
G1 X99.871 Y118.929 E0.01682
G1 X105.132 Y124.190 E0.23398
G1 X105.132 Y123.656 E0.01682
G1 X99.871 Y118.394 E0.23398
G1 X99.871 Y117.859 E0.01682
G1 X105.132 Y123.121 E0.23398
G1 X105.132 Y122.586 E0.01682
G1 X99.871 Y117.324 E0.23398
G1 X99.871 Y116.790 E0.01682
G1 X105.132 Y122.051 E0.23398
G1 X105.132 Y121.516 E0.01682
G1 X99.871 Y116.255 E0.23398
G1 X99.871 Y115.720 E0.01682
G1 X105.132 Y120.982 E0.23398
G1 X105.132 Y120.447 E0.01682
G1 X99.871 Y115.185 E0.23398
G1 X99.871 Y114.650 E0.01682
G1 X105.132 Y119.912 E0.23398
G1 X105.132 Y119.377 E0.01682
G1 X99.871 Y114.116 E0.23398
G1 X99.871 Y113.581 E0.01682
G1 X105.132 Y118.842 E0.23398
G1 X105.132 Y118.308 E0.01682
G1 X99.871 Y113.046 E0.23398
G1 X99.871 Y112.511 E0.01682
G1 X105.132 Y117.773 E0.23398
G1 X105.132 Y117.238 E0.01682
G1 X99.871 Y111.976 E0.23398
G1 X99.871 Y111.442 E0.01682
G1 X105.132 Y116.703 E0.23398
G1 X105.132 Y116.168 E0.01682
G1 X99.871 Y110.907 E0.23398
G1 X99.871 Y110.372 E0.01682
G1 X105.132 Y115.634 E0.23398
G1 X105.132 Y115.099 E0.01682
G1 X99.871 Y109.837 E0.23398
G1 X99.871 Y109.302 E0.01682
G1 X105.132 Y114.564 E0.23398
G1 X105.132 Y114.029 E0.01682
G1 X99.871 Y108.768 E0.23398
G1 X99.871 Y108.233 E0.01682
G1 X105.132 Y113.494 E0.23398
G1 X105.132 Y112.960 E0.01682
G1 X99.871 Y107.698 E0.23398
G1 X99.871 Y107.163 E0.01682
G1 X105.132 Y112.425 E0.23398
G1 X105.132 Y111.890 E0.01682
G1 X99.871 Y106.628 E0.23398
G1 X99.871 Y106.094 E0.01682
G1 X105.132 Y111.355 E0.23398
G1 X105.132 Y110.820 E0.01682
G1 X99.871 Y105.559 E0.23398
G1 X99.871 Y105.024 E0.01682
G1 X105.132 Y110.286 E0.23398
G1 X105.132 Y109.751 E0.01682
G1 X99.871 Y104.489 E0.23398
G1 X99.871 Y103.954 E0.01682
G1 X105.132 Y109.216 E0.23398
G1 X105.132 Y108.681 E0.01682
G1 X99.871 Y103.420 E0.23398
G1 X99.871 Y102.885 E0.01682
G1 X105.132 Y108.146 E0.23398
G1 X105.132 Y107.612 E0.01682
G1 X99.871 Y102.350 E0.23398
G1 X99.871 Y101.815 E0.01682
G1 X105.132 Y107.077 E0.23398
G1 X105.132 Y106.542 E0.01682
G1 X99.871 Y101.280 E0.23398
G1 X99.871 Y100.746 E0.01682
G1 X105.132 Y106.007 E0.23398
G1 X105.132 Y105.472 E0.01682
G1 X99.871 Y100.211 E0.23398
G1 X99.871 Y99.676 E0.01682
G1 X105.132 Y104.938 E0.23398
G1 X105.132 Y104.403 E0.01682
G1 X99.871 Y99.141 E0.23398
G1 X99.871 Y98.606 E0.01682
G1 X105.132 Y103.868 E0.23398
G1 X105.132 Y103.333 E0.01682
G1 X99.871 Y98.072 E0.23398
G1 X99.871 Y97.537 E0.01682
G1 X105.132 Y102.798 E0.23398
G1 X105.132 Y102.264 E0.01682
G1 X99.871 Y97.002 E0.23398
G1 X99.871 Y96.467 E0.01682
G1 X105.132 Y101.729 E0.23398
G1 X105.132 Y101.194 E0.01682
G1 X99.871 Y95.932 E0.23398
G1 X99.871 Y95.398 E0.01682
G1 X105.132 Y100.659 E0.23398
G1 X105.132 Y100.124 E0.01682
G1 X99.871 Y94.863 E0.23398
G1 X99.871 Y94.328 E0.01682
G1 X105.132 Y99.590 E0.23398
G1 X105.132 Y99.055 E0.01682
G1 X99.871 Y93.793 E0.23398
G1 X99.871 Y93.258 E0.01682
G1 X105.132 Y98.520 E0.23398
G1 X105.132 Y97.985 E0.01682
G1 X99.871 Y92.724 E0.23398
G1 X99.871 Y92.189 E0.01682
G1 X105.132 Y97.450 E0.23398
G1 X105.132 Y96.916 E0.01682
G1 X99.871 Y91.654 E0.23398
G1 X99.871 Y91.119 E0.01682
G1 X105.132 Y96.381 E0.23398
G1 X105.132 Y95.846 E0.01682
G1 X99.871 Y90.584 E0.23398
G1 X99.871 Y90.050 E0.01682
G1 X105.132 Y95.311 E0.23398
G1 X105.132 Y94.776 E0.01682
G1 X99.871 Y89.515 E0.23398
G1 X99.871 Y88.980 E0.01682
G1 X105.132 Y94.242 E0.23398
G1 X105.132 Y93.707 E0.01682
G1 X99.871 Y88.445 E0.23398
G1 X99.871 Y87.910 E0.01682
G1 X105.132 Y93.172 E0.23398
G1 X105.132 Y92.637 E0.01682
G1 X99.871 Y87.376 E0.23398
G1 X99.871 Y86.841 E0.01682
G1 X105.132 Y92.102 E0.23398
G1 X105.132 Y91.568 E0.01682
G1 X99.871 Y86.306 E0.23398
G1 X99.871 Y85.771 E0.01682
G1 X105.132 Y91.033 E0.23398
G1 X105.132 Y90.498 E0.01682
G1 X99.871 Y85.236 E0.23398
G1 X99.871 Y84.702 E0.01682
G1 X105.132 Y89.963 E0.23398
G1 X105.132 Y89.428 E0.01682
G1 X99.871 Y84.167 E0.23398
G1 X99.871 Y83.632 E0.01682
G1 X105.132 Y88.894 E0.23398
G1 X105.132 Y88.359 E0.01682
G1 X99.871 Y83.097 E0.23398
G1 X99.871 Y82.562 E0.01682
G1 X105.132 Y87.824 E0.23398
G1 X105.132 Y87.289 E0.01682
G1 X99.871 Y82.028 E0.23398
G1 X99.871 Y81.493 E0.01682
G1 X105.132 Y86.754 E0.23398
G1 X105.132 Y86.220 E0.01682
G1 X94.485 Y75.572 E0.47348
G1 X95.019 Y75.572 E0.01682
G1 X105.132 Y85.685 E0.44970
G1 X105.132 Y85.150 E0.01682
G1 X95.554 Y75.572 E0.42592
G1 X96.089 Y75.572 E0.01682
G1 X105.132 Y84.615 E0.40214
G1 X105.132 Y84.080 E0.01682
G1 X96.624 Y75.572 E0.37835
G1 X97.159 Y75.572 E0.01682
G1 X105.132 Y83.546 E0.35457
G1 X105.132 Y83.011 E0.01682
G1 X97.693 Y75.572 E0.33079
G1 X98.228 Y75.572 E0.01682
G1 X105.132 Y82.476 E0.30701
G1 X105.132 Y81.941 E0.01682
G1 X98.763 Y75.572 E0.28323
G1 X99.298 Y75.572 E0.01682
G1 X105.132 Y81.406 E0.25945
G1 X105.132 Y80.913 E0.01553
G1 X105.173 Y80.913 E0.00129
G1 X99.833 Y75.572 E0.23749
G1 X100.367 Y75.572 E0.01682
G1 X105.708 Y80.913 E0.23749
G1 X106.243 Y80.913 E0.01682
G1 X100.902 Y75.572 E0.23749
G1 X101.437 Y75.572 E0.01682
G1 X106.778 Y80.913 E0.23749
G1 X107.312 Y80.913 E0.01682
G1 X101.972 Y75.572 E0.23749
G1 X102.507 Y75.572 E0.01682
G1 X107.847 Y80.913 E0.23749
G1 X108.382 Y80.913 E0.01682
G1 X103.041 Y75.572 E0.23749
G1 X103.576 Y75.572 E0.01682
G1 X108.917 Y80.913 E0.23749
G1 X109.452 Y80.913 E0.01682
G1 X104.111 Y75.572 E0.23749
G1 X104.646 Y75.572 E0.01682
G1 X109.986 Y80.913 E0.23749
G1 X110.521 Y80.913 E0.01682
G1 X105.181 Y75.572 E0.23749
G1 X105.715 Y75.572 E0.01682
G1 X111.056 Y80.913 E0.23749
G1 X111.591 Y80.913 E0.01682
G1 X106.250 Y75.572 E0.23749
G1 X106.785 Y75.572 E0.01682
G1 X112.126 Y80.913 E0.23749
G1 X112.660 Y80.913 E0.01682
G1 X107.320 Y75.572 E0.23749
G1 X107.855 Y75.572 E0.01682
G1 X113.195 Y80.913 E0.23749
G1 X113.730 Y80.913 E0.01682
G1 X108.389 Y75.572 E0.23749
G1 X108.924 Y75.572 E0.01682
G1 X114.265 Y80.913 E0.23749
G1 X114.800 Y80.913 E0.01682
G1 X109.459 Y75.572 E0.23749
G1 X109.994 Y75.572 E0.01682
G1 X115.334 Y80.913 E0.23749
G1 X115.869 Y80.913 E0.01682
G1 X110.529 Y75.572 E0.23749
G1 X111.063 Y75.572 E0.01682
G1 X116.404 Y80.913 E0.23749
G1 X116.939 Y80.913 E0.01682
G1 X111.598 Y75.572 E0.23749
G1 X112.133 Y75.572 E0.01682
G1 X117.474 Y80.913 E0.23749
G1 X118.008 Y80.913 E0.01682
G1 X112.668 Y75.572 E0.23749
G1 X113.203 Y75.572 E0.01682
G1 X118.543 Y80.913 E0.23749
G1 X119.078 Y80.913 E0.01682
G1 X113.737 Y75.572 E0.23749
G1 X114.272 Y75.572 E0.01682
G1 X119.613 Y80.913 E0.23749
G1 X120.148 Y80.913 E0.01682
G1 X114.807 Y75.572 E0.23749
G1 X115.342 Y75.572 E0.01682
G1 X120.682 Y80.913 E0.23749
G1 X121.217 Y80.913 E0.01682
G1 X115.877 Y75.572 E0.23749
G1 X116.411 Y75.572 E0.01682
G1 X121.752 Y80.913 E0.23749
G1 X122.287 Y80.913 E0.01682
G1 X116.946 Y75.572 E0.23749
G1 X117.481 Y75.572 E0.01682
G1 X122.822 Y80.913 E0.23749
G1 X123.356 Y80.913 E0.01682
G1 X118.016 Y75.572 E0.23749
G1 X118.551 Y75.572 E0.01682
G1 X123.891 Y80.913 E0.23749
G1 X124.426 Y80.913 E0.01682
G1 X119.085 Y75.572 E0.23749
G1 X119.620 Y75.572 E0.01682
G1 X124.961 Y80.913 E0.23749
G1 X125.496 Y80.913 E0.01682
G1 X120.155 Y75.572 E0.23749
G1 X120.690 Y75.572 E0.01682
G1 X126.030 Y80.913 E0.23749
G1 X126.565 Y80.913 E0.01682
G1 X121.225 Y75.572 E0.23749
G1 X121.759 Y75.572 E0.01682
G1 X127.100 Y80.913 E0.23749
G1 X127.635 Y80.913 E0.01682
G1 X122.294 Y75.572 E0.23749
G1 X122.829 Y75.572 E0.01682
G1 X128.170 Y80.913 E0.23749
G1 X128.704 Y80.913 E0.01682
G1 X123.364 Y75.572 E0.23749
G1 X123.899 Y75.572 E0.01682
G1 X129.239 Y80.913 E0.23749
G1 X129.774 Y80.913 E0.01682
G1 X124.433 Y75.572 E0.23749
G1 X124.968 Y75.572 E0.01682
G1 X130.309 Y80.913 E0.23749
G1 X130.844 Y80.913 E0.01682
G1 X125.503 Y75.572 E0.23749
G1 X126.038 Y75.572 E0.01682
G1 X131.378 Y80.913 E0.23749
G1 X131.913 Y80.913 E0.01682
G1 X126.573 Y75.572 E0.23749
G1 X127.107 Y75.572 E0.01682
G1 X132.448 Y80.913 E0.23749
G1 X132.983 Y80.913 E0.01682
G1 X127.642 Y75.572 E0.23749
G1 X128.177 Y75.572 E0.01682
M73 P5 R33
G1 X133.518 Y80.913 E0.23749
G1 X134.052 Y80.913 E0.01682
G1 X128.712 Y75.572 E0.23749
G1 X129.247 Y75.572 E0.01682
G1 X134.587 Y80.913 E0.23749
G1 X135.122 Y80.913 E0.01682
G1 X129.781 Y75.572 E0.23749
G1 X130.316 Y75.572 E0.01682
G1 X135.657 Y80.913 E0.23749
G1 X136.192 Y80.913 E0.01682
G1 X130.851 Y75.572 E0.23749
G1 X131.386 Y75.572 E0.01682
G1 X136.726 Y80.913 E0.23749
G1 X137.261 Y80.913 E0.01682
G1 X131.921 Y75.572 E0.23749
G1 X132.455 Y75.572 E0.01682
G1 X137.796 Y80.913 E0.23749
G1 X138.331 Y80.913 E0.01682
G1 X132.990 Y75.572 E0.23749
G1 X133.525 Y75.572 E0.01682
G1 X138.866 Y80.913 E0.23749
G1 X139.400 Y80.913 E0.01682
G1 X134.060 Y75.572 E0.23749
G1 X134.595 Y75.572 E0.01682
G1 X139.935 Y80.913 E0.23749
G1 X140.470 Y80.913 E0.01682
G1 X135.129 Y75.572 E0.23749
G1 X135.664 Y75.572 E0.01682
G1 X141.005 Y80.913 E0.23749
G1 X141.540 Y80.913 E0.01682
G1 X136.199 Y75.572 E0.23749
G1 X136.734 Y75.572 E0.01682
G1 X142.074 Y80.913 E0.23749
G1 X142.609 Y80.913 E0.01682
G1 X137.269 Y75.572 E0.23749
G1 X137.803 Y75.572 E0.01682
G1 X143.144 Y80.913 E0.23749
G1 X143.679 Y80.913 E0.01682
G1 X138.338 Y75.572 E0.23749
G1 X138.873 Y75.572 E0.01682
G1 X144.213 Y80.913 E0.23749
G1 X144.748 Y80.913 E0.01682
G1 X139.408 Y75.572 E0.23749
G1 X139.943 Y75.572 E0.01682
G1 X145.283 Y80.913 E0.23749
