; generated by PrusaSlicer 2.1.1+win64 on 2020-02-28 at 23:00:35 UTC

; 

; external perimeters extrusion width = 0.45mm
; perimeters extrusion width = 0.45mm
; infill extrusion width = 0.45mm
; solid infill extrusion width = 0.45mm
; top infill extrusion width = 0.40mm
; support material extrusion width = 0.35mm
; first layer extrusion width = 0.42mm

M73 P0 R138
M201 X9000 Y9000 Z500 E10000 ; sets maximum accelerations, mm/sec^2
M203 X500 Y500 Z12 E120 ; sets maximum feedrates, mm/sec
M204 P2000 R1500 T2000 ; sets acceleration (P, T) and retract acceleration (R), mm/sec^2
M205 X10.00 Y10.00 Z0.20 E2.50 ; sets the jerk limits, mm/sec
M205 S0 T0 ; sets the minimum extruding and travel feed rate, mm/sec
M107
M862.3 P "MK2S" ; printer model check
M862.1 P0.4 ; nozzle diameter check
M115 U3.2.3 ; tell printer latest fw version
G90 ; use absolute coordinates
M83 ; extruder relative mode
M204 S2000 T1500 ; MK2 firmware only supports the old M204 format
M104 S215 ; set extruder temp
M140 S60 ; set bed temp
M190 S60 ; wait for bed temp
M109 S215 ; wait for extruder temp
G28 W ; home all without mesh bed level
G80 ; mesh bed leveling
G1 Y-3.0 F1000.0 ; go outside print area
G92 E0.0
G1 X60.0 E9.0  F1000.0 ; intro line
M73 P0 R138
G1 X100.0 E12.5 F1000.0 ; intro line
G92 E0.0
G21 ; set units to millimeters
G90 ; use absolute coordinates
M83 ; use relative distances for extrusion
M900 K30 ; Filament gcode
;BEFORE_LAYER_CHANGE
G92 E0.0
;0.2


G1 E-0.80000 F2100.00000
G1 Z0.600 F10800.000
;AFTER_LAYER_CHANGE
;0.2
G1 X78.418 Y55.319
G1 Z0.200
G1 E0.80000 F2100.00000
M204 S1000
G1 F1200
G1 X78.761 Y54.912 E0.01669
G1 X79.193 Y54.601 E0.01669
G1 X79.690 Y54.401 E0.01680
G1 X80.217 Y54.329 E0.01669
G1 X144.754 Y54.328 E2.02349
G1 X145.264 Y54.390 E0.01612
G1 X145.749 Y54.570 E0.01623
G1 X146.179 Y54.859 E0.01623
G1 X146.526 Y55.238 E0.01612
G1 X171.758 Y91.842 E1.39394
G1 X171.923 Y92.450 E0.01976
G1 X174.183 Y111.803 E0.61090
G1 X174.187 Y120.178 E0.26262
G1 X174.086 Y120.760 E0.01851
G1 X173.831 Y121.296 E0.01862
G1 X148.790 Y157.552 E1.38157
G1 X148.340 Y158.024 E0.02044
G1 X147.775 Y158.341 E0.02032
G1 X147.006 Y158.482 E0.02451
G1 X77.993 Y158.482 E2.16387
G1 X77.369 Y158.389 E0.01976
G1 X76.802 Y158.125 E0.01964
G1 X76.392 Y157.779 E0.01680
G1 X76.080 Y157.344 E0.01680
G1 X75.882 Y156.845 E0.01680
G1 X75.812 Y156.318 E0.01669
G1 X75.812 Y75.726 E2.52690
G1 X78.079 Y56.241 E0.61507
G1 X78.196 Y55.763 E0.01544
G1 X78.391 Y55.373 E0.01367
G1 F8640
G1 X78.761 Y54.912 E-0.13642
G1 X79.193 Y54.601 E-0.12291
G1 X79.690 Y54.401 E-0.12374
G1 X80.217 Y54.329 E-0.12291
G1 X81.318 Y54.328 E-0.25403
G1 E-0.04000 F2100.00000
G1 Z0.800 F10800.000
G1 X109.921 Y102.179
G1 Z0.200
G1 E0.80000 F2100.00000
G1 F1200
G1 X108.176 Y103.924 E0.07739
G1 X108.176 Y104.990 E0.03344
G1 X110.335 Y102.832 E0.09572
G1 X110.868 Y103.365 E0.02365
G1 X108.176 Y106.057 E0.11936
G1 X108.176 Y107.081 E0.03212
G1 X109.525 Y105.732 E0.05983
G1 X109.547 Y105.753 E0.00094
G1 X113.033 Y102.267 E0.15457
G1 X113.566 Y102.800 E0.02365
G1 X110.080 Y106.286 E0.15457
G1 X110.613 Y106.819 E0.02365
G1 X114.099 Y103.334 E0.15457
G1 X114.419 Y103.654 E0.01421
G1 X116.051 Y102.023 E0.07234
G1 X116.264 Y102.235 E0.00944
G1 X111.146 Y107.353 E0.22691
G1 X111.157 Y107.363 E0.00046
G1 X112.788 Y105.732 E0.07234
G1 X113.311 Y106.255 E0.02318
G1 X116.797 Y102.769 E0.15457
G1 X116.824 Y102.796 E0.00120
G1 X116.824 Y103.808 E0.03175
G1 X113.844 Y106.788 E0.13213
G1 X114.378 Y107.321 E0.02365
G1 X116.824 Y104.875 E0.10848
G1 X116.824 Y105.941 E0.03344
G1 X116.422 Y106.343 E0.01782
G1 F8640
G1 X116.824 Y105.941 E-0.13121
G1 X116.824 Y104.875 E-0.24627
G1 X115.653 Y106.046 E-0.38253
G1 E-0.04000 F2100.00000
G1 Z0.800 F10800.000
G1 X116.556 Y109.333
G1 Z0.200
G1 E0.80000 F2100.00000
G1 F1200
G1 X116.859 Y109.031 E0.01092
G1 X116.859 Y108.313 E0.01831
G1 X115.978 Y109.195 E0.03183
G1 X115.260 Y109.195 E0.01831
G1 X116.859 Y107.596 E0.05772
G1 X116.859 Y107.024 E0.01462
G1 X116.787 Y106.951 E0.00261
G1 X114.543 Y109.195 E0.08101
G1 X113.826 Y109.195 E0.01831
G1 X116.428 Y106.593 E0.09396
G1 X116.070 Y106.234 E0.01295
G1 X113.109 Y109.195 E0.10691
G1 X112.392 Y109.195 E0.01831
G1 X114.080 Y107.507 E0.06095
G1 X113.721 Y107.149 E0.01295
G1 X111.675 Y109.195 E0.07389
G1 X110.958 Y109.195 E0.01831
G1 X113.363 Y106.790 E0.08684
G1 X113.004 Y106.431 E0.01295
G1 X110.241 Y109.195 E0.09979
G1 X109.523 Y109.195 E0.01831
G1 X111.014 Y107.704 E0.05383
G1 X110.656 Y107.346 E0.01295
G1 X108.806 Y109.195 E0.06678
G1 X108.141 Y109.195 E0.01699
G1 X108.141 Y109.143 E0.00132
G1 X110.297 Y106.987 E0.07785
G1 X109.938 Y106.629 E0.01295
G1 X108.141 Y108.426 E0.06490
G1 X108.141 Y107.709 E0.01831
G1 X109.678 Y106.172 E0.05549
G1 X108.633 Y109.866 F10800.000
G1 F1200
G1 X108.962 Y109.537 E0.01457
G1 X110.029 Y109.537 E0.03344
G1 X109.870 Y109.696 E0.00705
G1 X110.936 Y109.696 E0.03344
G1 X111.095 Y109.537 E0.00705
G1 X112.162 Y109.537 E0.03344
G1 X112.003 Y109.696 E0.00705
G1 X113.069 Y109.696 E0.03344
G1 X113.228 Y109.537 E0.00705
G1 X114.295 Y109.537 E0.03344
G1 X114.136 Y109.696 E0.00705
G1 X115.202 Y109.696 E0.03344
G1 X115.361 Y109.537 E0.00705
G1 X116.428 Y109.537 E0.03344
G1 X116.099 Y109.866 E0.01457
G1 F8640
G1 X116.428 Y109.537 E-0.10733
G1 X115.361 Y109.537 E-0.24627
G1 X115.202 Y109.696 E-0.05192
G1 X114.136 Y109.696 E-0.24627
G1 X114.295 Y109.537 E-0.05192
G1 X114.051 Y109.537 E-0.05630
G1 E-0.04000 F2100.00000
G1 Z0.800 F10800.000
G1 X120.144 Y106.888
G1 Z0.200
G1 E0.80000 F2100.00000
G1 F1200
G1 X120.650 Y106.382 E0.02243
G1 F8640
G1 X120.144 Y106.888 E-0.16521
G1 E-0.63479 F2100.00000
G1 Z0.800 F10800.000
G1 X117.076 Y117.750
G1 Z0.200
G1 E0.80000 F2100.00000
G1 F1200
G1 X116.666 Y117.640 E0.01331
G1 X116.309 Y117.475 E0.01235
G1 X116.093 Y117.339 E0.00800
G1 X115.785 Y117.081 E0.01260
G1 X115.624 Y116.906 E0.00745
G1 X115.398 Y116.583 E0.01236
G1 X115.208 Y116.184 E0.01386
G1 X115.098 Y115.771 E0.01339
G1 X115.061 Y115.348 E0.01333
G1 X115.097 Y114.937 E0.01293
G1 X115.148 Y114.705 E0.00745
G1 X115.282 Y114.334 E0.01236
G1 X115.501 Y113.950 E0.01386
G1 X115.775 Y113.623 E0.01339
G1 X116.101 Y113.350 E0.01333
G1 X116.469 Y113.137 E0.01333
G1 X116.857 Y112.996 E0.01293
G1 X117.089 Y112.945 E0.00745
G1 X117.481 Y112.909 E0.01236
G1 X117.922 Y112.945 E0.01386
G1 X118.334 Y113.056 E0.01337
G1 X118.691 Y113.221 E0.01235
G1 X118.907 Y113.356 E0.00800
G1 X119.225 Y113.623 E0.01300
G1 X119.498 Y113.949 E0.01333
G1 X119.704 Y114.306 E0.01293
G1 X119.796 Y114.526 E0.00747
G1 X119.902 Y114.924 E0.01293
G1 X119.939 Y115.348 E0.01333
G1 X119.902 Y115.771 E0.01333
G1 X119.792 Y116.182 E0.01331
G1 X119.627 Y116.539 E0.01235
G1 X119.491 Y116.755 E0.00800
G1 X119.233 Y117.063 E0.01260
G1 X119.058 Y117.223 E0.00745
G1 X118.735 Y117.450 E0.01236
G1 X118.336 Y117.640 E0.01386
G1 X117.924 Y117.750 E0.01339
G1 X117.500 Y117.787 E0.01333
G1 X117.136 Y117.755 E0.01145
G1 X117.142 Y117.377 F10800.000
G1 F1200
G1 X116.795 Y117.284 E0.01126
G1 X116.489 Y117.142 E0.01059
G1 X116.315 Y117.034 E0.00644
G1 X116.046 Y116.808 E0.01100
G1 X115.919 Y116.669 E0.00592
G1 X115.724 Y116.393 E0.01059
G1 X115.564 Y116.053 E0.01177
G1 X115.471 Y115.706 E0.01128
G1 X115.439 Y115.348 E0.01126
G1 X115.470 Y114.995 E0.01112
G1 X115.511 Y114.810 E0.00592
G1 X115.626 Y114.493 E0.01059
G1 X115.811 Y114.166 E0.01177
G1 X116.043 Y113.891 E0.01128
G1 X116.318 Y113.660 E0.01126
G1 X116.629 Y113.480 E0.01126
G1 X116.962 Y113.359 E0.01112
G1 X117.146 Y113.318 E0.00592
G1 X117.483 Y113.288 E0.01059
G1 X117.857 Y113.318 E0.01177
G1 X118.205 Y113.411 E0.01128
G1 X118.511 Y113.553 E0.01059
G1 X118.685 Y113.662 E0.00644
G1 X118.957 Y113.891 E0.01114
G1 X119.188 Y114.166 E0.01126
G1 X119.365 Y114.473 E0.01112
G1 X119.438 Y114.648 E0.00592
G1 X119.529 Y114.990 E0.01112
G1 X119.561 Y115.348 E0.01126
G1 X119.529 Y115.706 E0.01126
G1 X119.437 Y116.052 E0.01126
G1 X119.295 Y116.359 E0.01059
G1 X119.186 Y116.533 E0.00644
G1 X118.960 Y116.802 E0.01100
G1 X118.821 Y116.929 E0.00592
G1 X118.545 Y117.123 E0.01059
G1 X118.205 Y117.284 E0.01177
G1 X117.858 Y117.377 E0.01128
G1 X117.500 Y117.409 E0.01126
G1 X117.202 Y117.383 E0.00938
G1 X116.911 Y117.652 F10800.000
G1 F8640
G1 X116.795 Y117.284 E-0.09656
G1 X116.489 Y117.142 E-0.07796
G1 X116.315 Y117.034 E-0.04739
G1 X116.046 Y116.808 E-0.08101
G1 X115.919 Y116.669 E-0.04357
G1 X115.724 Y116.393 E-0.07801
G1 X115.564 Y116.053 E-0.08670
G1 X115.471 Y115.706 E-0.08310
G1 X115.439 Y115.348 E-0.08294
G1 X115.470 Y114.995 E-0.08188
G1 X115.471 Y114.991 E-0.00088
G1 E-0.04000 F2100.00000
G1 Z0.800 F10800.000
G1 X107.925 Y117.750
G1 Z0.200
G1 E0.80000 F2100.00000
G1 F1200
G1 X107.500 Y117.787 E0.01339
G1 X107.076 Y117.750 E0.01333
G1 X106.666 Y117.640 E0.01333
G1 X106.280 Y117.460 E0.01333
G1 X105.943 Y117.224 E0.01293
G1 X105.776 Y117.072 E0.00707
G1 X105.624 Y116.906 E0.00705
G1 X105.397 Y116.583 E0.01236
G1 X105.208 Y116.184 E0.01386
G1 X105.098 Y115.771 E0.01339
G1 X105.062 Y115.361 E0.01293
G1 X105.072 Y115.123 E0.00747
G1 X105.144 Y114.717 E0.01293
G1 X105.289 Y114.317 E0.01333
G1 X105.502 Y113.949 E0.01333
G1 X105.775 Y113.623 E0.01333
G1 X106.101 Y113.350 E0.01333
G1 X106.469 Y113.137 E0.01333
G1 X106.857 Y112.996 E0.01293
G1 X107.089 Y112.945 E0.00745
G1 X107.481 Y112.909 E0.01236
G1 X107.922 Y112.945 E0.01385
G1 X108.334 Y113.056 E0.01337
G1 X108.691 Y113.221 E0.01235
G1 X108.907 Y113.356 E0.00800
G1 X109.225 Y113.623 E0.01300
G1 X109.498 Y113.949 E0.01333
G1 X109.711 Y114.317 E0.01333
G1 X109.856 Y114.717 E0.01333
G1 X109.928 Y115.123 E0.01293
G1 X109.938 Y115.361 E0.00747
G1 X109.902 Y115.771 E0.01293
G1 X109.796 Y116.170 E0.01293
G1 X109.705 Y116.389 E0.00745
G1 X109.508 Y116.731 E0.01236
G1 X109.226 Y117.072 E0.01386
G1 X108.909 Y117.338 E0.01299
G1 X108.709 Y117.465 E0.00745
G1 X108.352 Y117.633 E0.01236
G1 X107.983 Y117.734 E0.01197
G1 X107.859 Y117.377 F10800.000
G1 F1200
G1 X107.500 Y117.409 E0.01128
G1 X107.142 Y117.377 E0.01126
G1 X106.795 Y117.284 E0.01126
G1 X106.470 Y117.133 E0.01126
G1 X106.179 Y116.929 E0.01112
G1 X106.043 Y116.805 E0.00578
G1 X105.919 Y116.669 E0.00577
G1 X105.724 Y116.393 E0.01059
G1 X105.564 Y116.053 E0.01177
G1 X105.471 Y115.706 E0.01128
G1 X105.440 Y115.352 E0.01112
G1 X105.448 Y115.164 E0.00592
G1 X105.509 Y114.815 E0.01112
G1 X105.632 Y114.477 E0.01126
G1 X105.812 Y114.166 E0.01126
G1 X106.043 Y113.891 E0.01126
G1 X106.318 Y113.660 E0.01126
G1 X106.629 Y113.480 E0.01126
G1 X106.962 Y113.359 E0.01112
G1 X107.146 Y113.318 E0.00592
G1 X107.483 Y113.288 E0.01059
G1 X107.857 Y113.318 E0.01177
G1 X108.205 Y113.411 E0.01128
G1 X108.511 Y113.553 E0.01059
G1 X108.685 Y113.662 E0.00644
G1 X108.957 Y113.891 E0.01114
G1 X109.188 Y114.166 E0.01126
G1 X109.368 Y114.477 E0.01126
G1 X109.491 Y114.815 E0.01126
G1 X109.552 Y115.164 E0.01112
G1 X109.560 Y115.352 E0.00592
G1 X109.529 Y115.706 E0.01112
G1 X109.438 Y116.048 E0.01112
G1 X109.366 Y116.223 E0.00592
G1 X109.197 Y116.516 E0.01059
G1 X108.958 Y116.805 E0.01177
G1 X108.686 Y117.033 E0.01114
G1 X108.526 Y117.134 E0.00592
G1 X108.221 Y117.278 E0.01059
G1 X107.916 Y117.361 E0.00989
G1 X107.735 Y117.715 F10800.000
G1 F8640
G1 X107.500 Y117.409 E-0.09676
G1 X107.142 Y117.377 E-0.08295
G1 X106.795 Y117.284 E-0.08295
G1 X106.470 Y117.133 E-0.08295
G1 X106.179 Y116.929 E-0.08188
G1 X106.043 Y116.805 E-0.04256
G1 X105.919 Y116.669 E-0.04251
G1 X105.724 Y116.393 E-0.07801
G1 X105.564 Y116.053 E-0.08670
G1 X105.471 Y115.707 E-0.08276
G1 E-0.04000 F2100.00000
G1 Z0.800 F10800.000
G1 X112.500 Y119.511
G1 Z0.200
G1 E0.80000 F2100.00000
G1 F1200
G1 X103.587 Y119.511 E0.27946
G1 X103.587 Y112.161 E0.23045
G1 X105.837 Y106.998 E0.17659
G1 X105.837 Y93.384 E0.42687
G1 X107.821 Y93.384 E0.06220
G1 X108.603 Y94.662 E0.04697
G1 X107.063 Y94.662 E0.04828
G1 X107.063 Y110.809 E0.50630
G1 X117.937 Y110.809 E0.34095
G1 X117.937 Y94.662 E0.50629
G1 X116.397 Y94.662 E0.04828
G1 X117.179 Y93.384 E0.04697
G1 X119.163 Y93.384 E0.06220
G1 X119.163 Y106.998 E0.42687
G1 X121.413 Y112.161 E0.17659
G1 X121.413 Y119.511 E0.23045
G1 X112.560 Y119.511 E0.27758
G1 X112.500 Y119.888 F10800.000
G1 F1200
G1 X103.210 Y119.888 E0.29128
G1 X103.210 Y112.082 E0.24473
G1 X105.460 Y106.919 E0.17659
G1 X105.460 Y93.006 E0.43623
G1 X108.032 Y93.006 E0.08065
G1 X109.275 Y95.039 E0.07469
G1 X107.440 Y95.039 E0.05755
G1 X107.440 Y110.432 E0.48265
G1 X117.560 Y110.432 E0.31731
G1 X117.560 Y95.039 E0.48265
G1 X115.725 Y95.039 E0.05755
G1 X116.968 Y93.006 E0.07469
G1 X119.540 Y93.006 E0.08065
G1 X119.540 Y106.919 E0.43623
G1 X121.790 Y112.082 E0.17659
G1 X121.790 Y119.888 E0.24473
G1 X112.560 Y119.888 E0.28940
G1 X112.225 Y119.597 F10800.000
G1 F8640
G1 X109.269 Y119.888 E-0.76000
G1 E-0.04000 F2100.00000
G1 Z0.800 F10800.000
G1 X114.665 Y119.398
G1 Z0.200
G1 E0.80000 F2100.00000
G1 F1200
G1 X110.178 Y114.910 E0.20026
G1 X110.210 Y115.092 E0.00581
G1 X110.212 Y115.481 E0.01229
G1 X113.958 Y119.228 E0.16721
G1 X113.422 Y119.228 E0.01694
G1 X110.146 Y115.953 E0.14617
G1 X110.021 Y116.364 E0.01357
G1 X112.885 Y119.228 E0.12781
G1 X112.348 Y119.228 E0.01694
G1 X109.841 Y116.720 E0.11191
G1 X109.741 Y116.893 E0.00629
G1 X109.621 Y117.038 E0.00593
G1 X111.812 Y119.228 E0.09774
G1 X111.275 Y119.228 E0.01694
G1 X109.368 Y117.321 E0.08508
G1 X109.077 Y117.566 E0.01202
G1 X110.738 Y119.228 E0.07416
G1 X110.202 Y119.228 E0.01694
G1 X108.738 Y117.764 E0.06533
G1 X108.361 Y117.924 E0.01292
G1 X109.665 Y119.228 E0.05821
G1 X109.128 Y119.228 E0.01694
G1 X107.933 Y118.033 E0.05332
G1 X107.428 Y118.065 E0.01597
G1 X108.591 Y119.228 E0.05191
G1 X108.055 Y119.228 E0.01694
G1 X106.794 Y117.967 E0.05627
G1 F8640
G1 X108.055 Y119.228 E-0.41171
G1 X108.591 Y119.228 E-0.12393
G1 X107.904 Y118.541 E-0.22436
G1 E-0.04000 F2100.00000
G1 Z0.800 F10800.000
G1 X107.688 Y119.398
G1 Z0.200
G1 E0.80000 F2100.00000
G1 F1200
G1 X103.870 Y115.580 E0.17038
G1 X103.870 Y116.117 E0.01694
G1 X106.981 Y119.228 E0.13886
G1 X106.445 Y119.228 E0.01694
G1 X103.870 Y116.653 E0.11490
G1 X103.870 Y117.190 E0.01694
G1 X105.908 Y119.228 E0.09095
G1 X105.371 Y119.228 E0.01694
G1 X103.870 Y117.727 E0.06700
G1 X103.870 Y118.263 E0.01694
G1 X104.835 Y119.228 E0.04305
G1 X104.298 Y119.228 E0.01694
G1 X103.700 Y118.630 E0.02667
G1 F8640
G1 X104.298 Y119.228 E-0.19516
G1 X104.835 Y119.228 E-0.12393
G1 X103.870 Y118.263 E-0.31500
G1 X103.870 Y117.727 E-0.12393
G1 X103.876 Y117.733 E-0.00199
G1 E-0.04000 F2100.00000
G1 Z0.800 F10800.000
G1 X104.881 Y116.054
G1 Z0.200
G1 E0.80000 F2100.00000
G1 F1200
G1 X103.870 Y115.043 E0.04511
G1 X103.870 Y114.506 E0.01694
G1 X104.783 Y115.420 E0.04075
G1 X104.790 Y115.092 E0.01035
G1 X104.821 Y114.921 E0.00549
G1 X103.870 Y113.970 E0.04243
G1 X103.870 Y113.433 E0.01694
G1 X104.926 Y114.489 E0.04712
G1 X105.032 Y114.197 E0.00980
G1 X105.083 Y114.109 E0.00320
G1 X103.870 Y112.896 E0.05412
G1 X103.870 Y112.360 E0.01694
G1 X105.282 Y113.771 E0.06300
G1 X105.526 Y113.479 E0.01202
G1 X103.990 Y111.943 E0.06855
G1 X104.153 Y111.570 E0.01287
G1 X105.809 Y113.225 E0.07389
G1 X105.938 Y113.117 E0.00531
G1 X106.128 Y113.008 E0.00692
G1 X104.316 Y111.196 E0.08085
G1 X104.479 Y110.822 E0.01287
G1 X106.487 Y112.830 E0.08960
G1 X106.892 Y112.699 E0.01345
G1 X104.642 Y110.448 E0.10042
G1 X104.805 Y110.074 E0.01287
G1 X107.366 Y112.636 E0.11431
G1 X107.480 Y112.626 E0.00361
G1 X107.929 Y112.662 E0.01422
G1 X104.839 Y109.572 E0.13791
G1 F8640
G1 X107.166 Y111.899 E-0.76000
G1 E-0.04000 F2100.00000
G1 Z0.800 F10800.000
G1 X109.410 Y110.922
G1 Z0.200
G1 E0.80000 F2100.00000
G1 F1200
G1 X117.715 Y119.228 E0.37066
G1 X117.179 Y119.228 E0.01694
G1 X109.043 Y111.092 E0.36309
G1 X108.506 Y111.092 E0.01694
G1 X116.642 Y119.228 E0.36309
G1 X116.105 Y119.228 E0.01694
G1 X107.969 Y111.092 E0.36309
G1 X107.432 Y111.092 E0.01694
G1 X115.569 Y119.228 E0.36309
G1 X115.032 Y119.228 E0.01694
G1 X105.131 Y109.327 E0.44186
G1 X105.294 Y108.953 E0.01287
G1 X106.780 Y110.440 E0.06634
G1 X106.780 Y109.903 E0.01694
G1 X105.456 Y108.579 E0.05907
G1 X105.619 Y108.205 E0.01287
G1 X106.780 Y109.366 E0.05180
G1 X106.780 Y108.829 E0.01694
