; generated by PrusaSlicer 2.1.1+win64 on 2020-06-08 at 16:20:27 UTC

; 

; external perimeters extrusion width = 0.45mm
; perimeters extrusion width = 0.45mm
; infill extrusion width = 0.45mm
; solid infill extrusion width = 0.45mm
; top infill extrusion width = 0.40mm
; support material extrusion width = 0.35mm
; first layer extrusion width = 0.42mm

M73 P0 R207
M201 X9000 Y9000 Z500 E10000 ; sets maximum accelerations, mm/sec^2
M203 X500 Y500 Z12 E120 ; sets maximum feedrates, mm/sec
M204 P2000 R1500 T2000 ; sets acceleration (P, T) and retract acceleration (R), mm/sec^2
M205 X10.00 Y10.00 Z0.20 E2.50 ; sets the jerk limits, mm/sec
M205 S0 T0 ; sets the minimum extruding and travel feed rate, mm/sec
M107
M862.3 P "MK2S" ; printer model check
M862.1 P0.4 ; nozzle diameter check
M115 U3.2.3 ; tell printer latest fw version
G90 ; use absolute coordinates
M83 ; extruder relative mode
M204 S2000 T1500 ; MK2 firmware only supports the old M204 format
M104 S215 ; set extruder temp
M140 S60 ; set bed temp
M190 S60 ; wait for bed temp
M109 S215 ; wait for extruder temp
G28 W ; home all without mesh bed level
G80 ; mesh bed leveling
G1 Y-3.0 F1000.0 ; go outside print area
G92 E0.0
G1 X60.0 E9.0  F1000.0 ; intro line
M73 P0 R207
G1 X100.0 E12.5 F1000.0 ; intro line
G92 E0.0
G21 ; set units to millimeters
G90 ; use absolute coordinates
M83 ; use relative distances for extrusion
M900 K30 ; Filament gcode
;BEFORE_LAYER_CHANGE
G92 E0.0
;0.2


G1 E-0.80000 F2100.00000
G1 Z0.600 F10800.000
;AFTER_LAYER_CHANGE
;0.2
G1 X107.000 Y122.312
G1 Z0.200
G1 E0.80000 F2100.00000
M204 S1000
G1 F1200
G1 X107.899 Y120.499 E0.06345
G1 X114.500 Y113.898 E0.29269
G1 X115.643 Y113.163 E0.04262
G1 X116.995 Y112.765 E0.04419
G1 X118.403 Y112.767 E0.04416
G1 X119.099 Y112.949 E0.02253
G1 X120.105 Y112.652 E0.03291
G1 X121.436 Y112.635 E0.04174
G1 X122.628 Y112.931 E0.03849
G1 X123.647 Y113.474 E0.03621
G1 X124.475 Y114.233 E0.03523
G1 X124.519 Y81.965 E1.01176
G1 X124.862 Y80.846 E0.03669
G1 X125.494 Y79.842 E0.03718
G1 X126.376 Y78.987 E0.03850
G1 X127.445 Y78.389 E0.03840
G1 X128.759 Y78.091 E0.04225
G1 X131.776 Y78.101 E0.09460
G1 X134.140 Y78.800 E0.07728
G1 X134.907 Y79.328 E0.02921
G1 X135.565 Y79.953 E0.02846
G1 X136.497 Y81.631 E0.06018
G1 X136.883 Y83.539 E0.06104
G1 X136.886 Y93.780 E0.32108
G1 X136.864 Y94.002 E0.00700
G1 X136.886 Y94.190 E0.00595
G1 X136.886 Y102.753 E0.26848
G1 X136.870 Y102.945 E0.00603
G1 X136.886 Y103.228 E0.00890
G1 X136.886 Y111.210 E0.25027
G1 X136.865 Y111.566 E0.01117
G1 X136.886 Y111.763 E0.00623
G1 X136.886 Y120.461 E0.27270
G1 X136.856 Y120.764 E0.00956
G1 X136.886 Y121.036 E0.00859
G1 X136.886 Y126.420 E0.16881
G1 X136.563 Y128.237 E0.05787
G1 X135.706 Y129.911 E0.05895
G1 X134.630 Y130.915 E0.04615
G1 X133.449 Y131.509 E0.04145
G1 X131.917 Y131.872 E0.04938
G1 X127.423 Y131.902 E0.14091
G1 X121.498 Y137.766 E0.26136
G1 X120.687 Y138.228 E0.02926
G1 X119.834 Y138.506 E0.02813
G1 X118.478 Y138.591 E0.04261
G1 X117.655 Y138.496 E0.02596
G1 X115.804 Y137.565 E0.06498
G1 X115.217 Y136.961 E0.02641
G1 X115.019 Y136.801 E0.00797
G1 X109.729 Y131.511 E0.23457
G1 X109.577 Y131.323 E0.00756
G1 X109.132 Y130.914 E0.01898
G1 X108.139 Y129.921 E0.04401
G1 X107.651 Y129.291 E0.02500
G1 X106.971 Y127.399 E0.06305
G1 X106.967 Y126.027 E0.04301
G1 X107.208 Y125.145 E0.02868
G1 X106.926 Y124.123 E0.03322
G1 X106.904 Y123.086 E0.03252
G1 X106.992 Y122.371 E0.02259
G1 X107.370 Y122.391 F10800.000
G1 F1200
G1 X108.187 Y120.744 E0.05765
G1 X114.752 Y114.179 E0.29108
G1 X115.823 Y113.495 E0.03987
G1 X117.021 Y113.142 E0.03916
G1 X118.377 Y113.144 E0.04250
G1 X119.104 Y113.341 E0.02363
G1 X120.137 Y113.028 E0.03385
G1 X121.417 Y113.012 E0.04012
G1 X122.471 Y113.275 E0.03405
G1 X123.447 Y113.795 E0.03468
G1 X124.851 Y115.104 E0.06021
G1 X124.888 Y82.048 E1.03645
G1 X125.215 Y80.981 E0.03500
G1 X125.800 Y80.065 E0.03408
G1 X126.619 Y79.277 E0.03564
G1 X127.603 Y78.732 E0.03526
G1 X128.779 Y78.468 E0.03777
G1 X131.748 Y78.478 E0.09311
G1 X133.950 Y79.128 E0.07199
G1 X134.680 Y79.630 E0.02779
G1 X135.284 Y80.205 E0.02613
G1 X136.152 Y81.786 E0.05656
G1 X136.509 Y83.594 E0.05777
G1 X136.509 Y93.770 E0.31905
G1 X136.485 Y94.006 E0.00746
G1 X136.509 Y94.203 E0.00620
G1 X136.509 Y102.744 E0.26782
G1 X136.491 Y102.939 E0.00612
G1 X136.509 Y103.234 E0.00927
G1 X136.509 Y111.204 E0.24990
G1 X136.486 Y111.576 E0.01169
G1 X136.509 Y111.775 E0.00627
G1 X136.509 Y120.451 E0.27202
G1 X136.476 Y120.766 E0.00996
G1 X136.509 Y121.048 E0.00887
G1 X136.509 Y126.403 E0.16792
G1 X136.197 Y128.142 E0.05539
G1 X135.387 Y129.708 E0.05528
G1 X134.436 Y130.591 E0.04068
G1 X133.340 Y131.147 E0.03854
G1 X131.851 Y131.501 E0.04799
G1 X127.266 Y131.526 E0.14373
G1 X121.288 Y137.452 E0.26392
G1 X120.551 Y137.875 E0.02666
G1 X119.741 Y138.139 E0.02673
G1 X118.473 Y138.214 E0.03981
G1 X117.733 Y138.125 E0.02338
G1 X116.052 Y137.279 E0.05900
G1 X115.470 Y136.681 E0.02618
G1 X115.278 Y136.526 E0.00773
G1 X110.003 Y131.252 E0.23389
G1 X109.854 Y131.065 E0.00748
G1 X109.395 Y130.644 E0.01952
G1 X108.414 Y129.663 E0.04350
G1 X107.967 Y129.084 E0.02295
G1 X107.347 Y127.365 E0.05729
G1 X107.344 Y126.053 E0.04114
G1 X107.600 Y125.145 E0.02959
G1 X107.303 Y124.091 E0.03435
G1 X107.281 Y123.092 E0.03131
G1 X107.362 Y122.450 E0.02029
G1 X107.739 Y122.470 F10800.000
G1 F1200
G1 X108.476 Y120.989 E0.05187
G1 X115.004 Y114.460 E0.28949
G1 X115.958 Y113.848 E0.03553
G1 X117.049 Y113.519 E0.03574
G1 X118.350 Y113.521 E0.04077
G1 X119.109 Y113.735 E0.02474
G1 X120.172 Y113.405 E0.03489
G1 X121.352 Y113.385 E0.03702
G1 X122.315 Y113.619 E0.03106
G1 X123.248 Y114.117 E0.03318
G1 X124.044 Y114.852 E0.03396
G1 X125.228 Y116.036 E0.05250
G1 X125.257 Y82.130 E1.06310
G1 X125.548 Y81.160 E0.03175
G1 X126.079 Y80.319 E0.03119
G1 X126.824 Y79.594 E0.03257
G1 X127.762 Y79.076 E0.03360
G1 X128.798 Y78.846 E0.03328
G1 X131.720 Y78.855 E0.09163
G1 X133.761 Y79.455 E0.06670
G1 X134.454 Y79.932 E0.02636
G1 X135.001 Y80.457 E0.02377
G1 X135.807 Y81.940 E0.05293
G1 X136.132 Y83.612 E0.05339
G1 X136.132 Y93.759 E0.31817
G1 X136.105 Y94.012 E0.00795
G1 X136.132 Y94.216 E0.00646
G1 X136.132 Y102.735 E0.26711
G1 X136.113 Y102.932 E0.00621
G1 X136.132 Y103.240 E0.00967
G1 X136.132 Y111.198 E0.24953
G1 X136.108 Y111.588 E0.01225
G1 X136.132 Y111.787 E0.00629
G1 X136.132 Y120.440 E0.27132
G1 X136.097 Y120.769 E0.01038
G1 X136.132 Y121.059 E0.00917
G1 X136.132 Y126.386 E0.16701
G1 X135.831 Y128.046 E0.05289
G1 X135.068 Y129.504 E0.05159
G1 X134.241 Y130.267 E0.03529
G1 X133.230 Y130.786 E0.03562
G1 X131.785 Y131.129 E0.04658
G1 X127.110 Y131.150 E0.14656
G1 X121.077 Y137.138 E0.26652
G1 X120.415 Y137.523 E0.02403
G1 X119.648 Y137.773 E0.02530
G1 X118.470 Y137.836 E0.03697
G1 X117.812 Y137.755 E0.02081
G1 X116.301 Y136.994 E0.05305
G1 X115.723 Y136.400 E0.02597
G1 X115.536 Y136.252 E0.00748
G1 X110.278 Y130.993 E0.23318
G1 X110.131 Y130.808 E0.00740
G1 X109.659 Y130.375 E0.02009
G1 X108.690 Y129.405 E0.04298
G1 X108.284 Y128.877 E0.02089
G1 X107.724 Y127.331 E0.05154
G1 X107.721 Y126.080 E0.03924
G1 X107.993 Y125.146 E0.03051
G1 X107.679 Y124.057 E0.03551
G1 X107.659 Y123.098 E0.03007
G1 X107.732 Y122.530 E0.01798
G1 X108.109 Y122.551 F10800.000
G1 F1200
G1 X108.764 Y121.234 E0.04611
G1 X115.257 Y114.741 E0.28791
G1 X116.095 Y114.200 E0.03126
G1 X117.078 Y113.896 E0.03226
G1 X118.321 Y113.898 E0.03899
G1 X119.114 Y114.130 E0.02588
G1 X120.208 Y113.781 E0.03602
G1 X121.290 Y113.757 E0.03392
G1 X122.159 Y113.963 E0.02801
G1 X123.049 Y114.437 E0.03161
G1 X123.784 Y115.125 E0.03155
G1 X125.604 Y116.946 E0.08075
G1 X125.626 Y82.212 E1.08907
G1 X125.902 Y81.294 E0.03004
G1 X126.384 Y80.542 E0.02803
G1 X127.067 Y79.884 E0.02972
G1 X127.918 Y79.420 E0.03041
G1 X128.817 Y79.223 E0.02886
G1 X131.693 Y79.232 E0.09015
G1 X133.572 Y79.783 E0.06141
G1 X134.227 Y80.234 E0.02492
G1 X134.718 Y80.708 E0.02141
G1 X135.442 Y82.041 E0.04758
G1 X135.755 Y83.630 E0.05077
G1 X135.755 Y93.748 E0.31725
G1 X135.725 Y94.018 E0.00850
G1 X135.755 Y94.230 E0.00672
G1 X135.755 Y102.725 E0.26635
G1 X135.735 Y102.925 E0.00629
G1 X135.755 Y103.246 E0.01009
G1 X135.755 Y111.192 E0.24915
G1 X135.729 Y111.601 E0.01286
G1 X135.755 Y111.800 E0.00629
G1 X135.755 Y120.429 E0.27057
G1 X135.717 Y120.772 E0.01082
G1 X135.755 Y121.072 E0.00946
G1 X135.755 Y126.369 E0.16608
G1 X135.465 Y127.950 E0.05041
G1 X134.788 Y129.249 E0.04592
G1 X134.004 Y129.972 E0.03345
G1 X133.120 Y130.424 E0.03113
G1 X131.761 Y130.752 E0.04384
G1 X126.954 Y130.773 E0.15071
G1 X120.865 Y136.825 E0.26917
G1 X120.275 Y137.172 E0.02147
G1 X119.601 Y137.398 E0.02229
G1 X118.468 Y137.459 E0.03560
G1 X117.892 Y137.385 E0.01821
G1 X116.549 Y136.709 E0.04714
G1 X115.976 Y136.118 E0.02581
G1 X115.795 Y135.977 E0.00721
G1 X110.553 Y130.735 E0.23243
G1 X110.409 Y130.552 E0.00729
G1 X109.923 Y130.105 E0.02070
G1 X108.966 Y129.148 E0.04246
G1 X108.601 Y128.671 E0.01882
G1 X108.101 Y127.298 E0.04582
G1 X108.098 Y126.107 E0.03732
G1 X108.404 Y125.091 E0.03327
G1 X108.327 Y124.946 E0.00517
G1 X108.056 Y124.024 E0.03013
G1 X108.036 Y123.105 E0.02881
G1 X108.101 Y122.610 E0.01565
G1 X108.478 Y122.632 F10800.000
G1 F1200
G1 X109.052 Y121.479 E0.04040
G1 X115.510 Y115.021 E0.28634
G1 X116.234 Y114.551 E0.02707
G1 X117.107 Y114.273 E0.02873
G1 X118.292 Y114.275 E0.03715
G1 X119.174 Y114.542 E0.02888
G1 X119.332 Y114.454 E0.00567
G1 X120.295 Y114.149 E0.03169
G1 X121.270 Y114.134 E0.03058
G1 X122.046 Y114.324 E0.02505
G1 X122.809 Y114.730 E0.02710
G1 X123.519 Y115.394 E0.03047
G1 X125.981 Y117.856 E0.10919
G1 X125.996 Y82.291 E1.11512
G1 X126.235 Y81.472 E0.02675
G1 X126.662 Y80.797 E0.02506
G1 X127.309 Y80.174 E0.02816
G1 X128.072 Y79.765 E0.02715
G1 X128.836 Y79.600 E0.02451
G1 X131.665 Y79.609 E0.08870
G1 X133.383 Y80.111 E0.05612
G1 X134.000 Y80.535 E0.02347
G1 X134.434 Y80.957 E0.01900
G1 X135.096 Y82.194 E0.04397
G1 X135.378 Y83.648 E0.04645
G1 X135.378 Y93.737 E0.31633
G1 X135.344 Y94.025 E0.00910
G1 X135.378 Y94.245 E0.00698
G1 X135.378 Y102.715 E0.26554
G1 X135.357 Y102.916 E0.00636
G1 X135.378 Y103.252 E0.01054
G1 X135.378 Y111.186 E0.24876
G1 X135.350 Y111.616 E0.01352
G1 X135.378 Y111.814 E0.00627
G1 X135.378 Y120.418 E0.26978
G1 X135.337 Y120.776 E0.01129
G1 X135.378 Y121.085 E0.00977
G1 X135.378 Y126.351 E0.16513
G1 X135.100 Y127.854 E0.04792
G1 X134.507 Y128.996 E0.04034
G1 X133.807 Y129.650 E0.03003
G1 X133.008 Y130.064 E0.02822
G1 X131.736 Y130.375 E0.04104
G1 X126.798 Y130.397 E0.15485
G1 X120.654 Y136.512 E0.27180
G1 X120.102 Y136.837 E0.02007
G1 X119.509 Y137.032 E0.01958
G1 X118.467 Y137.082 E0.03269
G1 X117.973 Y137.016 E0.01564
G1 X116.798 Y136.423 E0.04127
G1 X116.227 Y135.836 E0.02568
G1 X116.052 Y135.701 E0.00692
G1 X110.828 Y130.477 E0.23163
G1 X110.693 Y130.303 E0.00692
G1 X110.328 Y129.947 E0.01599
G1 X110.178 Y129.827 E0.00602
G1 X109.241 Y128.890 E0.04153
G1 X108.918 Y128.465 E0.01674
G1 X108.478 Y127.263 E0.04013
G1 X108.475 Y126.136 E0.03535
G1 X108.758 Y125.223 E0.02996
G1 X108.836 Y125.073 E0.00532
G1 X108.680 Y124.809 E0.00960
G1 X108.432 Y123.989 E0.02686
G1 X108.413 Y123.112 E0.02751
G1 X108.470 Y122.692 E0.01329
G1 X108.847 Y122.715 F10800.000
G1 F1200
G1 X109.341 Y121.724 E0.03472
G1 X115.762 Y115.303 E0.28473
G1 X116.415 Y114.883 E0.02436
G1 X117.190 Y114.642 E0.02542
G1 X118.260 Y114.652 E0.03356
G1 X118.919 Y114.856 E0.02163
G1 X119.166 Y114.993 E0.00886
G1 X119.474 Y114.805 E0.01133
G1 X120.330 Y114.526 E0.02822
G1 X121.250 Y114.512 E0.02887
G1 X121.932 Y114.683 E0.02203
G1 X122.570 Y115.022 E0.02266
G1 X123.255 Y115.662 E0.02939
G1 X126.358 Y118.767 E0.13763
G1 X126.366 Y82.368 E1.14126
G1 X126.569 Y81.648 E0.02346
G1 X126.943 Y81.050 E0.02211
G1 X127.511 Y80.493 E0.02494
G1 X128.226 Y80.110 E0.02544
G1 X128.854 Y79.977 E0.02013
G1 X131.637 Y79.986 E0.08726
G1 X133.194 Y80.438 E0.05083
G1 X133.772 Y80.836 E0.02199
G1 X134.149 Y81.205 E0.01654
G1 X134.750 Y82.344 E0.04036
G1 X135.001 Y83.665 E0.04218
G1 X135.001 Y93.725 E0.31542
G1 X134.963 Y94.034 E0.00976
G1 X135.001 Y94.262 E0.00724
G1 X135.001 Y102.704 E0.26468
G1 X134.978 Y102.907 E0.00642
G1 X135.001 Y103.258 E0.01103
G1 X135.001 Y111.179 E0.24837
G1 X134.971 Y111.633 E0.01425
G1 X135.001 Y111.829 E0.00622
G1 X135.001 Y120.407 E0.26894
G1 X134.957 Y120.780 E0.01179
G1 X135.001 Y121.099 E0.01008
G1 X135.001 Y126.334 E0.16415
G1 X134.734 Y127.758 E0.04542
G1 X134.225 Y128.743 E0.03476
G1 X133.569 Y129.357 E0.02818
G1 X132.895 Y129.703 E0.02374
G1 X131.712 Y129.998 E0.03825
G1 X126.641 Y130.021 E0.15899
G1 X120.440 Y136.201 E0.27450
G1 X119.964 Y136.485 E0.01739
G1 X119.417 Y136.665 E0.01807
G1 X118.470 Y136.704 E0.02971
G1 X118.056 Y136.647 E0.01310
G1 X117.046 Y136.138 E0.03545
G1 X116.477 Y135.552 E0.02561
G1 X116.309 Y135.425 E0.00661
G1 X111.105 Y130.220 E0.23079
G1 X110.977 Y130.052 E0.00661
G1 X110.576 Y129.663 E0.01752
G1 X110.437 Y129.552 E0.00560
G1 X109.517 Y128.633 E0.04076
G1 X109.236 Y128.260 E0.01465
G1 X108.855 Y127.229 E0.03446
G1 X108.852 Y126.165 E0.03335
G1 X109.109 Y125.364 E0.02637
G1 X109.284 Y125.068 E0.01077
G1 X109.031 Y124.670 E0.01478
G1 X108.809 Y123.954 E0.02352
G1 X108.790 Y123.119 E0.02617
G1 X108.839 Y122.775 E0.01091
G1 X109.216 Y122.800 F10800.000
G1 F1200
G1 X109.629 Y121.969 E0.02910
G1 X116.015 Y115.583 E0.28316
G1 X116.552 Y115.235 E0.02008
G1 X117.273 Y115.011 E0.02367
G1 X118.175 Y115.020 E0.02827
G1 X118.784 Y115.208 E0.01999
G1 X119.173 Y115.440 E0.01419
G1 X119.619 Y115.153 E0.01663
G1 X120.366 Y114.902 E0.02470
G1 X121.231 Y114.889 E0.02713
G1 X121.778 Y115.028 E0.01769
G1 X122.332 Y115.316 E0.01958
G1 X122.991 Y115.931 E0.02825
G1 X126.735 Y119.678 E0.16609
G1 X126.735 Y82.446 E1.16738
G1 X126.925 Y81.777 E0.02179
G1 X127.222 Y81.304 E0.01752
G1 X127.755 Y80.783 E0.02336
G1 X128.377 Y80.457 E0.02202
G1 X128.872 Y80.354 E0.01586
G1 X131.610 Y80.363 E0.08584
G1 X133.006 Y80.766 E0.04555
G1 X133.544 Y81.137 E0.02049
G1 X133.863 Y81.453 E0.01406
G1 X134.385 Y82.443 E0.03510
G1 X134.624 Y83.684 E0.03962
G1 X134.624 Y84.780 E0.03437
G1 X134.606 Y84.901 E0.00385
G1 X134.624 Y85.020 E0.00375
G1 X134.623 Y93.713 E0.27257
G1 X134.582 Y94.045 E0.01049
G1 X134.624 Y94.280 E0.00749
G1 X134.624 Y102.692 E0.26375
G1 X134.600 Y102.897 E0.00647
G1 X134.624 Y103.264 E0.01155
G1 X134.624 Y111.173 E0.24797
G1 X134.592 Y111.653 E0.01507
G1 X134.624 Y111.846 E0.00614
G1 X134.624 Y120.395 E0.26805
G1 X134.576 Y120.785 E0.01231
G1 X134.624 Y121.113 E0.01040
G1 X134.624 Y126.316 E0.16314
G1 X134.369 Y127.661 E0.04293
G1 X133.944 Y128.490 E0.02920
G1 X133.331 Y129.063 E0.02631
G1 X132.782 Y129.343 E0.01931
G1 X131.685 Y129.621 E0.03548
G1 X128.755 Y129.644 E0.09188
G1 X128.576 Y129.619 E0.00566
G1 X128.416 Y129.644 E0.00510
G1 X126.485 Y129.643 E0.06052
G1 X120.224 Y135.891 E0.27734
G1 X119.825 Y136.134 E0.01465
G1 X119.325 Y136.298 E0.01650
G1 X118.475 Y136.327 E0.02666
G1 X118.140 Y136.278 E0.01061
G1 X117.295 Y135.853 E0.02969
G1 X116.726 Y135.267 E0.02559
G1 X116.566 Y135.148 E0.00626
G1 X111.382 Y129.964 E0.22987
G1 X111.262 Y129.804 E0.00627
G1 X110.824 Y129.378 E0.01916
G1 X110.694 Y129.277 E0.00515
G1 X109.794 Y128.376 E0.03994
G1 X109.553 Y128.056 E0.01256
G1 X109.232 Y127.191 E0.02892
G1 X109.221 Y126.251 E0.02949
G1 X109.460 Y125.504 E0.02459
G1 X109.734 Y125.063 E0.01627
G1 X109.381 Y124.528 E0.02009
G1 X109.185 Y123.917 E0.02011
G1 X109.168 Y123.128 E0.02477
G1 X109.207 Y122.859 E0.00850
G1 X109.584 Y122.887 F10800.000
G1 F1200
G1 X109.917 Y122.214 E0.02354
G1 X116.268 Y115.863 E0.28159
G1 X116.689 Y115.587 E0.01580
G1 X117.357 Y115.380 E0.02190
G1 X118.089 Y115.389 E0.02297
G1 X118.648 Y115.561 E0.01834
G1 X119.233 Y115.923 E0.02157
G1 X119.464 Y115.702 E0.01003
G1 X119.768 Y115.501 E0.01142
G1 X120.403 Y115.279 E0.02109
G1 X121.211 Y115.267 E0.02534
G1 X121.627 Y115.374 E0.01345
G1 X122.095 Y115.611 E0.01646
G1 X122.712 Y116.187 E0.02647
G1 X122.783 Y116.281 E0.00369
G1 X122.871 Y116.347 E0.00346
G1 X123.783 Y117.259 E0.04044
G1 X123.849 Y117.347 E0.00346
G1 X123.938 Y117.413 E0.00346
G1 X124.850 Y118.325 E0.04044
