; generated by PrusaSlicer 2.1.1+win64 on 2020-06-08 at 16:15:33 UTC

; 

; external perimeters extrusion width = 0.45mm
; perimeters extrusion width = 0.45mm
; infill extrusion width = 0.45mm
; solid infill extrusion width = 0.45mm
; top infill extrusion width = 0.40mm
; support material extrusion width = 0.35mm
; first layer extrusion width = 0.42mm

M73 P0 R38
M201 X9000 Y9000 Z500 E10000 ; sets maximum accelerations, mm/sec^2
M203 X500 Y500 Z12 E120 ; sets maximum feedrates, mm/sec
M204 P2000 R1500 T2000 ; sets acceleration (P, T) and retract acceleration (R), mm/sec^2
M205 X10.00 Y10.00 Z0.20 E2.50 ; sets the jerk limits, mm/sec
M205 S0 T0 ; sets the minimum extruding and travel feed rate, mm/sec
M107
M862.3 P "MK2S" ; printer model check
M862.1 P0.4 ; nozzle diameter check
M115 U3.2.3 ; tell printer latest fw version
G90 ; use absolute coordinates
M83 ; extruder relative mode
M204 S2000 T1500 ; MK2 firmware only supports the old M204 format
M104 S215 ; set extruder temp
M140 S60 ; set bed temp
M190 S60 ; wait for bed temp
M109 S215 ; wait for extruder temp
G28 W ; home all without mesh bed level
G80 ; mesh bed leveling
G1 Y-3.0 F1000.0 ; go outside print area
G92 E0.0
G1 X60.0 E9.0  F1000.0 ; intro line
M73 P0 R38
G1 X100.0 E12.5 F1000.0 ; intro line
G92 E0.0
G21 ; set units to millimeters
G90 ; use absolute coordinates
M83 ; use relative distances for extrusion
M900 K30 ; Filament gcode
;BEFORE_LAYER_CHANGE
G92 E0.0
;0.2


G1 E-0.80000 F2100.00000
G1 Z0.600 F10800.000
;AFTER_LAYER_CHANGE
;0.2
G1 X56.010 Y97.800
G1 Z0.200
G1 E0.80000 F2100.00000
M204 S1000
G1 F1200
G1 X48.434 Y105.376 E0.33592
G1 X48.967 Y105.909 E0.02365
G1 X56.423 Y98.454 E0.33060
G1 X56.956 Y98.987 E0.02365
G1 X49.501 Y106.443 E0.33060
G1 X49.569 Y106.511 E0.00302
G1 X47.937 Y108.142 E0.07234
G1 X48.402 Y108.607 E0.02063
G1 X59.121 Y97.889 E0.47527
G1 X59.654 Y98.422 E0.02365
G1 X48.936 Y109.141 E0.47527
G1 X49.469 Y109.674 E0.02365
G1 X60.187 Y98.955 E0.47527
G1 X60.287 Y99.055 E0.00442
G1 X61.918 Y97.424 E0.07234
G1 X62.352 Y97.857 E0.01923
G1 X50.002 Y110.207 E0.54761
G1 X50.536 Y110.740 E0.02365
G1 X62.885 Y98.391 E0.54761
G1 X63.419 Y98.924 E0.02365
G1 X51.069 Y111.274 E0.54761
G1 X51.602 Y111.807 E0.02365
G1 X65.583 Y97.826 E0.61995
G1 X66.117 Y98.359 E0.02365
G1 X52.135 Y112.340 E0.61995
G1 X52.669 Y112.873 E0.02365
G1 X66.650 Y98.892 E0.61995
G1 X66.812 Y99.055 E0.00721
G1 X68.444 Y97.424 E0.07234
G1 X68.814 Y97.794 E0.01643
G1 X53.202 Y113.407 E0.69228
G1 X53.735 Y113.940 E0.02365
G1 X69.348 Y98.327 E0.69228
G1 X69.881 Y98.861 E0.02365
G1 X55.900 Y112.842 E0.61995
G1 X56.433 Y113.375 E0.02365
G1 X72.046 Y97.763 E0.69228
G1 X72.579 Y98.296 E0.02365
G1 X56.966 Y113.908 E0.69228
G1 X57.024 Y113.966 E0.00257
G1 X58.656 Y112.335 E0.07234
G1 X59.131 Y112.810 E0.02107
G1 X73.112 Y98.829 E0.61995
G1 X73.338 Y99.055 E0.01001
G1 X74.969 Y97.424 E0.07234
G1 X75.277 Y97.731 E0.01363
G1 X59.664 Y113.344 E0.69228
G1 X60.198 Y113.877 E0.02365
G1 X75.810 Y98.264 E0.69228
G1 X76.343 Y98.798 E0.02365
G1 X62.362 Y112.779 E0.61995
G1 X62.895 Y113.312 E0.02365
G1 X78.508 Y97.700 E0.69228
G1 X79.041 Y98.233 E0.02365
G1 X63.429 Y113.845 E0.69228
G1 X63.550 Y113.966 E0.00537
G1 X65.181 Y112.335 E0.07234
G1 X65.593 Y112.747 E0.01828
G1 X79.574 Y98.766 E0.61995
G1 X79.863 Y99.055 E0.01281
G1 X81.495 Y97.424 E0.07234
G1 X81.739 Y97.668 E0.01084
G1 X66.127 Y113.281 E0.69228
G1 X66.660 Y113.814 E0.02365
G1 X82.272 Y98.201 E0.69228
G1 X82.806 Y98.735 E0.02365
G1 X68.824 Y112.716 E0.61995
G1 X69.358 Y113.249 E0.02365
G1 X83.339 Y99.268 E0.61995
G1 X83.872 Y99.801 E0.02365
G1 X69.771 Y113.902 E0.62527
G1 E-0.80000 F2100.00000
G1 Z0.800 F10800.000
G1 X79.465 Y113.808
G1 Z0.200
G1 E0.80000 F2100.00000
G1 F1200
G1 X85.994 Y107.278 E0.28954
G1 X84.928 Y107.278 E0.03344
G1 X79.051 Y113.154 E0.26057
G1 X78.518 Y112.621 E0.02365
G1 X83.861 Y107.278 E0.23693
G1 X82.795 Y107.278 E0.03344
G1 X76.353 Y113.719 E0.28562
G1 X75.820 Y113.186 E0.02365
G1 X82.236 Y106.770 E0.28451
G1 X82.236 Y105.703 E0.03344
G1 X75.287 Y112.653 E0.30815
G1 X74.969 Y112.335 E0.01408
G1 X73.338 Y113.966 E0.07234
G1 X73.122 Y113.751 E0.00957
G1 X82.236 Y104.637 E0.40413
G1 X82.236 Y103.570 E0.03344
G1 X72.589 Y113.217 E0.42778
G1 X72.056 Y112.684 E0.02365
G1 X84.405 Y100.334 E0.54761
G1 X84.757 Y100.686 E0.01561
G1 X88.020 Y97.424 E0.14467
G1 X88.201 Y97.605 E0.00804
G1 X83.066 Y102.741 E0.22773
G1 X83.208 Y102.741 E0.00448
G1 X83.296 Y102.828 E0.00389
G1 X83.827 Y103.046 E0.01799
G1 X88.735 Y98.138 E0.21761
G1 X89.268 Y98.672 E0.02365
G1 X85.128 Y102.811 E0.18357
G1 X85.369 Y102.746 E0.00784
G1 X86.260 Y102.746 E0.02794
G1 X91.433 Y97.573 E0.22934
G1 X91.966 Y98.107 E0.02365
G1 X87.273 Y102.800 E0.20811
G1 X87.526 Y103.054 E0.01125
G1 X87.526 Y103.613 E0.01753
G1 X92.499 Y98.640 E0.22051
G1 X92.914 Y99.055 E0.01840
G1 X94.545 Y97.424 E0.07234
G1 X94.664 Y97.542 E0.00524
G1 X87.526 Y104.679 E0.31649
G1 X87.526 Y105.746 E0.03344
G1 X95.197 Y98.075 E0.34013
G1 X95.730 Y98.608 E0.02365
G1 X85.012 Y109.327 E0.47527
G1 X85.545 Y109.860 E0.02365
G1 X96.264 Y99.142 E0.47527
G1 X96.797 Y99.675 E0.02365
G1 X86.078 Y110.393 E0.47527
G1 X86.612 Y110.927 E0.02365
G1 X97.330 Y100.208 E0.47527
G1 X97.808 Y100.686 E0.02120
G1 X101.071 Y97.424 E0.14467
G1 X101.126 Y97.479 E0.00245
G1 X95.862 Y102.742 E0.23340
G1 X96.929 Y102.742 E0.03345
G1 X101.659 Y98.012 E0.20974
G1 X102.193 Y98.545 E0.02365
G1 X97.995 Y102.743 E0.18612
G1 X98.382 Y102.743 E0.01213
G1 X98.498 Y102.770 E0.00372
G1 X98.859 Y102.945 E0.01259
G1 X104.357 Y97.447 E0.24379
G1 X104.890 Y97.981 E0.02365
G1 X99.626 Y103.245 E0.23343
G1 X99.823 Y103.295 E0.00636
G1 X100.619 Y102.703 E0.03110
G1 X101.028 Y102.910 E0.01436
G1 X105.424 Y98.514 E0.19492
G1 X105.957 Y99.047 E0.02365
G1 X101.197 Y103.807 E0.21106
G1 X101.197 Y104.873 E0.03344
G1 X108.122 Y97.949 E0.30704
G1 X108.655 Y98.482 E0.02365
G1 X101.028 Y106.110 E0.33821
G1 X98.883 Y110.387 F10800.000
G1 F1200
G1 X109.721 Y99.549 E0.48059
G1 X109.188 Y99.016 E0.02365
G1 X98.470 Y109.734 E0.47527
G1 X97.936 Y109.201 E0.02365
G1 X99.859 Y107.278 E0.08526
G1 X98.793 Y107.278 E0.03344
G1 X92.509 Y113.562 E0.27862
G1 X91.976 Y113.028 E0.02365
G1 X97.726 Y107.278 E0.25498
G1 X96.660 Y107.278 E0.03344
G1 X91.443 Y112.495 E0.23133
G1 X91.283 Y112.335 E0.00709
G1 X89.651 Y113.966 E0.07234
G1 X89.278 Y113.593 E0.01656
G1 X95.593 Y107.278 E0.28002
G1 X94.527 Y107.278 E0.03344
G1 X88.745 Y113.060 E0.25638
G1 X88.211 Y112.527 E0.02365
G1 X93.721 Y107.017 E0.24432
G1 X93.675 Y106.970 E0.00207
G1 X93.675 Y105.997 E0.03051
G1 X87.678 Y111.993 E0.26589
G1 X87.145 Y111.460 E0.02365
G1 X93.844 Y104.761 E0.29706
G1 E-0.80000 F2100.00000
G1 Z0.800 F10800.000
G1 X111.274 Y109.728
G1 Z0.200
G1 E0.80000 F2100.00000
G1 F1200
G1 X113.724 Y107.278 E0.10863
G1 X112.658 Y107.278 E0.03344
G1 X105.965 Y113.966 E0.29668
G1 X105.434 Y113.435 E0.02355
G1 X111.591 Y107.278 E0.27303
G1 X110.525 Y107.278 E0.03344
G1 X104.901 Y112.902 E0.24939
G1 X104.367 Y112.369 E0.02365
G1 X109.458 Y107.278 E0.22574
G1 X108.392 Y107.278 E0.03344
G1 X102.203 Y113.467 E0.27443
G1 X101.669 Y112.934 E0.02365
G1 X107.562 Y107.041 E0.26128
G1 X107.491 Y106.970 E0.00316
G1 X107.491 Y106.046 E0.02897
G1 X101.136 Y112.400 E0.28177
G1 X100.603 Y111.867 E0.02365
G1 X107.491 Y104.979 E0.30541
M73 P2 R37
G1 X107.491 Y103.913 E0.03344
G1 X100.070 Y111.334 E0.32906
G1 X99.536 Y110.801 E0.02365
G1 X110.255 Y100.082 E0.47527
G1 X110.788 Y100.615 E0.02365
G1 X108.662 Y102.741 E0.09428
G1 X108.914 Y102.742 E0.00789
G1 X109.102 Y102.818 E0.00638
G1 X109.382 Y103.088 E0.01220
G1 X114.584 Y97.886 E0.23066
G1 X115.117 Y98.419 E0.02365
G1 X110.188 Y103.348 E0.21856
G1 X110.996 Y102.790 E0.03078
G1 X111.151 Y102.741 E0.00510
G1 X111.862 Y102.741 E0.02230
G1 X115.651 Y98.952 E0.16798
G1 X115.753 Y99.055 E0.00455
G1 X117.384 Y97.424 E0.07234
G1 X117.815 Y97.854 E0.01910
G1 X112.929 Y102.741 E0.21668
G1 X113.995 Y102.741 E0.03344
G1 X118.348 Y98.388 E0.19303
G1 X118.882 Y98.921 E0.02365
G1 X114.816 Y102.987 E0.18029
G1 X114.878 Y103.049 E0.00276
G1 X114.878 Y103.991 E0.02954
G1 X121.046 Y97.823 E0.27352
G1 X121.580 Y98.356 E0.02365
G1 X114.878 Y105.058 E0.29716
G1 X114.878 Y106.124 E0.03344
G1 X122.113 Y98.889 E0.32081
G1 X122.646 Y99.423 E0.02365
G1 X111.928 Y110.141 E0.47527
G1 X112.461 Y110.674 E0.02365
G1 X123.179 Y99.956 E0.47527
G1 X123.713 Y100.489 E0.02365
G1 X112.994 Y111.208 E0.47527
G1 X113.527 Y111.741 E0.02365
G1 X120.931 Y104.337 E0.32829
G1 X120.931 Y105.404 E0.03344
G1 X114.061 Y112.274 E0.30464
G1 X114.594 Y112.807 E0.02365
G1 X120.931 Y106.470 E0.28100
G1 X120.931 Y106.970 E0.01566
G1 X121.215 Y107.253 E0.01258
G1 X115.127 Y113.341 E0.26993
G1 X115.661 Y113.874 E0.02365
G1 X122.257 Y107.278 E0.29248
G1 X123.323 Y107.278 E0.03344
G1 X117.825 Y112.776 E0.24379
G1 X118.358 Y113.309 E0.02365
G1 X124.390 Y107.278 E0.26744
G1 X125.456 Y107.278 E0.03344
G1 X118.892 Y113.842 E0.29109
G1 X119.016 Y113.966 E0.00550
G1 X123.910 Y109.072 E0.21701
G1 X124.319 Y109.482 E0.01815
G1 X126.523 Y107.278 E0.09772
G1 X127.589 Y107.278 E0.03344
G1 X124.852 Y110.015 E0.12137
G1 X125.386 Y110.548 E0.02365
G1 X136.104 Y99.830 E0.47527
G1 X136.637 Y100.363 E0.02365
G1 X125.919 Y111.082 E0.47527
G1 X126.452 Y111.615 E0.02365
G1 X134.270 Y103.797 E0.34666
G1 X134.270 Y104.863 E0.03344
G1 X126.985 Y112.148 E0.32301
G1 X127.519 Y112.681 E0.02365
G1 X134.270 Y105.930 E0.29936
G1 X134.270 Y106.970 E0.03260
G1 X134.283 Y106.983 E0.00060
G1 X128.052 Y113.215 E0.27631
G1 X128.585 Y113.748 E0.02365
G1 X135.055 Y107.278 E0.28689
G1 X136.122 Y107.278 E0.03344
G1 X130.750 Y112.650 E0.23820
G1 X131.283 Y113.183 E0.02365
G1 X137.188 Y107.278 E0.26185
G1 X138.255 Y107.278 E0.03344
G1 X131.816 Y113.716 E0.28549
G1 X132.067 Y113.966 E0.01109
G1 X136.961 Y109.072 E0.21701
G1 X137.244 Y109.356 E0.01255
G1 X139.321 Y107.278 E0.09213
G1 X140.388 Y107.278 E0.03344
G1 X137.777 Y109.889 E0.11578
G1 X138.310 Y110.422 E0.02365
G1 X152.291 Y96.441 E0.61995
G1 X152.825 Y96.974 E0.02365
G1 X138.724 Y111.075 E0.62527
G1 E-0.80000 F2100.00000
G1 Z0.800 F10800.000
G1 X141.688 Y105.978
G1 Z0.200
G1 E0.80000 F2100.00000
G1 F1200
G1 X151.758 Y95.908 E0.44653
G1 X151.643 Y95.792 E0.00512
G1 X148.380 Y99.055 E0.14467
G1 X147.962 Y98.637 E0.01853
G1 X141.858 Y104.742 E0.27069
G1 X141.858 Y103.675 E0.03344
G1 X147.429 Y98.104 E0.24704
G1 X146.896 Y97.571 E0.02365
G1 X141.001 Y103.465 E0.26136
G1 X140.588 Y103.093 E0.01743
G1 X140.392 Y103.008 E0.00671
G1 X144.731 Y98.669 E0.19241
G1 X144.198 Y98.135 E0.02365
G1 X139.592 Y102.741 E0.20422
G1 X138.526 Y102.741 E0.03344
G1 X143.664 Y97.602 E0.22786
G1 X143.486 Y97.424 E0.00791
G1 X141.855 Y99.055 E0.07234
G1 X141.500 Y98.700 E0.01573
G1 X137.459 Y102.741 E0.17917
G1 X136.381 Y102.752 E0.03381
G1 X140.967 Y98.167 E0.20333
G1 X140.433 Y97.634 E0.02365
G1 X134.973 Y103.094 E0.24214
G1 E-0.80000 F2100.00000
G1 Z0.800 F10800.000
G1 X128.482 Y106.385
G1 Z0.200
G1 E0.80000 F2100.00000
G1 F1200
G1 X135.571 Y99.297 E0.31432
G1 X135.038 Y98.763 E0.02365
G1 X128.652 Y105.149 E0.28315
G1 X128.652 Y104.082 E0.03344
G1 X134.504 Y98.230 E0.25950
G1 X133.971 Y97.697 E0.02365
G1 X128.633 Y103.035 E0.23669
G1 X128.345 Y102.745 E0.01281
G1 X127.857 Y102.744 E0.01529
G1 X131.806 Y98.795 E0.17512
G1 X131.273 Y98.262 E0.02365
G1 X126.793 Y102.742 E0.19866
G1 X126.499 Y102.741 E0.00922
G1 X126.372 Y102.773 E0.00409
G1 X125.604 Y103.188 E0.02739
G1 X125.264 Y103.205 E0.01068
G1 X130.740 Y97.728 E0.24283
G1 X130.435 Y97.424 E0.01351
G1 X128.804 Y99.055 E0.07234
G1 X128.575 Y98.826 E0.01014
G1 X124.523 Y102.879 E0.17969
G1 X124.347 Y102.777 E0.00638
G1 X124.212 Y102.740 E0.00437
G1 X123.595 Y102.740 E0.01936
G1 X128.042 Y98.293 E0.19719
G1 X127.509 Y97.760 E0.02365
G1 X122.359 Y102.910 E0.22836
G1 E-0.80000 F2100.00000
G1 Z0.800 F10800.000
G1 X153.248 Y112.549
G1 Z0.200
G1 E0.80000 F2100.00000
G1 F1200
G1 X161.353 Y104.444 E0.35940
G1 X161.353 Y105.510 E0.03344
G1 X153.901 Y112.962 E0.33043
G1 X154.435 Y113.496 E0.02365
G1 X161.353 Y106.577 E0.30679
G1 X161.353 Y106.970 E0.01232
G1 X161.661 Y107.278 E0.01366
G1 X161.719 Y107.278 E0.00180
G1 X156.599 Y112.397 E0.22702
G1 X157.132 Y112.931 E0.02365
G1 X162.785 Y107.278 E0.25066
G1 X163.852 Y107.278 E0.03344
G1 X157.666 Y113.464 E0.27431
G1 X158.168 Y113.966 E0.02228
G1 X159.800 Y112.335 E0.07234
G1 X159.830 Y112.366 E0.00137
G1 X164.919 Y107.278 E0.22562
G1 X165.985 Y107.278 E0.03344
G1 X160.364 Y112.899 E0.24926
G1 X160.897 Y113.432 E0.02365
G1 X167.052 Y107.278 E0.27291
G1 X168.118 Y107.278 E0.03344
G1 X161.310 Y114.086 E0.30188
G1 E-0.80000 F2100.00000
G1 Z0.800 F10800.000
G1 X166.737 Y109.725
G1 Z0.200
G1 E0.80000 F2100.00000
G1 F1200
G1 X177.576 Y98.887 E0.48059
G1 X177.043 Y98.353 E0.02365
G1 X168.798 Y106.598 E0.36560
G1 X168.798 Y105.532 E0.03344
G1 X176.509 Y97.820 E0.34195
G1 X176.113 Y97.424 E0.01757
G1 X174.482 Y99.055 E0.07234
G1 X174.345 Y98.918 E0.00607
G1 X168.798 Y104.465 E0.24597
G1 X168.798 Y103.399 E0.03344
G1 X173.811 Y98.385 E0.22232
G1 X173.278 Y97.852 E0.02365
G1 X168.384 Y102.746 E0.21701
G1 X167.497 Y102.746 E0.02782
G1 X167.379 Y102.863 E0.00522
G1 X166.932 Y103.132 E0.01636
G1 X171.114 Y98.950 E0.18544
G1 X170.580 Y98.416 E0.02365
G1 X166.048 Y102.949 E0.20097
G1 X165.410 Y102.752 E0.02094
G1 X165.189 Y102.741 E0.00692
G1 X170.047 Y97.883 E0.21540
G1 X169.588 Y97.424 E0.02037
G1 X166.325 Y100.686 E0.14467
G1 X166.251 Y100.613 E0.00327
G1 X164.123 Y102.741 E0.09438
G1 X163.056 Y102.741 E0.03345
G1 X165.718 Y100.079 E0.11804
G1 X165.185 Y99.546 E0.02365
G1 X152.835 Y111.896 E0.54761
G1 X152.301 Y111.362 E0.02365
G1 X164.651 Y99.013 E0.54761
G1 X164.118 Y98.479 E0.02365
G1 X151.768 Y110.829 E0.54761
G1 X151.643 Y110.704 E0.00556
G1 X148.380 Y113.966 E0.14467
G1 X147.972 Y113.559 E0.01808
G1 X154.253 Y107.278 E0.27850
G1 X153.187 Y107.278 E0.03344
G1 X147.439 Y113.025 E0.25486
G1 X146.906 Y112.492 E0.02365
G1 X152.120 Y107.278 E0.23121
G1 X151.053 Y107.278 E0.03344
G1 X144.741 Y113.590 E0.27990
G1 X144.208 Y113.057 E0.02365
G1 X149.987 Y107.278 E0.25625
G1 X148.920 Y107.278 E0.03344
G1 X143.675 Y112.524 E0.23261
G1 X143.486 Y112.335 E0.00836
G1 X141.855 Y113.966 E0.07234
G1 X141.510 Y113.622 E0.01529
G1 X147.893 Y107.239 E0.28304
G1 X147.624 Y106.970 E0.01193
G1 X147.624 Y106.441 E0.01657
G1 X140.977 Y113.088 E0.29475
G1 X140.443 Y112.555 E0.02365
G1 X147.624 Y105.375 E0.31840
G1 X147.624 Y104.308 E0.03344
G1 X139.910 Y112.022 E0.34205
G1 X139.377 Y111.489 E0.02365
G1 X153.358 Y97.507 E0.61995
G1 X153.891 Y98.041 E0.02365
G1 X149.190 Y102.742 E0.20848
G1 X150.028 Y102.741 E0.02628
G1 X150.201 Y102.797 E0.00571
G1 X154.424 Y98.574 E0.18728
G1 X154.905 Y99.055 E0.02133
G1 X156.537 Y97.424 E0.07234
G1 X156.589 Y97.476 E0.00232
G1 X150.963 Y103.102 E0.24948
G1 X152.105 Y102.801 E0.03704
G1 X152.166 Y102.741 E0.00268
G1 X152.391 Y102.741 E0.00706
G1 X157.122 Y98.009 E0.20981
G1 X157.656 Y98.542 E0.02365
G1 X153.457 Y102.741 E0.18617
G1 X154.524 Y102.741 E0.03344
G1 X159.820 Y97.444 E0.23486
G1 X160.354 Y97.978 E0.02365
G1 X155.321 Y103.010 E0.22314
G1 X155.360 Y103.049 E0.00174
G1 X155.360 Y104.037 E0.03099
G1 X160.887 Y98.511 E0.24505
G1 X161.420 Y99.044 E0.02365
G1 X155.360 Y105.104 E0.26870
G1 X155.360 Y106.170 E0.03344
G1 X163.705 Y97.826 E0.37000
G1 E-0.80000 F2100.00000
G1 Z0.800 F10800.000
G1 X181.429 Y102.499
G1 Z0.200
G1 E0.80000 F2100.00000
G1 F1200
G1 X181.186 Y102.742 E0.01078
G1 X180.120 Y102.742 E0.03342
G1 X180.776 Y102.086 E0.02907
G1 X180.242 Y101.553 E0.02365
G1 X179.054 Y102.741 E0.05268
G1 X178.144 Y102.741 E0.02854
G1 X178.031 Y102.766 E0.00363
G1 X177.902 Y102.827 E0.00446
G1 X179.709 Y101.020 E0.08012
G1 X179.176 Y100.486 E0.02365
G1 X176.751 Y102.911 E0.10751
G1 X176.043 Y102.783 E0.02255
G1 X176.001 Y102.741 E0.00186
G1 X175.855 Y102.741 E0.00460
G1 X178.642 Y99.953 E0.12362
G1 X178.109 Y99.420 E0.02365
G1 X167.391 Y110.138 E0.47527
G1 X167.924 Y110.672 E0.02365
G1 X175.176 Y103.420 E0.32155
G1 X175.176 Y104.486 E0.03344
G1 X168.457 Y111.205 E0.29791
G1 X168.991 Y111.738 E0.02365
