; generated by Slic3r Prusa Edition 1.42.0-alpha3+ on 2019-05-08 at 09:28:32

; 

; external perimeters extrusion width = 0.60mm
; perimeters extrusion width = 0.43mm
; infill extrusion width = 0.45mm
; solid infill extrusion width = 0.70mm
; top infill extrusion width = 0.43mm
; support material extrusion width = 0.35mm
; first layer extrusion width = 0.42mm

M201 X9000 Y9000 Z500 E10000 ; sets maximum accelerations, mm/sec^2
M203 X500 Y500 Z12 E120 ; sets maximum feedrates, mm/sec
M204 P2000 R1500 T2000 ; sets acceleration (P, T) and retract acceleration (R), mm/sec^2
M205 X10.00 Y10.00 Z0.20 E2.50 ; sets the jerk limits, mm/sec
M205 S0 T0 ; sets the minimum extruding and travel feed rate, mm/sec
M107
M115 U3.1.0 ; tell printer latest fw version
M83  ; extruder relative mode
M204 S2000 T1500 ; MK2 firmware only supports the old M204 format
M104 S215 ; set extruder temp
M140 S60 ; set bed temp
M190 S60 ; wait for bed temp
M109 S215 ; wait for extruder temp
G28 W ; home all without mesh bed level
G80 ; mesh bed leveling
G1 Y-3.0 F1000.0 ; go outside print area
G92 E0.0
G1 X60.0 E9.0  F1000.0 ; intro line
G1 X100.0 E12.5  F1000.0 ; intro line
G92 E0.0
M900 K30; Filament gcode
G21 ; set units to millimeters
G90 ; use absolute coordinates
M83 ; use relative distances for extrusion
;BEFORE_LAYER_CHANGE
G92 E0.0
;0.2


G1 E-0.80000 F2100.00000
G1 Z0.600 F10800.000
;AFTER_LAYER_CHANGE
;0.2
G1 X112.152 Y72.743
G1 Z0.200
G1 E0.80000 F2100.00000
M204 S1000
G1 F1200
G1 X112.951 Y71.717 E0.04078
G1 X113.980 Y70.930 E0.04061
G1 X115.179 Y70.426 E0.04078
G1 X116.361 Y70.245 E0.03749
G1 X125.589 Y70.073 E0.28939
G1 X126.569 Y70.169 E0.03089
G1 X127.513 Y70.452 E0.03089
G1 X128.379 Y70.909 E0.03071
G1 X129.146 Y71.527 E0.03089
G1 X137.191 Y79.653 E0.35852
G1 X137.625 Y80.260 E0.02340
G1 X137.969 Y80.928 E0.02357
G1 X138.495 Y82.729 E0.05882
G1 X138.609 Y83.786 E0.03332
G1 X138.609 Y126.233 E1.33091
G1 X138.518 Y127.158 E0.02915
G1 X138.178 Y128.481 E0.04282
G1 X137.893 Y129.242 E0.02549
G1 X137.488 Y129.953 E0.02566
G1 X136.978 Y130.586 E0.02549
G1 X136.369 Y131.133 E0.02566
G1 X135.753 Y131.536 E0.02305
G1 X135.087 Y131.845 E0.02305
G1 X133.936 Y132.237 E0.03811
G1 X133.048 Y132.394 E0.02828
G1 X130.132 Y132.405 E0.09144
G1 X109.261 Y131.239 E0.65542
G1 X108.175 Y131.053 E0.03454
G1 X106.889 Y130.485 E0.04408
G1 X105.805 Y129.582 E0.04425
G1 X105.012 Y128.421 E0.04408
G1 X104.567 Y127.087 E0.04408
G1 X104.482 Y126.184 E0.02845
G1 X104.491 Y111.235 E0.46872
G1 X111.640 Y73.933 E1.19087
G1 X112.128 Y72.798 E0.03873
G1 F8640
G1 X112.951 Y71.717 E-0.31377
G1 X113.980 Y70.930 E-0.29907
G1 X114.567 Y70.683 E-0.14715
G1 E-0.04000 F2100.00000
G1 Z0.800 F10800.000
G1 X130.486 Y78.640
G1 Z0.200
G1 E0.80000 F2100.00000
G1 F1200
G1 X133.328 Y78.668 E0.08913
G1 X134.937 Y79.229 E0.05341
G1 X136.030 Y80.041 E0.04268
G1 X136.744 Y80.920 E0.03552
G1 X137.218 Y81.840 E0.03246
G1 X137.508 Y82.828 E0.03228
G1 X137.576 Y126.579 E1.37178
G1 X137.142 Y128.172 E0.05177
G1 X136.184 Y129.614 E0.05430
G1 X135.142 Y130.510 E0.04307
G1 X134.222 Y130.963 E0.03217
G1 X133.243 Y131.205 E0.03161
G1 X129.986 Y131.239 E0.10212
G1 X128.806 Y130.994 E0.03780
G1 X127.582 Y130.333 E0.04363
G1 X126.644 Y129.435 E0.04070
G1 X125.760 Y130.244 E0.03758
G1 X124.783 Y130.681 E0.03357
G1 X123.767 Y130.871 E0.03239
G1 X122.995 Y130.864 E0.02421
G1 X122.740 Y130.891 E0.00804
G1 X116.797 Y130.891 E0.18634
G1 X116.192 Y130.866 E0.01898
G1 X115.953 Y130.891 E0.00755
G1 X109.980 Y130.891 E0.18728
G1 X109.727 Y130.864 E0.00797
G1 X108.922 Y130.876 E0.02523
G1 X107.665 Y130.578 E0.04052
G1 X106.629 Y130.018 E0.03692
G1 X105.527 Y128.916 E0.04888
G1 X104.969 Y127.894 E0.03650
G1 X104.670 Y126.668 E0.03955
G1 X104.670 Y111.086 E0.48858
G1 X104.988 Y109.768 E0.04251
G1 X105.444 Y108.856 E0.03197
G1 X106.683 Y107.562 E0.05617
G1 X107.935 Y106.900 E0.04440
G1 X108.894 Y106.670 E0.03092
G1 X109.196 Y106.656 E0.00947
G1 X109.590 Y105.293 E0.04450
G1 X110.271 Y104.179 E0.04093
G1 X111.094 Y103.374 E0.03611
G1 X112.114 Y102.764 E0.03725
G1 X113.411 Y102.395 E0.04227
G1 X119.745 Y102.368 E0.19862
G1 X119.966 Y102.390 E0.00698
G1 X120.577 Y102.364 E0.01917
G1 X123.749 Y102.384 E0.09944
G1 X125.028 Y102.721 E0.04149
G1 X125.701 Y103.086 E0.02398
G1 X125.694 Y94.637 E0.26489
G1 X125.179 Y94.683 E0.01622
G1 X119.234 Y94.683 E0.18640
G1 X118.629 Y94.657 E0.01898
G1 X118.389 Y94.683 E0.00755
G1 X116.941 Y94.683 E0.04542
G1 X116.652 Y94.651 E0.00912
G1 X115.453 Y94.611 E0.03760
G1 X114.615 Y94.372 E0.02733
G1 X113.795 Y93.952 E0.02889
G1 X112.778 Y93.056 E0.04250
G1 X112.045 Y91.961 E0.04132
G1 X111.639 Y90.515 E0.04709
G1 X111.632 Y74.878 E0.49030
G1 X111.950 Y73.559 E0.04252
G1 X112.495 Y72.526 E0.03663
G1 X113.819 Y71.229 E0.05810
G1 X114.899 Y70.690 E0.03787
G1 X115.897 Y70.458 E0.03210
G1 X125.356 Y70.443 E0.29659
G1 X126.728 Y70.519 E0.04308
G1 X127.979 Y70.957 E0.04157
G1 X128.811 Y71.536 E0.03177
G1 X129.576 Y72.332 E0.03461
G1 X130.211 Y73.482 E0.04118
G1 X130.473 Y74.614 E0.03644
G1 X130.486 Y78.580 E0.12437
G1 X130.109 Y79.014 F10800.000
G1 F1200
G1 X133.294 Y79.045 E0.09985
G1 X134.735 Y79.549 E0.04787
G1 X135.785 Y80.329 E0.04101
G1 X136.437 Y81.140 E0.03265
G1 X136.873 Y81.995 E0.03009
G1 X137.138 Y82.907 E0.02978
G1 X137.199 Y126.553 E1.36849
G1 X136.787 Y128.041 E0.04840
G1 X135.886 Y129.382 E0.05064
G1 X134.916 Y130.207 E0.03993
G1 X134.110 Y130.602 E0.02816
G1 X133.216 Y130.828 E0.02890
G1 X130.004 Y130.862 E0.10074
G1 X128.912 Y130.631 E0.03498
G1 X127.786 Y130.015 E0.04024
G1 X127.002 Y129.255 E0.03424
G1 X126.735 Y128.833 E0.01567
G1 X125.576 Y129.914 E0.04971
G1 X124.689 Y130.315 E0.03050
G1 X123.752 Y130.494 E0.02993
G1 X122.976 Y130.487 E0.02434
G1 X122.729 Y130.514 E0.00778
G1 X116.801 Y130.514 E0.18587
G1 X116.179 Y130.488 E0.01952
G1 X115.942 Y130.514 E0.00748
G1 X109.990 Y130.514 E0.18660
G1 X109.745 Y130.487 E0.00773
G1 X108.941 Y130.498 E0.02522
G1 X107.777 Y130.218 E0.03754
G1 X106.876 Y129.731 E0.03209
G1 X105.813 Y128.668 E0.04716
G1 X105.329 Y127.779 E0.03173
G1 X105.047 Y126.645 E0.03665
G1 X105.047 Y111.109 E0.48712
G1 X105.349 Y109.879 E0.03969
G1 X105.768 Y109.051 E0.02910
G1 X106.888 Y107.880 E0.05080
G1 X108.047 Y107.261 E0.04120
G1 X108.960 Y107.042 E0.02945
G1 X109.593 Y107.028 E0.01986
G1 X109.616 Y106.527 E0.01573
G1 X109.944 Y105.425 E0.03603
G1 X110.579 Y104.398 E0.03787
G1 X111.341 Y103.660 E0.03327
G1 X112.243 Y103.119 E0.03297
G1 X113.439 Y102.772 E0.03905
G1 X119.736 Y102.745 E0.19745
G1 X119.955 Y102.767 E0.00689
G1 X120.580 Y102.741 E0.01961
G1 X123.722 Y102.761 E0.09853
G1 X124.907 Y103.079 E0.03846
G1 X126.078 Y103.733 E0.04208
G1 X126.071 Y94.277 E0.29650
G1 X125.416 Y94.278 E0.02052
G1 X125.166 Y94.305 E0.00790
G1 X119.238 Y94.305 E0.18588
G1 X118.616 Y94.279 E0.01952
G1 X118.379 Y94.305 E0.00748
G1 X116.952 Y94.305 E0.04474
G1 X116.678 Y94.274 E0.00863
G1 X115.532 Y94.241 E0.03596
G1 X114.768 Y94.027 E0.02488
G1 X114.026 Y93.652 E0.02605
G1 X113.046 Y92.790 E0.04093
G1 X112.376 Y91.778 E0.03806
G1 X112.016 Y90.489 E0.04195
G1 X112.009 Y74.901 E0.48877
G1 X112.311 Y73.671 E0.03968
G1 X112.780 Y72.774 E0.03175
G1 X114.061 Y71.520 E0.05622
G1 X115.007 Y71.052 E0.03310
G1 X115.920 Y70.835 E0.02940
G1 X125.307 Y70.818 E0.29433
G1 X125.446 Y70.838 E0.00441
G1 X126.631 Y70.885 E0.03720
G1 X127.830 Y71.304 E0.03982
G1 X128.553 Y71.811 E0.02770
G1 X129.258 Y72.537 E0.03172
G1 X129.867 Y73.640 E0.03952
G1 X130.101 Y74.676 E0.03329
G1 X130.109 Y78.954 E0.13414
G1 X129.732 Y79.387 F10800.000
G1 F1200
G1 X133.259 Y79.422 E0.11058
G1 X134.533 Y79.868 E0.04233
G1 X135.540 Y80.616 E0.03933
G1 X136.130 Y81.359 E0.02973
G1 X136.529 Y82.149 E0.02774
G1 X136.768 Y82.986 E0.02730
G1 X136.822 Y126.527 E1.36522
G1 X136.433 Y127.909 E0.04500
G1 X135.590 Y129.147 E0.04698
G1 X134.693 Y129.903 E0.03677
G1 X133.964 Y130.255 E0.02538
G1 X133.190 Y130.451 E0.02504
G1 X130.021 Y130.485 E0.09936
G1 X129.018 Y130.269 E0.03216
G1 X128.030 Y129.727 E0.03534
G1 X127.283 Y129.003 E0.03261
G1 X126.819 Y128.231 E0.02823
G1 X125.389 Y129.585 E0.06173
G1 X124.594 Y129.949 E0.02742
G1 X123.736 Y130.117 E0.02742
G1 X122.955 Y130.109 E0.02448
G1 X122.718 Y130.137 E0.00749
G1 X116.805 Y130.137 E0.18539
G1 X116.165 Y130.110 E0.02009
G1 X115.930 Y130.137 E0.00740
G1 X110.002 Y130.137 E0.18589
G1 X109.765 Y130.109 E0.00748
G1 X108.960 Y130.121 E0.02523
G1 X107.890 Y129.858 E0.03454
G1 X107.123 Y129.445 E0.02731
G1 X106.099 Y128.421 E0.04542
G1 X105.689 Y127.664 E0.02700
G1 X105.424 Y126.621 E0.03373
G1 X105.424 Y111.132 E0.48563
G1 X105.709 Y109.992 E0.03684
G1 X106.091 Y109.247 E0.02625
G1 X107.093 Y108.197 E0.04551
G1 X108.159 Y107.622 E0.03798
G1 X109.027 Y107.414 E0.02797
G1 X109.964 Y107.402 E0.02939
G1 X109.985 Y106.609 E0.02489
G1 X110.298 Y105.557 E0.03441
G1 X110.858 Y104.653 E0.03335
G1 X111.587 Y103.946 E0.03184
G1 X112.413 Y103.456 E0.03012
G1 X113.517 Y103.142 E0.03596
G1 X119.726 Y103.122 E0.19470
G1 X119.942 Y103.145 E0.00680
G1 X120.582 Y103.118 E0.02008
G1 X123.694 Y103.138 E0.09759
G1 X124.786 Y103.436 E0.03548
G1 X125.518 Y103.839 E0.02620
G1 X126.456 Y104.719 E0.04033
G1 X126.448 Y93.899 E0.33926
G1 X125.394 Y93.901 E0.03304
G1 X125.155 Y93.928 E0.00755
G1 X119.242 Y93.928 E0.18539
G1 X118.602 Y93.901 E0.02009
G1 X118.367 Y93.928 E0.00740
G1 X116.963 Y93.928 E0.04402
G1 X116.705 Y93.898 E0.00816
G1 X115.609 Y93.871 E0.03437
G1 X114.918 Y93.681 E0.02247
G1 X114.256 Y93.353 E0.02317
G1 X113.315 Y92.524 E0.03932
G1 X112.708 Y91.596 E0.03476
G1 X112.393 Y90.464 E0.03686
G1 X112.386 Y74.924 E0.48723
G1 X112.671 Y73.784 E0.03684
G1 X113.065 Y73.022 E0.02690
G1 X114.302 Y71.811 E0.05427
G1 X115.151 Y71.401 E0.02957
G1 X115.984 Y71.207 E0.02679
G1 X125.266 Y71.193 E0.29103
G1 X125.413 Y71.214 E0.00466
G1 X126.535 Y71.251 E0.03519
G1 X127.680 Y71.651 E0.03805
G1 X128.296 Y72.088 E0.02368
G1 X128.941 Y72.742 E0.02880
G1 X129.524 Y73.798 E0.03781
G1 X129.728 Y74.735 E0.03009
G1 X129.732 Y79.327 E0.14397
G1 X129.355 Y79.761 F10800.000
G1 F1200
G1 X133.224 Y79.798 E0.12132
G1 X134.331 Y80.188 E0.03679
G1 X135.294 Y80.904 E0.03763
G1 X135.821 Y81.576 E0.02676
G1 X136.183 Y82.301 E0.02541
G1 X136.399 Y83.063 E0.02484
G1 X136.444 Y126.501 E1.36197
G1 X136.080 Y127.775 E0.04154
G1 X135.295 Y128.911 E0.04330
G1 X134.470 Y129.597 E0.03364
G1 X133.850 Y129.895 E0.02155
G1 X133.162 Y130.075 E0.02231
G1 X130.039 Y130.107 E0.09793
G1 X129.126 Y129.906 E0.02930
G1 X128.275 Y129.438 E0.03047
G1 X127.565 Y128.750 E0.03100
G1 X127.058 Y127.889 E0.03132
G1 X126.854 Y127.227 E0.02172
G1 X126.328 Y128.184 E0.03425
G1 X125.204 Y129.255 E0.04868
G1 X124.458 Y129.597 E0.02572
G1 X123.721 Y129.740 E0.02353
G1 X122.934 Y129.732 E0.02468
G1 X122.706 Y129.760 E0.00720
G1 X116.809 Y129.760 E0.18489
G1 X116.149 Y129.732 E0.02070
G1 X115.918 Y129.760 E0.00729
G1 X110.014 Y129.760 E0.18514
G1 X109.785 Y129.732 E0.00721
G1 X108.980 Y129.743 E0.02526
G1 X108.005 Y129.498 E0.03152
G1 X107.370 Y129.158 E0.02257
G1 X106.385 Y128.174 E0.04367
G1 X106.048 Y127.547 E0.02232
G1 X105.801 Y126.596 E0.03079
G1 X105.801 Y111.156 E0.48411
G1 X106.070 Y110.106 E0.03399
G1 X106.383 Y109.487 E0.02174
G1 X107.345 Y108.480 E0.04366
G1 X108.313 Y107.967 E0.03436
G1 X109.091 Y107.786 E0.02503
G1 X110.338 Y107.778 E0.03910
G1 X110.354 Y106.691 E0.03411
G1 X110.652 Y105.689 E0.03277
G1 X111.137 Y104.908 E0.02883
G1 X111.833 Y104.233 E0.03039
G1 X112.582 Y103.794 E0.02723
G1 X113.593 Y103.512 E0.03289
G1 X119.716 Y103.499 E0.19198
G1 X119.928 Y103.523 E0.00671
G1 X120.584 Y103.495 E0.02059
G1 X123.667 Y103.515 E0.09667
G1 X124.623 Y103.777 E0.03110
G1 X125.315 Y104.157 E0.02473
G1 X126.139 Y104.942 E0.03568
G1 X126.553 Y105.673 E0.02635
G1 X126.834 Y105.599 E0.00912
G1 X126.824 Y93.418 E0.38193
G1 X126.172 Y93.529 E0.02076
G1 X125.373 Y93.523 E0.02505
G1 X125.143 Y93.551 E0.00726
G1 X119.246 Y93.551 E0.18489
G1 X118.586 Y93.523 E0.02070
G1 X118.355 Y93.551 E0.00729
G1 X116.975 Y93.551 E0.04327
G1 X116.732 Y93.521 E0.00770
G1 X115.684 Y93.501 E0.03285
G1 X115.066 Y93.334 E0.02009
G1 X114.486 Y93.052 E0.02022
G1 X113.584 Y92.258 E0.03766
G1 X113.040 Y91.417 E0.03142
G1 X112.770 Y90.438 E0.03182
G1 X112.763 Y74.948 E0.48569
G1 X113.031 Y73.898 E0.03399
G1 X113.351 Y73.270 E0.02209
G1 X114.543 Y72.104 E0.05227
G1 X115.292 Y71.751 E0.02597
G1 X116.046 Y71.579 E0.02425
G1 X125.225 Y71.568 E0.28778
G1 X125.382 Y71.591 E0.00497
G1 X126.439 Y71.617 E0.03315
G1 X127.530 Y71.998 E0.03623
G1 X128.041 Y72.365 E0.01973
G1 X128.624 Y72.948 E0.02586
G1 X129.180 Y73.955 E0.03605
G1 X129.355 Y74.793 E0.02685
G1 X129.355 Y79.701 E0.15388
G1 F8640
G1 X132.645 Y79.784 E-0.76000
G1 E-0.04000 F2100.00000
G1 Z0.800 F10800.000
G1 X110.714 Y108.153
G1 Z0.200
G1 E0.80000 F2100.00000
G1 F1200
G1 X110.723 Y106.772 E0.04331
G1 X111.006 Y105.822 E0.03108
G1 X111.443 Y105.129 E0.02568
G1 X112.077 Y104.522 E0.02753
G1 X112.749 Y104.133 E0.02435
G1 X113.667 Y103.883 E0.02984
G1 X119.704 Y103.876 E0.18928
G1 X119.905 Y103.901 E0.00635
G1 X120.406 Y103.893 E0.01570
G1 X120.599 Y103.872 E0.00611
G1 X123.591 Y103.885 E0.09381
G1 X124.501 Y104.135 E0.02958
G1 X125.109 Y104.474 E0.02182
G1 X125.855 Y105.193 E0.03250
G1 X126.353 Y106.096 E0.03231
G1 X126.537 Y106.929 E0.02677
G1 X126.541 Y126.571 E0.61586
G1 X126.313 Y127.429 E0.02783
G1 X126.045 Y127.933 E0.01790
G1 X124.968 Y128.959 E0.04663
G1 X124.327 Y129.243 E0.02198
G1 X123.671 Y129.365 E0.02091
G1 X122.912 Y129.354 E0.02381
G1 X122.693 Y129.383 E0.00692
G1 X116.825 Y129.383 E0.18398
G1 X116.635 Y129.362 E0.00602
G1 X116.125 Y129.354 E0.01599
G1 X115.906 Y129.383 E0.00692
G1 X110.026 Y129.383 E0.18434
G1 X109.808 Y129.354 E0.00692
G1 X109.000 Y129.366 E0.02531
G1 X108.121 Y129.138 E0.02848
G1 X107.616 Y128.872 E0.01790
G1 X106.672 Y127.927 E0.04188
G1 X106.407 Y127.429 E0.01770
G1 X106.179 Y126.571 E0.02783
G1 X106.179 Y111.181 E0.48255
G1 X106.429 Y110.220 E0.03114
G1 X106.675 Y109.727 E0.01727
G1 X107.595 Y108.764 E0.04175
G1 X108.465 Y108.313 E0.03071
G1 X109.114 Y108.163 E0.02088
G1 X110.654 Y108.153 E0.04829
G1 X111.088 Y108.528 F10800.000
G1 F1200
G1 X111.100 Y106.801 E0.05414
G1 X111.340 Y105.999 E0.02625
G1 X111.721 Y105.385 E0.02268
G1 X112.321 Y104.809 E0.02606
G1 X112.874 Y104.489 E0.02003
G1 X113.694 Y104.260 E0.02669
G1 X119.691 Y104.253 E0.18805
G1 X119.883 Y104.278 E0.00605
G1 X120.430 Y104.270 E0.01717
G1 X120.610 Y104.250 E0.00565
G1 X123.564 Y104.262 E0.09262
G1 X124.375 Y104.491 E0.02645
G1 X124.901 Y104.789 E0.01894
G1 X125.571 Y105.442 E0.02934
G1 X126.008 Y106.250 E0.02878
G1 X126.164 Y106.987 E0.02365
G1 X126.164 Y126.545 E0.61322
G1 X125.955 Y127.307 E0.02477
G1 X125.728 Y127.727 E0.01497
G1 X124.783 Y128.629 E0.04095
G1 X124.233 Y128.877 E0.01892
G1 X123.657 Y128.988 E0.01839
G1 X122.888 Y128.977 E0.02410
G1 X122.680 Y129.005 E0.00661
G1 X116.837 Y129.005 E0.18319
G1 X116.660 Y128.985 E0.00560
G1 X116.101 Y128.977 E0.01752
G1 X115.892 Y129.005 E0.00661
G1 X110.040 Y129.005 E0.18349
G1 X109.831 Y128.977 E0.00661
G1 X109.022 Y128.989 E0.02539
G1 X108.241 Y128.780 E0.02533
G1 X107.820 Y128.553 E0.01499
G1 X106.990 Y127.723 E0.03681
G1 X106.764 Y127.307 E0.01483
G1 X106.556 Y126.545 E0.02477
G1 X106.556 Y111.206 E0.48095
G1 X106.788 Y110.337 E0.02820
G1 X106.998 Y109.924 E0.01455
G1 X107.843 Y109.050 E0.03812
G1 X108.613 Y108.660 E0.02707
G1 X109.136 Y108.540 E0.01682
G1 X111.028 Y108.528 E0.05932
G1 X111.463 Y108.903 F10800.000
G1 F1200
G1 X111.477 Y106.831 E0.06496
G1 X111.674 Y106.174 E0.02150
G1 X112.000 Y105.639 E0.01964
G1 X112.566 Y105.097 E0.02457
G1 X113.002 Y104.845 E0.01579
G1 X113.721 Y104.637 E0.02349
G1 X119.678 Y104.631 E0.18676
G1 X119.859 Y104.655 E0.00572
G1 X120.457 Y104.647 E0.01876
G1 X120.621 Y104.627 E0.00517
G1 X123.535 Y104.639 E0.09137
G1 X124.246 Y104.846 E0.02324
G1 X124.690 Y105.103 E0.01606
G1 X125.285 Y105.689 E0.02620
G1 X125.661 Y106.401 E0.02525
G1 X125.787 Y107.006 E0.01938
G1 X125.787 Y126.518 E0.61179
G1 X125.599 Y127.182 E0.02162
G1 X125.412 Y127.519 E0.01207
G1 X124.596 Y128.300 E0.03543
G1 X124.136 Y128.512 E0.01588
