; generated by PrusaSlicer 2.1.0+win64 on 2019-11-11 at 18:58:40 UTC

; 

; external perimeters extrusion width = 0.45mm
; perimeters extrusion width = 0.45mm
; infill extrusion width = 0.45mm
; solid infill extrusion width = 0.45mm
; top infill extrusion width = 0.40mm
; support material extrusion width = 0.35mm
; first layer extrusion width = 0.42mm

M73 P0 R129
M201 X9000 Y9000 Z500 E10000 ; sets maximum accelerations, mm/sec^2
M203 X500 Y500 Z12 E120 ; sets maximum feedrates, mm/sec
M204 P2000 R1500 T2000 ; sets acceleration (P, T) and retract acceleration (R), mm/sec^2
M205 X10.00 Y10.00 Z0.20 E2.50 ; sets the jerk limits, mm/sec
M205 S0 T0 ; sets the minimum extruding and travel feed rate, mm/sec
M107
M862.3 P "MK2S" ; printer model check
M862.1 P0.4 ; nozzle diameter check
M115 U3.2.3 ; tell printer latest fw version
G90 ; use absolute coordinates
M83 ; extruder relative mode
M204 S2000 T1500 ; MK2 firmware only supports the old M204 format
M104 S215 ; set extruder temp
M140 S60 ; set bed temp
M190 S60 ; wait for bed temp
M109 S215 ; wait for extruder temp
G28 W ; home all without mesh bed level
G80 ; mesh bed leveling
G1 Y-3.0 F1000.0 ; go outside print area
G92 E0.0
G1 X60.0 E9.0  F1000.0 ; intro line
M73 P0 R128
G1 X100.0 E12.5 F1000.0 ; intro line
G92 E0.0
G21 ; set units to millimeters
G90 ; use absolute coordinates
M83 ; use relative distances for extrusion
M900 K30 ; Filament gcode
;BEFORE_LAYER_CHANGE
G92 E0.0
;0.2


G1 E-0.80000 F2100.00000
G1 Z0.600 F10800.000
;AFTER_LAYER_CHANGE
;0.2
G1 X100.152 Y82.833
G1 Z0.200
G1 E0.80000 F2100.00000
M204 S1000
G1 F1200
G1 X100.844 Y82.378 E0.02597
G1 X101.652 Y82.212 E0.02586
G1 X147.687 Y82.212 E1.44340
G1 X150.888 Y82.390 E0.10054
G1 X151.536 Y82.548 E0.02089
G1 X152.046 Y82.845 E0.01851
G1 X152.458 Y83.267 E0.01851
G1 X152.742 Y83.784 E0.01851
G1 X152.878 Y84.359 E0.01851
G1 X152.888 Y127.238 E1.34445
G1 X152.710 Y128.069 E0.02664
G1 X152.227 Y128.773 E0.02676
G1 X151.539 Y129.227 E0.02586
G1 X150.731 Y129.394 E0.02586
G1 X110.722 Y129.394 E1.25446
G1 X101.507 Y129.217 E0.28898
G1 X100.751 Y129.018 E0.02451
G1 X100.111 Y128.563 E0.02462
G1 X99.658 Y127.874 E0.02586
G1 X99.491 Y127.066 E0.02586
G1 X99.491 Y84.397 E1.33786
G1 X99.663 Y83.550 E0.02709
G1 X100.118 Y82.883 E0.02533
G1 X101.679 Y84.401 F10800.000
G1 F1200
G1 X101.679 Y127.036 E1.33679
G1 X102.434 Y127.036 E0.02365
G1 X102.434 Y84.570 E1.33147
G1 X103.188 Y84.570 E0.02365
G1 X103.188 Y127.036 E1.33147
G1 X103.942 Y127.036 E0.02365
G1 X103.942 Y124.413 E0.08224
G1 X104.696 Y124.413 E0.02365
G1 X104.696 Y127.036 E0.08224
G1 X105.450 Y127.036 E0.02365
G1 X105.450 Y124.413 E0.08224
G1 X106.204 Y124.413 E0.02365
G1 X106.204 Y127.036 E0.08224
G1 X106.958 Y127.036 E0.02365
G1 X106.958 Y124.413 E0.08224
G1 X107.713 Y124.413 E0.02365
G1 X107.713 Y127.036 E0.08224
G1 X108.467 Y127.036 E0.02365
G1 X108.467 Y124.413 E0.08224
G1 X109.221 Y124.413 E0.02365
G1 X109.221 Y127.036 E0.08224
G1 X109.975 Y127.036 E0.02365
G1 X109.975 Y124.413 E0.08224
G1 X110.729 Y124.413 E0.02365
G1 X110.729 Y127.205 E0.08756
G1 X111.041 Y124.209 F10800.000
G1 F1200
G1 X111.041 Y109.457 E0.37668
G1 X110.534 Y109.457 E0.01295
G1 X110.534 Y124.071 E0.37316
G1 X110.027 Y124.071 E0.01295
G1 X110.027 Y109.457 E0.37316
G1 X109.520 Y109.457 E0.01295
G1 X109.520 Y124.071 E0.37316
G1 X109.013 Y124.071 E0.01295
G1 X109.013 Y115.064 E0.22999
G1 X108.824 Y115.275 E0.00724
G1 X108.743 Y115.330 E0.00250
G1 X108.556 Y115.402 E0.00512
G1 X108.556 Y116.578 E0.03003
G1 X108.506 Y116.575 E0.00129
G1 X108.506 Y124.071 E0.19140
G1 X107.998 Y124.071 E0.01295
G1 X107.998 Y116.033 E0.20523
G1 X107.712 Y115.865 E0.00849
G1 X107.491 Y115.667 E0.00756
G1 X107.491 Y124.071 E0.21458
G1 X106.984 Y124.071 E0.01295
G1 X106.984 Y109.457 E0.37316
G1 X107.491 Y109.457 E0.01295
G1 X107.491 Y112.149 E0.06876
G1 X107.998 Y112.149 E0.01295
G1 X107.998 Y109.457 E0.06876
G1 X108.506 Y109.457 E0.01295
G1 X108.506 Y112.149 E0.06876
G1 X108.556 Y112.149 E0.00129
G1 X108.556 Y112.419 E0.00688
G1 X108.756 Y112.526 E0.00578
G1 X108.920 Y112.705 E0.00621
G1 X109.013 Y112.879 E0.00502
G1 X109.013 Y109.318 E0.09091
G1 E-0.80000 F2100.00000
G1 Z0.800 F10800.000
G1 X108.661 Y110.823
G1 X111.636 Y103.872
G1 X111.301 Y103.856
G1 X110.281 Y103.044
G1 X107.696 Y100.636
G1 X105.970 Y102.288
G1 Z0.200
G1 E0.80000 F2100.00000
G1 F1200
G1 X105.970 Y87.535 E0.37668
G1 X105.463 Y87.535 E0.01295
G1 X105.463 Y102.150 E0.37316
G1 X104.956 Y102.150 E0.01295
G1 X104.956 Y87.535 E0.37316
G1 X104.449 Y87.535 E0.01295
G1 X104.449 Y102.150 E0.37316
G1 X103.942 Y102.150 E0.01295
G1 X103.942 Y87.397 E0.37668
G1 E-0.80000 F2100.00000
G1 Z0.800 F10800.000
G1 X109.459 Y90.969
G1 X109.520 Y87.397
G1 Z0.200
G1 E0.80000 F2100.00000
G1 F1200
G1 X109.520 Y93.498 E0.15577
G1 X109.263 Y93.477 E0.00659
G1 X109.013 Y93.501 E0.00641
G1 X109.013 Y87.535 E0.15233
G1 X108.506 Y87.535 E0.01295
G1 X108.506 Y93.345 E0.14835
G1 X108.257 Y93.498 E0.00745
G1 X107.998 Y93.695 E0.00831
G1 X107.998 Y87.535 E0.15729
G1 X107.491 Y87.535 E0.01295
G1 X107.491 Y94.162 E0.16920
G1 X106.984 Y94.628 E0.01759
G1 X106.984 Y87.535 E0.18110
G1 X106.477 Y87.535 E0.01295
G1 X106.477 Y102.150 E0.37316
G1 X106.984 Y102.150 E0.01295
G1 X106.984 Y99.457 E0.06876
G1 X107.491 Y99.457 E0.01295
G1 X107.491 Y102.150 E0.06876
G1 X107.998 Y102.150 E0.01295
G1 X107.998 Y99.457 E0.06876
G1 X108.506 Y99.457 E0.01295
G1 X108.506 Y102.150 E0.06876
G1 X109.013 Y102.150 E0.01295
G1 X109.013 Y95.191 E0.17768
G1 X109.255 Y95.098 E0.00662
G1 X109.520 Y94.940 E0.00787
G1 X109.520 Y102.150 E0.18408
G1 X110.027 Y102.150 E0.01295
G1 X110.027 Y87.535 E0.37316
G1 X110.534 Y87.535 E0.01295
G1 X110.534 Y102.150 E0.37316
G1 X111.041 Y102.150 E0.01295
G1 X111.041 Y87.535 E0.37316
G1 X111.548 Y87.535 E0.01295
G1 X111.548 Y94.842 E0.18658
G1 X112.055 Y94.842 E0.01295
G1 X112.055 Y87.535 E0.18658
G1 X112.562 Y87.535 E0.01295
G1 X112.562 Y94.842 E0.18658
G1 X113.069 Y94.842 E0.01295
G1 X113.069 Y87.535 E0.18658
G1 X113.576 Y87.535 E0.01295
G1 X113.576 Y94.842 E0.18658
G1 X114.083 Y94.842 E0.01295
G1 X114.083 Y87.535 E0.18658
G1 X114.590 Y87.535 E0.01295
G1 X114.590 Y94.842 E0.18658
G1 X115.098 Y94.842 E0.01295
G1 X115.098 Y87.535 E0.18658
G1 X115.605 Y87.535 E0.01295
G1 X115.605 Y94.842 E0.18658
G1 X116.112 Y94.842 E0.01295
G1 X116.112 Y87.535 E0.18658
G1 X116.619 Y87.535 E0.01295
G1 X116.619 Y94.842 E0.18658
G1 X117.126 Y94.842 E0.01295
G1 X117.126 Y87.535 E0.18658
G1 X117.633 Y87.535 E0.01295
G1 X117.633 Y94.842 E0.18658
G1 X118.140 Y94.842 E0.01295
G1 X118.140 Y87.535 E0.18658
G1 X118.647 Y87.535 E0.01295
G1 X118.647 Y94.842 E0.18658
G1 X119.154 Y94.842 E0.01295
G1 X119.154 Y87.535 E0.18658
G1 X119.661 Y87.535 E0.01295
G1 X119.661 Y94.842 E0.18658
G1 X120.168 Y94.842 E0.01295
G1 X120.168 Y87.535 E0.18658
G1 X120.675 Y87.535 E0.01295
G1 X120.675 Y94.842 E0.18658
G1 X121.183 Y94.842 E0.01295
G1 X121.183 Y87.535 E0.18658
G1 X121.690 Y87.535 E0.01295
G1 X121.690 Y94.842 E0.18658
G1 X122.197 Y94.842 E0.01295
G1 X122.197 Y87.535 E0.18658
G1 X122.704 Y87.535 E0.01295
G1 X122.704 Y94.842 E0.18658
G1 X123.211 Y94.842 E0.01295
G1 X123.211 Y87.535 E0.18658
G1 X123.718 Y87.535 E0.01295
G1 X123.718 Y94.842 E0.18658
G1 X124.225 Y94.842 E0.01295
G1 X124.225 Y87.535 E0.18658
G1 X124.732 Y87.535 E0.01295
G1 X124.732 Y94.842 E0.18658
G1 X125.239 Y94.842 E0.01295
G1 X125.239 Y87.535 E0.18658
G1 X125.746 Y87.535 E0.01295
G1 X125.746 Y94.842 E0.18658
G1 X126.253 Y94.842 E0.01295
G1 X126.253 Y87.535 E0.18658
G1 X126.760 Y87.535 E0.01295
G1 X126.760 Y94.842 E0.18658
G1 X127.267 Y94.842 E0.01295
G1 X127.267 Y87.535 E0.18658
G1 X127.775 Y87.535 E0.01295
G1 X127.775 Y94.842 E0.18658
G1 X128.282 Y94.842 E0.01295
G1 X128.282 Y87.535 E0.18658
G1 X128.789 Y87.535 E0.01295
G1 X128.789 Y94.842 E0.18658
G1 X129.296 Y94.842 E0.01295
G1 X129.296 Y87.535 E0.18658
G1 X129.803 Y87.535 E0.01295
G1 X129.803 Y94.842 E0.18658
G1 X130.310 Y94.842 E0.01295
G1 X130.310 Y87.535 E0.18658
G1 X130.817 Y87.535 E0.01295
G1 X130.817 Y94.842 E0.18658
G1 X131.324 Y94.842 E0.01295
G1 X131.324 Y87.535 E0.18658
G1 X131.831 Y87.535 E0.01295
G1 X131.831 Y94.842 E0.18658
G1 X132.338 Y94.842 E0.01295
G1 X132.338 Y87.535 E0.18658
G1 X132.845 Y87.535 E0.01295
G1 X132.845 Y94.842 E0.18658
G1 X133.352 Y94.842 E0.01295
G1 X133.352 Y87.535 E0.18658
G1 X133.859 Y87.535 E0.01295
G1 X133.859 Y94.842 E0.18658
G1 X134.367 Y94.842 E0.01295
G1 X134.367 Y87.535 E0.18658
G1 X134.874 Y87.535 E0.01295
G1 X134.874 Y94.842 E0.18658
G1 X135.381 Y94.842 E0.01295
G1 X135.381 Y87.535 E0.18658
G1 X135.888 Y87.535 E0.01295
G1 X135.888 Y94.842 E0.18658
G1 X136.395 Y94.842 E0.01295
G1 X136.395 Y87.535 E0.18658
G1 X136.902 Y87.535 E0.01295
G1 X136.902 Y94.842 E0.18658
G1 X137.409 Y94.842 E0.01295
G1 X137.409 Y87.535 E0.18658
M73 P0 R127
G1 X137.916 Y87.535 E0.01295
G1 X137.916 Y94.842 E0.18658
G1 X138.423 Y94.842 E0.01295
G1 X138.423 Y87.535 E0.18658
G1 X138.930 Y87.535 E0.01295
G1 X138.930 Y94.842 E0.18658
G1 X139.437 Y94.842 E0.01295
G1 X139.437 Y87.535 E0.18658
G1 X139.944 Y87.535 E0.01295
G1 X139.944 Y94.842 E0.18658
G1 X140.452 Y94.842 E0.01295
G1 X140.452 Y87.535 E0.18658
G1 X140.959 Y87.535 E0.01295
G1 X140.959 Y116.902 E0.74984
G1 E-0.80000 F2100.00000
G1 Z0.800 F10800.000
G1 X142.372 Y115.185
G1 X144.012 Y115.096
G1 X147.841 Y118.925
G1 X147.551 Y116.902
G1 Z0.200
G1 E0.80000 F2100.00000
G1 F1200
G1 X147.551 Y87.535 E0.74984
G1 X147.044 Y87.535 E0.01295
G1 X147.044 Y116.764 E0.74631
G1 X146.536 Y116.764 E0.01295
G1 X146.536 Y87.535 E0.74631
G1 X146.029 Y87.535 E0.01295
G1 X146.029 Y116.764 E0.74631
G1 X145.522 Y116.764 E0.01295
G1 X145.522 Y87.535 E0.74631
G1 X145.015 Y87.535 E0.01295
G1 X145.015 Y116.764 E0.74631
G1 X144.508 Y116.764 E0.01295
G1 X144.508 Y109.384 E0.18843
G1 X144.297 Y109.527 E0.00650
G1 X144.001 Y109.659 E0.00828
G1 X144.001 Y116.764 E0.18141
G1 X143.494 Y116.764 E0.01295
G1 X143.494 Y109.787 E0.17815
G1 X143.170 Y109.830 E0.00834
G1 X143.170 Y109.809 E0.00052
G1 X142.987 Y109.817 E0.00468
G1 X142.987 Y116.764 E0.17738
G1 X142.480 Y116.764 E0.01295
G1 X142.480 Y109.895 E0.17539
G1 X142.114 Y109.943 E0.00942
G1 X141.973 Y109.935 E0.00361
G1 X141.973 Y116.764 E0.17436
G1 X141.466 Y116.764 E0.01295
G1 X141.466 Y87.535 E0.74631
G1 X141.973 Y87.535 E0.01295
G1 X141.973 Y108.952 E0.54685
G1 X142.184 Y108.834 E0.00617
G1 X142.480 Y108.560 E0.01030
G1 X142.480 Y87.535 E0.53685
G1 X142.987 Y87.535 E0.01295
G1 X142.987 Y108.158 E0.52658
G1 X143.170 Y108.048 E0.00547
G1 X143.170 Y101.025 E0.17932
G1 X143.432 Y100.985 E0.00676
G1 X143.494 Y101.028 E0.00193
G1 X143.494 Y87.535 E0.34452
G1 X144.001 Y87.535 E0.01295
G1 X144.001 Y101.854 E0.36561
G1 X144.037 Y102.063 E0.00540
G1 X144.021 Y102.692 E0.01607
G1 X144.042 Y102.923 E0.00594
G1 X144.149 Y103.317 E0.01043
G1 X144.508 Y104.051 E0.02085
G1 X144.508 Y87.397 E0.42524
G1 X147.683 Y84.401 F10800.000
G1 F1200
G1 X147.683 Y87.193 E0.08756
G1 X146.929 Y87.193 E0.02365
G1 X146.929 Y84.570 E0.08224
G1 X146.175 Y84.570 E0.02365
G1 X146.175 Y87.193 E0.08224
G1 X145.421 Y87.193 E0.02365
G1 X145.421 Y84.570 E0.08224
G1 X144.666 Y84.570 E0.02365
G1 X144.666 Y87.193 E0.08224
G1 X143.912 Y87.193 E0.02365
G1 X143.912 Y84.570 E0.08224
G1 X143.158 Y84.570 E0.02365
G1 X143.158 Y87.193 E0.08224
G1 X142.404 Y87.193 E0.02365
G1 X142.404 Y84.570 E0.08224
G1 X141.650 Y84.570 E0.02365
G1 X141.650 Y87.193 E0.08224
G1 X140.896 Y87.193 E0.02365
G1 X140.896 Y84.570 E0.08224
G1 X140.141 Y84.570 E0.02365
G1 X140.141 Y87.193 E0.08224
G1 X139.387 Y87.193 E0.02365
G1 X139.387 Y84.570 E0.08224
G1 X138.633 Y84.570 E0.02365
G1 X138.633 Y87.193 E0.08224
G1 X137.879 Y87.193 E0.02365
G1 X137.879 Y84.570 E0.08224
G1 X137.125 Y84.570 E0.02365
G1 X137.125 Y87.193 E0.08224
G1 X136.371 Y87.193 E0.02365
G1 X136.371 Y84.570 E0.08224
G1 X135.617 Y84.570 E0.02365
G1 X135.617 Y87.193 E0.08224
G1 X134.862 Y87.193 E0.02365
G1 X134.862 Y84.570 E0.08224
G1 X134.108 Y84.570 E0.02365
G1 X134.108 Y87.193 E0.08224
G1 X133.354 Y87.193 E0.02365
G1 X133.354 Y84.570 E0.08224
G1 X132.600 Y84.570 E0.02365
G1 X132.600 Y87.193 E0.08224
G1 X131.846 Y87.193 E0.02365
G1 X131.846 Y84.570 E0.08224
G1 X131.092 Y84.570 E0.02365
G1 X131.092 Y87.193 E0.08224
G1 X130.337 Y87.193 E0.02365
G1 X130.337 Y84.570 E0.08224
G1 X129.583 Y84.570 E0.02365
G1 X129.583 Y87.193 E0.08224
G1 X128.829 Y87.193 E0.02365
G1 X128.829 Y84.570 E0.08224
G1 X128.075 Y84.570 E0.02365
G1 X128.075 Y87.193 E0.08224
G1 X127.321 Y87.193 E0.02365
G1 X127.321 Y84.570 E0.08224
G1 X126.567 Y84.570 E0.02365
G1 X126.567 Y87.193 E0.08224
G1 X125.812 Y87.193 E0.02365
G1 X125.812 Y84.570 E0.08224
G1 X125.058 Y84.570 E0.02365
G1 X125.058 Y87.193 E0.08224
G1 X124.304 Y87.193 E0.02365
G1 X124.304 Y84.570 E0.08224
G1 X123.550 Y84.570 E0.02365
G1 X123.550 Y87.193 E0.08224
G1 X122.796 Y87.193 E0.02365
G1 X122.796 Y84.570 E0.08224
G1 X122.042 Y84.570 E0.02365
G1 X122.042 Y87.193 E0.08224
G1 X121.287 Y87.193 E0.02365
G1 X121.287 Y84.570 E0.08224
G1 X120.533 Y84.570 E0.02365
G1 X120.533 Y87.193 E0.08224
G1 X119.779 Y87.193 E0.02365
G1 X119.779 Y84.570 E0.08224
G1 X119.025 Y84.570 E0.02365
G1 X119.025 Y87.193 E0.08224
G1 X118.271 Y87.193 E0.02365
G1 X118.271 Y84.570 E0.08224
G1 X117.517 Y84.570 E0.02365
G1 X117.517 Y87.193 E0.08224
G1 X116.763 Y87.193 E0.02365
G1 X116.763 Y84.570 E0.08224
G1 X116.008 Y84.570 E0.02365
G1 X116.008 Y87.193 E0.08224
G1 X115.254 Y87.193 E0.02365
G1 X115.254 Y84.570 E0.08224
G1 X114.500 Y84.570 E0.02365
G1 X114.500 Y87.193 E0.08224
G1 X113.746 Y87.193 E0.02365
G1 X113.746 Y84.570 E0.08224
G1 X112.992 Y84.570 E0.02365
G1 X112.992 Y87.193 E0.08224
G1 X112.238 Y87.193 E0.02365
G1 X112.238 Y84.570 E0.08224
G1 X111.483 Y84.570 E0.02365
G1 X111.483 Y87.193 E0.08224
G1 X110.729 Y87.193 E0.02365
G1 X110.729 Y84.570 E0.08224
G1 X109.975 Y84.570 E0.02365
G1 X109.975 Y87.193 E0.08224
G1 X109.221 Y87.193 E0.02365
G1 X109.221 Y84.570 E0.08224
G1 X108.467 Y84.570 E0.02365
G1 X108.467 Y87.193 E0.08224
G1 X107.713 Y87.193 E0.02365
G1 X107.713 Y84.570 E0.08224
G1 X106.958 Y84.570 E0.02365
G1 X106.958 Y87.193 E0.08224
G1 X106.204 Y87.193 E0.02365
G1 X106.204 Y84.570 E0.08224
G1 X105.450 Y84.570 E0.02365
G1 X105.450 Y87.193 E0.08224
G1 X104.696 Y87.193 E0.02365
G1 X104.696 Y84.570 E0.08224
G1 X103.942 Y84.570 E0.02365
G1 X103.942 Y87.193 E0.08224
G1 X103.600 Y87.193 E0.01073
G1 X103.600 Y102.492 E0.47967
G1 X103.942 Y102.492 E0.01073
G1 X103.942 Y109.115 E0.20766
G1 X104.696 Y109.115 E0.02365
G1 X104.696 Y102.492 E0.20766
G1 X105.450 Y102.492 E0.02365
G1 X105.450 Y109.115 E0.20766
G1 X106.204 Y109.115 E0.02365
G1 X106.204 Y102.492 E0.20766
G1 X106.958 Y102.492 E0.02365
G1 X106.958 Y109.115 E0.20766
G1 X107.713 Y109.115 E0.02365
G1 X107.713 Y102.492 E0.20766
G1 X108.467 Y102.492 E0.02365
G1 X108.467 Y109.115 E0.20766
G1 X109.221 Y109.115 E0.02365
G1 X109.221 Y102.492 E0.20766
G1 X109.975 Y102.492 E0.02365
G1 X109.975 Y109.115 E0.20766
G1 X110.729 Y109.115 E0.02365
G1 X110.729 Y102.492 E0.20766
G1 X111.483 Y102.492 E0.02365
G1 X111.483 Y127.036 E0.76956
G1 X112.238 Y127.036 E0.02365
G1 X112.238 Y95.185 E0.99867
G1 X112.992 Y95.185 E0.02365
G1 X112.992 Y127.036 E0.99867
G1 X113.746 Y127.036 E0.02365
G1 X113.746 Y95.185 E0.99867
G1 X114.500 Y95.185 E0.02365
G1 X114.500 Y119.729 E0.76956
G1 X115.254 Y119.729 E0.02365
G1 X115.254 Y95.185 E0.76956
G1 X116.008 Y95.185 E0.02365
G1 X116.008 Y119.729 E0.76956
G1 X116.763 Y119.729 E0.02365
G1 X116.763 Y95.185 E0.76956
G1 X117.517 Y95.185 E0.02365
G1 X117.517 Y119.729 E0.76956
G1 X118.271 Y119.729 E0.02365
G1 X118.271 Y95.185 E0.76956
G1 X119.025 Y95.185 E0.02365
G1 X119.025 Y119.729 E0.76956
G1 X119.779 Y119.729 E0.02365
G1 X119.779 Y95.185 E0.76956
G1 X120.533 Y95.185 E0.02365
G1 X120.533 Y119.729 E0.76956
G1 X121.287 Y119.729 E0.02365
G1 X121.287 Y95.185 E0.76956
G1 X122.042 Y95.185 E0.02365
G1 X122.042 Y119.729 E0.76956
G1 X122.796 Y119.729 E0.02365
G1 X122.796 Y95.185 E0.76956
G1 X123.550 Y95.185 E0.02365
M73 P1 R126
G1 X123.550 Y127.036 E0.99867
G1 X124.304 Y127.036 E0.02365
G1 X124.304 Y95.185 E0.99867
G1 X125.058 Y95.185 E0.02365
