; generated by Slic3r Prusa Edition 1.42.0-alpha3+ on 2019-03-11 at 11:09:18

; 

; external perimeters extrusion width = 0.45mm
; perimeters extrusion width = 0.45mm
; infill extrusion width = 0.45mm
; solid infill extrusion width = 0.45mm
; top infill extrusion width = 0.40mm
; first layer extrusion width = 0.42mm

M201 X9000 Y9000 Z500 E10000 ; sets maximum accelerations, mm/sec^2
M203 X500 Y500 Z12 E120 ; sets maximum feedrates, mm/sec
M204 P2000 R1500 T2000 ; sets acceleration (P, T) and retract acceleration (R), mm/sec^2
M205 X10.00 Y10.00 Z0.20 E2.50 ; sets the jerk limits, mm/sec
M205 S0 T0 ; sets the minimum extruding and travel feed rate, mm/sec
M107
M115 U3.1.0 ; tell printer latest fw version
M83  ; extruder relative mode
M204 S2000 T1500 ; MK2 firmware only supports the old M204 format
M104 S230 ; set extruder temp
M140 S60 ; set bed temp
M190 S60 ; wait for bed temp
M109 S230 ; wait for extruder temp
G28 W ; home all without mesh bed level
G80 ; mesh bed leveling
G1 Y-3.0 F1000.0 ; go outside print area
G92 E0.0
G1 X60.0 E9.0  F1000.0 ; intro line
G1 X100.0 E12.5  F1000.0 ; intro line
G92 E0.0
M900 K30; Filament gcode
G21 ; set units to millimeters
G90 ; use absolute coordinates
M83 ; use relative distances for extrusion
;BEFORE_LAYER_CHANGE
G92 E0.0
;0.2


G1 E-0.80000 F2100.00000
G1 Z0.600 F10800.000
;AFTER_LAYER_CHANGE
;0.2
G1 X34.262 Y106.183
G1 Z0.200
G1 E0.80000 F2100.00000
M204 S1000
G1 F1200
G1 X34.753 Y105.622 E0.02338
G1 X137.360 Y31.582 E3.96729
G1 X137.830 Y31.412 E0.01567
G1 X138.326 Y31.353 E0.01567
G1 X183.980 Y31.353 E1.43146
G1 X184.759 Y31.498 E0.02484
G1 X185.436 Y31.911 E0.02484
G1 X223.835 Y66.535 E1.62116
G1 X224.238 Y67.029 E0.01998
G1 X224.481 Y67.618 E0.01998
G1 X224.547 Y68.151 E0.01683
G1 X224.546 Y155.397 E2.73555
G1 X221.721 Y176.800 E0.67689
G1 X221.454 Y177.553 E0.02507
G1 X220.935 Y178.161 E0.02507
G1 X220.294 Y178.520 E0.02304
G1 X219.573 Y178.647 E0.02293
G1 X143.296 Y178.636 E2.39162
G1 X27.280 Y159.819 E3.68515
G1 X26.538 Y159.551 E0.02473
G1 X25.937 Y159.034 E0.02484
G1 X25.597 Y158.441 E0.02146
G1 X25.456 Y157.775 E0.02134
G1 X25.482 Y150.453 E0.22957
G1 X33.986 Y106.879 E1.39201
G1 X34.240 Y106.239 E0.02161
; PURGING FINISHED
G1 F8640
G1 X34.753 Y105.622 E-0.18526
G1 X36.772 Y104.166 E-0.57474
G1 E-0.04000 F2100.00000
G1 Z0.800 F10800.000
G1 X120.873 Y100.116
G1 Z0.200
G1 E0.80000 F2100.00000
G1 F1200
G1 X120.873 Y88.272 E0.37136
G1 X121.493 Y86.554 E0.05726
G1 X128.507 Y86.554 E0.21993
G1 X129.127 Y88.272 E0.05727
G1 X129.127 Y100.116 E0.37136
G1 X120.933 Y100.116 E0.25692
G1 X120.496 Y100.493 F10800.000
G1 F1200
G1 X120.496 Y88.206 E0.38525
G1 X121.228 Y86.177 E0.06763
G1 X128.772 Y86.177 E0.23653
G1 X129.504 Y88.206 E0.06764
G1 X129.504 Y100.493 E0.38525
G1 X120.556 Y100.493 E0.28057
G1 X120.580 Y100.102 F10800.000
G1 F8640
G1 X120.540 Y97.202 E-0.76000
G1 E-0.04000 F2100.00000
G1 Z0.800 F10800.000
G1 X120.986 Y99.239
G1 Z0.200
G1 E0.80000 F2100.00000
G1 F1200
G1 X121.580 Y99.833 E0.02642
G1 X122.115 Y99.833 E0.01680
G1 X121.156 Y98.874 E0.04264
G1 X121.156 Y98.340 E0.01680
G1 X122.649 Y99.833 E0.06639
G1 X123.184 Y99.833 E0.01680
G1 X121.156 Y97.805 E0.09015
G1 X121.156 Y97.271 E0.01680
G1 X123.719 Y99.833 E0.11391
G1 X124.253 Y99.833 E0.01680
G1 X121.156 Y96.736 E0.13767
G1 X121.156 Y96.201 E0.01680
G1 X124.788 Y99.833 E0.16143
G1 X125.322 Y99.833 E0.01680
G1 X121.156 Y95.667 E0.18519
G1 X121.156 Y95.132 E0.01680
G1 X125.857 Y99.833 E0.20894
G1 X126.391 Y99.833 E0.01680
G1 X121.156 Y94.598 E0.23270
G1 X121.156 Y94.063 E0.01680
G1 X126.926 Y99.833 E0.25646
G1 X127.460 Y99.833 E0.01680
G1 X121.156 Y93.529 E0.28022
G1 X121.156 Y92.994 E0.01680
G1 X127.995 Y99.833 E0.30398
G1 X128.529 Y99.833 E0.01680
G1 X121.156 Y92.460 E0.32774
G1 X121.156 Y91.925 E0.01680
G1 X128.844 Y99.614 E0.34173
G1 X128.844 Y99.079 E0.01680
G1 X121.156 Y91.391 E0.34173
G1 X121.156 Y90.856 E0.01680
G1 X128.844 Y98.545 E0.34173
G1 X128.844 Y98.010 E0.01680
G1 X121.156 Y90.322 E0.34173
G1 X121.156 Y89.787 E0.01680
G1 X128.844 Y97.476 E0.34173
G1 X128.844 Y96.941 E0.01680
G1 X121.156 Y89.252 E0.34173
G1 X121.156 Y88.718 E0.01680
G1 X128.844 Y96.407 E0.34173
G1 X128.844 Y95.872 E0.01680
G1 X121.192 Y88.220 E0.34010
G1 X121.334 Y87.827 E0.01312
G1 X128.844 Y95.337 E0.33380
G1 X128.844 Y94.803 E0.01680
G1 X121.476 Y87.434 E0.32751
G1 X121.618 Y87.042 E0.01312
G1 X128.844 Y94.268 E0.32121
G1 X128.844 Y93.734 E0.01680
G1 X121.948 Y86.837 E0.30654
G1 X122.482 Y86.837 E0.01680
G1 X128.844 Y93.199 E0.28278
G1 X128.844 Y92.665 E0.01680
G1 X123.017 Y86.837 E0.25902
G1 X123.551 Y86.837 E0.01680
G1 X128.844 Y92.130 E0.23526
G1 X128.844 Y91.596 E0.01680
G1 X124.086 Y86.837 E0.21150
G1 X124.620 Y86.837 E0.01680
G1 X128.844 Y91.061 E0.18774
G1 X128.844 Y90.527 E0.01680
G1 X125.155 Y86.837 E0.16399
G1 X125.689 Y86.837 E0.01680
G1 X128.844 Y89.992 E0.14023
G1 X128.844 Y89.458 E0.01680
G1 X126.224 Y86.837 E0.11647
G1 X126.758 Y86.837 E0.01680
G1 X128.844 Y88.923 E0.09271
G1 X128.844 Y88.389 E0.01680
G1 X127.293 Y86.837 E0.06895
G1 X127.827 Y86.837 E0.01680
G1 X128.862 Y87.872 E0.04600
G1 F8640
G1 X127.827 Y86.837 E-0.33795
G1 X127.293 Y86.837 E-0.12343
G1 X128.207 Y87.752 E-0.29862
G1 E-0.04000 F2100.00000
G1 Z0.800 F10800.000
G1 X113.079 Y86.554
G1 Z0.200
G1 E0.80000 F2100.00000
G1 F1200
G1 X113.699 Y88.272 E0.05727
G1 X113.699 Y100.116 E0.37136
G1 X105.445 Y100.116 E0.25880
G1 X105.445 Y88.272 E0.37136
G1 X106.064 Y86.554 E0.05726
G1 X113.019 Y86.554 E0.21805
G1 X113.343 Y86.177 F10800.000
G1 F1200
G1 X114.076 Y88.206 E0.06764
G1 X114.076 Y100.493 E0.38525
G1 X105.068 Y100.493 E0.28245
G1 X105.068 Y88.206 E0.38525
G1 X105.800 Y86.177 E0.06763
G1 X113.283 Y86.177 E0.23465
G1 X113.259 Y86.568 F10800.000
G1 F8640
G1 X114.076 Y88.206 E-0.50296
G1 X114.076 Y89.319 E-0.25704
G1 E-0.04000 F2100.00000
G1 Z0.800 F10800.000
G1 X113.434 Y87.872
G1 Z0.200
G1 E0.80000 F2100.00000
G1 F1200
G1 X112.399 Y86.837 E0.04600
G1 X111.865 Y86.837 E0.01680
G1 X113.416 Y88.389 E0.06895
G1 X113.416 Y88.923 E0.01680
G1 X111.330 Y86.837 E0.09271
G1 X110.796 Y86.837 E0.01680
G1 X113.416 Y89.458 E0.11647
G1 X113.416 Y89.992 E0.01680
G1 X110.261 Y86.837 E0.14023
G1 X109.726 Y86.837 E0.01680
G1 X113.416 Y90.527 E0.16399
G1 X113.416 Y91.061 E0.01680
G1 X109.192 Y86.837 E0.18774
G1 X108.657 Y86.837 E0.01680
G1 X113.416 Y91.596 E0.21150
G1 X113.416 Y92.130 E0.01680
G1 X108.123 Y86.837 E0.23526
G1 X107.588 Y86.837 E0.01680
G1 X113.416 Y92.665 E0.25902
G1 X113.416 Y93.199 E0.01680
G1 X107.054 Y86.837 E0.28278
G1 X106.519 Y86.837 E0.01680
G1 X113.416 Y93.734 E0.30654
G1 X113.416 Y94.268 E0.01680
G1 X106.189 Y87.042 E0.32121
G1 X106.047 Y87.434 E0.01312
G1 X113.416 Y94.803 E0.32751
G1 X113.416 Y95.337 E0.01680
G1 X105.906 Y87.827 E0.33380
G1 X105.764 Y88.220 E0.01312
G1 X113.416 Y95.872 E0.34010
G1 X113.416 Y96.407 E0.01680
G1 X105.727 Y88.718 E0.34173
G1 X105.727 Y89.252 E0.01680
G1 X113.416 Y96.941 E0.34173
G1 X113.416 Y97.476 E0.01680
G1 X105.727 Y89.787 E0.34173
G1 X105.727 Y90.322 E0.01680
G1 X113.416 Y98.010 E0.34173
G1 X113.416 Y98.545 E0.01680
G1 X105.727 Y90.856 E0.34173
G1 X105.727 Y91.391 E0.01680
G1 X113.416 Y99.079 E0.34173
G1 X113.416 Y99.614 E0.01680
G1 X105.727 Y91.925 E0.34173
G1 X105.727 Y92.460 E0.01680
G1 X113.101 Y99.833 E0.32774
G1 X112.567 Y99.833 E0.01680
G1 X105.727 Y92.994 E0.30398
G1 X105.727 Y93.529 E0.01680
G1 X112.032 Y99.833 E0.28022
G1 X111.497 Y99.833 E0.01680
G1 X105.727 Y94.063 E0.25646
G1 X105.727 Y94.598 E0.01680
G1 X110.963 Y99.833 E0.23270
G1 X110.428 Y99.833 E0.01680
G1 X105.727 Y95.132 E0.20894
G1 X105.727 Y95.667 E0.01680
G1 X109.894 Y99.833 E0.18519
G1 X109.359 Y99.833 E0.01680
G1 X105.727 Y96.201 E0.16143
G1 X105.727 Y96.736 E0.01680
G1 X108.825 Y99.833 E0.13767
G1 X108.290 Y99.833 E0.01680
G1 X105.727 Y97.271 E0.11391
G1 X105.727 Y97.805 E0.01680
G1 X107.756 Y99.833 E0.09015
G1 X107.221 Y99.833 E0.01680
G1 X105.727 Y98.340 E0.06639
G1 X105.727 Y98.874 E0.01680
G1 X106.687 Y99.833 E0.04264
G1 X106.152 Y99.833 E0.01680
G1 X105.558 Y99.239 E0.02642
G1 F8640
G1 X106.152 Y99.833 E-0.19410
G1 X106.687 Y99.833 E-0.12343
G1 X105.727 Y98.874 E-0.31324
G1 X105.727 Y98.340 E-0.12343
G1 X105.745 Y98.357 E-0.00581
G1 E-0.04000 F2100.00000
G1 Z0.800 F10800.000
G1 X145.201 Y125.724
G1 Z0.200
G1 E0.80000 F2100.00000
G1 F1200
G1 X165.113 Y125.724 E0.62431
G1 X165.113 Y163.963 E1.19898
G1 X145.201 Y163.963 E0.62431
G1 X145.201 Y125.784 E1.19710
G1 X145.578 Y126.101 F10800.000
G1 F1200
G1 X164.736 Y126.101 E0.60066
G1 X164.736 Y163.586 E1.17533
G1 X145.578 Y163.586 E0.60066
G1 X145.578 Y126.161 E1.17345
G1 X145.516 Y125.706 F10800.000
G1 F8640
G1 X148.870 Y126.151 E-0.76000
G1 E-0.04000 F2100.00000
G1 Z0.800 F10800.000
G1 X168.645 Y125.724
G1 Z0.200
G1 E0.80000 F2100.00000
G1 F1200
G1 X191.795 Y125.724 E0.72586
G1 X191.795 Y163.963 E1.19898
G1 X168.645 Y163.963 E0.72586
G1 X168.645 Y125.784 E1.19710
G1 X169.022 Y126.101 F10800.000
G1 F1200
G1 X191.418 Y126.101 E0.70222
G1 X191.418 Y163.586 E1.17533
G1 X169.022 Y163.586 E0.70222
G1 X169.022 Y126.161 E1.17345
G1 X168.950 Y125.707 F10800.000
G1 F8640
G1 X172.313 Y126.152 E-0.76000
G1 E-0.04000 F2100.00000
G1 Z0.800 F10800.000
G1 X194.964 Y125.724
G1 Z0.200
G1 E0.80000 F2100.00000
G1 F1200
G1 X215.097 Y125.724 E0.63124
G1 X215.097 Y163.963 E1.19898
G1 X194.964 Y163.963 E0.63124
G1 X194.964 Y125.784 E1.19710
G1 X195.341 Y126.101 F10800.000
G1 F1200
G1 X214.720 Y126.101 E0.60760
G1 X214.720 Y163.586 E1.17533
G1 X195.341 Y163.586 E0.60760
G1 X195.341 Y126.161 E1.17345
G1 X195.278 Y125.706 F10800.000
G1 F8640
G1 X198.633 Y126.151 E-0.76000
G1 E-0.04000 F2100.00000
G1 Z0.800 F10800.000
G1 X165.113 Y96.358
G1 Z0.200
G1 E0.80000 F2100.00000
G1 F1200
G1 X145.201 Y96.358 E0.62431
G1 X145.201 Y57.476 E1.21912
G1 X165.113 Y57.476 E0.62431
G1 X165.113 Y96.298 E1.21724
G1 X164.736 Y95.981 F10800.000
G1 F1200
G1 X145.578 Y95.981 E0.60066
G1 X145.578 Y57.853 E1.19547
G1 X164.736 Y57.853 E0.60066
G1 X164.736 Y95.921 E1.19359
G1 X164.798 Y96.376 F10800.000
G1 F8640
G1 X161.444 Y95.931 E-0.76000
G1 E-0.04000 F2100.00000
G1 Z0.800 F10800.000
G1 X168.645 Y57.476
G1 Z0.200
G1 E0.80000 F2100.00000
G1 F1200
G1 X168.645 Y96.358 E1.21912
G1 X191.795 Y96.358 E0.72586
G1 X191.795 Y68.738 E0.86602
G1 X194.964 Y68.738 E0.09936
G1 X194.964 Y96.358 E0.86602
G1 X215.097 Y96.358 E0.63124
G1 X215.097 Y68.738 E0.86602
G1 X221.772 Y68.738 E0.20929
G1 X221.772 Y73.410 E0.14649
G1 X218.973 Y73.410 E0.08776
G1 X218.973 Y81.987 E0.26894
G1 X221.772 Y81.987 E0.08776
G1 X221.772 Y86.837 E0.15207
G1 X218.973 Y86.837 E0.08776
G1 X218.973 Y95.207 E0.26243
G1 X221.772 Y95.207 E0.08776
G1 X221.772 Y100.467 E0.16493
G1 X218.973 Y100.467 E0.08776
G1 X218.973 Y108.899 E0.26438
G1 X221.772 Y108.899 E0.08776
G1 X221.772 Y113.821 E0.15434
G1 X218.973 Y113.821 E0.08776
G1 X218.973 Y122.108 E0.25983
G1 X221.772 Y122.108 E0.08776
G1 X221.772 Y127.461 E0.16785
G1 X218.973 Y127.461 E0.08776
G1 X218.973 Y135.730 E0.25926
G1 X221.772 Y135.730 E0.08776
G1 X221.772 Y140.999 E0.16520
G1 X218.973 Y140.999 E0.08776
G1 X218.973 Y149.316 E0.26079
G1 X221.772 Y149.316 E0.08776
G1 X221.772 Y154.741 E0.17008
G1 X218.973 Y154.741 E0.08776
G1 X218.973 Y175.871 E0.66253
G1 X144.095 Y175.871 E2.34774
G1 X144.095 Y154.649 E0.66542
G1 X141.326 Y154.649 E0.08681
G1 X141.326 Y149.123 E0.17326
G1 X144.095 Y149.123 E0.08681
G1 X144.095 Y140.926 E0.25699
G1 X141.326 Y140.926 E0.08681
G1 X141.326 Y135.585 E0.16747
G1 X144.095 Y135.585 E0.08681
G1 X144.095 Y127.172 E0.26380
G1 X141.326 Y127.172 E0.08681
G1 X141.326 Y122.108 E0.15877
G1 X144.095 Y122.108 E0.08681
G1 X144.095 Y113.821 E0.25983
G1 X141.326 Y113.821 E0.08681
G1 X141.326 Y108.899 E0.15434
G1 X144.095 Y108.899 E0.08681
G1 X144.095 Y100.467 E0.26438
G1 X141.326 Y100.467 E0.08681
G1 X141.326 Y95.140 E0.16702
G1 X144.095 Y95.140 E0.08681
G1 X144.095 Y87.017 E0.25471
G1 X141.326 Y87.017 E0.08681
G1 X141.326 Y81.469 E0.17394
G1 X144.095 Y81.469 E0.08681
G1 X144.095 Y73.212 E0.25890
G1 X141.326 Y73.212 E0.08681
G1 X141.326 Y67.787 E0.17009
G1 X144.095 Y67.787 E0.08681
G1 X144.095 Y61.827 E0.18688
G1 X138.922 Y61.827 E0.16220
G1 X138.922 Y34.129 E0.86845
G1 X183.390 Y34.129 E1.39425
G1 X183.390 Y57.476 E0.73203
G1 X168.705 Y57.476 E0.46043
G1 X169.022 Y57.853 F10800.000
G1 F1200
G1 X169.022 Y95.981 E1.19547
G1 X191.418 Y95.981 E0.70222
G1 X191.418 Y68.361 E0.86602
G1 X195.341 Y68.361 E0.12301
G1 X195.341 Y95.981 E0.86602
G1 X214.720 Y95.981 E0.60760
G1 X214.720 Y68.361 E0.86602
G1 X222.149 Y68.361 E0.23293
G1 X222.149 Y73.787 E0.17013
G1 X219.350 Y73.787 E0.08776
G1 X219.350 Y81.610 E0.24529
G1 X222.149 Y81.610 E0.08776
G1 X222.149 Y87.214 E0.17572
G1 X219.350 Y87.214 E0.08776
G1 X219.350 Y94.830 E0.23878
G1 X222.149 Y94.830 E0.08776
G1 X222.149 Y100.844 E0.18857
G1 X219.350 Y100.844 E0.08776
G1 X219.350 Y108.522 E0.24073
G1 X222.149 Y108.522 E0.08776
G1 X222.149 Y114.198 E0.17798
G1 X219.350 Y114.198 E0.08776
G1 X219.350 Y121.731 E0.23618
G1 X222.149 Y121.731 E0.08776
G1 X222.149 Y127.838 E0.19150
G1 X219.350 Y127.838 E0.08776
G1 X219.350 Y135.353 E0.23561
G1 X222.149 Y135.353 E0.08776
G1 X222.149 Y141.376 E0.18885
G1 X219.350 Y141.376 E0.08776
G1 X219.350 Y148.939 E0.23714
G1 X222.149 Y148.939 E0.08776
G1 X222.149 Y155.118 E0.19372
G1 X219.350 Y155.118 E0.08776
G1 X219.350 Y176.248 E0.66253
G1 X143.718 Y176.248 E2.37138
G1 X143.718 Y155.026 E0.66542
G1 X140.949 Y155.026 E0.08681
G1 X140.949 Y148.746 E0.19690
G1 X143.718 Y148.746 E0.08681
G1 X143.718 Y141.304 E0.23334
G1 X140.949 Y141.304 E0.08681
G1 X140.949 Y135.208 E0.19112
G1 X143.718 Y135.208 E0.08681
G1 X143.718 Y127.549 E0.24015
G1 X140.949 Y127.549 E0.08681
G1 X140.949 Y121.731 E0.18242
G1 X143.718 Y121.731 E0.08681
G1 X143.718 Y114.198 E0.23618
G1 X140.949 Y114.198 E0.08681
G1 X140.949 Y108.522 E0.17798
G1 X143.718 Y108.522 E0.08681
G1 X143.718 Y100.844 E0.24073
G1 X140.949 Y100.844 E0.08681
G1 X140.949 Y94.763 E0.19066
G1 X143.718 Y94.763 E0.08681
G1 X143.718 Y87.394 E0.23106
G1 X140.949 Y87.394 E0.08681
G1 X140.949 Y81.092 E0.19759
G1 X143.718 Y81.092 E0.08681
G1 X143.718 Y73.589 E0.23526
G1 X140.949 Y73.589 E0.08681
G1 X140.949 Y67.410 E0.19373
G1 X143.718 Y67.410 E0.08681
G1 X143.718 Y62.204 E0.16323
G1 X138.545 Y62.204 E0.16220
G1 X138.545 Y33.752 E0.89210
G1 X183.767 Y33.752 E1.41790
G1 X183.767 Y57.853 E0.75568
G1 X169.082 Y57.853 E0.46043
G1 X168.645 Y57.987 F10800.000
G1 F8640
G1 X169.077 Y61.145 E-0.76000
G1 E-0.04000 F2100.00000
G1 Z0.800 F10800.000
G1 X165.036 Y57.363
G1 Z0.200
G1 E0.80000 F2100.00000
G1 F1200
G1 X142.084 Y34.412 E1.02021
G1 X141.550 Y34.412 E0.01680
G1 X164.331 Y57.193 E1.01267
G1 X163.797 Y57.193 E0.01680
G1 X141.015 Y34.412 E1.01267
G1 X140.481 Y34.412 E0.01680
G1 X163.262 Y57.193 E1.01267
G1 X162.728 Y57.193 E0.01680
G1 X139.946 Y34.412 E1.01267
G1 X139.411 Y34.412 E0.01680
G1 X162.193 Y57.193 E1.01267
G1 X161.658 Y57.193 E0.01680
G1 X139.205 Y34.740 E0.99809
G1 X139.205 Y35.274 E0.01680
G1 X161.124 Y57.193 E0.97433
G1 X160.589 Y57.193 E0.01680
G1 X139.205 Y35.809 E0.95057
G1 X139.205 Y36.343 E0.01680
G1 X160.055 Y57.193 E0.92680
G1 X159.520 Y57.193 E0.01680
G1 X139.205 Y36.878 E0.90304
G1 X139.205 Y37.413 E0.01680
G1 X158.985 Y57.193 E0.87928
G1 X158.451 Y57.193 E0.01680
G1 X139.205 Y37.947 E0.85551
G1 X139.205 Y38.482 E0.01680
G1 X157.916 Y57.193 E0.83175
G1 X157.382 Y57.193 E0.01680
G1 X139.205 Y39.016 E0.80799
G1 X139.205 Y39.551 E0.01680
G1 X156.847 Y57.193 E0.78422
G1 X156.313 Y57.193 E0.01680
G1 X139.205 Y40.085 E0.76046
G1 X139.205 Y40.620 E0.01680
G1 X155.778 Y57.193 E0.73670
G1 X155.243 Y57.193 E0.01680
G1 X139.205 Y41.155 E0.71293
G1 X139.205 Y41.689 E0.01680
G1 X154.709 Y57.193 E0.68917
G1 X154.174 Y57.193 E0.01680
G1 X139.205 Y42.224 E0.66541
G1 X139.205 Y42.758 E0.01680
G1 X153.640 Y57.193 E0.64165
G1 X153.105 Y57.193 E0.01680
G1 X139.205 Y43.293 E0.61788
G1 X139.205 Y43.828 E0.01680
G1 X152.570 Y57.193 E0.59412
G1 X152.036 Y57.193 E0.01680
G1 X139.205 Y44.362 E0.57036
G1 X139.205 Y44.897 E0.01680
G1 X151.501 Y57.193 E0.54659
G1 X150.967 Y57.193 E0.01680
