; generated by PrusaSlicer 2.2.0+win64 on 2020-12-23 at 20:33:15 UTC

; 

; external perimeters extrusion width = 0.45mm
; perimeters extrusion width = 0.45mm
; infill extrusion width = 0.45mm
; solid infill extrusion width = 0.45mm
; top infill extrusion width = 0.40mm
; first layer extrusion width = 0.42mm

M73 P0 R10
M201 X9000 Y9000 Z500 E10000 ; sets maximum accelerations, mm/sec^2
M203 X500 Y500 Z12 E120 ; sets maximum feedrates, mm/sec
M204 P2000 R1500 T2000 ; sets acceleration (P, T) and retract acceleration (R), mm/sec^2
M205 X10.00 Y10.00 Z0.20 E2.50 ; sets the jerk limits, mm/sec
M205 S0 T0 ; sets the minimum extruding and travel feed rate, mm/sec
M107
M862.3 P "MK2S" ; printer model check
M862.1 P0.4 ; nozzle diameter check
M115 U3.2.3 ; tell printer latest fw version
G90 ; use absolute coordinates
M83 ; extruder relative mode
M204 S2000 T1500 ; MK2 firmware only supports the old M204 format
M104 S215 ; set extruder temp
M140 S60 ; set bed temp
M190 S60 ; wait for bed temp
M109 S215 ; wait for extruder temp
G28 W ; home all without mesh bed level
G80 ; mesh bed leveling
G1 Y-3.0 F1000.0 ; go outside print area
G92 E0.0
G1 X60.0 E9.0  F1000.0 ; intro line
M73 P0 R10
G1 X100.0 E12.5 F1000.0 ; intro line
G92 E0.0
G21 ; set units to millimeters
G90 ; use absolute coordinates
M83 ; use relative distances for extrusion
M900 K30 ; Filament gcode
;BEFORE_LAYER_CHANGE
G92 E0.0
;0.2


G1 E-0.80000 F2100.00000
G1 Z0.600 F10800.000
;AFTER_LAYER_CHANGE
;0.2
G1 X111.669 Y102.359
G1 Z0.200
G1 E0.80000 F2100.00000
M204 S1000
G1 F1200.000
G1 X112.178 Y102.513 E0.01668
G1 X112.647 Y102.764 E0.01666
G1 X113.058 Y103.101 E0.01666
G1 X113.395 Y103.512 E0.01666
G1 X113.645 Y103.981 E0.01666
G1 X113.800 Y104.489 E0.01666
G1 X113.852 Y105.018 E0.01666
G1 X113.800 Y105.547 E0.01666
G1 X113.645 Y106.055 E0.01666
G1 X113.395 Y106.524 E0.01666
G1 X113.058 Y106.935 E0.01666
G1 X112.647 Y107.272 E0.01666
G1 X112.178 Y107.523 E0.01666
G1 X111.669 Y107.677 E0.01666
G1 X111.141 Y107.729 E0.01666
G1 X110.612 Y107.677 E0.01666
G1 X110.103 Y107.523 E0.01666
G1 X109.634 Y107.272 E0.01666
G1 X109.224 Y106.935 E0.01666
G1 X108.886 Y106.524 E0.01666
G1 X108.636 Y106.055 E0.01666
G1 X108.482 Y105.547 E0.01666
G1 X108.430 Y105.018 E0.01666
G1 X108.482 Y104.489 E0.01666
G1 X108.636 Y103.981 E0.01666
G1 X108.886 Y103.512 E0.01666
G1 X109.224 Y103.101 E0.01666
G1 X109.634 Y102.764 E0.01666
G1 X110.103 Y102.513 E0.01666
G1 X110.612 Y102.359 E0.01666
G1 X111.128 Y102.308 E0.01626
G1 X111.609 Y102.353 E0.01516
G1 X111.933 Y102.058 F10800.000
G1 E-0.80000 F2100.00000
G1 Z0.800 F10800.000
G1 X125.000 Y109.413
G1 Z0.200
G1 E0.80000 F2100.00000
G1 F1200.000
G1 X108.087 Y109.413 E0.53030
G1 X108.087 Y106.192 E0.10100
G1 X108.258 Y106.149 E0.00554
G1 X108.571 Y106.735 E0.02083
G1 X108.956 Y107.203 E0.01899
G1 X109.424 Y107.587 E0.01899
G1 X109.958 Y107.873 E0.01899
G1 X110.538 Y108.049 E0.01899
G1 X111.141 Y108.108 E0.01899
G1 X111.743 Y108.049 E0.01899
G1 X112.323 Y107.873 E0.01899
G1 X112.857 Y107.587 E0.01899
G1 X113.326 Y107.203 E0.01899
G1 X113.710 Y106.735 E0.01899
G1 X113.995 Y106.200 E0.01899
G1 X114.171 Y105.621 E0.01899
G1 X114.231 Y105.018 E0.01899
G1 X114.171 Y104.415 E0.01899
G1 X113.995 Y103.836 E0.01899
G1 X113.710 Y103.301 E0.01899
G1 X113.326 Y102.833 E0.01899
G1 X112.857 Y102.449 E0.01899
G1 X112.323 Y102.163 E0.01899
G1 X111.742 Y101.987 E0.01904
G1 X111.127 Y101.929 E0.01937
G1 X110.538 Y101.987 E0.01856
G1 X109.958 Y102.163 E0.01899
G1 X109.424 Y102.449 E0.01899
G1 X108.956 Y102.833 E0.01899
G1 X108.571 Y103.301 E0.01899
G1 X108.258 Y103.887 E0.02083
G1 X108.087 Y103.844 E0.00554
G1 X108.087 Y100.587 E0.10213
G1 X141.913 Y100.587 E1.06059
G1 X141.913 Y109.413 E0.27673
G1 X125.060 Y109.413 E0.52842
G1 X125.000 Y109.790 F10800.000
G1 F1200.000
G1 X107.710 Y109.790 E0.54212
G1 X107.710 Y100.210 E0.30037
G1 X142.290 Y100.210 E1.08424
G1 X142.290 Y109.790 E0.30037
G1 X125.060 Y109.790 E0.54024
G1 X124.745 Y109.482 F10800.000
G1 E-0.80000 F2100.00000
G1 Z0.800 F10800.000
G1 X112.494 Y102.127
G1 Z0.200
G1 E0.80000 F2100.00000
G1 F1200.000
G1 X111.238 Y100.870 E0.05591
G1 X110.702 Y100.870 E0.01684
G1 X111.514 Y101.682 E0.03612
G1 X111.126 Y101.645 E0.01226
G1 X110.959 Y101.662 E0.00528
G1 X110.167 Y100.870 E0.03523
G1 X109.632 Y100.870 E0.01684
G1 X110.474 Y101.711 E0.03744
G1 X110.063 Y101.836 E0.01350
G1 X109.097 Y100.870 E0.04298
G1 X108.562 Y100.870 E0.01684
G1 X109.682 Y101.990 E0.04984
G1 X109.333 Y102.176 E0.01244
G1 X108.370 Y101.213 E0.04288
G1 X108.370 Y101.748 E0.01684
G1 X109.029 Y102.407 E0.02933
G1 X108.739 Y102.652 E0.01195
G1 X108.370 Y102.283 E0.01641
G1 X108.370 Y102.818 E0.01684
G1 X108.618 Y103.066 E0.01104
G1 X108.152 Y104.055 F10800.000
G1 F1200.000
G1 X108.102 Y104.393 E0.01255
G1 X108.098 Y104.433 E0.00134
G1 X108.084 Y104.717 E0.00943
G1 X108.070 Y105.001 E0.00877
G1 X108.102 Y105.643 E0.01830
G1 X108.152 Y105.981 E0.01255
G1 X108.200 Y108.535 F10800.000
G1 F1200.000
G1 X108.795 Y109.130 E0.02649
G1 X109.331 Y109.130 E0.01684
G1 X108.370 Y108.169 E0.04275
G1 X108.370 Y107.634 E0.01684
G1 X109.866 Y109.130 E0.06656
G1 X110.401 Y109.130 E0.01684
G1 X108.370 Y107.099 E0.09037
G1 X108.370 Y106.935 E0.00517
G1 X108.755 Y107.404 E0.01910
G1 X109.266 Y107.823 E0.02081
G1 X109.849 Y108.135 E0.02081
G1 X109.981 Y108.175 E0.00432
G1 X110.936 Y109.130 E0.04249
G1 X111.471 Y109.130 E0.01684
G1 X110.688 Y108.348 E0.03482
G1 X111.141 Y108.392 E0.01430
G1 X111.257 Y108.381 E0.00367
G1 X112.006 Y109.130 E0.03335
G1 X112.541 Y109.130 E0.01684
G1 X111.744 Y108.333 E0.03548
G1 X112.163 Y108.217 E0.01369
G1 X113.076 Y109.130 E0.04064
G1 X113.611 Y109.130 E0.01684
G1 X112.552 Y108.071 E0.04713
G1 X112.901 Y107.884 E0.01244
G1 X114.147 Y109.130 E0.05543
G1 X114.682 Y109.130 E0.01684
G1 X113.213 Y107.661 E0.06536
G1 X113.507 Y107.420 E0.01196
G1 X115.217 Y109.130 E0.07609
G1 X115.752 Y109.130 E0.01684
G1 X113.751 Y107.130 E0.08901
G1 X113.982 Y106.825 E0.01202
G1 X116.287 Y109.130 E0.10256
G1 X116.822 Y109.130 E0.01684
G1 X114.168 Y106.476 E0.11808
G1 X114.258 Y106.309 E0.00596
G1 X114.323 Y106.095 E0.00703
G1 X117.357 Y109.130 E0.13503
G1 X117.892 Y109.130 E0.01684
G1 X114.447 Y105.685 E0.15330
G1 X114.497 Y105.199 E0.01536
G1 X118.428 Y109.130 E0.17490
G1 X118.963 Y109.130 E0.01684
G1 X114.478 Y104.645 E0.19955
G1 X114.450 Y104.360 E0.00903
G1 X114.329 Y103.961 E0.01310
G1 X119.498 Y109.130 E0.22999
G1 X120.033 Y109.130 E0.01684
G1 X111.773 Y100.870 E0.36755
G1 X112.308 Y100.870 E0.01684
G1 X120.568 Y109.130 E0.36755
G1 X121.103 Y109.130 E0.01684
G1 X112.843 Y100.870 E0.36755
G1 X113.378 Y100.870 E0.01684
G1 X121.638 Y109.130 E0.36755
G1 X122.173 Y109.130 E0.01684
G1 X113.913 Y100.870 E0.36755
G1 X114.448 Y100.870 E0.01684
G1 X122.709 Y109.130 E0.36755
G1 X123.244 Y109.130 E0.01684
G1 X114.983 Y100.870 E0.36755
G1 X115.519 Y100.870 E0.01684
G1 X123.779 Y109.130 E0.36755
G1 X124.314 Y109.130 E0.01684
G1 X116.054 Y100.870 E0.36755
G1 X116.589 Y100.870 E0.01684
G1 X124.849 Y109.130 E0.36755
G1 X125.384 Y109.130 E0.01684
G1 X117.124 Y100.870 E0.36755
G1 X117.659 Y100.870 E0.01684
G1 X125.919 Y109.130 E0.36755
G1 X126.454 Y109.130 E0.01684
G1 X118.194 Y100.870 E0.36755
G1 X118.729 Y100.870 E0.01684
G1 X126.990 Y109.130 E0.36755
G1 X127.525 Y109.130 E0.01684
G1 X119.264 Y100.870 E0.36755
G1 X119.800 Y100.870 E0.01684
G1 X128.060 Y109.130 E0.36755
G1 X128.595 Y109.130 E0.01684
G1 X120.335 Y100.870 E0.36755
G1 X120.870 Y100.870 E0.01684
G1 X129.130 Y109.130 E0.36755
G1 X129.665 Y109.130 E0.01684
G1 X121.405 Y100.870 E0.36755
G1 X121.940 Y100.870 E0.01684
G1 X130.200 Y109.130 E0.36755
G1 X130.735 Y109.130 E0.01684
G1 X122.475 Y100.870 E0.36755
G1 X123.010 Y100.870 E0.01684
G1 X131.271 Y109.130 E0.36755
G1 X131.806 Y109.130 E0.01684
G1 X123.545 Y100.870 E0.36755
G1 X124.081 Y100.870 E0.01684
G1 X132.341 Y109.130 E0.36755
G1 X132.876 Y109.130 E0.01684
G1 X124.616 Y100.870 E0.36755
G1 X125.151 Y100.870 E0.01684
G1 X133.411 Y109.130 E0.36755
G1 X133.946 Y109.130 E0.01684
G1 X125.686 Y100.870 E0.36755
G1 X126.221 Y100.870 E0.01684
G1 X134.481 Y109.130 E0.36755
G1 X135.016 Y109.130 E0.01684
G1 X126.756 Y100.870 E0.36755
G1 X127.291 Y100.870 E0.01684
G1 X135.552 Y109.130 E0.36755
G1 X136.087 Y109.130 E0.01684
G1 X127.826 Y100.870 E0.36755
G1 X128.362 Y100.870 E0.01684
G1 X136.622 Y109.130 E0.36755
G1 X137.157 Y109.130 E0.01684
G1 X128.897 Y100.870 E0.36755
G1 X129.432 Y100.870 E0.01684
G1 X137.692 Y109.130 E0.36755
G1 X138.227 Y109.130 E0.01684
G1 X129.967 Y100.870 E0.36755
G1 X130.502 Y100.870 E0.01684
G1 X138.762 Y109.130 E0.36755
G1 X139.297 Y109.130 E0.01684
G1 X131.037 Y100.870 E0.36755
G1 X131.572 Y100.870 E0.01684
G1 X139.833 Y109.130 E0.36755
G1 X140.368 Y109.130 E0.01684
G1 X132.107 Y100.870 E0.36755
G1 X132.643 Y100.870 E0.01684
G1 X140.903 Y109.130 E0.36755
G1 X141.438 Y109.130 E0.01684
G1 X133.178 Y100.870 E0.36755
G1 X133.713 Y100.870 E0.01684
G1 X141.630 Y108.787 E0.35229
G1 X141.630 Y108.252 E0.01684
G1 X134.248 Y100.870 E0.32848
G1 X134.783 Y100.870 E0.01684
G1 X141.630 Y107.717 E0.30467
G1 X141.630 Y107.182 E0.01684
G1 X135.318 Y100.870 E0.28086
G1 X135.853 Y100.870 E0.01684
G1 X141.630 Y106.647 E0.25705
G1 X141.630 Y106.112 E0.01684
G1 X136.388 Y100.870 E0.23324
G1 X136.924 Y100.870 E0.01684
G1 X141.630 Y105.577 E0.20943
G1 X141.630 Y105.041 E0.01684
G1 X137.459 Y100.870 E0.18562
G1 X137.994 Y100.870 E0.01684
G1 X141.630 Y104.506 E0.16181
G1 X141.630 Y103.971 E0.01684
G1 X138.529 Y100.870 E0.13799
G1 X139.064 Y100.870 E0.01684
G1 X141.630 Y103.436 E0.11418
G1 X141.630 Y102.901 E0.01684
G1 X139.599 Y100.870 E0.09037
G1 X140.134 Y100.870 E0.01684
G1 X141.630 Y102.366 E0.06656
G1 X141.630 Y101.831 E0.01684
G1 X140.669 Y100.870 E0.04275
G1 X141.205 Y100.870 E0.01684
G1 X141.800 Y101.465 E0.02649
M106 S255
;BEFORE_LAYER_CHANGE
G92 E0.0
;0.4


G1 E-0.80000 F2100.00000
G1 Z0.800 F10800.000
;AFTER_LAYER_CHANGE
;0.4
M104 S210 ; set temperature
G1 X111.672 Y107.692
G1 Z0.400
G1 E0.80000 F2100.00000
M204 S800
G1 F1500.000
G1 X111.141 Y107.744 E0.01809
G1 X110.609 Y107.692 E0.01809
G1 X110.097 Y107.537 E0.01809
G1 X109.626 Y107.285 E0.01809
G1 X109.213 Y106.946 E0.01809
G1 X108.874 Y106.533 E0.01809
G1 X108.622 Y106.061 E0.01809
G1 X108.467 Y105.550 E0.01809
G1 X108.415 Y105.018 E0.01809
G1 X108.467 Y104.486 E0.01809
G1 X108.622 Y103.975 E0.01809
G1 X108.874 Y103.503 E0.01809
G1 X109.213 Y103.090 E0.01809
G1 X109.626 Y102.751 E0.01809
G1 X110.097 Y102.499 E0.01809
G1 X110.609 Y102.344 E0.01809
G1 X111.102 Y102.296 E0.01679
G1 X111.671 Y102.344 E0.01931
G1 X112.184 Y102.499 E0.01814
G1 X112.655 Y102.751 E0.01809
G1 X113.068 Y103.090 E0.01809
G1 X113.407 Y103.503 E0.01809
G1 X113.659 Y103.975 E0.01809
G1 X113.814 Y104.486 E0.01809
G1 X113.867 Y105.018 E0.01809
G1 X113.814 Y105.550 E0.01809
G1 X113.659 Y106.061 E0.01809
G1 X113.407 Y106.533 E0.01809
G1 X113.068 Y106.946 E0.01809
G1 X112.655 Y107.285 E0.01809
G1 X112.184 Y107.537 E0.01809
G1 X111.730 Y107.674 E0.01606
M204 S1000
G1 X111.544 Y108.070 F10800.000
G1 E-0.80000 F2100.00000
G1 Z1.000 F10800.000
G1 X125.000 Y109.368
G1 Z0.400
G1 E0.80000 F2100.00000
M204 S800
G1 F2625
G1 X108.132 Y109.368 E0.57096
G1 X108.132 Y106.400 E0.10046
G1 X108.317 Y106.354 E0.00645
G1 X108.534 Y106.760 E0.01558
G1 X108.924 Y107.235 E0.02080
G1 X109.399 Y107.625 E0.02080
G1 X109.941 Y107.914 E0.02080
G1 X110.529 Y108.093 E0.02080
G1 X111.141 Y108.153 E0.02080
G1 X111.752 Y108.093 E0.02080
G1 X112.340 Y107.914 E0.02080
G1 X112.882 Y107.625 E0.02080
G1 X113.357 Y107.235 E0.02080
G1 X113.747 Y106.760 E0.02080
G1 X114.037 Y106.218 E0.02080
G1 X114.215 Y105.630 E0.02080
G1 X114.276 Y105.018 E0.02080
G1 X114.215 Y104.406 E0.02080
G1 X114.037 Y103.818 E0.02080
G1 X113.747 Y103.276 E0.02080
G1 X113.357 Y102.801 E0.02080
G1 X112.882 Y102.411 E0.02080
G1 X112.340 Y102.121 E0.02080
G1 X111.748 Y101.942 E0.02095
G1 X111.100 Y101.887 E0.02203
G1 X110.529 Y101.943 E0.01941
G1 X109.941 Y102.121 E0.02080
G1 X109.399 Y102.411 E0.02080
G1 X108.924 Y102.801 E0.02080
G1 X108.534 Y103.276 E0.02080
G1 X108.317 Y103.682 E0.01558
G1 X108.132 Y103.636 E0.00645
G1 X108.132 Y100.632 E0.10167
G1 X141.868 Y100.632 E1.14193
G1 X141.868 Y109.368 E0.29570
G1 X125.060 Y109.368 E0.56893
M204 S1000
G1 X125.000 Y109.775 F10800.000
M204 S800
G1 F2400.000
G1 X107.725 Y109.775 E0.58474
G1 X107.725 Y100.225 E0.32326
G1 X142.275 Y100.225 E1.16949
G1 X142.275 Y109.775 E0.32326
G1 X125.060 Y109.775 E0.58271
M204 S1000
G1 X124.745 Y109.467 F10800.000
G1 E-0.80000 F2100.00000
G1 Z1.000 F10800.000
G1 X114.242 Y105.962
G1 Z0.400
G1 E0.80000 F2100.00000
M204 S2000
G1 F2625
G1 X119.267 Y100.937 E0.24073
G1 X118.690 Y100.937 E0.01952
G1 X114.580 Y105.048 E0.19697
G1 X114.533 Y104.518 E0.01802
G1 X118.114 Y100.937 E0.17157
G1 X117.538 Y100.937 E0.01952
G1 X114.426 Y104.049 E0.14910
G1 X114.321 Y103.701 E0.01233
G1 X114.278 Y103.621 E0.00306
G1 X116.962 Y100.937 E0.12859
G1 X116.385 Y100.937 E0.01952
G1 X114.077 Y103.246 E0.11060
G1 X114.002 Y103.106 E0.00537
G1 X113.839 Y102.907 E0.00870
G1 X115.809 Y100.937 E0.09438
G1 X115.233 Y100.937 E0.01952
G1 X113.580 Y102.591 E0.07922
G1 X113.264 Y102.330 E0.01387
G1 X114.657 Y100.937 E0.06671
G1 X114.081 Y100.937 E0.01952
G1 X112.928 Y102.090 E0.05521
G1 X112.553 Y101.889 E0.01443
G1 X113.504 Y100.937 E0.04559
G1 X112.928 Y100.937 E0.01952
G1 X112.128 Y101.738 E0.03836
G1 X111.806 Y101.640 E0.01139
G1 X111.661 Y101.628 E0.00492
G1 X112.352 Y100.937 E0.03309
G1 X111.776 Y100.937 E0.01952
G1 X111.130 Y101.583 E0.03094
G1 X110.497 Y101.639 E0.02152
G1 X111.199 Y100.937 E0.03364
G1 X110.623 Y100.937 E0.01952
G1 X109.607 Y101.954 E0.04871
G1 X109.228 Y102.156 E0.01453
G1 X108.751 Y102.548 E0.02093
G1 X108.594 Y102.391 E0.00754
G1 X110.047 Y100.937 E0.06963
G1 X109.471 Y100.937 E0.01952
G1 X108.437 Y101.971 E0.04952
G1 X108.437 Y101.395 E0.01952
G1 X109.078 Y100.754 E0.03068
M204 S1000
G1 X108.603 Y102.832 F10800.000
G1 F2400.000
G1 X108.335 Y103.100 E0.00255
G1 X108.181 Y103.858 F10800.000
G1 F2400.000
G1 X108.141 Y104.127 E0.00996
G1 X108.101 Y104.396 E0.00888
G1 X108.084 Y104.717 E0.00922
G1 X108.070 Y105.004 E0.00742
G1 X108.101 Y105.640 E0.01494
G1 X108.181 Y106.178 E0.01777
G1 X108.335 Y106.936 F10800.000
G1 F2400.000
G1 X108.603 Y107.204 E0.00255
G1 X108.254 Y107.916 F10800.000
M204 S2000
G1 F2625
G1 X108.525 Y107.645 E0.01300
G1 X108.560 Y107.679 E0.00164
G1 X108.751 Y107.488 E0.00917
G1 X109.030 Y107.717 E0.01222
G1 X108.437 Y108.309 E0.02839
G1 X108.437 Y108.886 E0.01952
G1 X109.368 Y107.955 E0.04461
G1 X109.744 Y108.155 E0.01443
G1 X108.836 Y109.063 E0.04347
G1 X109.413 Y109.063 E0.01952
G1 X110.172 Y108.304 E0.03637
G1 X110.469 Y108.394 E0.01053
G1 X110.641 Y108.411 E0.00585
G1 X109.989 Y109.063 E0.03124
G1 X110.565 Y109.063 E0.01952
G1 X111.171 Y108.457 E0.02902
G1 X111.810 Y108.394 E0.02176
G1 X111.141 Y109.063 E0.03204
G1 X111.718 Y109.063 E0.01952
G1 X119.843 Y100.937 E0.38931
G1 X120.419 Y100.937 E0.01952
G1 X112.294 Y109.063 E0.38931
G1 X112.870 Y109.063 E0.01952
G1 X120.995 Y100.937 E0.38931
M73 P10 R9
G1 X121.572 Y100.937 E0.01952
G1 X113.446 Y109.063 E0.38931
G1 X114.023 Y109.063 E0.01952
G1 X122.148 Y100.937 E0.38931
G1 X122.724 Y100.937 E0.01952
G1 X114.599 Y109.063 E0.38931
G1 X115.175 Y109.063 E0.01952
G1 X123.300 Y100.937 E0.38931
G1 X123.876 Y100.937 E0.01952
G1 X115.751 Y109.063 E0.38931
G1 X116.327 Y109.063 E0.01952
G1 X124.453 Y100.937 E0.38931
G1 X125.029 Y100.937 E0.01952
G1 X116.904 Y109.063 E0.38931
G1 X117.480 Y109.063 E0.01952
G1 X125.605 Y100.937 E0.38931
G1 X126.181 Y100.937 E0.01952
G1 X118.056 Y109.063 E0.38931
G1 X118.632 Y109.063 E0.01952
G1 X126.758 Y100.937 E0.38931
G1 X127.334 Y100.937 E0.01952
G1 X119.209 Y109.063 E0.38931
G1 X119.785 Y109.063 E0.01952
G1 X127.910 Y100.937 E0.38931
G1 X128.486 Y100.937 E0.01952
G1 X120.361 Y109.063 E0.38931
G1 X120.937 Y109.063 E0.01952
G1 X129.063 Y100.937 E0.38931
G1 X129.639 Y100.937 E0.01952
G1 X121.514 Y109.063 E0.38931
G1 X122.090 Y109.063 E0.01952
G1 X130.215 Y100.937 E0.38931
G1 X130.791 Y100.937 E0.01952
