; generated by PrusaSlicer 2.1.1+win64 on 2020-05-22 at 21:47:34 UTC

; 

; external perimeters extrusion width = 0.60mm
; perimeters extrusion width = 0.43mm
; infill extrusion width = 0.45mm
; solid infill extrusion width = 0.70mm
; top infill extrusion width = 0.43mm
; support material extrusion width = 0.37mm
; first layer extrusion width = 0.42mm

; external perimeters extrusion width = 0.60mm
; perimeters extrusion width = 0.43mm
; infill extrusion width = 0.45mm
; solid infill extrusion width = 0.70mm
; top infill extrusion width = 0.43mm
; support material extrusion width = 0.37mm
; first layer extrusion width = 0.42mm

; external perimeters extrusion width = 0.45mm
; perimeters extrusion width = 0.45mm
; infill extrusion width = 0.45mm
; solid infill extrusion width = 0.45mm
; top infill extrusion width = 0.40mm
; support material extrusion width = 0.37mm
; first layer extrusion width = 0.42mm

M73 P0 R165
M201 X9000 Y9000 Z500 E10000 ; sets maximum accelerations, mm/sec^2
M203 X500 Y500 Z12 E120 ; sets maximum feedrates, mm/sec
M204 P2000 R1500 T2000 ; sets acceleration (P, T) and retract acceleration (R), mm/sec^2
M205 X10.00 Y10.00 Z0.20 E2.50 ; sets the jerk limits, mm/sec
M205 S0 T0 ; sets the minimum extruding and travel feed rate, mm/sec
M107
M862.3 P "MK2S" ; printer model check
M862.1 P0.4 ; nozzle diameter check
M115 U3.2.3 ; tell printer latest fw version
G90 ; use absolute coordinates
M83 ; extruder relative mode
M204 S2000 T1500 ; MK2 firmware only supports the old M204 format
M104 S215 ; set extruder temp
M140 S60 ; set bed temp
M190 S60 ; wait for bed temp
M109 S215 ; wait for extruder temp
G28 W ; home all without mesh bed level
G80 ; mesh bed leveling
G1 Y-3.0 F1000.0 ; go outside print area
G92 E0.0
G1 X60.0 E9.0  F1000.0 ; intro line
M73 P0 R165
G1 X100.0 E12.5 F1000.0 ; intro line
G92 E0.0
G21 ; set units to millimeters
G90 ; use absolute coordinates
M83 ; use relative distances for extrusion
M900 K30 ; Filament gcode
;BEFORE_LAYER_CHANGE
G92 E0.0
;0.2


G1 E-0.80000 F2100.00000
G1 Z0.600 F10800.000
;AFTER_LAYER_CHANGE
;0.2
G1 X157.825 Y186.751
G1 Z0.200
G1 E0.80000 F2100.00000
M204 S1000
G1 F1200
G1 X157.068 Y187.197 E0.02754
G1 X156.361 Y187.315 E0.02247
G1 X108.379 Y187.315 E1.50444
G1 X107.668 Y187.197 E0.02259
G1 X70.523 Y169.489 E1.29026
G1 X69.782 Y169.006 E0.02773
G1 X69.028 Y168.292 E0.03256
G1 X68.496 Y167.547 E0.02870
G1 X61.268 Y155.029 E0.45319
G1 X60.925 Y154.301 E0.02525
G1 X60.611 Y153.006 E0.04177
G1 X56.277 Y95.199 E1.81759
G1 X56.071 Y30.852 E2.01757
G1 X56.110 Y29.652 E0.03765
G1 X56.369 Y28.352 E0.04154
G1 X56.819 Y27.169 E0.03971
G1 X57.407 Y26.152 E0.03684
G1 X58.474 Y24.895 E0.05169
G1 X59.361 Y24.159 E0.03613
G1 X60.492 Y23.498 E0.04108
G1 X61.701 Y23.041 E0.04051
G1 X62.954 Y22.792 E0.04005
G1 X100.787 Y22.680 E1.18624
G1 X101.917 Y22.695 E0.03544
G1 X103.045 Y22.885 E0.03586
G1 X104.480 Y23.381 E0.04761
G1 X166.766 Y54.582 E2.18427
G1 X167.420 Y54.967 E0.02379
G1 X168.020 Y55.453 E0.02422
G1 X175.556 Y62.556 E0.32468
G1 X176.107 Y63.187 E0.02628
G1 X176.600 Y64.004 E0.02990
G1 X192.935 Y109.273 E1.50896
G1 X193.050 Y110.082 E0.02563
G1 X192.859 Y110.881 E0.02574
G1 X158.345 Y186.043 E2.59324
G1 X157.860 Y186.702 E0.02566
G1 E-0.80000 F2100.00000
G1 Z0.800 F10800.000
G1 X178.763 Y119.933
G1 Z0.200
G1 E0.80000 F2100.00000
G1 F1200
G1 X178.763 Y113.768 E0.19332
G1 X178.009 Y113.868 E0.02385
G1 X178.009 Y119.764 E0.18486
G1 X177.255 Y119.764 E0.02365
G1 X177.255 Y113.968 E0.18173
G1 X176.500 Y114.078 E0.02390
G1 X176.500 Y119.764 E0.17826
G1 X175.746 Y119.764 E0.02365
G1 X175.746 Y117.141 E0.08224
G1 X174.992 Y117.141 E0.02365
G1 X174.992 Y119.764 E0.08224
G1 X174.238 Y119.764 E0.02365
G1 X174.238 Y117.141 E0.08224
G1 X173.484 Y117.141 E0.02365
G1 X173.484 Y119.764 E0.08224
G1 X172.730 Y119.764 E0.02365
G1 X172.730 Y117.141 E0.08224
G1 X171.975 Y117.141 E0.02365
G1 X171.975 Y119.764 E0.08224
G1 X171.221 Y119.764 E0.02365
G1 X171.221 Y117.141 E0.08224
G1 X171.177 Y117.141 E0.00139
G1 X171.177 Y116.975 E0.00520
G1 X170.467 Y116.975 E0.02226
G1 X170.467 Y119.764 E0.08743
G1 X169.713 Y119.764 E0.02365
G1 X169.713 Y116.975 E0.08743
G1 X169.554 Y116.837 E0.00659
G1 X169.554 Y117.141 E0.00952
G1 X168.959 Y117.141 E0.01866
G1 X168.959 Y119.764 E0.08224
G1 X168.205 Y119.764 E0.02365
G1 X168.205 Y117.141 E0.08224
G1 X167.451 Y117.141 E0.02365
G1 X167.451 Y119.764 E0.08224
G1 X166.696 Y119.764 E0.02365
G1 X166.696 Y117.141 E0.08224
G1 X166.587 Y117.141 E0.00342
G1 X166.587 Y114.260 E0.09033
G1 X165.942 Y114.181 E0.02038
G1 X165.942 Y119.764 E0.17504
G1 X165.188 Y119.764 E0.02365
G1 X165.188 Y114.076 E0.17833
G1 X164.434 Y113.963 E0.02391
G1 X164.434 Y119.764 E0.18187
G1 X163.680 Y119.764 E0.02365
G1 X163.680 Y113.863 E0.18500
G1 X162.926 Y113.763 E0.02385
G1 X162.926 Y119.764 E0.18814
G1 X162.171 Y119.764 E0.02365
G1 X162.171 Y113.470 E0.19734
G1 E-0.80000 F2100.00000
G1 Z0.800 F10800.000
G1 X167.190 Y114.434
G1 Z0.200
G1 E0.80000 F2100.00000
G1 F1200
G1 X167.190 Y116.805 E0.06447
G1 X167.685 Y116.805 E0.01346
G1 X167.685 Y114.733 E0.05635
G1 X168.043 Y114.893 E0.01065
G1 X168.180 Y114.977 E0.00438
G1 X168.180 Y116.938 E0.05333
G1 X168.959 Y116.768 F10800.000
G1 F1200
G1 X168.959 Y114.580 E0.06859
G1 X168.205 Y114.450 E0.02399
G1 X168.205 Y114.794 E0.01077
G1 X172.730 Y116.768 F10800.000
G1 F1200
G1 X172.730 Y114.595 E0.06812
G1 X173.484 Y114.458 E0.02404
G1 X173.484 Y114.822 E0.01142
G1 X173.129 Y115.287 F10800.000
G1 F1200
G1 X173.129 Y116.805 E0.04129
G1 X173.624 Y116.805 E0.01346
G1 X173.624 Y114.927 E0.05108
G1 X173.991 Y114.751 E0.01106
G1 X174.119 Y114.709 E0.00367
G1 X174.119 Y116.805 E0.05700
G1 X174.614 Y116.805 E0.01346
G1 X174.614 Y114.548 E0.06138
G1 X175.109 Y114.419 E0.01391
G1 X175.109 Y116.805 E0.06490
G1 X175.603 Y116.805 E0.01346
G1 X175.603 Y114.295 E0.06826
G1 X176.098 Y114.170 E0.01388
G1 X176.098 Y116.938 E0.07527
G1 X171.254 Y115.900 F10800.000
G1 F1200
G1 X170.469 Y115.900 E0.02462
G1 X170.439 Y114.510 E0.04358
G1 X170.279 Y114.142 E0.01257
G1 X170.043 Y113.882 E0.01102
G1 X169.744 Y113.705 E0.01089
G1 X169.319 Y113.557 E0.01413
G1 X168.514 Y113.406 E0.02567
G1 X166.114 Y113.120 E0.07578
G1 X162.781 Y112.658 E0.10551
G1 X160.374 Y112.228 E0.07665
G1 X158.005 Y111.691 E0.07618
G1 X155.662 Y111.046 E0.07618
G1 X153.352 Y110.293 E0.07618
G1 X151.629 Y109.643 E0.05776
G1 X152.142 Y108.375 E0.04289
G1 X154.235 Y109.154 E0.07005
G1 X156.929 Y109.993 E0.08846
G1 X159.665 Y110.682 E0.08846
G1 X162.435 Y111.220 E0.08846
G1 X165.230 Y111.606 E0.08846
G1 X168.041 Y111.837 E0.08846
G1 X170.862 Y111.915 E0.08846
G1 X173.682 Y111.837 E0.08846
G1 X176.494 Y111.606 E0.08846
G1 X179.288 Y111.220 E0.08846
G1 X182.058 Y110.682 E0.08846
G1 X184.794 Y109.993 E0.08846
G1 X187.488 Y109.154 E0.08846
G1 X189.581 Y108.375 E0.07005
G1 X190.094 Y109.643 E0.04289
G1 X188.371 Y110.293 E0.05776
G1 X186.061 Y111.046 E0.07618
G1 X183.718 Y111.691 E0.07618
G1 X181.349 Y112.228 E0.07618
G1 X178.955 Y112.656 E0.07623
G1 X175.700 Y113.103 E0.10301
G1 X173.458 Y113.373 E0.07082
G1 X172.611 Y113.512 E0.02691
G1 X172.213 Y113.621 E0.01293
G1 X171.925 Y113.732 E0.00967
G1 X171.691 Y113.877 E0.00866
G1 X171.506 Y114.059 E0.00812
G1 X171.372 Y114.273 E0.00792
G1 X171.283 Y114.536 E0.00870
G1 X171.255 Y115.840 E0.04088
G1 X171.715 Y114.435 F10800.000
G1 F1200
G1 X171.659 Y114.602 E0.00550
G1 X171.623 Y116.277 E0.05253
G1 X170.100 Y116.277 E0.04777
G1 X170.064 Y114.592 E0.05282
G1 X169.958 Y114.350 E0.00830
G1 X169.802 Y114.177 E0.00730
G1 X169.585 Y114.048 E0.00791
G1 X169.222 Y113.922 E0.01205
G1 X168.457 Y113.779 E0.02439
G1 X166.066 Y113.494 E0.07551
G1 X162.722 Y113.030 E0.10585
G1 X160.299 Y112.598 E0.07715
G1 X157.913 Y112.057 E0.07672
G1 X155.554 Y111.407 E0.07672
G1 X153.227 Y110.649 E0.07672
G1 X151.134 Y109.859 E0.07013
G1 X151.930 Y107.893 E0.06650
G1 X154.357 Y108.797 E0.08123
G1 X157.032 Y109.629 E0.08781
G1 X159.747 Y110.314 E0.08781
G1 X162.496 Y110.848 E0.08781
G1 X165.271 Y111.231 E0.08781
G1 X168.062 Y111.461 E0.08781
G1 X170.862 Y111.538 E0.08781
G1 X173.661 Y111.461 E0.08781
G1 X176.452 Y111.231 E0.08781
G1 X179.227 Y110.848 E0.08781
G1 X181.976 Y110.314 E0.08781
G1 X184.691 Y109.629 E0.08781
G1 X187.366 Y108.797 E0.08781
G1 X189.793 Y107.893 E0.08123
G1 X190.589 Y109.859 E0.06650
G1 X188.496 Y110.649 E0.07013
G1 X186.169 Y111.407 E0.07672
G1 X183.810 Y112.057 E0.07672
G1 X181.424 Y112.598 E0.07672
G1 X179.014 Y113.029 E0.07674
G1 X175.749 Y113.477 E0.10335
G1 X173.511 Y113.746 E0.07066
G1 X172.692 Y113.881 E0.02603
G1 X172.331 Y113.980 E0.01173
G1 X172.094 Y114.071 E0.00797
G1 X171.925 Y114.176 E0.00622
G1 X171.802 Y114.297 E0.00541
G1 X171.747 Y114.385 E0.00325
G1 X171.540 Y114.450 F10800.000
G1 X171.155 Y115.226
G1 F1200
G1 X170.728 Y114.798 E0.01918
G1 X170.740 Y115.350 E0.01751
G1 X171.144 Y115.754 E0.01814
G1 E-0.80000 F2100.00000
G1 Z0.800 F10800.000
G1 X153.021 Y110.047
G1 Z0.200
G1 E0.80000 F2100.00000
G1 F1200
G1 X152.130 Y109.157 E0.03996
G1 X152.286 Y108.773 E0.01316
G1 X153.585 Y110.072 E0.05831
G1 X154.385 Y110.332 E0.02673
G1 X153.078 Y109.025 E0.05868
G1 X153.938 Y109.346 E0.02913
G1 X155.186 Y110.593 E0.05601
G1 X155.970 Y110.837 E0.02606
G1 X154.740 Y109.608 E0.05519
G1 X155.524 Y109.851 E0.02605
G1 X156.715 Y111.043 E0.05347
G1 X157.460 Y111.248 E0.02454
G1 X156.308 Y110.095 E0.05174
G1 X157.072 Y110.320 E0.02530
G1 X158.197 Y111.445 E0.05048
G1 X158.895 Y111.603 E0.02272
G1 X157.794 Y110.502 E0.04942
G1 X158.516 Y110.684 E0.02362
G1 X159.593 Y111.761 E0.04836
G1 X160.291 Y111.919 E0.02272
G1 X159.237 Y110.866 E0.04730
G1 X159.934 Y111.022 E0.02265
G1 X160.957 Y112.045 E0.04592
G1 X161.614 Y112.162 E0.02119
G1 X160.604 Y111.152 E0.04534
G1 X161.274 Y111.283 E0.02167
G1 X162.271 Y112.280 E0.04476
G1 X162.923 Y112.392 E0.02102
G1 X161.944 Y111.413 E0.04397
G1 X162.599 Y111.528 E0.02112
G1 X163.550 Y112.479 E0.04269
G1 X164.177 Y112.566 E0.02008
G1 X163.226 Y111.615 E0.04270
G1 X163.852 Y111.701 E0.02007
G1 X164.804 Y112.653 E0.04272
G1 X165.430 Y112.740 E0.02008
G1 X164.478 Y111.787 E0.04274
G1 X165.104 Y111.874 E0.02007
G1 X166.057 Y112.826 E0.04276
G1 X166.672 Y112.902 E0.01967
G1 X165.698 Y111.928 E0.04371
G1 X166.287 Y111.977 E0.01874
G1 X167.285 Y112.975 E0.04482
G1 X167.898 Y113.048 E0.01960
G1 X166.875 Y112.025 E0.04593
G1 X167.464 Y112.074 E0.01874
G1 X168.511 Y113.121 E0.04704
G1 X169.171 Y113.241 E0.02129
G1 X168.050 Y112.121 E0.05032
G1 X168.606 Y112.136 E0.01763
G1 X171.001 Y114.531 E0.10751
G1 X171.002 Y114.487 E0.00140
G1 X171.132 Y114.123 E0.01228
G1 X169.161 Y112.151 E0.08851
G1 X169.716 Y112.166 E0.01763
G1 X171.358 Y113.808 E0.07370
G1 X171.515 Y113.654 E0.00700
G1 X171.655 Y113.566 E0.00526
G1 X170.271 Y112.181 E0.06216
G1 X170.826 Y112.197 E0.01763
G1 X172.021 Y113.392 E0.05366
G1 X172.436 Y113.267 E0.01375
G1 X171.353 Y112.184 E0.04860
G1 X171.879 Y112.170 E0.01668
G1 X172.889 Y113.180 E0.04534
G1 X173.352 Y113.104 E0.01492
G1 X172.404 Y112.155 E0.04257
G1 X172.930 Y112.141 E0.01668
G1 X173.832 Y113.043 E0.04049
G1 X174.313 Y112.985 E0.01540
G1 X173.455 Y112.127 E0.03853
G1 X173.966 Y112.098 E0.01625
G1 X174.795 Y112.927 E0.03722
G1 X175.277 Y112.869 E0.01540
G1 X174.465 Y112.057 E0.03646
G1 X174.964 Y112.016 E0.01588
G1 X175.757 Y112.809 E0.03564
G1 X176.232 Y112.744 E0.01521
G1 X175.462 Y111.974 E0.03456
G1 X175.961 Y111.933 E0.01588
G1 X176.707 Y112.679 E0.03348
G1 X177.182 Y112.614 E0.01521
G1 X176.460 Y111.892 E0.03240
G1 X176.937 Y111.830 E0.01529
G1 X177.656 Y112.549 E0.03228
G1 X178.131 Y112.484 E0.01521
G1 X177.412 Y111.764 E0.03229
G1 X177.886 Y111.699 E0.01520
G1 X178.606 Y112.419 E0.03230
G1 X178.911 Y112.377 E0.00979
G1 X179.074 Y112.347 E0.00526
G1 X178.360 Y111.634 E0.03205
G1 X178.835 Y111.568 E0.01520
G1 X179.532 Y112.266 E0.03131
G1 X179.990 Y112.184 E0.01477
G1 X179.309 Y111.503 E0.03058
G1 X179.763 Y111.416 E0.01465
G1 X180.448 Y112.102 E0.03079
G1 X180.906 Y112.020 E0.01477
G1 X180.215 Y111.328 E0.03106
G1 X180.667 Y111.240 E0.01462
G1 X181.362 Y111.935 E0.03120
G1 X181.802 Y111.836 E0.01432
G1 X181.119 Y111.152 E0.03067
G1 X181.571 Y111.065 E0.01462
G1 X182.242 Y111.736 E0.03013
G1 X182.682 Y111.636 E0.01432
G1 X182.023 Y110.977 E0.02960
G1 X182.458 Y110.873 E0.01422
G1 X183.122 Y111.536 E0.02980
G1 X183.562 Y111.437 E0.01432
G1 X182.889 Y110.764 E0.03020
G1 X183.321 Y110.655 E0.01412
G1 X183.989 Y111.323 E0.02999
G1 X184.412 Y111.207 E0.01393
G1 X183.752 Y110.547 E0.02963
G1 X184.183 Y110.438 E0.01412
G1 X184.835 Y111.090 E0.02927
G1 X185.259 Y110.973 E0.01393
G1 X184.614 Y110.329 E0.02892
G1 X185.038 Y110.213 E0.01394
G1 X185.682 Y110.857 E0.02891
G1 X185.979 Y110.775 E0.00980
G1 X186.100 Y110.736 E0.00404
G1 X185.449 Y110.085 E0.02921
G1 X185.861 Y109.957 E0.01369
G1 X186.507 Y110.603 E0.02901
G1 X186.915 Y110.470 E0.01359
G1 X186.273 Y109.828 E0.02881
G1 X186.685 Y109.700 E0.01369
G1 X187.322 Y110.338 E0.02860
G1 X187.729 Y110.205 E0.01359
G1 X187.096 Y109.572 E0.02840
G1 X187.508 Y109.444 E0.01369
G1 X188.136 Y110.072 E0.02820
G1 X188.277 Y110.026 E0.00470
G1 X188.534 Y109.930 E0.00870
G1 X187.905 Y109.301 E0.02823
G1 X188.298 Y109.154 E0.01332
G1 X188.926 Y109.782 E0.02817
G1 X189.317 Y109.634 E0.01330
G1 X188.691 Y109.008 E0.02810
G1 X189.085 Y108.861 E0.01332
G1 X189.841 Y109.618 E0.03395
G1 E-0.80000 F2100.00000
G1 Z0.800 F10800.000
G1 X83.560 Y161.672
G1 Z0.200
G1 E0.80000 F2100.00000
G1 F1200
G1 X83.779 Y162.142 E0.01625
G1 X83.914 Y162.642 E0.01625
G1 X83.959 Y163.159 E0.01625
G1 X83.914 Y163.675 E0.01625
G1 X83.779 Y164.176 E0.01625
G1 X83.560 Y164.645 E0.01625
G1 X83.263 Y165.070 E0.01625
G1 X82.897 Y165.436 E0.01625
G1 X82.472 Y165.734 E0.01625
G1 X82.003 Y165.953 E0.01625
G1 X81.502 Y166.087 E0.01625
G1 X80.986 Y166.132 E0.01625
G1 X80.469 Y166.087 E0.01625
G1 X79.969 Y165.953 E0.01625
G1 X79.516 Y165.741 E0.01568
G1 X79.076 Y165.438 E0.01675
G1 X78.708 Y165.070 E0.01631
G1 X78.411 Y164.645 E0.01625
G1 X78.192 Y164.176 E0.01625
G1 X78.058 Y163.675 E0.01625
G1 X78.013 Y163.159 E0.01625
G1 X78.058 Y162.642 E0.01625
G1 X78.192 Y162.142 E0.01625
G1 X78.411 Y161.672 E0.01625
G1 X78.708 Y161.248 E0.01625
G1 X79.075 Y160.881 E0.01625
G1 X79.499 Y160.584 E0.01625
G1 X79.969 Y160.365 E0.01625
G1 X80.469 Y160.231 E0.01625
G1 X80.967 Y160.187 E0.01568
G1 X81.500 Y160.230 E0.01675
G1 X82.003 Y160.365 E0.01631
G1 X82.472 Y160.584 E0.01625
G1 X82.897 Y160.881 E0.01625
G1 X83.263 Y161.248 E0.01625
G1 X83.526 Y161.623 E0.01437
G1 X83.217 Y161.839 F10800.000
G1 F1200
G1 X83.424 Y162.271 E0.01502
G1 X83.541 Y162.708 E0.01418
G1 X83.580 Y163.159 E0.01418
G1 X83.541 Y163.609 E0.01418
G1 X83.424 Y164.046 E0.01418
G1 X83.233 Y164.456 E0.01418
G1 X82.973 Y164.827 E0.01418
G1 X82.653 Y165.146 E0.01418
G1 X82.283 Y165.406 E0.01418
G1 X81.873 Y165.597 E0.01418
G1 X81.436 Y165.714 E0.01418
G1 X80.986 Y165.753 E0.01418
G1 X80.535 Y165.714 E0.01418
G1 X80.098 Y165.597 E0.01418
G1 X79.704 Y165.413 E0.01365
G1 X79.318 Y165.147 E0.01469
G1 X78.998 Y164.827 E0.01420
G1 X78.739 Y164.456 E0.01418
G1 X78.548 Y164.046 E0.01418
G1 X78.431 Y163.609 E0.01418
G1 X78.391 Y163.159 E0.01418
G1 X78.431 Y162.708 E0.01418
G1 X78.548 Y162.271 E0.01418
G1 X78.739 Y161.861 E0.01418
G1 X78.998 Y161.491 E0.01418
G1 X79.318 Y161.171 E0.01418
G1 X79.688 Y160.912 E0.01418
G1 X80.098 Y160.721 E0.01418
G1 X80.535 Y160.604 E0.01418
G1 X80.969 Y160.566 E0.01365
G1 X81.436 Y160.603 E0.01469
G1 X81.873 Y160.721 E0.01420
G1 X82.283 Y160.912 E0.01418
G1 X82.653 Y161.171 E0.01418
G1 X82.973 Y161.491 E0.01418
G1 X83.183 Y161.790 E0.01145
G1 X83.617 Y161.836 F10800.000
G1 E-0.80000 F2100.00000
G1 Z0.800 F10800.000
G1 X90.659 Y148.128
G1 Z0.200
G1 E0.80000 F2100.00000
G1 F1200
G1 X90.251 Y148.201 E0.01300
G1 X69.011 Y148.201 E0.66596
G1 X68.779 Y148.180 E0.00731
G1 X68.370 Y148.032 E0.01363
G1 X68.007 Y147.730 E0.01483
G1 X67.772 Y147.324 E0.01471
G1 X67.700 Y146.915 E0.01302
G1 X67.700 Y124.657 E0.69788
G1 X67.772 Y124.248 E0.01302
G1 X67.993 Y123.866 E0.01384
G1 X68.194 Y123.664 E0.00895
G1 X68.577 Y123.444 E0.01384
