; generated by PrusaSlicer 2.1.0+win64 on 2019-12-04 at 18:34:26 UTC

; 

; external perimeters extrusion width = 0.60mm
; perimeters extrusion width = 0.43mm
; infill extrusion width = 0.45mm
; solid infill extrusion width = 0.70mm
; top infill extrusion width = 0.43mm
; first layer extrusion width = 0.42mm

M73 P0 R20
M201 X9000 Y9000 Z500 E10000 ; sets maximum accelerations, mm/sec^2
M203 X500 Y500 Z12 E120 ; sets maximum feedrates, mm/sec
M204 P2000 R1500 T2000 ; sets acceleration (P, T) and retract acceleration (R), mm/sec^2
M205 X10.00 Y10.00 Z0.20 E2.50 ; sets the jerk limits, mm/sec
M205 S0 T0 ; sets the minimum extruding and travel feed rate, mm/sec
M107
M862.3 P "MK2S" ; printer model check
M862.1 P0.4 ; nozzle diameter check
M115 U3.2.3 ; tell printer latest fw version
G90 ; use absolute coordinates
M83 ; extruder relative mode
M204 S2000 T1500 ; MK2 firmware only supports the old M204 format
M104 S215 ; set extruder temp
M140 S60 ; set bed temp
M190 S60 ; wait for bed temp
M109 S215 ; wait for extruder temp
G28 W ; home all without mesh bed level
G80 ; mesh bed leveling
G1 Y-3.0 F1000.0 ; go outside print area
G92 E0.0
G1 X60.0 E9.0  F1000.0 ; intro line
M73 P0 R20
G1 X100.0 E12.5 F1000.0 ; intro line
G92 E0.0
G21 ; set units to millimeters
G90 ; use absolute coordinates
M83 ; use relative distances for extrusion
M900 K30 ; Filament gcode
;BEFORE_LAYER_CHANGE
G92 E0.0
;0.2


G1 E-0.80000 F2100.00000
G1 Z0.600 F10800.000
;AFTER_LAYER_CHANGE
;0.2
G1 X84.387 Y83.988
G1 Z0.200
G1 E0.80000 F2100.00000
M204 S1000
G1 F1200
G1 X84.940 Y83.573 E0.02168
G1 X85.595 Y83.351 E0.02168
G1 X164.043 Y83.320 E2.45968
G1 X164.808 Y83.459 E0.02439
G1 X165.476 Y83.858 E0.02439
G1 X165.961 Y84.462 E0.02428
G1 X166.206 Y85.200 E0.02439
G1 X166.227 Y96.538 E0.35548
G1 X166.040 Y97.396 E0.02754
G1 X146.257 Y125.775 E1.08467
G1 X145.637 Y126.352 E0.02653
G1 X144.849 Y126.649 E0.02642
G1 X105.505 Y126.680 E1.23360
G1 X105.020 Y126.623 E0.01532
G1 X104.556 Y126.458 E0.01544
G1 X104.096 Y126.156 E0.01726
G1 X103.725 Y125.749 E0.01726
G1 X84.159 Y97.750 E1.07102
G1 X83.933 Y97.333 E0.01487
G1 X83.803 Y96.873 E0.01498
G1 X83.791 Y85.220 E0.36536
G1 X83.989 Y84.558 E0.02168
G1 X84.353 Y84.037 E0.01991
G1 E-0.80000 F2100.00000
G1 Z0.800 F10800.000
G1 X123.131 Y112.545
G1 Z0.200
G1 E0.80000 F2100.00000
G1 F1200
G1 X123.011 Y112.630 E0.00461
G1 X122.790 Y112.872 E0.01027
G1 X122.155 Y113.805 E0.03538
G1 X121.818 Y114.238 E0.01722
G1 X121.481 Y114.626 E0.01610
G1 X121.140 Y114.975 E0.01532
G1 X120.792 Y115.290 E0.01470
G1 X120.437 Y115.573 E0.01423
G1 X120.074 Y115.828 E0.01391
G1 X119.696 Y116.061 E0.01394
G1 X118.924 Y116.462 E0.02727
G1 X117.649 Y116.997 E0.04334
G1 X117.094 Y117.185 E0.01837
G1 X116.514 Y117.332 E0.01877
G1 X115.917 Y117.443 E0.01904
G1 X114.749 Y117.573 E0.03685
G1 X114.166 Y117.605 E0.01829
G1 X113.102 Y117.621 E0.03336
G1 X111.239 Y117.586 E0.05843
G1 X110.656 Y117.524 E0.01840
G1 X109.828 Y117.340 E0.02657
G1 X109.055 Y117.072 E0.02566
G1 X108.350 Y116.748 E0.02434
G1 X107.995 Y116.535 E0.01297
G1 X107.680 Y116.283 E0.01265
G1 X107.410 Y116.004 E0.01218
G1 X107.183 Y115.705 E0.01176
G1 X106.997 Y115.394 E0.01137
G1 X106.843 Y115.065 E0.01138
G1 X106.654 Y114.457 E0.01999
G1 X106.595 Y114.127 E0.01050
G1 X106.561 Y113.576 E0.01730
G1 X106.579 Y113.296 E0.00879
G1 X106.652 Y112.878 E0.01330
G1 X106.776 Y112.467 E0.01348
G1 X106.938 Y112.071 E0.01340
G1 X107.133 Y111.685 E0.01355
G1 X107.567 Y110.992 E0.02564
G1 X108.034 Y110.377 E0.02421
G1 X108.473 Y109.872 E0.02100
G1 X108.840 Y109.489 E0.01662
G1 X109.044 Y109.309 E0.00854
G1 X109.295 Y109.138 E0.00951
G1 X109.816 Y108.894 E0.01802
G1 X110.427 Y108.726 E0.01989
G1 X111.122 Y108.622 E0.02203
G1 X112.286 Y108.563 E0.03653
G1 X112.793 Y108.564 E0.01592
G1 X113.318 Y108.614 E0.01653
G1 X113.870 Y108.741 E0.01774
G1 X115.734 Y109.356 E0.06156
G1 X116.529 Y109.598 E0.02604
G1 X117.449 Y109.838 E0.02983
G1 X118.521 Y110.065 E0.03435
G1 X119.767 Y110.265 E0.03957
G1 X121.209 Y110.425 E0.04550
G1 X122.870 Y110.531 E0.05217
G1 X124.770 Y110.570 E0.05960
G1 X126.591 Y110.537 E0.05710
G1 X128.316 Y110.446 E0.05415
G1 X129.935 Y110.308 E0.05096
G1 X131.441 Y110.135 E0.04752
G1 X132.825 Y109.940 E0.04382
G1 X134.076 Y109.735 E0.03975
G1 X138.149 Y108.947 E0.13007
G1 X138.534 Y108.919 E0.01210
G1 X139.264 Y109.007 E0.02307
G1 X139.903 Y109.160 E0.02059
G1 X140.475 Y109.371 E0.01913
G1 X140.982 Y109.631 E0.01784
G1 X141.422 Y109.929 E0.01669
G1 X141.799 Y110.256 E0.01562
G1 X142.113 Y110.599 E0.01460
G1 X142.367 Y110.951 E0.01360
G1 X142.565 Y111.301 E0.01260
G1 X142.709 Y111.642 E0.01162
G1 X142.801 Y111.971 E0.01073
G1 X142.839 Y112.264 E0.00926
G1 X142.856 Y113.054 E0.02478
G1 X142.844 Y113.728 E0.02113
G1 X142.805 Y114.317 E0.01851
G1 X142.740 Y114.831 E0.01624
G1 X142.650 Y115.279 E0.01433
G1 X142.533 Y115.670 E0.01278
G1 X142.390 Y116.010 E0.01157
G1 X142.220 Y116.303 E0.01063
G1 X142.026 Y116.550 E0.00984
G1 X141.809 Y116.761 E0.00951
G1 X141.402 Y117.045 E0.01556
G1 X140.838 Y117.326 E0.01975
G1 X140.228 Y117.547 E0.02034
G1 X139.587 Y117.718 E0.02081
G1 X138.928 Y117.848 E0.02105
G1 X138.261 Y117.943 E0.02112
G1 X136.993 Y118.050 E0.03990
G1 X135.886 Y118.079 E0.03474
G1 X134.819 Y118.059 E0.03346
G1 X134.253 Y118.011 E0.01781
G1 X133.706 Y117.921 E0.01738
G1 X133.188 Y117.796 E0.01672
G1 X132.693 Y117.641 E0.01625
G1 X131.830 Y117.287 E0.02927
G1 X131.108 Y116.905 E0.02559
G1 X130.557 Y116.553 E0.02051
G1 X130.191 Y116.283 E0.01426
G1 X129.410 Y115.616 E0.03219
G1 X128.795 Y115.002 E0.02724
G1 X128.531 Y114.706 E0.01245
G1 X128.117 Y114.180 E0.02098
G1 X127.807 Y113.722 E0.01735
G1 X127.336 Y112.944 E0.02850
G1 X127.190 Y112.768 E0.00719
G1 X127.039 Y112.632 E0.00636
G1 X126.882 Y112.530 E0.00586
G1 X126.710 Y112.451 E0.00595
G1 X126.523 Y112.395 E0.00613
G1 X126.005 Y112.320 E0.01641
G1 X125.365 Y112.301 E0.02006
G1 X124.125 Y112.317 E0.03888
G1 X123.767 Y112.352 E0.01128
G1 X123.489 Y112.405 E0.00889
G1 X123.185 Y112.519 E0.01016
G1 X123.019 Y112.180 F10800.000
G1 F1200
G1 X122.770 Y112.339 E0.00925
G1 X122.624 Y112.480 E0.00637
G1 X122.488 Y112.646 E0.00672
G1 X121.850 Y113.582 E0.03553
G1 X121.526 Y113.998 E0.01652
G1 X121.203 Y114.370 E0.01545
G1 X120.878 Y114.704 E0.01461
G1 X120.548 Y115.002 E0.01396
G1 X120.211 Y115.271 E0.01350
G1 X119.866 Y115.513 E0.01321
G1 X119.509 Y115.733 E0.01316
G1 X118.764 Y116.120 E0.02635
G1 X117.516 Y116.644 E0.04244
G1 X116.987 Y116.823 E0.01749
G1 X116.433 Y116.964 E0.01793
G1 X115.861 Y117.070 E0.01823
G1 X114.718 Y117.197 E0.03608
G1 X114.153 Y117.228 E0.01773
G1 X113.103 Y117.244 E0.03293
G1 X111.263 Y117.209 E0.05772
G1 X110.716 Y117.151 E0.01722
G1 X109.932 Y116.977 E0.02521
G1 X109.196 Y116.722 E0.02441
G1 X108.526 Y116.414 E0.02312
G1 X108.211 Y116.224 E0.01154
G1 X107.934 Y116.003 E0.01111
G1 X107.696 Y115.758 E0.01072
G1 X107.496 Y115.494 E0.01039
G1 X107.330 Y115.217 E0.01011
G1 X107.195 Y114.929 E0.00997
G1 X107.021 Y114.367 E0.01845
G1 X106.970 Y114.082 E0.00908
G1 X106.939 Y113.576 E0.01589
G1 X106.954 Y113.341 E0.00739
G1 X107.020 Y112.966 E0.01194
G1 X107.132 Y112.593 E0.01221
G1 X107.282 Y112.228 E0.01237
G1 X107.462 Y111.871 E0.01254
G1 X107.877 Y111.207 E0.02456
G1 X108.327 Y110.615 E0.02329
G1 X108.752 Y110.126 E0.02033
G1 X109.101 Y109.761 E0.01583
G1 X109.276 Y109.607 E0.00731
G1 X109.482 Y109.466 E0.00782
G1 X109.946 Y109.250 E0.01607
G1 X110.506 Y109.096 E0.01819
G1 X111.160 Y108.997 E0.02074
G1 X112.295 Y108.940 E0.03564
G1 X112.775 Y108.941 E0.01505
G1 X113.257 Y108.987 E0.01520
G1 X113.768 Y109.105 E0.01643
G1 X115.620 Y109.715 E0.06115
G1 X116.426 Y109.960 E0.02641
G1 X117.363 Y110.205 E0.03035
G1 X118.452 Y110.436 E0.03492
G1 X119.716 Y110.639 E0.04015
G1 X121.177 Y110.801 E0.04607
G1 X122.854 Y110.908 E0.05270
G1 X124.770 Y110.947 E0.06009
G1 X126.605 Y110.914 E0.05754
G1 X128.342 Y110.822 E0.05454
G1 X129.973 Y110.683 E0.05132
G1 X131.489 Y110.510 E0.04785
G1 X132.882 Y110.313 E0.04411
G1 X134.143 Y110.106 E0.04005
G1 X138.199 Y109.321 E0.12954
G1 X138.525 Y109.297 E0.01025
G1 X139.197 Y109.379 E0.02124
G1 X139.793 Y109.522 E0.01921
G1 X140.323 Y109.717 E0.01771
G1 X140.789 Y109.956 E0.01641
G1 X141.192 Y110.229 E0.01527
G1 X141.535 Y110.526 E0.01422
G1 X141.820 Y110.838 E0.01324
G1 X142.049 Y111.155 E0.01226
G1 X142.226 Y111.467 E0.01125
G1 X142.352 Y111.767 E0.01021
G1 X142.431 Y112.047 E0.00912
G1 X142.462 Y112.292 E0.00776
G1 X142.479 Y113.055 E0.02391
G1 X142.467 Y113.713 E0.02062
G1 X142.429 Y114.281 E0.01787
G1 X142.368 Y114.770 E0.01545
G1 X142.284 Y115.188 E0.01335
G1 X142.178 Y115.542 E0.01159
G1 X142.052 Y115.841 E0.01017
G1 X141.907 Y116.091 E0.00906
G1 X141.745 Y116.297 E0.00822
G1 X141.568 Y116.470 E0.00774
G1 X141.209 Y116.720 E0.01372
G1 X140.689 Y116.979 E0.01820
G1 X140.115 Y117.187 E0.01916
G1 X139.502 Y117.350 E0.01990
G1 X138.865 Y117.476 E0.02035
G1 X138.219 Y117.568 E0.02047
G1 X136.972 Y117.673 E0.03921
G1 X135.884 Y117.702 E0.03413
G1 X134.838 Y117.682 E0.03281
G1 X134.300 Y117.637 E0.01695
G1 X133.781 Y117.551 E0.01647
G1 X133.289 Y117.432 E0.01589
G1 X132.821 Y117.286 E0.01535
G1 X131.990 Y116.945 E0.02818
G1 X131.298 Y116.579 E0.02454
G1 X130.770 Y116.242 E0.01963
G1 X130.425 Y115.988 E0.01343
G1 X129.666 Y115.339 E0.03131
G1 X129.069 Y114.743 E0.02643
G1 X128.820 Y114.463 E0.01175
G1 X128.421 Y113.958 E0.02020
G1 X128.125 Y113.519 E0.01661
G1 X127.644 Y112.725 E0.02909
G1 X127.462 Y112.506 E0.00893
G1 X127.269 Y112.332 E0.00813
G1 X127.065 Y112.199 E0.00767
G1 X126.843 Y112.098 E0.00763
G1 X126.605 Y112.026 E0.00781
G1 X126.037 Y111.944 E0.01797
G1 X125.368 Y111.924 E0.02098
G1 X124.105 Y111.940 E0.03963
G1 X123.713 Y111.978 E0.01233
G1 X123.395 Y112.039 E0.01015
G1 X123.073 Y112.154 E0.01074
G1 X123.004 Y112.475 F10800.000
G1 E-0.80000 F2100.00000
G1 Z0.800 F10800.000
G1 X106.103 Y103.095
G1 Z0.200
G1 E0.80000 F2100.00000
G1 F1200
G1 X143.897 Y103.095 E1.18499
G1 X143.897 Y123.905 E0.65245
G1 X106.103 Y123.905 E1.18499
G1 X106.103 Y103.155 E0.65057
G1 X105.726 Y102.718 F10800.000
G1 F1200
G1 X144.274 Y102.718 E1.20864
G1 X144.274 Y124.282 E0.67610
G1 X105.726 Y124.282 E1.20864
G1 X105.726 Y102.778 E0.67422
G1 X106.120 Y102.786 F10800.000
G1 E-0.80000 F2100.00000
G1 Z0.800 F10800.000
G1 X106.711 Y112.305
G1 Z0.200
G1 E0.80000 F2100.00000
G1 F1200
G1 X106.386 Y111.980 E0.01443
G1 X106.386 Y111.446 E0.01678
G1 X106.752 Y111.812 E0.01627
G1 X106.938 Y111.464 E0.01240
G1 X106.386 Y110.911 E0.02453
G1 X106.386 Y110.377 E0.01678
G1 X107.144 Y111.135 E0.03366
G1 X107.351 Y110.808 E0.01216
G1 X106.386 Y109.843 E0.04287
G1 X106.386 Y109.309 E0.01678
G1 X107.582 Y110.505 E0.05312
G1 X107.813 Y110.201 E0.01197
G1 X106.386 Y108.775 E0.06337
G1 X106.386 Y108.241 E0.01678
G1 X108.061 Y109.915 E0.07439
G1 X108.312 Y109.632 E0.01189
G1 X106.386 Y107.706 E0.08553
G1 X106.386 Y107.172 E0.01678
G1 X108.573 Y109.359 E0.09713
G1 X108.851 Y109.103 E0.01187
G1 X106.386 Y106.638 E0.10947
G1 X106.386 Y106.104 E0.01678
G1 X109.167 Y108.885 E0.12354
G1 X109.531 Y108.715 E0.01262
G1 X106.386 Y105.570 E0.13971
G1 X106.386 Y105.035 E0.01678
G1 X109.922 Y108.572 E0.15707
G1 X110.341 Y108.456 E0.01364
G1 X106.386 Y104.501 E0.17567
G1 X106.386 Y103.967 E0.01678
G1 X110.803 Y108.384 E0.19617
G1 X111.283 Y108.330 E0.01520
G1 X106.386 Y103.433 E0.21753
G1 X106.386 Y103.378 E0.00172
G1 X106.866 Y103.378 E0.01506
G1 X111.792 Y108.305 E0.21882
G1 X112.302 Y108.280 E0.01602
G1 X107.400 Y103.378 E0.21773
G1 X107.934 Y103.378 E0.01678
G1 X112.840 Y108.284 E0.21790
G1 X113.443 Y108.353 E0.01906
G1 X108.468 Y103.378 E0.22096
G1 X109.002 Y103.378 E0.01678
G1 X114.165 Y108.541 E0.22931
G1 X114.961 Y108.803 E0.02634
G1 X109.536 Y103.378 E0.24096
G1 X110.071 Y103.378 E0.01678
G1 X115.758 Y109.066 E0.25262
G1 X116.528 Y109.302 E0.02531
G1 X110.605 Y103.378 E0.26311
G1 X111.139 Y103.378 E0.01678
G1 X117.256 Y109.495 E0.27170
G1 X117.950 Y109.655 E0.02236
G1 X111.673 Y103.378 E0.27879
G1 X112.207 Y103.378 E0.01678
G1 X118.624 Y109.795 E0.28501
G1 X119.260 Y109.897 E0.02025
G1 X112.741 Y103.378 E0.28955
G1 X113.276 Y103.378 E0.01678
G1 X119.892 Y109.994 E0.29387
G1 X120.493 Y110.061 E0.01899
G1 X113.810 Y103.378 E0.29683
G1 X114.344 Y103.378 E0.01678
G1 X121.093 Y110.128 E0.29979
G1 X121.671 Y110.171 E0.01820
G1 X114.878 Y103.378 E0.30173
G1 X115.412 Y103.378 E0.01678
G1 X122.242 Y110.208 E0.30335
G1 X122.813 Y110.244 E0.01796
G1 X115.947 Y103.378 E0.30497
G1 X116.481 Y103.378 E0.01678
G1 X123.361 Y110.258 E0.30560
G1 X123.906 Y110.270 E0.01713
G1 X117.015 Y103.378 E0.30609
G1 X117.549 Y103.378 E0.01678
G1 X124.451 Y110.281 E0.30658
G1 X124.988 Y110.283 E0.01686
G1 X118.083 Y103.378 E0.30670
G1 X118.617 Y103.378 E0.01678
G1 X125.513 Y110.274 E0.30627
G1 X126.037 Y110.264 E0.01648
G1 X119.152 Y103.378 E0.30585
G1 X119.686 Y103.378 E0.01678
G1 X126.562 Y110.255 E0.30543
G1 X127.070 Y110.228 E0.01597
G1 X120.220 Y103.378 E0.30426
G1 X120.754 Y103.378 E0.01678
G1 X127.577 Y110.201 E0.30307
G1 X128.085 Y110.175 E0.01596
G1 X121.288 Y103.378 E0.30188
G1 X121.823 Y103.378 E0.01678
G1 X128.583 Y110.139 E0.30029
G1 X129.076 Y110.097 E0.01552
G1 X122.357 Y103.378 E0.29843
G1 X122.891 Y103.378 E0.01678
G1 X129.568 Y110.055 E0.29657
G1 X130.056 Y110.009 E0.01540
G1 X123.425 Y103.378 E0.29454
G1 X123.959 Y103.378 E0.01678
G1 X130.535 Y109.954 E0.29210
G1 X131.015 Y109.900 E0.01515
G1 X124.493 Y103.378 E0.28966
G1 X125.028 Y103.378 E0.01678
G1 X131.492 Y109.843 E0.28713
G1 X131.960 Y109.777 E0.01485
G1 X125.562 Y103.378 E0.28420
G1 X126.096 Y103.378 E0.01678
G1 X132.428 Y109.711 E0.28127
G1 X132.894 Y109.642 E0.01479
G1 X126.630 Y103.378 E0.27824
G1 X127.164 Y103.378 E0.01678
G1 X133.353 Y109.567 E0.27489
G1 X133.812 Y109.492 E0.01460
G1 X127.699 Y103.378 E0.27154
G1 X128.233 Y103.378 E0.01678
G1 X134.265 Y109.410 E0.26793
G1 X134.712 Y109.324 E0.01432
G1 X128.767 Y103.378 E0.26408
G1 X129.301 Y103.378 E0.01678
G1 X135.160 Y109.237 E0.26023
M73 P5 R19
G1 X135.607 Y109.150 E0.01432
G1 X129.835 Y103.378 E0.25639
G1 X130.369 Y103.378 E0.01678
G1 X136.055 Y109.064 E0.25254
G1 X136.503 Y108.977 E0.01432
G1 X130.904 Y103.378 E0.24869
G1 X131.438 Y103.378 E0.01678
G1 X136.950 Y108.891 E0.24485
G1 X137.398 Y108.804 E0.01432
G1 X131.972 Y103.378 E0.24100
G1 X132.506 Y103.378 E0.01678
G1 X137.845 Y108.717 E0.23715
G1 X138.112 Y108.666 E0.00853
G1 X138.313 Y108.651 E0.00634
G1 X133.040 Y103.378 E0.23421
G1 X133.574 Y103.378 E0.01678
G1 X138.871 Y108.675 E0.23526
G1 X139.314 Y108.729 E0.01403
G1 X139.504 Y108.774 E0.00614
G1 X134.109 Y103.378 E0.23967
G1 X134.643 Y103.378 E0.01678
G1 X140.544 Y109.279 E0.26211
G1 E-0.80000 F2100.00000
G1 Z0.800 F10800.000
G1 X143.784 Y103.972
G1 Z0.200
G1 E0.80000 F2100.00000
G1 F1200
G1 X143.190 Y103.378 E0.02638
G1 X142.656 Y103.378 E0.01678
G1 X143.614 Y104.337 E0.04257
G1 X143.614 Y104.871 E0.01678
G1 X142.121 Y103.378 E0.06630
G1 X141.587 Y103.378 E0.01678
G1 X143.614 Y105.405 E0.09002
G1 X143.614 Y105.939 E0.01678
G1 X141.053 Y103.378 E0.11375
G1 X140.519 Y103.378 E0.01678
G1 X143.614 Y106.473 E0.13748
G1 X143.614 Y107.008 E0.01678
G1 X139.985 Y103.378 E0.16121
G1 X139.450 Y103.378 E0.01678
G1 X143.614 Y107.542 E0.18493
G1 X143.614 Y108.076 E0.01678
G1 X138.916 Y103.378 E0.20866
G1 X138.382 Y103.378 E0.01678
G1 X143.614 Y108.610 E0.23239
G1 X143.614 Y109.144 E0.01678
G1 X137.848 Y103.378 E0.25611
G1 X137.314 Y103.378 E0.01678
G1 X143.614 Y109.678 E0.27984
G1 X143.614 Y110.213 E0.01678
G1 X136.780 Y103.378 E0.30357
G1 X136.245 Y103.378 E0.01678
G1 X143.614 Y110.747 E0.32729
G1 X143.614 Y111.281 E0.01678
G1 X135.711 Y103.378 E0.35102
G1 X135.177 Y103.378 E0.01678
G1 X143.614 Y111.815 E0.37475
G1 X143.614 Y112.349 E0.01678
G1 X143.040 Y111.775 E0.02550
G1 X143.079 Y111.915 E0.00455
G1 X143.125 Y112.394 E0.01512
G1 X143.614 Y112.884 E0.02174
G1 X143.614 Y113.418 E0.01678
G1 X143.136 Y112.940 E0.02123
G1 X143.131 Y113.469 E0.01662
G1 X143.614 Y113.952 E0.02145
G1 X143.614 Y114.486 E0.01678
G1 X143.110 Y113.982 E0.02237
G1 X143.070 Y114.476 E0.01556
G1 X143.614 Y115.020 E0.02416
