; G-Code generated by Simplify3D(R) Version 4.1.1
; Apr 26, 2019 at 12:13:31 PM
; Settings Summary
;   processName,Process1
;   applyToModels,orbV1R1
;   profileName,Original Prusa i3 MK2 RC4
;   profileVersion,2019-04-14 22:45:17
;   baseProfile,Prusa Mendel (modified)
;   printMaterial,PLA
;   printQuality,NORMAL 0.2mm
;   printExtruders,
;   extruderName,Primary Extruder
;   extruderToolheadNumber,0
;   extruderDiameter,0.4
;   extruderAutoWidth,0
;   extruderWidth,0.45
;   extrusionMultiplier,1
;   extruderUseRetract,1
;   extruderRetractionDistance,0.8
;   extruderExtraRestartDistance,0
;   extruderRetractionZLift,0
;   extruderRetractionSpeed,1800
;   extruderUseCoasting,1
;   extruderCoastingDistance,0.2
;   extruderUseWipe,1
;   extruderWipeDistance,2
;   primaryExtruder,0
;   layerHeight,0.2
;   topSolidLayers,3
;   bottomSolidLayers,3
;   perimeterOutlines,2
;   printPerimetersInsideOut,1
;   startPointOption,2
;   startPointOriginX,0
;   startPointOriginY,0
;   sequentialIslands,0
;   spiralVaseMode,0
;   firstLayerHeightPercentage,100
;   firstLayerWidthPercentage,95
;   firstLayerUnderspeed,0.6
;   useRaft,0
;   raftExtruder,0
;   raftTopLayers,3
;   raftBaseLayers,2
;   raftOffset,3
;   raftSeparationDistance,0.14
;   raftTopInfill,100
;   aboveRaftSpeedMultiplier,0.3
;   useSkirt,0
;   skirtExtruder,0
;   skirtLayers,1
;   skirtOutlines,1
;   skirtOffset,1.8
;   usePrimePillar,0
;   primePillarExtruder,999
;   primePillarWidth,12
;   primePillarLocation,7
;   primePillarSpeedMultiplier,1
;   useOozeShield,0
;   oozeShieldExtruder,999
;   oozeShieldOffset,2
;   oozeShieldOutlines,1
;   oozeShieldSidewallShape,1
;   oozeShieldSidewallAngle,30
;   oozeShieldSpeedMultiplier,1
;   infillExtruder,0
;   internalInfillPattern,Rectilinear
;   externalInfillPattern,Rectilinear
;   infillPercentage,30
;   outlineOverlapPercentage,21
;   infillExtrusionWidthPercentage,100
;   minInfillLength,2
;   infillLayerInterval,1
;   internalInfillAngles,45,-45
;   overlapInternalInfillAngles,0
;   externalInfillAngles,45,-45
;   generateSupport,0
;   supportExtruder,0
;   supportInfillPercentage,30
;   supportExtraInflation,0.5
;   supportBaseLayers,0
;   denseSupportExtruder,0
;   denseSupportLayers,0
;   denseSupportInfillPercentage,70
;   supportLayerInterval,1
;   supportHorizontalPartOffset,0.2
;   supportUpperSeparationLayers,1
;   supportLowerSeparationLayers,1
;   supportType,0
;   supportGridSpacing,4
;   maxOverhangAngle,45
;   supportAngles,0
;   temperatureName,Primary Extruder,Heated Bed
;   temperatureNumber,0,1
;   temperatureSetpointCount,1,1
;   temperatureSetpointLayers,1,1
;   temperatureSetpointTemperatures,230,55
;   temperatureStabilizeAtStartup,1,1
;   temperatureHeatedBed,0,1
;   fanLayers,1,2
;   fanSpeeds,0,100
;   blipFanToFullPower,1
;   adjustSpeedForCooling,1
;   minSpeedLayerTime,15
;   minCoolingSpeedSlowdown,5
;   increaseFanForCooling,0
;   minFanLayerTime,45
;   maxCoolingFanSpeed,100
;   increaseFanForBridging,1
;   bridgingFanSpeed,100
;   use5D,1
;   relativeEdistances,1
;   allowEaxisZeroing,1
;   independentExtruderAxes,0
;   includeM10123,0
;   stickySupport,1
;   applyToolheadOffsets,0
;   gcodeXoffset,0
;   gcodeYoffset,0
;   gcodeZoffset,0
;   overrideMachineDefinition,1
;   machineTypeOverride,0
;   strokeXoverride,250
;   strokeYoverride,210
;   strokeZoverride,200
;   originOffsetXoverride,0
;   originOffsetYoverride,0
;   originOffsetZoverride,0
;   homeXdirOverride,-1
;   homeYdirOverride,-1
;   homeZdirOverride,-1
;   flipXoverride,1
;   flipYoverride,-1
;   flipZoverride,1
;   toolheadOffsets,0,0|0,0|0,0|0,0|0,0|0,0
;   overrideFirmwareConfiguration,0
;   firmwareTypeOverride,RepRap (Marlin/Repetier/Sprinter)
;   GPXconfigOverride,r2
;   baudRateOverride,250000
;   overridePrinterModels,1
;   printerModelsOverride
;   startingGcode,M115 U3.0.7 ; tell the printer latest firmware varsion available,G28 W ; home all without mesh bed level,G80 ; mesh bed leveling,G1 Y-3.0 F1000.0 ; go outside printing area,G1 X60.0 E9.0  F1000.0 ; intro line,G1 X100.0 E12.5  F1000.0 ; intro line
;   layerChangeGcode,
;   retractionGcode,
;   toolChangeGcode,
;   endingGcode,M104 S0 ; turn off temperature,M140 S0 ; turn off heatbed,M107 ; turn off fan,G1 X0 Y200; home X axis,M84 ; disable motors
;   exportFileFormat,gcode
;   celebration,0
;   celebrationSong,Random Song
;   postProcessing,{REPLACE "; outer perimeter\n" "; outer perimeter\nM204 S600\n"},{REPLACE "; inner perimeter\n" "; inner perimeter\nM204 S1200\n"},{REPLACE "; solid layer\n" "; solid layer\nM204 S1500\n"},{REPLACE "; infill\n" "; infill\nM204 S2000\n"}
;   defaultSpeed,2400
;   outlineUnderspeed,0.8
;   solidInfillUnderspeed,0.8
;   supportUnderspeed,0.8
;   rapidXYspeed,4800
;   rapidZspeed,1002
;   minBridgingArea,50
;   bridgingExtraInflation,1
;   bridgingExtrusionMultiplier,1
;   bridgingSpeedMultiplier,1
;   useFixedBridgingAngle,0
;   fixedBridgingAngle,0
;   applyBridgingToPerimeters,0
;   filamentDiameters,1.75|1.75|1.75|1.75|1.75|1.75
;   filamentPricesPerKg,215|215|215|215|215|215
;   filamentDensities,1.25|1.25|1.25|1.25|1.25|1.25
;   useMinPrintHeight,0
;   minPrintHeight,0
;   useMaxPrintHeight,0
;   maxPrintHeight,0
;   useDiaphragm,0
;   diaphragmLayerInterval,20
;   robustSlicing,1
;   mergeAllIntoSolid,0
;   onlyRetractWhenCrossingOutline,0
;   retractBetweenLayers,0
;   useRetractionMinTravel,1
;   retractionMinTravel,3
;   retractWhileWiping,1
;   onlyWipeOutlines,0
;   avoidCrossingOutline,0
;   maxMovementDetourFactor,3
;   toolChangeRetractionDistance,12
;   toolChangeExtraRestartDistance,-0.5
;   toolChangeRetractionSpeed,600
;   externalThinWallType,0
;   internalThinWallType,2
;   thinWallAllowedOverlapPercentage,25
;   singleExtrusionMinLength,1
;   singleExtrusionMinPrintingWidthPercentage,50
;   singleExtrusionMaxPrintingWidthPercentage,200
;   singleExtrusionEndpointExtension,0.2
;   horizontalSizeCompensation,0
G90
M83
M106 S0
M140 S55
M190 S55
M104 S230 T0
M109 S230 T0
M115 U3.0.7 ; tell the printer latest firmware varsion available
G28 W ; home all without mesh bed level
G80 ; mesh bed leveling
G1 Y-3.0 F1000.0 ; go outside printing area
G1 X60.0 E9.0  F1000.0 ; intro line
G1 X100.0 E12.5  F1000.0 ; intro line
; process Process1
; layer 1, Z = 0.200
T0
G1 E-0.8000 F1800
; feature inner perimeter
; tool H0.200 W0.428
G1 Z0.200 F1002
G1 X110.317 Y101.772 F4800
G1 E0.8000 F1800
G1 X110.777 Y101.379 E0.0215 F1296
G1 X111.293 Y101.063 E0.0215
G1 X111.853 Y100.831 E0.0215
G1 X112.441 Y100.690 E0.0215
G1 X113.048 Y100.642 E0.0216
G1 X114.301 Y100.726 E0.0446
G1 X115.160 Y100.853 E0.0309
G1 X115.916 Y101.041 E0.0277
G1 X116.601 Y101.286 E0.0259
G1 X119.244 Y102.483 E0.1032
G1 X120.471 Y102.984 E0.0471
G1 X121.632 Y103.387 E0.0437
G1 X122.678 Y103.675 E0.0386
G1 X123.707 Y103.867 E0.0372
G1 X124.547 Y103.939 E0.0300
G1 X125.400 Y103.916 E0.0303
G1 X126.217 Y103.803 E0.0293
G1 X127.042 Y103.603 E0.0302
G1 X127.892 Y103.314 E0.0319
G1 X128.819 Y102.918 E0.0358
G1 X131.516 Y101.566 E0.1073
G1 X132.391 Y101.173 E0.0341
G1 X133.198 Y100.876 E0.0306
G1 X133.914 Y100.681 E0.0264
G1 X134.085 Y100.645 E0.0062
G1 X134.652 Y100.690 E0.0202
G1 X135.256 Y100.838 E0.0221
G1 X135.795 Y101.062 E0.0208
G1 X136.311 Y101.378 E0.0215
G1 X136.783 Y101.784 E0.0221
G1 X137.165 Y102.232 E0.0209
G1 X137.477 Y102.740 E0.0212
G1 X137.712 Y103.308 E0.0218
G1 X137.854 Y103.896 E0.0215
G1 X137.903 Y104.524 E0.0224
G1 X137.903 Y105.474 E0.0338
G1 X137.854 Y106.102 E0.0224
G1 X137.712 Y106.691 E0.0215
G1 X137.481 Y107.250 E0.0215
G1 X137.165 Y107.766 E0.0215
G1 X136.772 Y108.226 E0.0215
G1 X136.311 Y108.619 E0.0215
G1 X135.795 Y108.935 E0.0215
G1 X135.236 Y109.167 E0.0215
G1 X134.648 Y109.308 E0.0215
G1 X134.086 Y109.353 E0.0200
G1 X133.914 Y109.317 E0.0062
G1 X133.198 Y109.122 E0.0264
G1 X132.391 Y108.825 E0.0305
G1 X131.513 Y108.431 E0.0342
G1 X128.800 Y107.071 E0.1079
G1 X127.892 Y106.684 E0.0351
G1 X127.042 Y106.395 E0.0319
G1 X126.217 Y106.195 E0.0302
G1 X125.400 Y106.082 E0.0293
G1 X124.547 Y106.059 E0.0303
G1 X123.707 Y106.131 E0.0300
G1 X122.678 Y106.323 E0.0372
G1 X121.632 Y106.611 E0.0386
G1 X120.471 Y107.014 E0.0437
G1 X119.244 Y107.515 E0.0471
G1 X116.601 Y108.712 E0.1032
G1 X115.916 Y108.957 E0.0259
G1 X115.160 Y109.145 E0.0277
G1 X114.300 Y109.272 E0.0309
G1 X113.048 Y109.356 E0.0446
G1 X112.441 Y109.308 E0.0216
G1 X111.853 Y109.167 E0.0215
G1 X111.293 Y108.935 E0.0215
G1 X110.777 Y108.619 E0.0215
G1 X110.317 Y108.226 E0.0215
G1 X109.924 Y107.766 E0.0215
G1 X109.608 Y107.250 E0.0215
G1 X109.376 Y106.691 E0.0215
G1 X109.235 Y106.102 E0.0215
G1 X109.186 Y105.474 E0.0224
G1 X109.186 Y104.524 E0.0338
G1 X109.235 Y103.896 E0.0224
G1 X109.376 Y103.307 E0.0215
G1 X109.608 Y102.748 E0.0215
G1 X109.924 Y102.232 E0.0215
G1 X110.187 Y101.924 E0.0144
G1 X110.317 Y101.772 F1296
G1 X110.777 Y101.379 F1296
G1 X111.293 Y101.063
G1 X111.853 Y100.831
G1 X112.032 Y100.788
; feature outer perimeter
G1 X111.720 Y100.423 F4800
G1 X112.374 Y100.266 E0.0239 F1152
G1 X113.046 Y100.213 E0.0240
G1 X114.346 Y100.300 E0.0463
G1 X115.243 Y100.433 E0.0322
G1 X116.040 Y100.631 E0.0292
G1 X116.761 Y100.889 E0.0272
G1 X119.413 Y102.091 E0.1035
G1 X120.622 Y102.584 E0.0464
G1 X121.759 Y102.979 E0.0428
G1 X122.774 Y103.258 E0.0374
G1 X123.764 Y103.443 E0.0358
G1 X124.559 Y103.511 E0.0284
G1 X125.365 Y103.489 E0.0286
G1 X126.137 Y103.382 E0.0277
G1 X126.922 Y103.192 E0.0287
G1 X127.739 Y102.914 E0.0307
G1 X128.639 Y102.530 E0.0348
G1 X131.333 Y101.179 E0.1071
G1 X132.230 Y100.777 E0.0350
G1 X133.068 Y100.469 E0.0317
G1 X133.814 Y100.265 E0.0275
G1 X134.058 Y100.214 E0.0089
G1 X134.720 Y100.267 E0.0236
G1 X135.389 Y100.431 E0.0245
G1 X135.990 Y100.680 E0.0231
G1 X136.563 Y101.032 E0.0239
G1 X137.086 Y101.481 E0.0245
G1 X137.512 Y101.980 E0.0233
G1 X137.858 Y102.545 E0.0236
G1 X138.120 Y103.175 E0.0243
G1 X138.277 Y103.829 E0.0239
G1 X138.331 Y104.507 E0.0242
G1 X138.331 Y105.491 E0.0350
G1 X138.277 Y106.169 E0.0242
G1 X138.120 Y106.823 E0.0239
G1 X137.863 Y107.445 E0.0239
G1 X137.512 Y108.018 E0.0239
G1 X137.075 Y108.529 E0.0239
G1 X136.563 Y108.966 E0.0239
G1 X135.990 Y109.317 E0.0239
G1 X135.369 Y109.575 E0.0239
G1 X134.715 Y109.732 E0.0239
G1 X134.058 Y109.783 E0.0234
G1 X133.814 Y109.733 E0.0089
G1 X133.068 Y109.529 E0.0275
G1 X132.230 Y109.221 E0.0317
G1 X131.329 Y108.817 E0.0351
G1 X128.620 Y107.459 E0.1077
G1 X127.739 Y107.084 E0.0341
G1 X126.922 Y106.806 E0.0307
G1 X126.137 Y106.615 E0.0287
G1 X125.365 Y106.509 E0.0277
G1 X124.559 Y106.487 E0.0286
G1 X123.764 Y106.555 E0.0284
G1 X122.774 Y106.740 E0.0358
G1 X121.759 Y107.019 E0.0374
G1 X120.622 Y107.414 E0.0428
G1 X119.413 Y107.907 E0.0464
G1 X116.761 Y109.109 E0.1035
G1 X116.040 Y109.367 E0.0272
G1 X115.243 Y109.565 E0.0292
G1 X114.346 Y109.698 E0.0322
G1 X113.046 Y109.785 E0.0463
G1 X112.374 Y109.732 E0.0240
G1 X111.720 Y109.575 E0.0239
G1 X111.099 Y109.317 E0.0239
G1 X110.525 Y108.966 E0.0239
G1 X110.014 Y108.529 E0.0239
G1 X109.577 Y108.018 E0.0239
G1 X109.226 Y107.445 E0.0239
G1 X108.969 Y106.823 E0.0239
G1 X108.812 Y106.169 E0.0239
G1 X108.758 Y105.491 E0.0242
G1 X108.758 Y104.507 E0.0350
G1 X108.812 Y103.829 E0.0242
G1 X108.969 Y103.175 E0.0239
G1 X109.226 Y102.553 E0.0239
G1 X109.577 Y101.980 E0.0239
G1 X110.014 Y101.469 E0.0239
G1 X110.525 Y101.032 E0.0239
G1 X111.099 Y100.680 E0.0239
G1 X111.535 Y100.500 E0.0168
G1 X111.720 Y100.423 F1152
G1 X112.374 Y100.266 F1152
G1 X113.046 Y100.213
G1 X113.698 Y100.257
; feature inner perimeter
G1 X113.544 Y101.855 F4800
G1 X112.999 Y101.903 E0.0195 F1296
G1 X112.469 Y102.045 E0.0195
G1 X111.973 Y102.276 E0.0195
G1 X111.524 Y102.591 E0.0195
G1 X111.136 Y102.978 E0.0195
G1 X110.822 Y103.427 E0.0195
G1 X110.590 Y103.924 E0.0195
G1 X110.448 Y104.453 E0.0195
G1 X110.400 Y105.002 E0.0196
G1 X110.455 Y105.568 E0.0202
G1 X110.590 Y106.074 E0.0186
G1 X110.822 Y106.571 E0.0195
G1 X111.136 Y107.020 E0.0195
G1 X111.524 Y107.407 E0.0195
G1 X111.973 Y107.722 E0.0195
G1 X112.469 Y107.953 E0.0195
G1 X112.999 Y108.095 E0.0195
G1 X113.544 Y108.143 E0.0195
G1 X114.090 Y108.095 E0.0195
G1 X114.620 Y107.953 E0.0195
G1 X115.116 Y107.722 E0.0195
G1 X115.565 Y107.407 E0.0195
G1 X115.953 Y107.020 E0.0195
G1 X116.267 Y106.571 E0.0195
G1 X116.499 Y106.074 E0.0195
G1 X116.640 Y105.545 E0.0195
G1 X116.688 Y104.999 E0.0195
G1 X116.640 Y104.453 E0.0195
G1 X116.499 Y103.924 E0.0195
G1 X116.267 Y103.427 E0.0195
G1 X115.953 Y102.978 E0.0195
G1 X115.565 Y102.591 E0.0195
G1 X115.116 Y102.276 E0.0195
G1 X114.620 Y102.045 E0.0195
G1 X114.090 Y101.903 E0.0195
G1 X113.744 Y101.873 E0.0124
G1 X113.544 Y101.855 F1296
G1 X112.999 Y101.903 F1296
G1 X112.469 Y102.045
G1 X111.973 Y102.276
G1 X111.681 Y102.481
; feature outer perimeter
G1 X111.800 Y102.919 F4800
G1 X111.465 Y103.254 E0.0168 F1152
G1 X111.194 Y103.642 E0.0168
G1 X110.994 Y104.071 E0.0168
G1 X110.871 Y104.528 E0.0168
G1 X110.830 Y105.000 E0.0169
G1 X110.877 Y105.492 E0.0176
G1 X110.994 Y105.927 E0.0160
G1 X111.194 Y106.356 E0.0168
G1 X111.465 Y106.744 E0.0168
G1 X111.800 Y107.078 E0.0168
G1 X112.187 Y107.350 E0.0168
G1 X112.616 Y107.550 E0.0168
G1 X113.073 Y107.672 E0.0168
G1 X113.544 Y107.714 E0.0168
G1 X114.016 Y107.672 E0.0168
G1 X114.473 Y107.550 E0.0168
G1 X114.902 Y107.350 E0.0168
G1 X115.289 Y107.078 E0.0168
G1 X115.624 Y106.744 E0.0168
G1 X115.895 Y106.356 E0.0168
G1 X116.095 Y105.927 E0.0168
G1 X116.218 Y105.470 E0.0168
G1 X116.259 Y104.999 E0.0168
G1 X116.218 Y104.528 E0.0168
G1 X116.095 Y104.071 E0.0168
G1 X115.895 Y103.642 E0.0168
G1 X115.624 Y103.254 E0.0168
G1 X115.289 Y102.919 E0.0168
G1 X114.902 Y102.648 E0.0168
G1 X114.473 Y102.448 E0.0168
G1 X114.016 Y102.326 E0.0168
G1 X113.544 Y102.284 E0.0168
G1 X113.073 Y102.326 E0.0168
G1 X112.616 Y102.448 E0.0168
G1 X112.187 Y102.648 E0.0168
G1 X111.963 Y102.805 E0.0097
G1 X111.800 Y102.919 F1152
G1 X111.465 Y103.254 E-0.7393 F1152
G1 X111.443 Y103.286 E-0.0607
G1 X111.194 Y103.642 F1152
G1 X110.994 Y104.071
G1 X110.871 Y104.528
G1 X110.862 Y104.634
; feature inner perimeter
G1 X130.401 Y104.999 F4800
G1 E0.8000 F1800
G1 X130.448 Y105.545 E0.0195 F1296
G1 X130.591 Y106.076 E0.0195
G1 X130.823 Y106.574 E0.0195
G1 X131.139 Y107.023 E0.0195
G1 X131.528 Y107.410 E0.0195
G1 X131.977 Y107.724 E0.0195
G1 X132.465 Y107.951 E0.0191
G1 X132.984 Y108.091 E0.0191
G1 X133.540 Y108.143 E0.0199
G1 X134.088 Y108.095 E0.0196
G1 X134.619 Y107.953 E0.0195
G1 X135.116 Y107.722 E0.0195
G1 X135.566 Y107.406 E0.0195
G1 X135.954 Y107.018 E0.0195
G1 X136.268 Y106.568 E0.0195
G1 X136.500 Y106.070 E0.0195
G1 X136.641 Y105.540 E0.0195
G1 X136.688 Y104.993 E0.0195
G1 X136.641 Y104.458 E0.0191
G1 X136.500 Y103.928 E0.0195
G1 X136.268 Y103.430 E0.0195
G1 X135.953 Y102.979 E0.0195
G1 X135.557 Y102.585 E0.0199
G1 X135.116 Y102.276 E0.0191
G1 X134.629 Y102.049 E0.0191
G1 X134.100 Y101.905 E0.0195
G1 X133.545 Y101.855 E0.0198
G1 X132.995 Y101.904 E0.0196
G1 X132.464 Y102.047 E0.0195
G1 X131.968 Y102.279 E0.0195
G1 X131.527 Y102.588 E0.0191
G1 X131.132 Y102.984 E0.0199
G1 X130.823 Y103.426 E0.0192
G1 X130.587 Y103.933 E0.0199
G1 X130.447 Y104.463 E0.0195
G1 X130.418 Y104.800 E0.0120
G1 X130.401 Y104.999 F1296
G1 X130.448 Y105.545 F1296
G1 X130.591 Y106.076
G1 X130.823 Y106.574
G1 X131.026 Y106.863
; feature outer perimeter
G1 X131.467 Y106.747 F4800
G1 X131.803 Y107.081 E0.0169 F1152
G1 X132.192 Y107.352 E0.0168
G1 X132.612 Y107.548 E0.0165
G1 X133.060 Y107.669 E0.0165
G1 X133.541 Y107.714 E0.0172
G1 X134.014 Y107.673 E0.0169
G1 X134.472 Y107.550 E0.0169
G1 X134.902 Y107.350 E0.0169
G1 X135.290 Y107.078 E0.0169
G1 X135.625 Y106.742 E0.0169
G1 X135.897 Y106.354 E0.0169
G1 X136.096 Y105.924 E0.0169
G1 X136.218 Y105.466 E0.0169
G1 X136.259 Y104.994 E0.0168
G1 X136.218 Y104.532 E0.0165
G1 X136.096 Y104.074 E0.0168
G1 X135.897 Y103.644 E0.0169
G1 X135.625 Y103.255 E0.0169
G1 X135.282 Y102.914 E0.0172
G1 X134.902 Y102.648 E0.0165
G1 X134.482 Y102.452 E0.0165
G1 X134.024 Y102.327 E0.0168
G1 X133.545 Y102.284 E0.0171
G1 X133.070 Y102.326 E0.0170
G1 X132.612 Y102.450 E0.0169
