; generated by PrusaSlicer 2.0.0+ on 2019-07-31 at 14:47:52

; 

; external perimeters extrusion width = 0.45mm
; perimeters extrusion width = 0.45mm
; infill extrusion width = 0.45mm
; solid infill extrusion width = 0.45mm
; top infill extrusion width = 0.40mm
; first layer extrusion width = 0.42mm

M73 P0 R11
M201 X9000 Y9000 Z500 E10000 ; sets maximum accelerations, mm/sec^2
M203 X500 Y500 Z12 E120 ; sets maximum feedrates, mm/sec
M204 P2000 R1500 T2000 ; sets acceleration (P, T) and retract acceleration (R), mm/sec^2
M205 X10.00 Y10.00 Z0.20 E2.50 ; sets the jerk limits, mm/sec
M205 S0 T0 ; sets the minimum extruding and travel feed rate, mm/sec
M107
M115 U3.2.3 ; tell printer latest fw version
G90 ; use absolute coordinates
M83 ; extruder relative mode
M204 S2000 T1500 ; MK2 firmware only supports the old M204 format
M104 S215 ; set extruder temp
M140 S60 ; set bed temp
M190 S60 ; wait for bed temp
M109 S215 ; wait for extruder temp
G28 W ; home all without mesh bed level
G80 ; mesh bed leveling
G1 Y-3.0 F1000.0 ; go outside print area
G92 E0.0
G1 X60.0 E9.0  F1000.0 ; intro line
M73 P0 R10
G1 X100.0 E12.5 F1000.0 ; intro line
G92 E0.0
M900 K30 ; Filament gcode
G21 ; set units to millimeters
G90 ; use absolute coordinates
M83 ; use relative distances for extrusion
;BEFORE_LAYER_CHANGE
G92 E0.0
;0.2


G1 E-0.80000 F2100.00000
G1 Z0.600 F10800.000
;AFTER_LAYER_CHANGE
;0.2
G1 X114.686 Y99.188
G1 Z0.200
G1 E0.80000 F2100.00000
M204 S1000
G1 F1120
G1 X115.195 Y98.371 E0.03016
G1 X115.608 Y97.983 E0.01778
G1 X116.089 Y97.682 E0.01778
G1 X116.618 Y97.478 E0.01778
G1 X117.176 Y97.380 E0.01778
G1 X128.008 Y97.371 E0.33962
G1 X130.392 Y97.777 E0.07584
G1 X131.175 Y98.050 E0.02599
G1 X131.838 Y98.393 E0.02339
G1 X132.532 Y98.876 E0.02651
G1 X133.290 Y99.553 E0.03187
G1 X134.423 Y100.701 E0.05059
G1 X134.979 Y101.482 E0.03006
G1 X135.299 Y102.225 E0.02536
G1 X135.476 Y103.093 E0.02777
G1 X135.490 Y106.485 E0.10635
G1 X135.392 Y107.170 E0.02172
G1 X135.176 Y107.856 E0.02254
G1 X134.843 Y108.488 E0.02240
G1 X134.415 Y109.053 E0.02223
G1 X132.882 Y110.576 E0.06777
G1 X131.644 Y111.465 E0.04777
G1 X130.401 Y111.967 E0.04205
G1 X128.400 Y112.347 E0.06387
G1 X117.241 Y112.370 E0.34988
G1 X116.290 Y112.157 E0.03055
G1 X115.458 Y111.641 E0.03068
G1 X115.045 Y111.194 E0.01910
G1 X114.732 Y110.671 E0.01910
G1 X114.535 Y110.095 E0.01910
G1 X114.460 Y109.490 E0.01910
G1 X114.469 Y100.120 E0.29378
G1 X114.673 Y99.246 E0.02815
G1 F8640
G1 X115.195 Y98.371 E-0.23527
G1 X115.608 Y97.983 E-0.13093
G1 X116.089 Y97.682 E-0.13093
G1 X116.618 Y97.478 E-0.13092
G1 X117.176 Y97.380 E-0.13093
G1 X117.181 Y97.380 E-0.00103
G1 E-0.04000 F2100.00000
G1 Z0.800 F10800.000
G1 X116.289 Y98.003
G1 Z0.200
G1 E0.80000 F2100.00000
G1 F1120
G1 X117.232 Y97.754 E0.03058
G1 X128.008 Y97.748 E0.33787
G1 X130.296 Y98.142 E0.07280
G1 X131.031 Y98.398 E0.02442
G1 X131.650 Y98.720 E0.02186
G1 X132.300 Y99.173 E0.02486
G1 X133.026 Y99.822 E0.03053
G1 X134.136 Y100.945 E0.04949
G1 X134.655 Y101.676 E0.02811
G1 X134.942 Y102.346 E0.02287
G1 X135.103 Y103.147 E0.02561
G1 X135.111 Y106.483 E0.10461
G1 X135.002 Y107.182 E0.02218
G1 X134.808 Y107.757 E0.01900
G1 X134.494 Y108.334 E0.02061
G1 X134.044 Y108.903 E0.02273
G1 X132.492 Y110.415 E0.06793
G1 X131.444 Y111.144 E0.04004
G1 X130.289 Y111.607 E0.03901
G1 X128.336 Y111.975 E0.06231
G1 X117.271 Y111.994 E0.34695
G1 X116.415 Y111.800 E0.02753
G1 X115.677 Y111.331 E0.02741
G1 X115.326 Y110.940 E0.01647
G1 X115.062 Y110.486 E0.01647
G1 X114.897 Y109.987 E0.01647
G1 X114.836 Y109.465 E0.01647
G1 X114.844 Y100.157 E0.29185
G1 X115.041 Y99.317 E0.02704
G1 X115.505 Y98.590 E0.02704
G1 X116.241 Y98.039 E0.02882
G1 X116.461 Y98.343 F10800.000
G1 F1120
G1 X117.281 Y98.128 E0.02657
G1 X128.007 Y98.125 E0.33633
G1 X130.196 Y98.505 E0.06966
G1 X130.884 Y98.745 E0.02283
G1 X131.468 Y99.051 E0.02066
G1 X132.386 Y99.738 E0.03596
G1 X133.458 Y100.778 E0.04685
G1 X133.986 Y101.355 E0.02450
G1 X134.365 Y101.932 E0.02165
G1 X134.620 Y102.588 E0.02208
G1 X134.739 Y103.311 E0.02297
G1 X134.725 Y106.576 E0.10237
G1 X134.614 Y107.173 E0.01904
G1 X134.400 Y107.740 E0.01901
G1 X133.670 Y108.750 E0.03908
G1 X132.226 Y110.146 E0.06296
G1 X131.145 Y110.876 E0.04091
G1 X130.165 Y111.249 E0.03287
G1 X128.278 Y111.603 E0.06020
G1 X117.299 Y111.618 E0.34423
G1 X116.551 Y111.448 E0.02405
G1 X115.905 Y111.029 E0.02417
G1 X115.396 Y110.308 E0.02766
G1 X115.213 Y109.449 E0.02754
G1 X115.220 Y100.191 E0.29027
G1 X115.394 Y99.451 E0.02383
G1 X115.810 Y98.815 E0.02383
G1 X116.413 Y98.378 E0.02334
G1 F8640
G1 X117.281 Y98.128 E-0.20861
G1 X119.669 Y98.128 E-0.55139
G1 E-0.04000 F2100.00000
G1 Z0.800 F10800.000
G1 X128.590 Y101.300
G1 Z0.200
G1 E0.80000 F2100.00000
G1 F1120
G1 X129.116 Y101.360 E0.01658
G1 X129.400 Y101.413 E0.00907
G1 X129.602 Y101.479 E0.00664
G1 X129.829 Y101.588 E0.00791
G1 X130.094 Y101.759 E0.00989
G1 X130.406 Y102.012 E0.01260
G1 X131.288 Y102.873 E0.03864
G1 X131.584 Y103.190 E0.01361
G1 X131.662 Y103.303 E0.00429
G1 X131.701 Y103.396 E0.00318
G1 X131.725 Y103.534 E0.00438
G1 X131.740 Y103.857 E0.01015
G1 X131.739 Y105.888 E0.06365
G1 X131.724 Y106.212 E0.01017
G1 X131.701 Y106.340 E0.00409
G1 X131.614 Y106.513 E0.00607
G1 X131.359 Y106.801 E0.01205
G1 X130.651 Y107.500 E0.03120
G1 X130.189 Y107.914 E0.01945
G1 X129.815 Y108.166 E0.01415
G1 X129.465 Y108.315 E0.01193
G1 X129.184 Y108.377 E0.00900
G1 X128.587 Y108.450 E0.01886
G1 X128.590 Y101.360 E0.22229
G1 X128.213 Y100.835 F10800.000
G1 F1120
G1 X128.501 Y100.910 E0.00933
G1 X129.172 Y100.987 E0.02117
G1 X129.494 Y101.047 E0.01027
G1 X129.742 Y101.128 E0.00818
G1 X130.013 Y101.258 E0.00943
G1 X130.316 Y101.453 E0.01129
G1 X130.657 Y101.731 E0.01378
G1 X131.558 Y102.609 E0.03945
G1 X131.878 Y102.953 E0.01472
G1 X131.987 Y103.110 E0.00600
G1 X132.067 Y103.303 E0.00655
G1 X132.101 Y103.493 E0.00604
G1 X132.117 Y103.849 E0.01119
G1 X132.116 Y105.896 E0.06419
G1 X132.099 Y106.253 E0.01121
G1 X132.066 Y106.440 E0.00594
G1 X132.009 Y106.592 E0.00508
G1 X131.918 Y106.739 E0.00544
G1 X131.633 Y107.060 E0.01345
G1 X130.910 Y107.775 E0.03188
G1 X130.422 Y108.212 E0.02055
G1 X130.006 Y108.492 E0.01571
G1 X129.828 Y108.582 E0.00624
G1 X129.572 Y108.677 E0.00857
G1 X129.248 Y108.749 E0.01040
G1 X128.408 Y108.851 E0.02654
G1 X128.210 Y108.910 E0.00648
G1 X128.213 Y100.895 E0.25133
G1 X128.443 Y101.023 F10800.000
G1 F8640
G1 X128.501 Y100.910 E-0.06656
G1 X129.172 Y100.987 E-0.15592
G1 X129.494 Y101.047 E-0.07565
G1 X129.742 Y101.128 E-0.06027
G1 X130.013 Y101.258 E-0.06943
G1 X130.316 Y101.453 E-0.08311
G1 X130.657 Y101.731 E-0.10151
G1 X131.114 Y102.177 E-0.14756
G1 E-0.04000 F2100.00000
G1 Z0.800 F10800.000
G1 X129.603 Y101.605
G1 Z0.200
G1 E0.80000 F2100.00000
G1 F1120
G1 X131.616 Y103.618 E0.09495
G1 X131.626 Y104.196 F10800.000
G1 F1120
G1 X129.070 Y101.639 E0.12062
G1 X128.873 Y101.617 E0.00661
G1 X128.873 Y102.010 E0.01311
G1 X131.456 Y104.593 E0.12189
G1 X131.456 Y105.160 E0.01892
G1 X128.873 Y102.577 E0.12189
G1 X128.872 Y103.144 E0.01892
G1 X131.456 Y105.727 E0.12188
G1 X131.442 Y106.170 E0.01476
G1 X131.420 Y106.259 E0.00306
G1 X128.872 Y103.711 E0.12019
G1 X128.872 Y104.278 E0.01892
G1 X131.176 Y106.582 E0.10868
G1 X130.892 Y106.865 E0.01338
G1 X128.872 Y104.845 E0.09530
G1 X128.871 Y105.412 E0.01892
G1 X130.606 Y107.147 E0.08184
G1 X130.314 Y107.423 E0.01339
G1 X128.871 Y105.980 E0.06808
G1 X128.871 Y106.547 E0.01892
G1 X130.015 Y107.691 E0.05397
G1 X129.675 Y107.918 E0.01364
G1 X128.871 Y107.114 E0.03795
G1 X128.870 Y107.681 E0.01892
G1 X129.402 Y108.213 E0.02509
G1 F8640
G1 X128.870 Y107.681 E-0.17366
G1 X128.871 Y107.114 E-0.13096
G1 X129.675 Y107.918 E-0.26266
G1 X130.015 Y107.691 E-0.09443
G1 X129.714 Y107.390 E-0.09829
G1 E-0.04000 F2100.00000
G1 Z0.800 F10800.000
G1 X121.102 Y106.340
G1 Z0.200
G1 E0.80000 F2100.00000
G1 F1120
G1 X121.016 Y106.513 E0.00607
G1 X120.761 Y106.801 E0.01205
G1 X120.053 Y107.500 E0.03120
G1 X119.591 Y107.914 E0.01945
G1 X119.217 Y108.166 E0.01415
G1 X118.866 Y108.315 E0.01193
G1 X118.586 Y108.377 E0.00900
G1 X117.989 Y108.450 E0.01886
G1 X117.992 Y101.300 E0.22417
G1 X118.517 Y101.360 E0.01658
G1 X118.802 Y101.413 E0.00907
G1 X119.003 Y101.479 E0.00664
G1 X119.231 Y101.588 E0.00791
G1 X119.496 Y101.759 E0.00989
G1 X119.807 Y102.012 E0.01260
G1 X120.690 Y102.873 E0.03864
G1 X120.985 Y103.190 E0.01361
G1 X121.064 Y103.303 E0.00429
G1 X121.102 Y103.396 E0.00318
G1 X121.127 Y103.534 E0.00438
G1 X121.141 Y103.857 E0.01015
G1 X121.140 Y105.888 E0.06365
G1 X121.113 Y106.281 E0.01237
G1 F8640
G1 X121.016 Y106.513 E-0.05815
G1 X120.761 Y106.801 E-0.08873
G1 X120.053 Y107.500 E-0.22977
G1 X119.591 Y107.914 E-0.14321
G1 X119.217 Y108.166 E-0.10418
G1 X118.866 Y108.315 E-0.08788
G1 X118.663 Y108.360 E-0.04808
G1 E-0.04000 F2100.00000
G1 Z0.800 F10800.000
G1 X117.612 Y108.910
G1 Z0.200
G1 E0.80000 F2100.00000
G1 F1120
G1 X117.615 Y100.835 E0.25321
G1 X117.903 Y100.910 E0.00933
G1 X118.574 Y100.987 E0.02117
G1 X118.896 Y101.047 E0.01027
G1 X119.144 Y101.128 E0.00818
G1 X119.415 Y101.258 E0.00943
G1 X119.718 Y101.453 E0.01129
G1 X120.059 Y101.731 E0.01378
G1 X120.959 Y102.609 E0.03945
G1 X121.279 Y102.953 E0.01472
G1 X121.389 Y103.110 E0.00600
G1 X121.469 Y103.303 E0.00655
G1 X121.502 Y103.493 E0.00604
G1 X121.518 Y103.849 E0.01119
G1 X121.517 Y105.896 E0.06419
G1 X121.501 Y106.253 E0.01121
G1 X121.468 Y106.440 E0.00594
G1 X121.411 Y106.592 E0.00508
G1 X121.319 Y106.739 E0.00544
G1 X121.035 Y107.060 E0.01345
G1 X120.311 Y107.775 E0.03188
G1 X119.823 Y108.212 E0.02055
G1 X119.408 Y108.492 E0.01571
G1 X119.230 Y108.582 E0.00624
G1 X118.974 Y108.677 E0.00857
G1 X118.650 Y108.749 E0.01040
G1 X117.810 Y108.851 E0.02654
G1 X117.669 Y108.893 E0.00460
G1 X117.794 Y108.554 F10800.000
G1 F8640
G1 X117.647 Y105.602 E-0.76000
G1 E-0.04000 F2100.00000
G1 Z0.800 F10800.000
G1 X118.804 Y108.213
G1 Z0.200
G1 E0.80000 F2100.00000
G1 F1120
G1 X118.272 Y107.681 E0.02509
G1 X118.272 Y107.114 E0.01892
G1 X119.077 Y107.918 E0.03795
G1 X119.416 Y107.691 E0.01364
G1 X118.273 Y106.547 E0.05397
G1 X118.273 Y105.980 E0.01892
G1 X119.716 Y107.423 E0.06808
G1 X120.008 Y107.147 E0.01339
G1 X118.273 Y105.412 E0.08184
G1 X118.273 Y104.845 E0.01892
G1 X120.293 Y106.865 E0.09530
G1 X120.577 Y106.582 E0.01338
G1 X118.273 Y104.278 E0.10868
G1 X118.274 Y103.711 E0.01892
G1 X120.821 Y106.259 E0.12019
G1 X120.844 Y106.170 E0.00306
G1 X120.857 Y105.727 E0.01476
G1 X118.274 Y103.144 E0.12188
G1 X118.274 Y102.577 E0.01892
G1 X120.858 Y105.160 E0.12189
G1 X120.858 Y104.593 E0.01892
G1 X118.274 Y102.010 E0.12189
G1 X118.275 Y101.617 E0.01311
G1 X118.471 Y101.639 E0.00661
G1 X121.028 Y104.196 E0.12062
G1 X121.017 Y103.618 F10800.000
G1 F1120
G1 X119.005 Y101.605 E0.09495
M106 S255
;BEFORE_LAYER_CHANGE
G92 E0.0
;0.4


G1 F8640
G1 X121.017 Y103.618 E-0.65719
G1 E-0.14281 F2100.00000
G1 Z0.800 F10800.000
;AFTER_LAYER_CHANGE
;0.4
G1 X114.686 Y99.188
G1 Z0.400
G1 E0.80000 F2100.00000
G1 F900
G1 X115.195 Y98.371 E0.03016
G1 X115.608 Y97.983 E0.01778
G1 X116.089 Y97.682 E0.01778
G1 X116.618 Y97.478 E0.01778
G1 X117.176 Y97.380 E0.01778
G1 X128.008 Y97.371 E0.33962
G1 X130.392 Y97.777 E0.07584
G1 X131.175 Y98.050 E0.02599
G1 X131.838 Y98.393 E0.02339
G1 X132.532 Y98.876 E0.02651
G1 X133.290 Y99.553 E0.03187
G1 X134.423 Y100.701 E0.05059
G1 X134.979 Y101.482 E0.03006
G1 X135.299 Y102.225 E0.02536
G1 X135.476 Y103.093 E0.02777
G1 X135.490 Y106.485 E0.10635
G1 X135.392 Y107.170 E0.02172
G1 X135.176 Y107.856 E0.02254
G1 X134.843 Y108.488 E0.02240
G1 X134.415 Y109.053 E0.02223
G1 X132.882 Y110.576 E0.06777
G1 X131.644 Y111.465 E0.04777
G1 X130.401 Y111.967 E0.04205
G1 X128.400 Y112.347 E0.06387
G1 X117.241 Y112.370 E0.34988
G1 X116.290 Y112.157 E0.03055
G1 X115.458 Y111.641 E0.03068
G1 X115.045 Y111.194 E0.01910
G1 X114.732 Y110.671 E0.01910
G1 X114.535 Y110.095 E0.01910
G1 X114.460 Y109.490 E0.01910
G1 X114.469 Y100.120 E0.29378
G1 X114.673 Y99.246 E0.02815
G1 F8640
G1 X115.195 Y98.371 E-0.23527
G1 X115.608 Y97.983 E-0.13093
G1 X116.089 Y97.682 E-0.13093
G1 X116.618 Y97.478 E-0.13092
G1 X117.176 Y97.380 E-0.13093
G1 X117.181 Y97.380 E-0.00103
G1 E-0.04000 F2100.00000
G1 Z1.000 F10800.000
G1 X128.635 Y101.229
G1 Z0.400
G1 E0.80000 F2100.00000
M204 S800
G1 F900
G1 X129.172 Y101.295 E0.01830
G1 X129.431 Y101.345 E0.00891
G1 X129.635 Y101.412 E0.00729
G1 X129.866 Y101.522 E0.00865
G1 X130.135 Y101.696 E0.01085
G1 X130.453 Y101.955 E0.01388
G1 X131.358 Y102.837 E0.04280
G1 X131.661 Y103.162 E0.01501
G1 X131.776 Y103.363 E0.00782
G1 X131.800 Y103.500 E0.00472
G1 X131.815 Y103.830 E0.01118
G1 X131.813 Y105.915 E0.07058
G1 X131.776 Y106.373 E0.01556
G1 X131.691 Y106.542 E0.00638
G1 X131.432 Y106.835 E0.01325
G1 X130.705 Y107.552 E0.03456
G1 X130.232 Y107.976 E0.02149
G1 X129.851 Y108.233 E0.01557
G1 X129.497 Y108.383 E0.01300
G1 X129.212 Y108.446 E0.00987
G1 X128.632 Y108.516 E0.01978
G1 X128.635 Y101.289 E0.24463
M204 S1000
G1 X128.228 Y100.737 F10800.000
M204 S800
G1 F900
G1 X128.422 Y100.793 E0.00682
G1 X129.235 Y100.893 E0.02774
G1 X129.533 Y100.950 E0.01025
G1 X129.787 Y101.033 E0.00906
G1 X130.065 Y101.166 E0.01042
G1 X130.375 Y101.366 E0.01248
G1 X130.724 Y101.650 E0.01526
G1 X131.650 Y102.553 E0.04375
G1 X131.978 Y102.905 E0.01630
G1 X132.090 Y103.066 E0.00662
G1 X132.171 Y103.262 E0.00718
G1 X132.205 Y103.455 E0.00665
G1 X132.222 Y103.821 E0.01239
G1 X132.221 Y105.924 E0.07120
G1 X132.204 Y106.291 E0.01241
G1 X132.170 Y106.481 E0.00654
G1 X132.112 Y106.635 E0.00558
G1 X132.019 Y106.786 E0.00598
G1 X131.727 Y107.115 E0.01489
G1 X130.984 Y107.849 E0.03535
G1 X130.483 Y108.298 E0.02277
G1 X130.057 Y108.585 E0.01739
G1 X129.875 Y108.676 E0.00689
G1 X129.613 Y108.774 E0.00947
G1 X129.281 Y108.848 E0.01150
G1 X128.417 Y108.953 E0.02945
G1 X128.225 Y109.010 E0.00679
G1 X128.228 Y100.797 E0.27801
M204 S1000
G1 X128.382 Y100.867 F10800.000
G1 F8640
G1 X128.422 Y100.793 E-0.04464
G1 X129.235 Y100.893 E-0.18925
G1 X129.533 Y100.950 E-0.06994
G1 X129.787 Y101.033 E-0.06179
G1 X130.065 Y101.166 E-0.07109
G1 X130.375 Y101.366 E-0.08516
G1 X130.724 Y101.650 E-0.10411
G1 X131.140 Y102.056 E-0.13403
G1 E-0.04000 F2100.00000
G1 Z1.000 F10800.000
G1 X128.757 Y102.252
G1 Z0.400
G1 E0.80000 F2100.00000
M204 S2000
G1 F900
G1 X129.365 Y101.644 E0.03125
G1 X129.522 Y101.696 E0.00601
G1 X129.791 Y101.837 E0.01105
G1 X128.940 Y102.688 E0.04375
G1 X128.940 Y103.306 E0.02250
G1 X130.147 Y102.099 E0.06209
G1 X130.469 Y102.396 E0.01592
G1 X128.940 Y103.925 E0.07864
G1 X128.939 Y104.544 E0.02250
G1 X130.782 Y102.701 E0.09476
G1 X131.095 Y103.007 E0.01591
G1 X128.939 Y105.163 E0.11087
G1 X128.939 Y105.781 E0.02250
G1 X131.395 Y103.325 E0.12634
G1 X131.458 Y103.405 E0.00369
G1 X131.496 Y103.547 E0.00536
G1 X131.509 Y103.830 E0.01029
G1 X128.939 Y106.400 E0.13220
G1 X128.938 Y107.019 E0.02250
G1 X131.509 Y104.448 E0.13221
G1 X131.509 Y105.067 E0.02251
G1 X128.938 Y107.638 E0.13221
G1 X128.938 Y108.172 E0.01942
G1 X129.034 Y108.160 E0.00354
G1 X131.508 Y105.686 E0.12724
G1 X131.494 Y106.212 E0.01913
G1 X131.436 Y106.369 E0.00610
G1 X129.611 Y108.202 E0.09406
M204 S1000
G1 F8640
G1 X131.436 Y106.369 E-0.59722
G1 X131.494 Y106.212 E-0.03870
G1 X131.508 Y105.686 E-0.12145
G1 X131.500 Y105.694 E-0.00263
G1 E-0.04000 F2100.00000
G1 Z1.000 F10800.000
G1 X121.177 Y106.373
G1 Z0.400
G1 E0.80000 F2100.00000
M204 S800
G1 F900
G1 X121.093 Y106.542 E0.00638
G1 X120.833 Y106.835 E0.01325
G1 X120.107 Y107.552 E0.03456
G1 X119.634 Y107.976 E0.02149
G1 X119.253 Y108.233 E0.01557
G1 X118.899 Y108.383 E0.01300
G1 X118.614 Y108.446 E0.00987
G1 X118.034 Y108.516 E0.01978
G1 X118.037 Y101.229 E0.24666
G1 X118.832 Y101.345 E0.02720
G1 X119.037 Y101.412 E0.00729
G1 X119.267 Y101.522 E0.00865
G1 X119.537 Y101.696 E0.01085
G1 X119.855 Y101.955 E0.01388
G1 X120.760 Y102.837 E0.04280
G1 X121.062 Y103.162 E0.01501
G1 X121.140 Y103.274 E0.00462
G1 X121.201 Y103.500 E0.00793
G1 X121.216 Y103.830 E0.01118
G1 X121.215 Y105.915 E0.07058
G1 X121.188 Y106.314 E0.01354
M204 S1000
G1 F8640
G1 X121.093 Y106.542 E-0.05692
G1 X120.833 Y106.835 E-0.09040
