; generated by Slic3r Prusa Edition 1.40.1+ on 2018-08-06 at 14:54:20

; 

; external perimeters extrusion width = 0.45mm
; perimeters extrusion width = 0.45mm
; infill extrusion width = 0.45mm
; solid infill extrusion width = 0.45mm
; top infill extrusion width = 0.40mm
; support material extrusion width = 0.35mm
; first layer extrusion width = 0.42mm

M107
M115 U3.1.0 ; tell printer latest fw version
M201 X9000 Y9000 Z500 E10000 ; sets maximum accelerations, mm/sec^2
M203 X500 Y500 Z12 E120 ; sets maximum feedrates, mm/sec
M204 S1500 T1500 ; sets acceleration (S) and retract acceleration (T)
M205 X10 Y10 Z0.2 E2.5 ; sets the jerk limits, mm/sec
M205 S0 T0 ; sets the minimum extruding and travel feed rate, mm/sec
M83  ; extruder relative mode
M104 S215 ; set extruder temp
M140 S60 ; set bed temp
M190 S60 ; wait for bed temp
M109 S215 ; wait for extruder temp
G28 W ; home all without mesh bed level
G80 ; mesh bed leveling
G1 Y-3.0 F1000.0 ; go outside print area
G92 E0.0
G1 X60.0 E9.0  F1000.0 ; intro line
G1 X100.0 E12.5  F1000.0 ; intro line
G92 E0.0
M900 K30; Filament gcode
G21 ; set units to millimeters
G90 ; use absolute coordinates
M83 ; use relative distances for extrusion
;BEFORE_LAYER_CHANGE
G92 E0.0
;0.2


G1 E-0.80000 F2100.00000
G1 Z0.600 F10800.000
;AFTER_LAYER_CHANGE
;0.2
G1 X115.645 Y87.137
G1 Z0.200
G1 E0.80000 F2100.00000
M204 S1000
G1 F1800
G1 X134.354 Y87.137 E0.58661
G1 X139.286 Y122.863 E1.13081
G1 X110.714 Y122.863 E0.89586
G1 X115.637 Y87.196 E1.12893
G1 X115.317 Y86.760 F10800.000
G1 F1800
G1 X134.683 Y86.760 E0.60721
G1 X139.719 Y123.240 E1.15468
G1 X110.281 Y123.240 E0.92300
G1 X115.309 Y86.819 E1.15280
G1 X115.696 Y86.888 F10800.000
G1 F8640
G1 X118.600 Y86.809 E-0.76000
G1 E-0.04000 F2100.00000
G1 Z0.800 F10800.000
G1 X134.379 Y88.142
G1 Z0.200
G1 E0.80000 F2100.00000
G1 F1800
G1 X133.656 Y87.419 E0.03222
G1 X133.120 Y87.419 E0.01691
G1 X134.266 Y88.565 E0.05110
G1 X134.352 Y89.188 E0.01980
G1 X132.584 Y87.419 E0.07885
G1 X132.048 Y87.419 E0.01691
G1 X134.438 Y89.810 E0.10659
G1 X134.524 Y90.432 E0.01980
G1 X131.511 Y87.419 E0.13433
G1 X130.975 Y87.419 E0.01691
G1 X134.610 Y91.054 E0.16207
G1 X134.696 Y91.676 E0.01980
G1 X130.439 Y87.419 E0.18981
G1 X129.903 Y87.419 E0.01691
G1 X134.782 Y92.298 E0.21755
G1 X134.867 Y92.920 E0.01980
G1 X129.366 Y87.419 E0.24529
G1 X128.830 Y87.419 E0.01691
G1 X134.953 Y93.543 E0.27303
G1 X135.039 Y94.165 E0.01980
G1 X128.294 Y87.419 E0.30078
G1 X127.758 Y87.419 E0.01691
G1 X135.125 Y94.787 E0.32852
G1 X135.211 Y95.409 E0.01980
G1 X127.221 Y87.419 E0.35626
G1 X126.685 Y87.419 E0.01691
G1 X135.297 Y96.031 E0.38400
G1 X135.383 Y96.653 E0.01980
G1 X126.149 Y87.419 E0.41174
G1 X125.613 Y87.419 E0.01691
G1 X135.469 Y97.275 E0.43948
G1 X135.554 Y97.898 E0.01980
G1 X125.076 Y87.419 E0.46722
G1 X124.540 Y87.419 E0.01691
G1 X135.640 Y98.520 E0.49496
G1 X135.726 Y99.142 E0.01980
G1 X124.004 Y87.419 E0.52271
G1 X123.468 Y87.419 E0.01691
G1 X135.812 Y99.764 E0.55045
G1 X135.898 Y100.386 E0.01980
G1 X122.931 Y87.419 E0.57819
G1 X122.395 Y87.419 E0.01691
G1 X135.984 Y101.008 E0.60593
G1 X136.070 Y101.630 E0.01980
G1 X121.859 Y87.419 E0.63367
G1 X121.322 Y87.419 E0.01691
G1 X136.156 Y102.253 E0.66141
G1 X136.241 Y102.875 E0.01980
G1 X120.786 Y87.419 E0.68915
G1 X120.250 Y87.419 E0.01691
G1 X136.327 Y103.497 E0.71689
G1 X136.413 Y104.119 E0.01980
G1 X119.714 Y87.419 E0.74464
G1 X119.177 Y87.419 E0.01691
G1 X136.499 Y104.741 E0.77238
G1 X136.585 Y105.363 E0.01980
G1 X118.641 Y87.419 E0.80012
G1 X118.105 Y87.419 E0.01691
G1 X136.671 Y105.985 E0.82786
G1 X136.757 Y106.608 E0.01980
G1 X117.569 Y87.419 E0.85560
G1 X117.032 Y87.419 E0.01691
G1 X136.843 Y107.230 E0.88334
G1 X136.929 Y107.852 E0.01980
G1 X116.496 Y87.419 E0.91108
G1 X115.960 Y87.419 E0.01691
G1 X137.014 Y108.474 E0.93882
G1 X137.100 Y109.096 E0.01980
G1 X115.835 Y87.831 E0.94822
G1 X115.770 Y88.302 E0.01500
G1 X137.186 Y109.718 E0.95495
G1 X137.272 Y110.340 E0.01980
G1 X115.705 Y88.773 E0.96168
G1 X115.640 Y89.245 E0.01500
G1 X137.358 Y110.962 E0.96841
G1 X137.444 Y111.585 E0.01980
G1 X115.575 Y89.716 E0.97514
G1 X115.510 Y90.187 E0.01500
G1 X137.530 Y112.207 E0.98187
G1 X137.616 Y112.829 E0.01980
G1 X115.445 Y90.658 E0.98860
G1 X115.380 Y91.129 E0.01500
G1 X137.701 Y113.451 E0.99533
G1 X137.787 Y114.073 E0.01980
G1 X115.315 Y91.601 E1.00205
G1 X115.250 Y92.072 E0.01500
G1 X137.873 Y114.695 E1.00878
G1 X137.959 Y115.317 E0.01980
G1 X115.185 Y92.543 E1.01551
G1 X115.120 Y93.014 E0.01500
G1 X138.045 Y115.940 E1.02224
G1 X138.131 Y116.562 E0.01980
G1 X115.055 Y93.485 E1.02897
G1 X114.990 Y93.957 E0.01500
G1 X138.217 Y117.184 E1.03570
G1 X138.303 Y117.806 E0.01980
G1 X114.924 Y94.428 E1.04243
G1 X114.859 Y94.899 E0.01500
G1 X138.388 Y118.428 E1.04916
G1 X138.474 Y119.050 E0.01980
G1 X114.794 Y95.370 E1.05589
G1 X114.729 Y95.842 E0.01500
G1 X138.560 Y119.672 E1.06262
G1 X138.646 Y120.295 E0.01980
G1 X114.664 Y96.313 E1.06935
G1 X114.599 Y96.784 E0.01500
G1 X138.732 Y120.917 E1.07608
G1 X138.818 Y121.539 E0.01980
G1 X114.534 Y97.255 E1.08281
G1 X114.469 Y97.726 E0.01500
G1 X138.904 Y122.161 E1.08954
G1 X138.962 Y122.581 E0.01336
G1 X138.787 Y122.581 E0.00550
G1 X114.404 Y98.198 E1.08724
G1 X114.339 Y98.669 E0.01500
G1 X138.251 Y122.581 E1.06623
G1 X137.715 Y122.581 E0.01691
G1 X114.274 Y99.140 E1.04522
G1 X114.209 Y99.611 E0.01500
G1 X137.178 Y122.581 E1.02421
G1 X136.642 Y122.581 E0.01691
G1 X114.144 Y100.082 E1.00319
G1 X114.079 Y100.554 E0.01500
G1 X136.106 Y122.581 E0.98218
G1 X135.570 Y122.581 E0.01691
G1 X114.014 Y101.025 E0.96117
G1 X113.949 Y101.496 E0.01500
G1 X135.033 Y122.581 E0.94016
G1 X134.497 Y122.581 E0.01691
G1 X113.884 Y101.967 E0.91915
G1 X113.819 Y102.439 E0.01500
G1 X133.961 Y122.581 E0.89814
G1 X133.424 Y122.581 E0.01691
G1 X113.754 Y102.910 E0.87713
G1 X113.689 Y103.381 E0.01500
G1 X132.888 Y122.581 E0.85611
G1 X132.352 Y122.581 E0.01691
G1 X113.624 Y103.852 E0.83510
G1 X113.559 Y104.323 E0.01500
G1 X131.816 Y122.581 E0.81409
G1 X131.279 Y122.581 E0.01691
G1 X113.493 Y104.795 E0.79308
G1 X113.428 Y105.266 E0.01500
G1 X130.743 Y122.581 E0.77207
G1 X130.207 Y122.581 E0.01691
G1 X113.363 Y105.737 E0.75106
G1 X113.298 Y106.208 E0.01500
G1 X129.671 Y122.581 E0.73004
G1 X129.134 Y122.581 E0.01691
G1 X113.233 Y106.679 E0.70903
G1 X113.168 Y107.151 E0.01500
G1 X128.598 Y122.581 E0.68802
G1 X128.062 Y122.581 E0.01691
G1 X113.103 Y107.622 E0.66701
G1 X113.038 Y108.093 E0.01500
G1 X127.526 Y122.581 E0.64600
G1 X126.989 Y122.581 E0.01691
G1 X112.973 Y108.564 E0.62499
G1 X112.908 Y109.036 E0.01500
G1 X126.453 Y122.581 E0.60398
G1 X125.917 Y122.581 E0.01691
G1 X112.843 Y109.507 E0.58296
G1 X112.778 Y109.978 E0.01500
G1 X125.381 Y122.581 E0.56195
G1 X124.844 Y122.581 E0.01691
G1 X112.713 Y110.449 E0.54094
G1 X112.648 Y110.920 E0.01500
G1 X124.308 Y122.581 E0.51993
G1 X123.772 Y122.581 E0.01691
G1 X112.583 Y111.392 E0.49892
G1 X112.518 Y111.863 E0.01500
G1 X123.236 Y122.581 E0.47791
G1 X122.699 Y122.581 E0.01691
G1 X112.453 Y112.334 E0.45689
G1 X112.388 Y112.805 E0.01500
G1 X122.163 Y122.581 E0.43588
G1 X121.627 Y122.581 E0.01691
G1 X112.323 Y113.276 E0.41487
G1 X112.258 Y113.748 E0.01500
G1 X121.091 Y122.581 E0.39386
G1 X120.554 Y122.581 E0.01691
G1 X112.193 Y114.219 E0.37285
G1 X112.128 Y114.690 E0.01500
G1 X120.018 Y122.581 E0.35184
G1 X119.482 Y122.581 E0.01691
G1 X112.062 Y115.161 E0.33083
G1 X111.997 Y115.633 E0.01500
G1 X118.945 Y122.581 E0.30981
G1 X118.409 Y122.581 E0.01691
G1 X111.932 Y116.104 E0.28880
G1 X111.867 Y116.575 E0.01500
G1 X117.873 Y122.581 E0.26779
G1 X117.337 Y122.581 E0.01691
G1 X111.802 Y117.046 E0.24678
G1 X111.737 Y117.517 E0.01500
G1 X116.800 Y122.581 E0.22577
G1 X116.264 Y122.581 E0.01691
G1 X111.672 Y117.989 E0.20476
G1 X111.607 Y118.460 E0.01500
G1 X115.728 Y122.581 E0.18374
G1 X115.192 Y122.581 E0.01691
G1 X111.542 Y118.931 E0.16273
G1 X111.477 Y119.402 E0.01500
G1 X114.655 Y122.581 E0.14172
G1 X114.119 Y122.581 E0.01691
G1 X111.412 Y119.873 E0.12071
G1 X111.347 Y120.345 E0.01500
G1 X113.583 Y122.581 E0.09970
G1 X113.047 Y122.581 E0.01691
G1 X111.282 Y120.816 E0.07869
G1 X111.217 Y121.287 E0.01500
G1 X112.510 Y122.581 E0.05768
G1 X111.974 Y122.581 E0.01691
G1 X111.152 Y121.758 E0.03666
G1 X111.087 Y122.230 E0.01500
G1 X111.608 Y122.750 E0.02322
G1 F8640
G1 X111.087 Y122.230 E-0.17004
G1 X111.152 Y121.758 E-0.10984
G1 X111.974 Y122.581 E-0.26850
G1 X112.510 Y122.581 E-0.12382
G1 X112.241 Y122.312 E-0.08780
G1 E-0.04000 F2100.00000
G1 Z0.800 F10800.000
G1 X146.634 Y122.863
G1 Z0.200
G1 E0.80000 F2100.00000
G1 F1800
G1 X151.565 Y87.137 E1.13081
G1 X170.274 Y87.137 E0.58661
G1 X175.206 Y122.863 E1.13081
G1 X146.694 Y122.863 E0.89398
G1 X146.201 Y123.240 F10800.000
G1 F1800
G1 X151.237 Y86.760 E1.15468
G1 X170.603 Y86.760 E0.60721
G1 X175.639 Y123.240 E1.15468
G1 X146.261 Y123.240 E0.92112
G1 X146.314 Y122.857 F10800.000
G1 F8640
G1 X146.706 Y119.979 E-0.76000
G1 E-0.04000 F2100.00000
G1 Z0.800 F10800.000
G1 X147.527 Y122.750
G1 Z0.200
G1 E0.80000 F2100.00000
G1 F1800
G1 X147.006 Y122.230 E0.02322
G1 X147.072 Y121.758 E0.01500
G1 X147.894 Y122.581 E0.03666
G1 X148.430 Y122.581 E0.01691
G1 X147.137 Y121.287 E0.05768
G1 X147.202 Y120.816 E0.01500
G1 X148.966 Y122.581 E0.07869
G1 X149.503 Y122.581 E0.01691
G1 X147.267 Y120.345 E0.09970
G1 X147.332 Y119.873 E0.01500
G1 X150.039 Y122.581 E0.12071
G1 X150.575 Y122.581 E0.01691
G1 X147.397 Y119.402 E0.14172
G1 X147.462 Y118.931 E0.01500
G1 X151.111 Y122.581 E0.16273
G1 X151.648 Y122.581 E0.01691
G1 X147.527 Y118.460 E0.18374
G1 X147.592 Y117.989 E0.01500
G1 X152.184 Y122.581 E0.20476
G1 X152.720 Y122.581 E0.01691
G1 X147.657 Y117.517 E0.22577
G1 X147.722 Y117.046 E0.01500
G1 X153.256 Y122.581 E0.24678
G1 X153.793 Y122.581 E0.01691
G1 X147.787 Y116.575 E0.26779
G1 X147.852 Y116.104 E0.01500
G1 X154.329 Y122.581 E0.28880
G1 X154.865 Y122.581 E0.01691
G1 X147.917 Y115.633 E0.30981
G1 X147.982 Y115.161 E0.01500
G1 X155.401 Y122.581 E0.33083
G1 X155.938 Y122.581 E0.01691
G1 X148.047 Y114.690 E0.35184
G1 X148.112 Y114.219 E0.01500
G1 X156.474 Y122.581 E0.37285
G1 X157.010 Y122.581 E0.01691
G1 X148.177 Y113.748 E0.39386
G1 X148.242 Y113.276 E0.01500
G1 X157.546 Y122.581 E0.41487
G1 X158.083 Y122.581 E0.01691
G1 X148.307 Y112.805 E0.43588
G1 X148.372 Y112.334 E0.01500
G1 X158.619 Y122.581 E0.45689
G1 X159.155 Y122.581 E0.01691
G1 X148.437 Y111.863 E0.47791
G1 X148.503 Y111.392 E0.01500
G1 X159.692 Y122.581 E0.49892
G1 X160.228 Y122.581 E0.01691
G1 X148.568 Y110.920 E0.51993
G1 X148.633 Y110.449 E0.01500
G1 X160.764 Y122.581 E0.54094
G1 X161.300 Y122.581 E0.01691
G1 X148.698 Y109.978 E0.56195
G1 X148.763 Y109.507 E0.01500
G1 X161.837 Y122.581 E0.58296
G1 X162.373 Y122.581 E0.01691
G1 X148.828 Y109.036 E0.60398
G1 X148.893 Y108.564 E0.01500
G1 X162.909 Y122.581 E0.62499
G1 X163.445 Y122.581 E0.01691
G1 X148.958 Y108.093 E0.64600
G1 X149.023 Y107.622 E0.01500
G1 X163.982 Y122.581 E0.66701
G1 X164.518 Y122.581 E0.01691
G1 X149.088 Y107.151 E0.68802
G1 X149.153 Y106.679 E0.01500
G1 X165.054 Y122.581 E0.70903
G1 X165.590 Y122.581 E0.01691
G1 X149.218 Y106.208 E0.73004
G1 X149.283 Y105.737 E0.01500
G1 X166.127 Y122.581 E0.75106
G1 X166.663 Y122.581 E0.01691
G1 X149.348 Y105.266 E0.77207
G1 X149.413 Y104.795 E0.01500
G1 X167.199 Y122.581 E0.79308
G1 X167.735 Y122.581 E0.01691
G1 X149.478 Y104.323 E0.81409
G1 X149.543 Y103.852 E0.01500
G1 X168.272 Y122.581 E0.83510
G1 X168.808 Y122.581 E0.01691
G1 X149.608 Y103.381 E0.85611
G1 X149.673 Y102.910 E0.01500
G1 X169.344 Y122.581 E0.87713
G1 X169.880 Y122.581 E0.01691
G1 X149.738 Y102.439 E0.89814
G1 X149.803 Y101.967 E0.01500
G1 X170.417 Y122.581 E0.91915
G1 X170.953 Y122.581 E0.01691
G1 X149.868 Y101.496 E0.94016
G1 X149.934 Y101.025 E0.01500
G1 X171.489 Y122.581 E0.96117
G1 X172.025 Y122.581 E0.01691
G1 X149.999 Y100.554 E0.98218
G1 X150.064 Y100.082 E0.01500
G1 X172.562 Y122.581 E1.00319
G1 X173.098 Y122.581 E0.01691
G1 X150.129 Y99.611 E1.02421
G1 X150.194 Y99.140 E0.01500
G1 X173.634 Y122.581 E1.04522
G1 X174.171 Y122.581 E0.01691
G1 X150.259 Y98.669 E1.06623
G1 X150.324 Y98.198 E0.01500
G1 X174.707 Y122.581 E1.08724
G1 X174.881 Y122.581 E0.00550
G1 X174.823 Y122.161 E0.01336
G1 X150.389 Y97.726 E1.08954
G1 X150.454 Y97.255 E0.01500
G1 X174.738 Y121.539 E1.08281
G1 X174.652 Y120.917 E0.01980
G1 X150.519 Y96.784 E1.07608
G1 X150.584 Y96.313 E0.01500
G1 X174.566 Y120.295 E1.06935
G1 X174.480 Y119.672 E0.01980
G1 X150.649 Y95.842 E1.06262
G1 X150.714 Y95.370 E0.01500
G1 X174.394 Y119.050 E1.05589
G1 X174.308 Y118.428 E0.01980
G1 X150.779 Y94.899 E1.04916
G1 X150.844 Y94.428 E0.01500
G1 X174.222 Y117.806 E1.04243
G1 X174.136 Y117.184 E0.01980
G1 X150.909 Y93.957 E1.03570
G1 X150.974 Y93.485 E0.01500
G1 X174.051 Y116.562 E1.02897
G1 X173.965 Y115.940 E0.01980
G1 X151.039 Y93.014 E1.02224
G1 X151.104 Y92.543 E0.01500
G1 X173.879 Y115.317 E1.01551
G1 X173.793 Y114.695 E0.01980
G1 X151.169 Y92.072 E1.00878
G1 X151.234 Y91.601 E0.01500
G1 X173.707 Y114.073 E1.00205
G1 X173.621 Y113.451 E0.01980
G1 X151.299 Y91.129 E0.99533
G1 X151.365 Y90.658 E0.01500
G1 X173.535 Y112.829 E0.98860
G1 X173.449 Y112.207 E0.01980
G1 X151.430 Y90.187 E0.98187
G1 X151.495 Y89.716 E0.01500
G1 X173.363 Y111.585 E0.97514
G1 X173.278 Y110.962 E0.01980
G1 X151.560 Y89.245 E0.96841
G1 X151.625 Y88.773 E0.01500
G1 X173.192 Y110.340 E0.96168
G1 X173.106 Y109.718 E0.01980
G1 X151.690 Y88.302 E0.95495
G1 X151.755 Y87.831 E0.01500
G1 X173.020 Y109.096 E0.94822
G1 X172.934 Y108.474 E0.01980
G1 X151.880 Y87.419 E0.93882
G1 X152.416 Y87.419 E0.01691
G1 X172.848 Y107.852 E0.91108
G1 X172.762 Y107.230 E0.01980
G1 X152.952 Y87.419 E0.88334
G1 X153.488 Y87.419 E0.01691
G1 X172.676 Y106.608 E0.85560
G1 X172.591 Y105.985 E0.01980
G1 X154.025 Y87.419 E0.82786
G1 X154.561 Y87.419 E0.01691
G1 X172.505 Y105.363 E0.80012
G1 X172.419 Y104.741 E0.01980
G1 X155.097 Y87.419 E0.77238
G1 X155.633 Y87.419 E0.01691
G1 X172.333 Y104.119 E0.74464
G1 X172.247 Y103.497 E0.01980
G1 X156.170 Y87.419 E0.71689
G1 X156.706 Y87.419 E0.01691
G1 X172.161 Y102.875 E0.68915
G1 X172.075 Y102.253 E0.01980
G1 X157.242 Y87.419 E0.66141
G1 X157.778 Y87.419 E0.01691
G1 X171.989 Y101.630 E0.63367
G1 X171.904 Y101.008 E0.01980
G1 X158.315 Y87.419 E0.60593
G1 X158.851 Y87.419 E0.01691
G1 X171.818 Y100.386 E0.57819
G1 X171.732 Y99.764 E0.01980
G1 X159.387 Y87.419 E0.55045
G1 X159.923 Y87.419 E0.01691
G1 X171.646 Y99.142 E0.52271
G1 X171.560 Y98.520 E0.01980
G1 X160.460 Y87.419 E0.49496
G1 X160.996 Y87.419 E0.01691
G1 X171.474 Y97.898 E0.46722
G1 X171.388 Y97.275 E0.01980
G1 X161.532 Y87.419 E0.43948
G1 X162.068 Y87.419 E0.01691
G1 X171.302 Y96.653 E0.41174
G1 X171.217 Y96.031 E0.01980
G1 X162.605 Y87.419 E0.38400
G1 X163.141 Y87.419 E0.01691
G1 X171.131 Y95.409 E0.35626
G1 X171.045 Y94.787 E0.01980
G1 X163.677 Y87.419 E0.32852
G1 X164.214 Y87.419 E0.01691
G1 X170.959 Y94.165 E0.30078
G1 X170.873 Y93.543 E0.01980
G1 X164.750 Y87.419 E0.27303
G1 X165.286 Y87.419 E0.01691
G1 X170.787 Y92.920 E0.24529
G1 X170.701 Y92.298 E0.01980
G1 X165.822 Y87.419 E0.21755
G1 X166.359 Y87.419 E0.01691
G1 X170.615 Y91.676 E0.18981
G1 X170.529 Y91.054 E0.01980
G1 X166.895 Y87.419 E0.16207
G1 X167.431 Y87.419 E0.01691
G1 X170.444 Y90.432 E0.13433
G1 X170.358 Y89.810 E0.01980
G1 X167.967 Y87.419 E0.10659
G1 X168.504 Y87.419 E0.01691
G1 X170.272 Y89.188 E0.07885
G1 X170.186 Y88.565 E0.01980
G1 X169.040 Y87.419 E0.05110
G1 X169.576 Y87.419 E0.01691
G1 X170.299 Y88.142 E0.03222
G1 F8640
G1 X169.576 Y87.419 E-0.23599
G1 X169.040 Y87.419 E-0.12382
G1 X170.186 Y88.565 E-0.37425
G1 X170.201 Y88.677 E-0.02594
G1 E-0.04000 F2100.00000
G1 Z0.800 F10800.000
G1 X170.274 Y130.038
G1 Z0.200
G1 E0.80000 F2100.00000
G1 F1800
G1 X175.206 Y165.764 E1.13081
G1 X146.634 Y165.764 E0.89586
G1 X151.565 Y130.038 E1.13081
G1 X170.214 Y130.038 E0.58473
G1 X170.603 Y129.660 F10800.000
G1 F1800
G1 X175.639 Y166.141 E1.15468
G1 X146.201 Y166.141 E0.92300
G1 X151.237 Y129.660 E1.15468
G1 X170.543 Y129.660 E0.60533
G1 X170.561 Y130.058 F10800.000
G1 F8640
G1 X170.998 Y132.920 E-0.76000
G1 E-0.04000 F2100.00000
