; G-Code generated by Simplify3D(R) Version 4.1.2
; Dec 7, 2019 at 10:32:24 AM
; Settings Summary
;   processName,Process1
;   applyToModels,Fans,Fans(2),Fans(3),Fans(4)
;   profileName,Prusa Research Original Prusa i3 MK2 (modified)
;   profileVersion,2019-12-04 09:48:22
;   baseProfile,
;   printMaterial,PLA
;   printQuality,Medium
;   printExtruders,
;   extruderName,Primary Extruder
;   extruderToolheadNumber,0
;   extruderDiameter,0.4
;   extruderAutoWidth,1
;   extruderWidth,0.48
;   extrusionMultiplier,1
;   extruderUseRetract,1
;   extruderRetractionDistance,1.5
;   extruderExtraRestartDistance,0
;   extruderRetractionZLift,0
;   extruderRetractionSpeed,1800
;   extruderUseCoasting,1
;   extruderCoastingDistance,0.2
;   extruderUseWipe,1
;   extruderWipeDistance,2
;   primaryExtruder,0
;   layerHeight,0.2
;   topSolidLayers,3
;   bottomSolidLayers,3
;   perimeterOutlines,2
;   printPerimetersInsideOut,1
;   startPointOption,2
;   startPointOriginX,0
;   startPointOriginY,0
;   sequentialIslands,0
;   spiralVaseMode,0
;   firstLayerHeightPercentage,150
;   firstLayerWidthPercentage,100
;   firstLayerUnderspeed,0.5
;   useRaft,0
;   raftExtruder,0
;   raftTopLayers,2
;   raftBaseLayers,2
;   raftOffset,3
;   raftSeparationDistance,0.14
;   raftTopInfill,100
;   aboveRaftSpeedMultiplier,0.3
;   useSkirt,0
;   skirtExtruder,0
;   skirtLayers,1
;   skirtOutlines,2
;   skirtOffset,4
;   usePrimePillar,0
;   primePillarExtruder,999
;   primePillarWidth,12
;   primePillarLocation,7
;   primePillarSpeedMultiplier,1
;   useOozeShield,0
;   oozeShieldExtruder,999
;   oozeShieldOffset,2
;   oozeShieldOutlines,1
;   oozeShieldSidewallShape,1
;   oozeShieldSidewallAngle,30
;   oozeShieldSpeedMultiplier,1
;   infillExtruder,0
;   internalInfillPattern,Rectilinear
;   externalInfillPattern,Rectilinear
;   infillPercentage,20
;   outlineOverlapPercentage,20
;   infillExtrusionWidthPercentage,100
;   minInfillLength,5
;   infillLayerInterval,1
;   internalInfillAngles,45,-45
;   overlapInternalInfillAngles,0
;   externalInfillAngles,45,-45
;   generateSupport,0
;   supportExtruder,0
;   supportInfillPercentage,50
;   supportExtraInflation,0
;   supportBaseLayers,2
;   denseSupportExtruder,0
;   denseSupportLayers,0
;   denseSupportInfillPercentage,70
;   supportLayerInterval,1
;   supportHorizontalPartOffset,0.3
;   supportUpperSeparationLayers,1
;   supportLowerSeparationLayers,1
;   supportType,0
;   supportGridSpacing,1
;   maxOverhangAngle,45
;   supportAngles,0
;   temperatureName,Primary Extruder,Heated Bed
;   temperatureNumber,0,0
;   temperatureSetpointCount,1,1
;   temperatureSetpointLayers,1,1
;   temperatureSetpointTemperatures,200,60
;   temperatureStabilizeAtStartup,1,1
;   temperatureHeatedBed,0,1
;   fanLayers,1,2
;   fanSpeeds,0,100
;   blipFanToFullPower,0
;   adjustSpeedForCooling,1
;   minSpeedLayerTime,15
;   minCoolingSpeedSlowdown,20
;   increaseFanForCooling,0
;   minFanLayerTime,45
;   maxCoolingFanSpeed,100
;   increaseFanForBridging,0
;   bridgingFanSpeed,100
;   use5D,1
;   relativeEdistances,0
;   allowEaxisZeroing,1
;   independentExtruderAxes,0
;   includeM10123,0
;   stickySupport,1
;   applyToolheadOffsets,0
;   gcodeXoffset,0
;   gcodeYoffset,0
;   gcodeZoffset,0
;   overrideMachineDefinition,1
;   machineTypeOverride,0
;   strokeXoverride,250
;   strokeYoverride,210
;   strokeZoverride,200
;   originOffsetXoverride,0
;   originOffsetYoverride,0
;   originOffsetZoverride,0
;   homeXdirOverride,-1
;   homeYdirOverride,-1
;   homeZdirOverride,-1
;   flipXoverride,1
;   flipYoverride,-1
;   flipZoverride,1
;   toolheadOffsets,0,0|0,0|0,0|0,0|0,0|0,0
;   overrideFirmwareConfiguration,1
;   firmwareTypeOverride,RepRap (Marlin/Repetier/Sprinter)
;   GPXconfigOverride,r2
;   baudRateOverride,250000
;   overridePrinterModels,1
;   printerModelsOverride
;   startingGcode,M115 U3.0.7 ; use the latest firmware version,G28 W ; home all axes without mesh bed leveling,G80 ; run mesh bed leveling routine,G1 Y-3.0 F1000.0 ; prepare to prime,G92 E0 ; reset extrusion distance,G1 X60.0 E9.0  F1000.0 ; priming,G1 X100.0 E12.5  F1000.0 ; priming
;   layerChangeGcode,
;   retractionGcode,
;   toolChangeGcode,
;   endingGcode,M106 S0 ; turn off cooling fan,M104 S0 ; turn off extruder,M140 S0 ; turn off bed,G1 X0 Y200 ; part removal,M84 ; disable motors
;   exportFileFormat,gcode
;   celebration,0
;   celebrationSong,Random Song
;   postProcessing,
;   defaultSpeed,2400
;   outlineUnderspeed,0.8
;   solidInfillUnderspeed,0.8
;   supportUnderspeed,0.8
;   rapidXYspeed,4800
;   rapidZspeed,1002
;   minBridgingArea,50
;   bridgingExtraInflation,0
;   bridgingExtrusionMultiplier,1
;   bridgingSpeedMultiplier,1
;   useFixedBridgingAngle,0
;   fixedBridgingAngle,0
;   applyBridgingToPerimeters,0
;   filamentDiameters,1.75|1.75|1.75|1.75|1.75|1.75
;   filamentPricesPerKg,46|46|46|46|46|46
;   filamentDensities,1.25|1.25|1.25|1.25|1.25|1.25
;   useMinPrintHeight,0
;   minPrintHeight,0
;   useMaxPrintHeight,0
;   maxPrintHeight,0
;   useDiaphragm,0
;   diaphragmLayerInterval,20
;   robustSlicing,1
;   mergeAllIntoSolid,0
;   onlyRetractWhenCrossingOutline,1
;   retractBetweenLayers,1
;   useRetractionMinTravel,0
;   retractionMinTravel,3
;   retractWhileWiping,1
;   onlyWipeOutlines,1
;   avoidCrossingOutline,0
;   maxMovementDetourFactor,3
;   toolChangeRetractionDistance,12
;   toolChangeExtraRestartDistance,-0.5
;   toolChangeRetractionSpeed,600
;   externalThinWallType,0
;   internalThinWallType,2
;   thinWallAllowedOverlapPercentage,25
;   singleExtrusionMinLength,1
;   singleExtrusionMinPrintingWidthPercentage,50
;   singleExtrusionMaxPrintingWidthPercentage,200
;   singleExtrusionEndpointExtension,0.2
;   horizontalSizeCompensation,0
G90
M82
M106 S0
M140 S60
M190 S60
M104 S200 T0
M109 S200 T0
M115 U3.0.7 ; use the latest firmware version
G28 W ; home all axes without mesh bed leveling
G80 ; run mesh bed leveling routine
G1 Y-3.0 F1000.0 ; prepare to prime
G92 E0 ; reset extrusion distance
G1 X60.0 E9.0  F1000.0 ; priming
G1 X100.0 E12.5  F1000.0 ; priming
; process Process1
; layer 1, Z = 0.300
T0
G92 E0.0000
G1 E-1.5000 F1800
; feature inner perimeter
; tool H0.300 W0.480
G1 Z0.300 F1002
G1 X74.791 Y72.632 F4800
G1 E0.0000 F1800
G92 E0.0000
G1 X95.065 Y72.632 E1.2138 F1080
G1 X95.065 Y137.340 E5.0878
G1 X89.985 Y137.140 E5.3922
G1 X89.926 Y136.866 E5.4089
G1 X90.073 Y136.794 E5.4187
G1 X87.456 Y132.073 E5.7419
G1 X87.672 Y131.882 E5.7592
G1 X92.039 Y135.054 E6.0823
G1 X92.922 Y133.707 E6.1787
G1 X93.673 Y132.281 E6.2752
G1 X88.781 Y130.000 E6.5983
G1 X88.843 Y129.718 E6.6156
G1 X94.241 Y129.718 E6.9388
G1 X94.164 Y128.109 E7.0352
G1 X93.932 Y126.514 E7.1317
G1 X88.634 Y127.544 E7.4548
G1 X88.519 Y127.279 E7.4721
G1 X92.890 Y124.104 E7.7956
G1 X91.832 Y122.804 E7.8959
G1 X90.753 Y121.696 E7.9885
G1 X87.072 Y125.644 E8.3116
G1 X86.823 Y125.497 E8.3289
G1 X88.492 Y120.359 E8.6524
G1 X86.873 Y119.929 E8.7526
G1 X85.348 Y119.667 E8.8453
G1 X84.691 Y125.024 E9.1684
G1 X84.403 Y125.052 E9.1857
G1 X82.734 Y119.914 E9.5092
G1 X81.171 Y120.518 E9.6094
G1 X79.784 Y121.202 E9.7021
G1 X82.400 Y125.923 E10.0252
G1 X82.184 Y126.114 E10.0425
G1 X77.817 Y122.942 E10.3656
G1 X76.934 Y124.289 E10.4621
G1 X76.184 Y125.715 E10.5586
G1 X81.075 Y127.996 E10.8817
G1 X81.013 Y128.278 E10.8990
G1 X75.610 Y128.278 E11.2224
G1 X75.702 Y129.951 E11.3227
G1 X75.924 Y131.482 E11.4153
G1 X81.222 Y130.452 E11.7385
G1 X81.338 Y130.717 E11.7558
G1 X76.971 Y133.889 E12.0789
G1 X77.979 Y135.146 E12.1754
G1 X79.103 Y136.300 E12.2718
G1 X82.785 Y132.352 E12.5950
G1 X83.034 Y132.499 E12.6123
G1 X81.632 Y136.812 E12.8838
G1 X78.732 Y136.698 E13.0575
G1 X74.791 Y136.543 E13.2937
G1 X74.791 Y72.832 E17.1080
G1 X74.791 Y72.632 F1080
G1 X83.768 Y81.829 F4800
G92 E0.0000
G1 X84.542 Y81.326 E0.0552 F1080
G1 X85.463 Y81.375 E0.1105
G1 X86.180 Y81.956 E0.1657
G1 X86.419 Y82.847 E0.2210
G1 X86.089 Y83.709 E0.2762
G1 X85.315 Y84.211 E0.3315
G1 X84.393 Y84.163 E0.3867
G1 X83.676 Y83.582 E0.4420
G1 X83.437 Y82.691 E0.4972
G1 X83.696 Y82.016 E0.5405
G1 X83.768 Y81.829 F1080
G92 E0.0000
G1 E-1.5000 F1800
G1 X84.837 Y104.393 F4800
G1 E0.0000 F1800
G92 E0.0000
G1 X85.730 Y104.624 E0.0552 F1080
G1 X86.317 Y105.336 E0.1105
G1 X86.374 Y106.257 E0.1658
G1 X85.878 Y107.036 E0.2210
G1 X85.019 Y107.374 E0.2762
G1 X84.126 Y107.143 E0.3315
G1 X83.539 Y106.431 E0.3867
G1 X83.483 Y105.509 E0.4420
G1 X83.978 Y104.731 E0.4972
G1 X84.651 Y104.466 E0.5405
G1 X84.837 Y104.393 F1080
G1 X84.785 Y127.512 F4800
G92 E0.0000
G1 X85.686 Y127.711 E0.0552 F1080
G1 X86.298 Y128.403 E0.1105
G1 X86.386 Y129.321 E0.1657
G1 X85.918 Y130.116 E0.2210
G1 X85.071 Y130.484 E0.2762
G1 X84.170 Y130.284 E0.3315
G1 X83.559 Y129.593 E0.3867
G1 X83.470 Y128.675 E0.4420
G1 X83.939 Y127.880 E0.4972
G1 X84.602 Y127.591 E0.5405
G1 X84.785 Y127.512 F1080
G1 X85.453 Y132.944 F4800
G92 E0.0000
G1 X86.776 Y137.014 E0.2562 F1080
G1 X84.679 Y136.932 E0.3818
G1 X85.166 Y132.972 E0.6206
G1 X85.254 Y132.963 E0.6260
G1 X85.453 Y132.944 F1080
; feature outer perimeter
G1 X84.931 Y130.945 F4800
G92 E0.0000
G1 X84.103 Y130.761 E0.0508 F960
G1 X81.978 Y137.302 E0.4625
G1 X81.995 Y137.306 E0.4636
G1 X74.311 Y137.005 E0.9240
G1 X74.311 Y72.152 E4.8066
G1 X95.545 Y72.152 E6.0779
G1 X95.545 Y137.839 E10.0105
G1 X84.139 Y137.391 E10.6939
G1 X84.907 Y131.143 E11.0707
G1 X84.931 Y130.945 F960
G1 X84.103 Y130.761 F960
G1 X83.747 Y131.857
G1 X83.786 Y130.575 F4800
G92 E0.0000
G1 X83.224 Y129.939 E0.0508 F960
G1 X77.660 Y133.982 E0.4625
G1 X78.339 Y134.827 E0.5274
G1 X79.096 Y135.604 E0.5923
G1 X83.650 Y130.721 E0.9921
G1 X83.786 Y130.575 F960
G1 X83.224 Y129.939 F960
G1 X82.292 Y130.616
G1 X83.077 Y129.602 F4800
G92 E0.0000
G1 X82.996 Y128.758 E0.0508 F960
G1 X76.117 Y128.758 E0.4626
G1 X76.180 Y129.903 E0.5312
G1 X76.327 Y130.914 E0.5924
G1 X82.881 Y129.640 E0.9922
G1 X83.077 Y129.602 F960
G1 X82.996 Y128.758 F960
G1 X81.844 Y128.758
G1 X83.076 Y128.399 F4800
G92 E0.0000
G1 X83.506 Y127.668 E0.0508 F960
G1 X77.942 Y123.626 E0.4625
G1 X77.348 Y124.533 E0.5274
G1 X76.843 Y125.493 E0.5923
G1 X82.894 Y128.314 E0.9921
G1 X83.076 Y128.399 F960
G1 X83.506 Y127.668 F960
G1 X82.574 Y126.991
G1 X83.782 Y127.425 F4800
G92 E0.0000
G1 X84.559 Y127.086 E0.0508 F960
G1 X82.434 Y120.544 E0.4626
G1 X81.364 Y120.958 E0.5312
G1 X80.448 Y121.410 E0.5924
G1 X83.685 Y127.250 E0.9922
G1 X83.782 Y127.425 F960
G1 X84.559 Y127.086 F960
G1 X84.203 Y125.991
G1 X84.925 Y127.051 F4800
G92 E0.0000
G1 X85.753 Y127.235 E0.0508 F960
G1 X87.879 Y120.693 E0.4626
G1 X86.771 Y120.398 E0.5312
G1 X85.763 Y120.225 E0.5924
G1 X84.950 Y126.853 E0.9922
G1 X84.925 Y127.051 F960
G1 X85.753 Y127.235 F960
G1 X86.109 Y126.139
G1 X86.070 Y127.421 F4800
G92 E0.0000
G1 X86.632 Y128.056 E0.0508 F960
G1 X92.197 Y124.013 E0.4626
G1 X91.474 Y123.124 E0.5312
G1 X90.760 Y122.392 E0.5924
G1 X86.207 Y127.275 E0.9922
G1 X86.070 Y127.421 F960
G1 X86.632 Y128.056 F960
G1 X87.564 Y127.379
G1 X86.779 Y128.394 F4800
G92 E0.0000
G1 X86.860 Y129.238 E0.0508 F960
G1 X93.737 Y129.238 E0.4625
G1 X93.685 Y128.155 E0.5274
G1 X93.530 Y127.081 E0.5923
G1 X86.975 Y128.356 E0.9921
G1 X86.779 Y128.394 F960
G1 X86.860 Y129.238 F960
G1 X88.012 Y129.238
G1 X86.781 Y129.597 F4800
G92 E0.0000
G1 X86.350 Y130.328 E0.0508 F960
G1 X91.914 Y134.370 E0.4625
G1 X92.508 Y133.463 E0.5274
G1 X93.013 Y132.503 E0.5923
G1 X86.962 Y129.681 E0.9921
G1 X86.781 Y129.597 F960
G1 X86.350 Y130.328 F960
G1 X87.282 Y131.005
G1 X86.075 Y130.571 F4800
G92 E0.0000
G1 X85.297 Y130.910 E0.0508 F960
G1 X87.422 Y137.450 E0.4625
G1 X88.436 Y137.066 E0.5274
G1 X89.409 Y136.586 E0.5923
G1 X86.172 Y130.746 E0.9921
G1 X86.075 Y130.571 F960
G1 X85.297 Y130.910 F960
G1 X85.653 Y132.005
G1 X83.787 Y114.622 F4800
G92 E0.0000
G1 X84.863 Y107.829 E0.4117 F960
G1 X84.042 Y107.617 E0.4625
G1 X81.690 Y114.079 E0.8742
G1 X82.725 Y114.401 E0.9391
G1 X83.591 Y114.581 E0.9921
G1 X83.787 Y114.622 F960
G1 X84.100 Y112.646 F960
G1 X87.126 Y114.417 F4800
G92 E0.0000
G1 X88.152 Y114.069 E0.0649 F960
G1 X89.141 Y113.623 E0.1298
G1 X86.019 Y107.496 E0.5416
G1 X85.230 Y107.807 E0.5923
G1 X87.070 Y114.225 E0.9921
G1 X87.126 Y114.417 F960
G1 X88.152 Y114.069 F960
G1 X88.987 Y113.693
G1 X91.722 Y111.496 F4800
G92 E0.0000
G1 X92.348 Y110.610 E0.0649 F960
G1 X92.886 Y109.669 E0.1298
G1 X86.759 Y106.547 E0.5416
G1 X86.303 Y107.262 E0.5923
G1 X91.564 Y111.373 E0.9921
G1 X91.722 Y111.496 F960
G1 X92.348 Y110.610 F960
G1 X92.802 Y109.815
G1 X93.723 Y106.431 F4800
G92 E0.0000
G1 X93.709 Y105.346 E0.0649 F960
G1 X93.591 Y104.268 E0.1298
G1 X86.799 Y105.344 E0.5416
G1 X86.851 Y106.191 E0.5923
G1 X93.524 Y106.424 E0.9921
G1 X93.723 Y106.431 F960
G1 X93.709 Y105.346 F960
G1 X93.610 Y104.436
G1 X92.367 Y101.155 F4800
G92 E0.0000
G1 X91.675 Y100.241 E0.0686 F960
G1 X90.987 Y99.485 E0.1298
G1 X86.125 Y104.348 E0.5416
G1 X86.664 Y105.002 E0.5923
G1 X92.201 Y101.267 E0.9922
G1 X92.367 Y101.155 F960
G1 X91.675 Y100.241 F960
G1 X91.101 Y99.610
; feature inner perimeter
G1 X91.004 Y98.789 F4800
G92 E0.0000
G1 X87.187 Y102.606 E0.3231 F1080
G1 X86.944 Y102.451 E0.3404
G1 X88.790 Y97.379 E0.6636
G1 X87.251 Y96.901 E0.7600
G1 X85.674 Y96.573 E0.8565
G1 X84.829 Y101.904 E1.1796
G1 X84.541 Y101.921 E1.1969
G1 X83.053 Y96.733 E1.5201
G1 X81.528 Y97.251 E1.6165
G1 X80.059 Y97.913 E1.7130
G1 X82.509 Y102.722 E2.0361
G1 X82.286 Y102.906 E2.0534
G1 X78.033 Y99.583 E2.3766
G1 X77.103 Y100.898 E2.4730
G1 X76.304 Y102.297 E2.5695
G1 X81.113 Y104.747 E2.8926
G1 X81.040 Y105.027 E2.9099
G1 X75.646 Y104.839 E3.2330
G1 X75.667 Y106.450 E3.3295
G1 X75.843 Y108.051 E3.4260
G1 X81.174 Y107.207 E3.7491
G1 X81.280 Y107.476 E3.7664
G1 X76.805 Y110.494 E4.0895
G1 X77.769 Y111.785 E4.1860
G1 X78.852 Y112.978 E4.2824
G1 X82.669 Y109.161 E4.6056
G1 X82.912 Y109.316 E4.6229
G1 X81.066 Y114.388 E4.9460
G1 X82.605 Y114.866 E5.0425
G1 X84.182 Y115.194 E5.1389
G1 X85.027 Y109.863 E5.4621
G1 X85.315 Y109.845 E5.4794
G1 X86.803 Y115.034 E5.8025
G1 X88.329 Y114.516 E5.8990
G1 X89.798 Y113.854 E5.9954
G1 X87.347 Y109.045 E6.3186
G1 X87.570 Y108.861 E6.3359
G1 X91.823 Y112.184 E6.6590
G1 X92.753 Y110.869 E6.7555
G1 X93.553 Y109.470 E6.8519
G1 X88.743 Y107.019 E7.1751
G1 X88.816 Y106.740 E7.1924
G1 X94.210 Y106.928 E7.5155
G1 X94.189 Y105.317 E7.6119
G1 X94.014 Y103.715 E7.7084
G1 X88.682 Y104.560 E8.0315
G1 X88.577 Y104.291 E8.0488
G1 X93.056 Y101.270 E8.3723
G1 X92.044 Y99.934 E8.4726
G1 X91.139 Y98.937 E8.5532
G1 X91.004 Y98.789 F1080
; feature outer perimeter
G1 X88.167 Y97.688 F4800
G92 E0.0000
G1 X87.131 Y97.366 E0.0649 F960
G1 X86.069 Y97.145 E0.1298
G1 X84.993 Y103.938 E0.5416
G1 X85.814 Y104.150 E0.5923
G1 X88.098 Y97.876 E0.9921
G1 X88.167 Y97.688 F960
G1 X87.131 Y97.366 F960
G1 X86.235 Y97.180
G1 X82.731 Y97.349 F4800
G92 E0.0000
G1 X81.704 Y97.698 E0.0649 F960
G1 X80.715 Y98.143 E0.1298
G1 X83.837 Y104.271 E0.5416
G1 X84.626 Y103.960 E0.5923
G1 X82.786 Y97.542 E0.9921
G1 X82.731 Y97.349 F960
G1 X81.704 Y97.698 F960
G1 X80.869 Y98.074
G1 X78.134 Y100.271 F4800
G92 E0.0000
G1 X77.508 Y101.156 E0.0649 F960
G1 X76.970 Y102.098 E0.1298
G1 X83.098 Y105.220 E0.5416
G1 X83.553 Y104.505 E0.5923
G1 X78.292 Y100.394 E0.9921
G1 X78.134 Y100.271 F960
G1 X77.508 Y101.156 F960
G1 X77.054 Y101.951
G1 X76.133 Y105.336 F4800
G92 E0.0000
G1 X76.147 Y106.420 E0.0649 F960
G1 X76.265 Y107.498 E0.1298
G1 X83.057 Y106.423 E0.5416
G1 X83.006 Y105.576 E0.5923
G1 X76.333 Y105.343 E0.9921
G1 X76.133 Y105.336 F960
G1 X76.147 Y106.420 F960
G1 X76.247 Y107.331
G1 X77.491 Y110.610 F4800
G92 E0.0000
G1 X78.140 Y111.479 E0.0649 F960
G1 X78.869 Y112.282 E0.1298
G1 X83.732 Y107.419 E0.5416
G1 X83.192 Y106.765 E0.5923
G1 X77.657 Y110.499 E0.9921
G1 X77.491 Y110.610 F960
G92 E0.0000
G1 X77.970 Y111.251 E-1.5000 F960
G1 X78.140 Y111.479 F960
G1 X78.755 Y112.157
G1 X83.389 Y91.446 F4800
G1 E0.0000 F1800
G92 E0.0000
G1 X84.468 Y91.554 E0.0649 F960
G1 X85.552 Y91.559 E0.1298
G1 X85.252 Y84.689 E0.5416
G1 X84.405 Y84.644 E0.5923
G1 X83.418 Y91.248 E0.9921
G1 X83.389 Y91.446 F960
G1 X84.468 Y91.554 F960
G1 X85.383 Y91.558
