; generated by PrusaSlicer 2.1.1+win64 on 2020-06-09 at 20:33:29 UTC

; 

; external perimeters extrusion width = 0.45mm
; perimeters extrusion width = 0.45mm
; infill extrusion width = 0.45mm
; solid infill extrusion width = 0.45mm
; top infill extrusion width = 0.40mm
; first layer extrusion width = 0.42mm

M73 P0 R63
M201 X9000 Y9000 Z500 E10000 ; sets maximum accelerations, mm/sec^2
M203 X500 Y500 Z12 E120 ; sets maximum feedrates, mm/sec
M204 P2000 R1500 T2000 ; sets acceleration (P, T) and retract acceleration (R), mm/sec^2
M205 X10.00 Y10.00 Z0.20 E2.50 ; sets the jerk limits, mm/sec
M205 S0 T0 ; sets the minimum extruding and travel feed rate, mm/sec
M107
M862.3 P "MK2S" ; printer model check
M862.1 P0.4 ; nozzle diameter check
M115 U3.2.3 ; tell printer latest fw version
G90 ; use absolute coordinates
M83 ; extruder relative mode
M204 S2000 T1500 ; MK2 firmware only supports the old M204 format
M104 S215 ; set extruder temp
M140 S60 ; set bed temp
M190 S60 ; wait for bed temp
M109 S215 ; wait for extruder temp
G28 W ; home all without mesh bed level
G80 ; mesh bed leveling
G1 Y-3.0 F1000.0 ; go outside print area
G92 E0.0
G1 X60.0 E9.0  F1000.0 ; intro line
M73 P0 R63
G1 X100.0 E12.5 F1000.0 ; intro line
G92 E0.0
G21 ; set units to millimeters
G90 ; use absolute coordinates
M83 ; use relative distances for extrusion
M900 K30 ; Filament gcode
;BEFORE_LAYER_CHANGE
G92 E0.0
;0.2


G1 E-0.80000 F2100.00000
G1 Z0.600 F10800.000
;AFTER_LAYER_CHANGE
;0.2
G1 X124.776 Y121.858
G1 Z0.200
G1 E0.80000 F2100.00000
M204 S1000
G1 F1200
G1 X124.158 Y121.861 E0.01940
G1 X122.473 Y121.691 E0.05308
G1 X120.815 Y121.354 E0.05306
G1 X119.199 Y120.853 E0.05306
G1 X117.642 Y120.192 E0.05302
G1 X116.590 Y119.634 E0.03735
G1 X116.687 Y119.240 E0.01270
G1 X133.330 Y119.240 E0.52184
G1 X133.427 Y119.634 E0.01272
G1 X132.365 Y120.193 E0.03763
G1 X130.808 Y120.853 E0.05301
G1 X129.192 Y121.354 E0.05306
G1 X127.534 Y121.691 E0.05306
G1 X125.917 Y121.854 E0.05095
G1 X124.836 Y121.858 E0.03387
G1 X124.584 Y122.209 F10800.000
G1 E-0.80000 F2100.00000
G1 Z0.800 F10800.000
G1 X116.149 Y119.847
G1 Z0.200
G1 E0.80000 F2100.00000
G1 F1200
G1 X115.184 Y119.198 E0.03647
G1 X115.233 Y119.037 E0.00525
G1 X116.348 Y119.037 E0.03499
G1 X116.163 Y119.789 E0.02426
G1 E-0.80000 F2100.00000
G1 Z0.800 F10800.000
G1 X125.004 Y118.660
G1 Z0.200
G1 E0.80000 F2100.00000
G1 F1200
G1 X115.081 Y118.660 E0.31112
G1 X113.732 Y117.569 E0.05442
G1 X112.474 Y116.315 E0.05568
G1 X111.968 Y115.740 E0.02400
G1 X138.045 Y115.740 E0.81761
G1 X137.533 Y116.316 E0.02415
G1 X136.275 Y117.569 E0.05566
G1 X134.926 Y118.660 E0.05441
G1 X125.064 Y118.660 E0.30924
G1 X124.815 Y119.013 F10800.000
G1 X125.004 Y115.160
G1 F1200
G1 X111.516 Y115.160 E0.42289
G1 X110.690 Y113.953 E0.04588
G1 X109.730 Y112.240 E0.06155
G1 X140.279 Y112.240 E0.95783
G1 X139.317 Y113.953 E0.06159
G1 X138.491 Y115.160 E0.04586
G1 X125.064 Y115.160 E0.42101
G1 X124.813 Y115.512 F10800.000
G1 X125.004 Y111.660
G1 F1200
G1 X109.484 Y111.660 E0.48660
G1 X108.999 Y110.377 E0.04301
G1 X108.526 Y108.740 E0.05343
G1 X141.482 Y108.740 E1.03333
G1 X141.008 Y110.378 E0.05345
G1 X140.523 Y111.660 E0.04300
G1 X125.064 Y111.660 E0.48472
G1 X124.813 Y112.012 F10800.000
G1 X125.004 Y108.160
G1 F1200
G1 X108.411 Y108.160 E0.52023
G1 X108.217 Y106.812 E0.04272
G1 X108.110 Y105.240 E0.04939
G1 X141.895 Y105.240 E1.05929
G1 X141.790 Y106.812 E0.04938
G1 X141.596 Y108.160 E0.04272
G1 X125.064 Y108.160 E0.51835
G1 X124.813 Y108.512 F10800.000
G1 X125.004 Y104.660
G1 F1200
G1 X108.115 Y104.660 E0.52953
G1 X108.210 Y103.248 E0.04437
G1 X108.429 Y101.740 E0.04779
G1 X141.578 Y101.740 E1.03936
G1 X141.797 Y103.249 E0.04778
G1 X141.892 Y104.660 E0.04437
G1 X125.064 Y104.660 E0.52765
G1 X124.813 Y105.012 F10800.000
G1 X125.004 Y101.160
G1 F1200
G1 X108.549 Y101.160 E0.51593
G1 X108.977 Y99.681 E0.04829
G1 X109.524 Y98.240 E0.04832
G1 X140.483 Y98.240 E0.97070
G1 X141.030 Y99.681 E0.04831
G1 X141.458 Y101.160 E0.04829
G1 X125.064 Y101.160 E0.51405
G1 X124.814 Y101.513 F10800.000
G1 X125.004 Y97.660
G1 F1200
G1 X109.777 Y97.660 E0.47743
G1 X110.654 Y96.099 E0.05616
G1 X111.586 Y94.740 E0.05166
G1 X138.424 Y94.740 E0.84147
G1 X139.353 Y96.099 E0.05161
G1 X140.230 Y97.660 E0.05616
G1 X125.064 Y97.660 E0.47554
G1 X124.816 Y98.014 F10800.000
G1 X125.004 Y94.160
G1 F1200
G1 X112.022 Y94.160 E0.40704
G1 X113.341 Y92.787 E0.05973
G1 X114.475 Y91.797 E0.04719
G1 X115.213 Y91.240 E0.02898
G1 X134.794 Y91.240 E0.61393
G1 X135.532 Y91.797 E0.02898
G1 X136.670 Y92.791 E0.04740
G1 X137.985 Y94.160 E0.05952
G1 X125.064 Y94.160 E0.40515
G1 X124.817 Y94.514 F10800.000
G1 E-0.80000 F2100.00000
G1 Z0.800 F10800.000
G1 X116.519 Y90.863
G1 Z0.200
G1 E0.80000 F2100.00000
G1 F1200
G1 X115.371 Y90.863 E0.03599
G1 X115.322 Y90.703 E0.00525
G1 X116.104 Y90.177 E0.02956
G1 X116.327 Y90.058 E0.00792
G1 X116.505 Y90.805 E0.02407
G1 E-0.80000 F2100.00000
G1 Z0.800 F10800.000
G1 X125.004 Y90.660
G1 Z0.200
G1 E0.80000 F2100.00000
G1 F1200
G1 X116.858 Y90.660 E0.25539
G1 X116.763 Y90.262 E0.01284
G1 X118.148 Y89.566 E0.04859
G1 X119.795 Y88.935 E0.05530
G1 X121.499 Y88.480 E0.05531
G1 X123.242 Y88.204 E0.05531
G1 X124.933 Y88.116 E0.05311
G1 X126.765 Y88.204 E0.05749
G1 X128.508 Y88.480 E0.05533
G1 X130.212 Y88.935 E0.05531
G1 X131.816 Y89.549 E0.05386
G1 X133.244 Y90.262 E0.05002
G1 X133.149 Y90.660 E0.01285
G1 X125.064 Y90.660 E0.25351
G1 X124.809 Y91.010 F10800.000
G1 E-0.80000 F2100.00000
G1 Z0.800 F10800.000
G1 X133.488 Y90.863
G1 Z0.200
G1 E0.80000 F2100.00000
G1 F1200
G1 X133.677 Y90.068 E0.02562
G1 X134.725 Y90.697 E0.03832
G1 X134.679 Y90.863 E0.00539
G1 X133.548 Y90.863 E0.03546
G1 E-0.80000 F2100.00000
G1 Z0.800 F10800.000
G1 X133.860 Y119.816
G1 Z0.200
G1 E0.80000 F2100.00000
G1 F1200
G1 X133.668 Y119.037 E0.02513
G1 X134.803 Y119.037 E0.03557
G1 X134.854 Y119.193 E0.00514
G1 X134.657 Y119.338 E0.00765
G1 X133.912 Y119.785 E0.02724
G1 E-0.80000 F2100.00000
G1 Z0.800 F10800.000
G1 X124.549 Y122.655
G1 Z0.200
G1 E0.80000 F2100.00000
G1 F1200
G1 X122.735 Y122.515 E0.05702
G1 X120.946 Y122.189 E0.05702
G1 X119.200 Y121.681 E0.05702
G1 X117.515 Y120.996 E0.05702
G1 X115.910 Y120.141 E0.05702
G1 X114.398 Y119.124 E0.05713
G1 X113.999 Y118.812 E0.01588
G1 X113.006 Y117.962 E0.04100
G1 X111.772 Y116.697 E0.05540
G1 X111.452 Y116.328 E0.01531
G1 X110.596 Y115.217 E0.04397
G1 X109.631 Y113.698 E0.05644
G1 X108.817 Y112.071 E0.05702
G1 X108.176 Y110.369 E0.05702
G1 X107.713 Y108.610 E0.05702
G1 X107.433 Y106.813 E0.05702
G1 X107.341 Y104.951 E0.05848
G1 X107.433 Y103.181 E0.05557
G1 X107.713 Y101.384 E0.05702
G1 X108.176 Y99.625 E0.05702
G1 X108.817 Y97.923 E0.05702
G1 X109.631 Y96.296 E0.05702
G1 X110.607 Y94.761 E0.05706
G1 X111.448 Y93.671 E0.04315
G1 X111.732 Y93.339 E0.01372
G1 X113.006 Y92.032 E0.05719
G1 X113.999 Y91.182 E0.04100
G1 X114.398 Y90.870 E0.01588
G1 X115.910 Y89.853 E0.05713
G1 X117.515 Y88.998 E0.05702
G1 X119.200 Y88.313 E0.05702
G1 X120.946 Y87.805 E0.05702
G1 X122.735 Y87.479 E0.05702
G1 X124.549 Y87.339 E0.05702
G1 X126.294 Y87.383 E0.05473
G1 X128.171 Y87.619 E0.05932
G1 X129.940 Y88.037 E0.05701
G1 X131.658 Y88.634 E0.05702
G1 X133.305 Y89.405 E0.05702
G1 X134.866 Y90.342 E0.05707
G1 X135.926 Y91.117 E0.04119
G1 X136.316 Y91.430 E0.01569
G1 X137.683 Y92.700 E0.05848
G1 X138.854 Y94.034 E0.05568
G1 X139.908 Y95.517 E0.05702
G1 X140.805 Y97.101 E0.05709
G1 X141.236 Y98.032 E0.03215
G1 X141.531 Y98.763 E0.02473
G1 X142.085 Y100.498 E0.05711
G1 X142.457 Y102.279 E0.05702
G1 X142.645 Y104.090 E0.05711
G1 X142.668 Y104.997 E0.02844
G1 X142.645 Y105.904 E0.02844
G1 X142.457 Y107.715 E0.05711
G1 X142.085 Y109.496 E0.05702
G1 X141.531 Y111.231 E0.05711
G1 X141.236 Y111.962 E0.02473
G1 X140.805 Y112.893 E0.03215
G1 X139.908 Y114.477 E0.05709
G1 X138.852 Y115.963 E0.05715
G1 X138.581 Y116.297 E0.01348
G1 X137.655 Y117.325 E0.04339
G1 X136.355 Y118.529 E0.05556
G1 X135.984 Y118.834 E0.01504
G1 X134.866 Y119.652 E0.04346
G1 X133.305 Y120.589 E0.05706
G1 X131.658 Y121.360 E0.05702
G1 X129.940 Y121.957 E0.05702
G1 X128.170 Y122.375 E0.05702
G1 X126.367 Y122.609 E0.05702
G1 X124.609 Y122.654 E0.05514
G1 X124.358 Y122.304 F10800.000
G1 E-0.80000 F2100.00000
G1 Z0.800 F10800.000
G1 X132.534 Y120.532
G1 Z0.200
G1 E0.80000 F2100.00000
G1 F1200
G1 X131.508 Y120.990 E0.03557
G1 X130.948 Y121.205 E0.01899
G1 X129.829 Y121.574 E0.03728
G1 X129.277 Y121.724 E0.01810
G1 X128.099 Y121.983 E0.03817
G1 X127.581 Y122.068 E0.01661
G1 X126.336 Y122.212 E0.03966
G1 X125.927 Y122.237 E0.01296
G1 X124.559 Y122.257 E0.04331
G1 X124.149 Y122.242 E0.01297
G1 X122.786 Y122.121 E0.04330
G1 X122.426 Y122.070 E0.01153
G1 X121.037 Y121.803 E0.04475
G1 X120.711 Y121.722 E0.01065
G1 X119.330 Y121.307 E0.04563
G1 X119.058 Y121.209 E0.00916
G1 X117.683 Y120.638 E0.04712
G1 X116.323 Y119.926 E0.04856
G1 X116.564 Y118.950 F10800.000
G1 F1200
G1 X133.453 Y118.950 E0.28496
G1 X133.692 Y119.919 F10800.000
G1 F1200
G1 X133.120 Y120.241 E0.02241
G1 X132.534 Y120.532 E0.02234
G1 X135.014 Y119.076 F10800.000
G1 F1200
G1 X135.739 Y118.517 E0.02905
G1 X136.536 Y117.844 E0.03312
G1 X137.369 Y117.043 E0.04071
G1 X137.807 Y116.583 E0.02238
G1 X138.602 Y115.674 E0.03253
G1 X138.670 Y115.538 E0.00408
G1 X138.590 Y115.489 E0.00253
G1 X138.465 Y115.450 E0.00221
G1 X111.552 Y115.450 E0.45412
G1 X111.484 Y115.473 E0.00146
G1 X111.417 Y115.495 E0.00173
G1 X111.393 Y115.511 E0.00079
G1 X111.369 Y115.527 E0.00088
G1 X111.345 Y115.543 E0.00098
G1 X110.372 Y114.160 F10800.000
G1 F1200
G1 X109.979 Y113.501 E0.02425
G1 X109.256 Y112.137 E0.04875
G1 X108.552 Y110.249 E0.06366
G1 X108.097 Y108.603 E0.05394
G1 X108.060 Y108.376 E0.00727
G1 X107.822 Y106.774 E0.05118
G1 X107.722 Y105.064 E0.05409
G1 X107.725 Y104.836 E0.00721
G1 X107.821 Y103.221 E0.05112
G1 X108.076 Y101.524 E0.05421
G1 X108.121 Y101.298 E0.00729
G1 X108.610 Y99.567 E0.05682
G1 X109.303 Y97.764 E0.06102
G1 X109.977 Y96.492 E0.04545
G1 X110.337 Y95.891 E0.02214
G1 X110.933 Y94.989 E0.03416
G1 X111.385 Y94.383 E0.02388
G1 X111.423 Y94.309 E0.00263
G1 X111.460 Y94.234 E0.00251
G1 X112.020 Y93.601 E0.02544
G1 X113.276 Y92.320 E0.05401
G1 X114.245 Y91.483 E0.03857
G1 X115.158 Y90.812 E0.03413
G1 X116.733 Y90.950 F10800.000
G1 F1200
G1 X133.274 Y90.950 E0.27908
G1 X133.507 Y89.969 F10800.000
G1 F1200
G1 X133.119 Y89.756 E0.01534
G1 X131.978 Y89.204 E0.04387
G1 X131.508 Y89.004 E0.01636
G1 X130.320 Y88.571 E0.04049
G1 X129.829 Y88.420 E0.01644
G1 X128.577 Y88.106 E0.04133
G1 X128.100 Y88.012 E0.01556
G1 X126.793 Y87.827 E0.04225
G1 X126.264 Y87.781 E0.01702
G1 X124.943 Y87.732 E0.04233
G1 X124.559 Y87.737 E0.01228
G1 X123.212 Y87.824 E0.04321
G1 X122.787 Y87.874 E0.01372
G1 X121.430 Y88.105 E0.04406
G1 X121.038 Y88.192 E0.01287
G1 X119.687 Y88.569 E0.04490
G1 X119.331 Y88.689 E0.01203
G1 X117.985 Y89.220 E0.04633
G1 X117.683 Y89.357 E0.01061
G1 X116.500 Y89.969 E0.04265
G1 E-0.80000 F2100.00000
G1 Z0.800 F10800.000
G1 X111.453 Y94.414
G1 Z0.200
G1 E0.80000 F2100.00000
G1 F1200
G1 X111.385 Y94.383 E0.00213
G1 X111.453 Y94.414 F10800.000
G1 F1200
G1 X111.579 Y94.450 E0.00221
G1 X138.428 Y94.450 E0.45302
G1 X138.523 Y94.428 E0.00202
G1 X138.549 Y94.416 E0.00066
G1 X138.574 Y94.404 E0.00075
G1 X138.599 Y94.392 E0.00084
G1 X138.624 Y94.380 E0.00093
G1 X138.681 Y94.444 E0.00282
G1 X139.676 Y95.888 E0.05969
G1 X140.460 Y97.278 E0.04132
G1 X140.707 Y97.762 E0.01406
G1 X140.746 Y97.901 E0.00375
G1 X140.647 Y97.931 E0.00269
G1 X140.552 Y97.950 E0.00162
G1 X109.455 Y97.950 E0.52471
G1 X109.394 Y97.941 E0.00113
G1 X109.361 Y97.931 E0.00076
G1 X109.328 Y97.922 E0.00089
G1 X109.295 Y97.912 E0.00102
G1 X109.262 Y97.902 E0.00114
G1 X108.227 Y101.442 F10800.000
G1 F1200
G1 X108.148 Y101.430 E0.00205
G1 X108.108 Y101.423 E0.00136
G1 X108.227 Y101.442 F10800.000
G1 F1200
G1 X141.741 Y101.448 E0.57975
G1 X141.778 Y101.442 E0.00078
G1 X141.815 Y101.436 E0.00092
G1 X141.888 Y101.425 E0.00202
G1 X141.922 Y101.526 E0.00290
G1 X142.066 Y102.340 E0.02249
G1 X142.174 Y103.216 E0.02403
G1 X142.251 Y104.116 E0.02457
G1 X142.284 Y104.836 E0.01962
G1 X142.273 Y104.948 E0.00306
G1 X142.167 Y104.949 E0.00289
G1 X107.909 Y104.950 E0.57837
G1 X107.874 Y104.949 E0.00071
G1 X107.839 Y104.949 E0.00083
G1 X107.804 Y104.948 E0.00095
G1 X107.769 Y104.947 E0.00107
G1 X107.734 Y104.946 E0.00118
G1 X108.208 Y108.457 F10800.000
G1 F1200
G1 X108.248 Y108.452 E0.00086
G1 X141.834 Y108.461 E0.57664
G1 X141.909 Y108.471 E0.00215
G1 X141.901 Y108.600 E0.00369
G1 X141.703 Y109.395 E0.02328
G1 X141.370 Y110.490 E0.03256
G1 X141.159 Y111.096 E0.01824
M73 P1 R62
G1 X140.835 Y111.918 E0.02511
G1 X140.792 Y111.993 E0.00246
G1 X140.723 Y111.975 E0.00205
G1 X140.688 Y111.966 E0.00092
G1 X140.653 Y111.957 E0.00079
G1 X140.601 Y111.950 E0.00095
G1 X109.408 Y111.950 E0.52631
G1 X109.319 Y111.967 E0.00153
G1 X109.215 Y111.995 E0.00278
G1 X110.372 Y114.160 F10800.000
G1 F1200
G1 X110.920 Y114.990 E0.03259
G1 X111.259 Y115.457 E0.01891
G1 X111.345 Y115.543 E0.00399
G1 X111.415 Y115.672 E0.00481
G1 X111.752 Y116.082 E0.01740
G1 X112.198 Y116.583 E0.02197
G1 X113.482 Y117.862 E0.05938
G1 X114.252 Y118.503 E0.03438
G1 X115.019 Y119.091 E0.03319
G1 E-0.80000 F2100.00000
G1 Z0.800 F10800.000
G1 X108.208 Y108.457
G1 Z0.200
G1 E0.80000 F2100.00000
G1 F1200
G1 X108.168 Y108.463 E0.00103
G1 X108.128 Y108.468 E0.00120
G1 X108.088 Y108.473 E0.00137
G1 E-0.80000 F2100.00000
G1 Z0.800 F10800.000
G1 X138.670 Y115.538
G1 Z0.200
G1 E0.80000 F2100.00000
G1 F1200
G1 X138.747 Y115.456 E0.00352
G1 X139.641 Y114.165 E0.04909
G1 X140.459 Y112.715 E0.05203
G1 X140.753 Y112.138 E0.02026
G1 X140.773 Y112.065 E0.00234
G1 X140.792 Y111.993 E0.00249
G1 X141.909 Y108.471 F10800.000
G1 F1200
G1 X142.067 Y107.655 E0.02622
G1 X142.167 Y106.844 E0.02575
G1 X142.249 Y105.878 E0.03152
G1 X142.284 Y104.997 E0.02867
G1 X142.273 Y104.948 E0.00171
G1 X141.888 Y101.425 F10800.000
G1 F1200
G1 X141.879 Y101.300 E0.00404
G1 X141.705 Y100.599 E0.02332
G1 X141.391 Y99.568 E0.03477
G1 X141.158 Y98.898 E0.02244
G1 X140.879 Y98.187 E0.02416
G1 X140.746 Y97.901 E0.00995
G1 X138.624 Y94.380 F10800.000
G1 F1200
G1 X138.598 Y94.319 E0.00221
G1 X138.572 Y94.258 E0.00205
G1 X137.398 Y92.977 E0.04938
G1 X136.925 Y92.512 E0.01884
G1 X135.782 Y91.500 E0.04339
G1 X134.884 Y90.829 E0.03185
G1 E-0.80000 F2100.00000
G1 Z0.800 F10800.000
G1 X124.776 Y163.614
G1 Z0.200
G1 E0.80000 F2100.00000
G1 F1200
G1 X124.158 Y163.616 E0.01940
G1 X122.473 Y163.447 E0.05308
G1 X120.815 Y163.109 E0.05306
G1 X119.199 Y162.608 E0.05306
G1 X117.642 Y161.948 E0.05302
G1 X116.590 Y161.389 E0.03735
G1 X116.687 Y160.996 E0.01270
G1 X133.330 Y160.996 E0.52184
G1 X133.427 Y161.390 E0.01272
G1 X132.365 Y161.948 E0.03763
G1 X130.808 Y162.608 E0.05301
G1 X129.192 Y163.109 E0.05306
G1 X127.534 Y163.447 E0.05306
G1 X125.917 Y163.609 E0.05095
G1 X124.836 Y163.613 E0.03387
G1 X124.584 Y163.964 F10800.000
G1 E-0.80000 F2100.00000
G1 Z0.800 F10800.000
G1 X116.149 Y161.602
G1 Z0.200
G1 E0.80000 F2100.00000
G1 F1200
G1 X115.184 Y160.953 E0.03647
G1 X115.233 Y160.793 E0.00525
G1 X116.348 Y160.793 E0.03499
G1 X116.163 Y161.544 E0.02426
G1 E-0.80000 F2100.00000
G1 Z0.800 F10800.000
G1 X125.004 Y160.416
G1 Z0.200
G1 E0.80000 F2100.00000
G1 F1200
G1 X115.081 Y160.416 E0.31112
G1 X113.732 Y159.324 E0.05442
G1 X112.474 Y158.070 E0.05568
G1 X111.968 Y157.496 E0.02400
G1 X138.045 Y157.496 E0.81761
G1 X137.533 Y158.071 E0.02415
G1 X136.275 Y159.324 E0.05566
G1 X134.926 Y160.416 E0.05441
G1 X125.064 Y160.416 E0.30924
G1 X124.815 Y160.768 F10800.000
G1 X125.004 Y156.916
G1 F1200
G1 X111.516 Y156.916 E0.42289
G1 X110.690 Y155.708 E0.04588
G1 X109.730 Y153.996 E0.06155
G1 X140.279 Y153.996 E0.95783
G1 X139.317 Y155.709 E0.06159
G1 X138.491 Y156.916 E0.04586
G1 X125.064 Y156.916 E0.42101
G1 X124.813 Y157.268 F10800.000
G1 X125.004 Y153.416
G1 F1200
G1 X109.484 Y153.416 E0.48660
G1 X108.999 Y152.133 E0.04301
G1 X108.526 Y150.496 E0.05343
G1 X141.482 Y150.496 E1.03333
G1 X141.008 Y152.133 E0.05345
G1 X140.523 Y153.416 E0.04300
G1 X125.064 Y153.416 E0.48472
G1 X124.813 Y153.767 F10800.000
