; generated by PrusaSlicer 2.1.0+ on 2019-09-24 at 21:00:10 UTC

; 

; external perimeters extrusion width = 0.45mm
; perimeters extrusion width = 0.45mm
; infill extrusion width = 0.45mm
; solid infill extrusion width = 0.45mm
; top infill extrusion width = 0.40mm
; first layer extrusion width = 0.42mm

M73 P0 R41
M201 X9000 Y9000 Z500 E10000 ; sets maximum accelerations, mm/sec^2
M203 X500 Y500 Z12 E120 ; sets maximum feedrates, mm/sec
M204 P2000 R1500 T2000 ; sets acceleration (P, T) and retract acceleration (R), mm/sec^2
M205 X10.00 Y10.00 Z0.20 E2.50 ; sets the jerk limits, mm/sec
M205 S0 T0 ; sets the minimum extruding and travel feed rate, mm/sec
M107
M862.3 P "MK2S" ; printer model check
M862.1 P0.4 ; nozzle diameter check
M115 U3.2.3 ; tell printer latest fw version
G90 ; use absolute coordinates
M83 ; extruder relative mode
M204 S2000 T1500 ; MK2 firmware only supports the old M204 format
M104 S215 ; set extruder temp
M140 S60 ; set bed temp
M190 S60 ; wait for bed temp
M109 S215 ; wait for extruder temp
G28 W ; home all without mesh bed level
G80 ; mesh bed leveling
G1 Y-3.0 F1000.0 ; go outside print area
G92 E0.0
G1 X60.0 E9.0  F1000.0 ; intro line
M73 P0 R41
G1 X100.0 E12.5 F1000.0 ; intro line
G92 E0.0
G21 ; set units to millimeters
G90 ; use absolute coordinates
M83 ; use relative distances for extrusion
M900 K30 ; Filament gcode
;BEFORE_LAYER_CHANGE
G92 E0.0
;0.2


G1 E-0.80000 F2100.00000
G1 Z0.600 F10800.000
;AFTER_LAYER_CHANGE
;0.2
G1 X106.431 Y90.557
G1 Z0.200
G1 E0.80000 F2100.00000
M204 S1000
G1 F1200
G1 X107.446 Y89.789 E0.03994
G1 X108.718 Y89.245 E0.04335
G1 X110.085 Y89.037 E0.04335
G1 X139.056 Y89.035 E0.90839
G1 X139.925 Y89.106 E0.02732
G1 X140.777 Y89.315 E0.02750
G1 X141.579 Y89.655 E0.02732
G1 X142.322 Y90.122 E0.02750
G1 X142.980 Y90.701 E0.02750
G1 X143.534 Y91.374 E0.02732
G1 X143.977 Y92.131 E0.02750
G1 X144.291 Y92.944 E0.02732
G1 X144.458 Y93.693 E0.02407
G1 X144.518 Y94.453 E0.02389
G1 X144.518 Y106.046 E0.36349
G1 X144.415 Y107.056 E0.03183
G1 X143.958 Y108.409 E0.04479
G1 X143.171 Y109.594 E0.04461
G1 X134.094 Y119.292 E0.41647
G1 X133.542 Y119.791 E0.02335
G1 X132.932 Y120.208 E0.02317
G1 X131.650 Y120.756 E0.04371
G1 X130.271 Y120.962 E0.04371
G1 X118.935 Y120.961 E0.35544
G1 X117.950 Y120.840 E0.03111
G1 X117.003 Y120.542 E0.03111
G1 X116.039 Y120.021 E0.03436
G1 X115.199 Y119.319 E0.03436
G1 X106.189 Y109.698 E0.41325
G1 X105.503 Y108.772 E0.03616
G1 X104.978 Y107.567 E0.04120
G1 X104.755 Y106.267 E0.04138
G1 X104.777 Y93.944 E0.38638
G1 X105.056 Y92.695 E0.04012
G1 X105.617 Y91.545 E0.04012
G1 X106.393 Y90.604 E0.03824
G1 X106.683 Y90.846 F10800.000
G1 F1200
G1 X107.679 Y90.090 E0.03919
G1 X108.848 Y89.600 E0.03974
G1 X110.107 Y89.414 E0.03992
G1 X139.056 Y89.412 E0.90768
G1 X139.877 Y89.480 E0.02584
G1 X140.677 Y89.679 E0.02584
G1 X141.434 Y90.005 E0.02584
G1 X142.124 Y90.445 E0.02566
G1 X142.739 Y90.994 E0.02584
G1 X143.256 Y91.635 E0.02584
G1 X143.664 Y92.351 E0.02584
G1 X143.949 Y93.119 E0.02566
G1 X144.141 Y94.472 E0.04286
G1 X144.141 Y106.044 E0.36283
G1 X144.034 Y107.040 E0.03141
G1 X143.602 Y108.279 E0.04113
G1 X142.869 Y109.366 E0.04113
G1 X133.821 Y119.032 E0.41512
G1 X133.286 Y119.512 E0.02253
G1 X132.695 Y119.910 E0.02235
G1 X131.515 Y120.403 E0.04009
G1 X130.249 Y120.586 E0.04009
G1 X118.952 Y120.584 E0.35422
G1 X118.024 Y120.470 E0.02932
G1 X117.127 Y120.185 E0.02949
G1 X116.233 Y119.697 E0.03193
G1 X115.459 Y119.045 E0.03176
G1 X106.466 Y109.442 E0.41250
G1 X105.805 Y108.540 E0.03506
G1 X105.329 Y107.425 E0.03801
G1 X105.131 Y106.229 E0.03801
G1 X105.152 Y93.986 E0.38390
G1 X105.416 Y92.808 E0.03784
G1 X105.947 Y91.730 E0.03766
G1 X106.645 Y90.892 E0.03422
G1 F8640
G1 X107.679 Y90.090 E-0.30209
G1 X108.848 Y89.600 E-0.29269
G1 X109.555 Y89.495 E-0.16522
G1 E-0.04000 F2100.00000
G1 Z0.800 F10800.000
G1 X141.923 Y100.274
G1 Z0.200
G1 E0.80000 F2100.00000
G1 F1200
G1 X142.689 Y100.976 E0.03257
G1 X143.379 Y102.050 E0.04003
G1 X143.751 Y103.390 E0.04362
G1 X143.764 Y106.427 E0.09521
G1 X143.530 Y107.569 E0.03656
G1 X142.782 Y108.924 E0.04852
G1 X141.827 Y109.842 E0.04153
G1 X140.656 Y110.467 E0.04162
G1 X139.575 Y110.704 E0.03470
G1 X133.958 Y110.706 E0.17611
G1 X134.512 Y111.602 E0.03302
G1 X134.859 Y112.888 E0.04176
G1 X134.859 Y116.046 E0.09903
G1 X134.594 Y117.182 E0.03657
G1 X133.886 Y118.427 E0.04491
G1 X132.896 Y119.367 E0.04282
G1 X131.808 Y119.947 E0.03865
G1 X130.599 Y120.209 E0.03880
G1 X118.596 Y120.209 E0.37633
G1 X117.172 Y119.831 E0.04620
G1 X116.155 Y119.196 E0.03759
G1 X115.299 Y118.318 E0.03845
G1 X114.678 Y117.201 E0.04008
G1 X114.399 Y115.979 E0.03931
G1 X114.397 Y113.061 E0.09147
G1 X114.551 Y112.157 E0.02874
G1 X115.279 Y110.708 E0.05086
G1 X109.558 Y110.694 E0.17938
G1 X108.335 Y110.358 E0.03975
G1 X107.262 Y109.700 E0.03947
G1 X106.368 Y108.770 E0.04045
G1 X105.763 Y107.646 E0.04001
G1 X105.511 Y106.521 E0.03615
G1 X105.507 Y103.538 E0.09354
G1 X105.657 Y102.666 E0.02774
G1 X106.390 Y101.201 E0.05135
G1 X107.303 Y100.268 E0.04094
G1 X106.333 Y99.225 E0.04465
G1 X105.765 Y98.154 E0.03801
G1 X105.516 Y97.071 E0.03482
G1 X105.510 Y94.005 E0.09616
G1 X105.696 Y93.053 E0.03040
G1 X106.433 Y91.645 E0.04983
G1 X107.475 Y90.634 E0.04550
G1 X108.510 Y90.073 E0.03692
G1 X109.692 Y89.798 E0.03805
G1 X121.838 Y89.802 E0.38083
G1 X122.758 Y89.995 E0.02949
G1 X123.670 Y90.406 E0.03135
G1 X124.635 Y91.223 E0.03965
G1 X125.256 Y90.636 E0.02680
G1 X126.244 Y90.093 E0.03536
G1 X127.476 Y89.798 E0.03971
G1 X139.663 Y89.806 E0.38211
G1 X140.629 Y90.024 E0.03106
G1 X141.556 Y90.471 E0.03225
G1 X142.655 Y91.439 E0.04593
G1 X143.402 Y92.606 E0.04344
G1 X143.751 Y93.891 E0.04173
G1 X143.764 Y96.930 E0.09531
G1 X143.548 Y98.023 E0.03493
G1 X142.817 Y99.382 E0.04838
G1 X141.966 Y100.232 E0.03773
G1 X141.297 Y100.220 F10800.000
G1 F1200
G1 X142.386 Y101.201 E0.04597
G1 X143.046 Y102.229 E0.03830
G1 X143.381 Y103.464 E0.04013
G1 X143.387 Y106.408 E0.09229
G1 X143.167 Y107.465 E0.03385
G1 X142.500 Y108.672 E0.04325
G1 X141.585 Y109.552 E0.03982
G1 X140.549 Y110.105 E0.03681
G1 X139.554 Y110.327 E0.03196
G1 X133.115 Y110.329 E0.20188
G1 X133.524 Y110.732 E0.01798
G1 X134.155 Y111.729 E0.03701
G1 X134.489 Y112.962 E0.04005
G1 X134.487 Y115.984 E0.09475
G1 X134.252 Y117.020 E0.03331
G1 X133.572 Y118.216 E0.04314
G1 X132.696 Y119.046 E0.03784
G1 X131.654 Y119.602 E0.03702
G1 X130.579 Y119.832 E0.03447
G1 X118.621 Y119.832 E0.37492
G1 X117.299 Y119.474 E0.04296
G1 X116.376 Y118.891 E0.03424
G1 X115.587 Y118.074 E0.03560
G1 X115.039 Y117.090 E0.03533
G1 X114.776 Y115.956 E0.03647
G1 X114.774 Y113.076 E0.09033
G1 X114.901 Y112.301 E0.02462
G1 X115.614 Y110.880 E0.04984
G1 X116.141 Y110.331 E0.02384
G1 X109.631 Y110.323 E0.20410
G1 X108.507 Y110.022 E0.03648
G1 X107.515 Y109.419 E0.03639
G1 X106.688 Y108.567 E0.03724
G1 X106.108 Y107.491 E0.03833
G1 X105.884 Y106.461 E0.03305
G1 X105.881 Y103.582 E0.09026
G1 X106.008 Y102.808 E0.02460
G1 X106.713 Y101.397 E0.04946
G1 X107.594 Y100.512 E0.03916
G1 X108.031 Y100.248 E0.01600
G1 X107.439 Y99.860 E0.02220
G1 X106.626 Y98.986 E0.03742
G1 X106.126 Y98.044 E0.03344
G1 X105.893 Y97.049 E0.03205
G1 X105.887 Y94.021 E0.09492
G1 X106.044 Y93.203 E0.02613
G1 X106.753 Y91.847 E0.04799
G1 X107.678 Y90.952 E0.04035
G1 X108.622 Y90.434 E0.03377
G1 X109.714 Y90.176 E0.03518
G1 X121.817 Y90.179 E0.37950
G1 X122.659 Y90.359 E0.02698
G1 X123.489 Y90.737 E0.02859
G1 X124.650 Y91.735 E0.04800
G1 X125.460 Y90.954 E0.03529
G1 X126.403 Y90.435 E0.03375
G1 X127.498 Y90.175 E0.03527
G1 X139.641 Y90.183 E0.38074
G1 X140.523 Y90.387 E0.02838
G1 X141.366 Y90.798 E0.02943
G1 X142.384 Y91.703 E0.04270
G1 X143.068 Y92.782 E0.04006
G1 X143.380 Y93.963 E0.03828
G1 X143.387 Y96.912 E0.09246
G1 X143.184 Y97.920 E0.03226
G1 X142.500 Y99.176 E0.04484
G1 X141.666 Y99.996 E0.03667
G1 X141.348 Y100.189 E0.01165
G1 F8640
G1 X142.386 Y101.201 E-0.33481
G1 X143.046 Y102.229 E-0.28203
G1 X143.208 Y102.827 E-0.14316
G1 E-0.04000 F2100.00000
G1 Z0.800 F10800.000
G1 X124.622 Y92.399
G1 Z0.200
G1 E0.80000 F2100.00000
G1 F1200
G1 X124.815 Y92.102 E0.01111
G1 X125.665 Y91.272 E0.03726
G1 X126.562 Y90.778 E0.03212
G1 X127.519 Y90.552 E0.03083
G1 X139.579 Y90.556 E0.37812
G1 X140.380 Y90.736 E0.02576
G1 X141.138 Y91.099 E0.02634
G1 X142.082 Y91.930 E0.03943
G1 X142.712 Y92.910 E0.03653
G1 X143.003 Y93.989 E0.03504
G1 X143.010 Y96.893 E0.09106
G1 X142.821 Y97.817 E0.02957
G1 X142.216 Y98.927 E0.03963
G1 X141.422 Y99.707 E0.03491
G1 X140.442 Y100.256 E0.03521
G1 X141.184 Y100.626 E0.02598
G1 X142.083 Y101.427 E0.03775
G1 X142.712 Y102.407 E0.03653
G1 X143.010 Y103.536 E0.03660
G1 X143.010 Y106.389 E0.08945
G1 X142.822 Y107.310 E0.02947
G1 X142.217 Y108.423 E0.03971
G1 X141.382 Y109.234 E0.03649
G1 X140.439 Y109.743 E0.03360
G1 X139.532 Y109.950 E0.02916
G1 X132.077 Y109.952 E0.23377
G1 X133.222 Y110.961 E0.04785
G1 X133.821 Y111.905 E0.03507
G1 X134.118 Y113.033 E0.03657
G1 X134.114 Y115.924 E0.09063
G1 X133.909 Y116.861 E0.03008
G1 X133.290 Y117.964 E0.03965
G1 X132.493 Y118.727 E0.03460
G1 X131.547 Y119.240 E0.03375
G1 X130.558 Y119.455 E0.03172
G1 X118.646 Y119.455 E0.37350
G1 X117.475 Y119.140 E0.03804
G1 X116.629 Y118.610 E0.03128
G1 X115.904 Y117.868 E0.03253
G1 X115.382 Y116.930 E0.03366
G1 X115.149 Y115.895 E0.03328
G1 X115.151 Y113.092 E0.08789
G1 X115.268 Y112.392 E0.02225
G1 X115.935 Y111.081 E0.04611
G1 X117.077 Y109.956 E0.05027
G1 X109.657 Y109.946 E0.23263
G1 X108.634 Y109.666 E0.03327
G1 X107.734 Y109.111 E0.03313
G1 X106.977 Y108.325 E0.03423
G1 X106.470 Y107.383 E0.03352
G1 X106.261 Y106.440 E0.03031
G1 X106.258 Y103.598 E0.08910
G1 X106.375 Y102.898 E0.02225
G1 X107.002 Y101.642 E0.04402
G1 X107.841 Y100.798 E0.03730
G1 X108.777 Y100.272 E0.03369
G1 X107.696 Y99.583 E0.04019
G1 X106.946 Y98.785 E0.03436
G1 X106.488 Y97.933 E0.03033
G1 X106.265 Y96.984 E0.03057
G1 X106.261 Y94.071 E0.09133
G1 X106.392 Y93.349 E0.02300
G1 X107.039 Y92.094 E0.04426
G1 X107.883 Y91.270 E0.03698
G1 X108.780 Y90.777 E0.03211
G1 X109.777 Y90.548 E0.03207
G1 X121.796 Y90.556 E0.37686
G1 X122.557 Y90.723 E0.02442
G1 X123.306 Y91.068 E0.02584
G1 X124.298 Y91.930 E0.04122
G1 X124.588 Y92.350 E0.01600
G1 X124.677 Y93.179 F10800.000
G1 F1200
G1 X125.108 Y92.342 E0.02951
G1 X125.870 Y91.589 E0.03358
G1 X126.721 Y91.121 E0.03047
G1 X127.541 Y90.930 E0.02639
G1 X139.518 Y90.929 E0.37555
G1 X140.240 Y91.087 E0.02318
G1 X140.909 Y91.400 E0.02316
G1 X141.813 Y92.196 E0.03775
G1 X142.356 Y93.038 E0.03143
G1 X142.626 Y94.015 E0.03178
G1 X142.633 Y96.874 E0.08962
G1 X142.457 Y97.712 E0.02686
G1 X141.932 Y98.678 E0.03446
G1 X141.177 Y99.420 E0.03319
G1 X140.327 Y99.886 E0.03038
G1 X139.411 Y100.100 E0.02952
G1 X139.413 Y100.401 E0.00944
G1 X140.240 Y100.583 E0.02655
G1 X140.954 Y100.926 E0.02484
G1 X141.813 Y101.692 E0.03608
G1 X142.356 Y102.534 E0.03143
G1 X142.633 Y103.562 E0.03336
G1 X142.633 Y106.371 E0.08809
G1 X142.476 Y107.157 E0.02515
G1 X141.931 Y108.175 E0.03618
G1 X141.177 Y108.916 E0.03317
G1 X140.327 Y109.382 E0.03038
G1 X139.510 Y109.573 E0.02631
G1 X130.628 Y109.576 E0.27849
G1 X130.593 Y109.913 E0.01064
G1 X131.306 Y110.066 E0.02289
G1 X131.967 Y110.361 E0.02268
G1 X132.921 Y111.188 E0.03960
G1 X133.465 Y112.033 E0.03149
G1 X133.741 Y113.059 E0.03331
G1 X133.741 Y115.867 E0.08803
G1 X133.565 Y116.705 E0.02685
G1 X133.007 Y117.714 E0.03615
G1 X132.289 Y118.410 E0.03137
G1 X131.438 Y118.878 E0.03045
G1 X130.537 Y119.078 E0.02892
G1 X118.671 Y119.078 E0.37207
G1 X117.649 Y118.805 E0.03316
G1 X116.881 Y118.329 E0.02834
G1 X116.221 Y117.662 E0.02941
G1 X115.725 Y116.771 E0.03197
G1 X115.526 Y115.875 E0.02879
G1 X115.528 Y113.108 E0.08674
G1 X115.634 Y112.485 E0.01983
G1 X116.255 Y111.283 E0.04243
G1 X116.978 Y110.582 E0.03155
G1 X117.829 Y110.114 E0.03047
G1 X118.703 Y109.913 E0.02810
G1 X118.665 Y109.579 E0.01056
G1 X109.730 Y109.575 E0.28016
G1 X108.806 Y109.329 E0.02998
G1 X107.987 Y108.830 E0.03006
G1 X107.295 Y108.120 E0.03108
G1 X106.832 Y107.273 E0.03027
G1 X106.638 Y106.418 E0.02750
G1 X106.636 Y103.614 E0.08792
G1 X106.742 Y102.989 E0.01989
G1 X107.290 Y101.886 E0.03862
G1 X108.088 Y101.084 E0.03547
G1 X108.939 Y100.617 E0.03044
G1 X109.844 Y100.405 E0.02912
G1 X109.849 Y100.112 E0.00919
G1 X108.757 Y99.811 E0.03553
G1 X107.952 Y99.306 E0.02978
G1 X107.266 Y98.584 E0.03125
G1 X106.832 Y97.778 E0.02870
G1 X106.638 Y96.922 E0.02752
G1 X106.636 Y94.118 E0.08792
G1 X106.742 Y93.493 E0.01987
G1 X107.326 Y92.340 E0.04052
G1 X108.088 Y91.588 E0.03356
G1 X108.939 Y91.120 E0.03044
G1 X109.798 Y90.925 E0.02762
G1 X121.775 Y90.933 E0.37553
G1 X122.453 Y91.086 E0.02181
G1 X123.121 Y91.398 E0.02310
G1 X124.028 Y92.195 E0.03788
G1 X124.644 Y93.129 E0.03505
G1 F8640
G1 X125.108 Y92.342 E-0.21089
G1 X125.870 Y91.589 E-0.24730
G1 X126.721 Y91.121 E-0.22436
G1 X127.048 Y91.045 E-0.07746
G1 E-0.04000 F2100.00000
G1 Z0.800 F10800.000
G1 X124.784 Y96.839
G1 Z0.200
G1 E0.80000 F2100.00000
G1 F1200
G1 X124.480 Y96.841 E0.00952
G1 X124.329 Y97.557 E0.02296
G1 X123.864 Y98.427 E0.03094
G1 X123.191 Y99.100 E0.02981
G1 X122.388 Y99.541 E0.02875
G1 X121.664 Y99.704 E0.02324
G1 X109.803 Y99.708 E0.37190
G1 X108.931 Y99.476 E0.02831
G1 X108.207 Y99.027 E0.02671
G1 X107.585 Y98.382 E0.02808
G1 X107.177 Y97.622 E0.02705
G1 X107.015 Y96.901 E0.02317
G1 X107.013 Y94.131 E0.08683
G1 X107.093 Y93.634 E0.01581
G1 X107.614 Y92.586 E0.03669
G1 X108.333 Y91.876 E0.03170
G1 X109.094 Y91.465 E0.02712
G1 X109.818 Y91.302 E0.02327
G1 X121.714 Y91.306 E0.37299
G1 X122.317 Y91.438 E0.01935
G1 X122.894 Y91.700 E0.01986
G1 X123.759 Y92.461 E0.03613
G1 X124.217 Y93.167 E0.02639
G1 X124.493 Y94.138 E0.03165
G1 X124.794 Y94.122 E0.00945
G1 X124.876 Y93.635 E0.01549
G1 X125.398 Y92.585 E0.03674
G1 X126.076 Y91.906 E0.03007
G1 X126.879 Y91.465 E0.02875
G1 X127.602 Y91.302 E0.02325
G1 X139.460 Y91.301 E0.37178
G1 X140.101 Y91.438 E0.02054
G1 X140.724 Y91.730 E0.02159
G1 X141.543 Y92.460 E0.03440
G1 X142.001 Y93.167 E0.02639
G1 X142.256 Y94.091 E0.03007
G1 X142.256 Y96.855 E0.08666
G1 X142.112 Y97.557 E0.02247
G1 X141.615 Y98.471 E0.03265
G1 X140.934 Y99.130 E0.02969
G1 X140.172 Y99.541 E0.02715
G1 X139.449 Y99.704 E0.02326
G1 X127.538 Y99.701 E0.37345
G1 X126.715 Y99.476 E0.02674
G1 X125.991 Y99.027 E0.02673
G1 X125.369 Y98.382 E0.02808
G1 X124.961 Y97.622 E0.02706
G1 X124.797 Y96.897 E0.02329
G1 X123.982 Y97.405 F10800.000
G1 F1200
G1 X123.545 Y98.224 E0.02910
G1 X122.947 Y98.811 E0.02628
G1 X122.233 Y99.196 E0.02542
G1 X121.606 Y99.331 E0.02014
G1 X109.829 Y99.331 E0.36924
G1 X109.058 Y99.120 E0.02508
G1 X108.460 Y98.747 E0.02209
G1 X107.904 Y98.179 E0.02490
G1 X107.522 Y97.467 E0.02533
G1 X107.388 Y96.842 E0.02005
G1 X107.388 Y94.170 E0.08379
G1 X107.444 Y93.773 E0.01257
G1 X107.937 Y92.782 E0.03470
G1 X108.535 Y92.195 E0.02628
G1 X109.249 Y91.810 E0.02542
G1 X109.877 Y91.675 E0.02015
G1 X121.656 Y91.679 E0.36932
G1 X122.180 Y91.790 E0.01681
G1 X122.711 Y92.031 E0.01829
G1 X123.488 Y92.724 E0.03263
G1 X123.883 Y93.344 E0.02306
G1 X124.095 Y94.116 E0.02510
G1 X124.095 Y96.837 E0.08531
G1 X123.994 Y97.346 E0.01628
G1 X123.635 Y97.257 F10800.000
G1 F1200
G1 X123.257 Y97.979 E0.02555
G1 X122.743 Y98.493 E0.02279
G1 X122.079 Y98.851 E0.02366
G1 X121.587 Y98.954 E0.01577
G1 X109.856 Y98.954 E0.36781
G1 X109.187 Y98.765 E0.02179
G1 X108.714 Y98.467 E0.01752
G1 X108.194 Y97.935 E0.02333
G1 X107.868 Y97.316 E0.02193
G1 X107.765 Y96.823 E0.01580
G1 X107.765 Y94.184 E0.08275
G1 X107.813 Y93.858 E0.01034
G1 X108.226 Y93.027 E0.02911
G1 X108.739 Y92.513 E0.02276
G1 X109.403 Y92.155 E0.02366
G1 X109.896 Y92.052 E0.01577
G1 X121.635 Y92.056 E0.36806
G1 X122.078 Y92.153 E0.01423
G1 X122.526 Y92.361 E0.01548
G1 X123.216 Y92.986 E0.02920
G1 X123.528 Y93.474 E0.01818
G1 X123.717 Y94.143 E0.02179
G1 X123.717 Y96.820 E0.08394
G1 X123.646 Y97.198 E0.01205
G1 X122.969 Y97.734 F10800.000
G1 F1200
G1 X122.497 Y98.205 E0.02090
G1 X121.929 Y98.504 E0.02014
G1 X121.569 Y98.577 E0.01152
G1 X109.884 Y98.577 E0.36636
G1 X109.320 Y98.411 E0.01842
G1 X108.966 Y98.186 E0.01318
G1 X108.514 Y97.734 E0.02004
G1 X108.215 Y97.165 E0.02014
