; generated by PrusaSlicer 2.1.1+win64 on 2020-06-09 at 20:36:31 UTC

; 

; external perimeters extrusion width = 0.45mm
; perimeters extrusion width = 0.45mm
; infill extrusion width = 0.45mm
; solid infill extrusion width = 0.45mm
; top infill extrusion width = 0.40mm
; support material extrusion width = 0.35mm
; first layer extrusion width = 0.42mm

M73 P0 R53
M201 X9000 Y9000 Z500 E10000 ; sets maximum accelerations, mm/sec^2
M203 X500 Y500 Z12 E120 ; sets maximum feedrates, mm/sec
M204 P2000 R1500 T2000 ; sets acceleration (P, T) and retract acceleration (R), mm/sec^2
M205 X10.00 Y10.00 Z0.20 E2.50 ; sets the jerk limits, mm/sec
M205 S0 T0 ; sets the minimum extruding and travel feed rate, mm/sec
M107
M862.3 P "MK2S" ; printer model check
M862.1 P0.4 ; nozzle diameter check
M115 U3.2.3 ; tell printer latest fw version
G90 ; use absolute coordinates
M83 ; extruder relative mode
M204 S2000 T1500 ; MK2 firmware only supports the old M204 format
M104 S215 ; set extruder temp
M140 S60 ; set bed temp
M190 S60 ; wait for bed temp
M109 S215 ; wait for extruder temp
G28 W ; home all without mesh bed level
G80 ; mesh bed leveling
G1 Y-3.0 F1000.0 ; go outside print area
G92 E0.0
G1 X60.0 E9.0  F1000.0 ; intro line
M73 P0 R53
G1 X100.0 E12.5 F1000.0 ; intro line
G92 E0.0
G21 ; set units to millimeters
G90 ; use absolute coordinates
M83 ; use relative distances for extrusion
M900 K30 ; Filament gcode
;BEFORE_LAYER_CHANGE
G92 E0.0
;0.2


G1 E-0.80000 F2100.00000
G1 Z0.600 F10800.000
;AFTER_LAYER_CHANGE
;0.2
G1 X139.296 Y63.166
G1 Z0.200
G1 E0.80000 F2100.00000
M204 S1000
G1 F1200
G1 X121.932 Y80.530 E0.76994
G1 X122.465 Y81.063 E0.02365
G1 X139.709 Y63.819 E0.76462
G1 X140.242 Y64.352 E0.02365
G1 X122.998 Y81.596 E0.76462
G1 X123.161 Y81.759 E0.00721
G1 X121.530 Y83.390 E0.07234
G1 X121.900 Y83.761 E0.01643
G1 X142.407 Y63.254 E0.90929
G1 X142.940 Y63.788 E0.02365
G1 X122.433 Y84.294 E0.90929
G1 X122.967 Y84.827 E0.02365
G1 X143.473 Y64.321 E0.90929
G1 X144.007 Y64.854 E0.02365
G1 X123.500 Y85.361 E0.90929
G1 X124.033 Y85.894 E0.02365
G1 X144.540 Y65.387 E0.90929
G1 X145.073 Y65.921 E0.02365
G1 X124.567 Y86.427 E0.90929
G1 X125.100 Y86.960 E0.02365
G1 X145.606 Y66.454 E0.90929
G1 X146.140 Y66.987 E0.02365
G1 X125.633 Y87.494 E0.90929
G1 X126.166 Y88.027 E0.02365
G1 X146.673 Y67.520 E0.90929
G1 X147.206 Y68.054 E0.02365
G1 X125.068 Y90.192 E0.98163
G1 X125.602 Y90.725 E0.02365
G1 X147.739 Y68.587 E0.98163
G1 X148.273 Y69.120 E0.02365
G1 X140.817 Y76.576 E0.33060
G1 X140.405 Y76.164 E0.01828
G1 X134.810 Y81.759 E0.24809
G1 X135.222 Y82.171 E0.01828
G1 X126.135 Y91.258 E0.40294
G1 X126.668 Y91.791 E0.02365
G1 X135.755 Y82.704 E0.40294
G1 X136.288 Y83.238 E0.02365
G1 X127.201 Y92.325 E0.40294
G1 X127.735 Y92.858 E0.02365
G1 X136.822 Y83.771 E0.40294
G1 X137.355 Y84.304 E0.02365
G1 X126.637 Y95.023 E0.47527
G1 X127.170 Y95.556 E0.02365
G1 X137.888 Y84.837 E0.47527
G1 X138.422 Y85.371 E0.02365
G1 X127.703 Y96.089 E0.47527
G1 X128.236 Y96.622 E0.02365
G1 X138.955 Y85.904 E0.47527
G1 X139.488 Y86.437 E0.02365
G1 X128.770 Y97.156 E0.47527
G1 X129.303 Y97.689 E0.02365
G1 X138.390 Y88.602 E0.40294
G1 X138.773 Y88.985 E0.01700
G1 X140.405 Y87.354 E0.07234
G1 X140.555 Y87.504 E0.00664
G1 X129.836 Y98.222 E0.47527
G1 X130.369 Y98.755 E0.02365
G1 X141.088 Y88.037 E0.47527
G1 X141.621 Y88.570 E0.02365
G1 X130.783 Y99.409 E0.48059
G1 E-0.80000 F2100.00000
G1 Z0.800 F10800.000
G1 X135.755 Y96.880
G1 Z0.200
G1 E0.80000 F2100.00000
G1 F1200
G1 X137.484 Y95.151 E0.06244
G1 X137.842 Y95.510 E0.01295
G1 X136.211 Y97.141 E0.05891
G1 X136.570 Y97.500 E0.01295
G1 X138.201 Y95.868 E0.05891
G1 X138.559 Y96.227 E0.01295
G1 X136.830 Y97.956 E0.06244
G1 E-0.80000 F2100.00000
G1 Z0.800 F10800.000
G1 X138.426 Y102.814
G1 Z0.200
G1 E0.80000 F2100.00000
G1 F1200
G1 X143.418 Y97.823 E0.18025
G1 X143.059 Y97.464 E0.01295
G1 X138.165 Y102.358 E0.17673
G1 X137.807 Y102.000 E0.01295
G1 X142.701 Y97.106 E0.17673
G1 X142.342 Y96.747 E0.01295
G1 X137.448 Y101.641 E0.17673
G1 X137.090 Y101.283 E0.01295
G1 X139.407 Y98.965 E0.08370
G1 X139.090 Y98.928 E0.00815
G1 X138.825 Y98.830 E0.00722
G1 X136.731 Y100.924 E0.07561
G1 X136.372 Y100.565 E0.01295
G1 X138.362 Y98.575 E0.07186
G1 X138.287 Y98.496 E0.00280
G1 X138.152 Y98.283 E0.00642
G1 X138.105 Y98.115 E0.00445
G1 X136.014 Y100.207 E0.07553
G1 X135.655 Y99.848 E0.01295
G1 X140.549 Y94.954 E0.17673
G1 X140.908 Y95.313 E0.01295
G1 X139.119 Y97.101 E0.06458
G1 X139.225 Y97.092 E0.00272
G1 X139.794 Y97.144 E0.01459
G1 X141.267 Y95.671 E0.05316
G1 X141.625 Y96.030 E0.01295
G1 X140.329 Y97.326 E0.04680
G1 X140.532 Y97.470 E0.00635
G1 X140.705 Y97.667 E0.00670
G1 X142.081 Y96.291 E0.04970
G1 E-0.80000 F2100.00000
G1 Z0.800 F10800.000
G1 X142.202 Y87.989
G1 Z0.200
G1 E0.80000 F2100.00000
G1 F1200
G1 X154.672 Y75.519 E0.55293
G1 X154.139 Y74.986 E0.02365
G1 X141.789 Y87.336 E0.54761
G1 X141.256 Y86.803 E0.02365
G1 X153.605 Y74.453 E0.54761
G1 X153.072 Y73.920 E0.02365
G1 X145.616 Y81.375 E0.33060
G1 X145.083 Y80.842 E0.02365
G1 X152.539 Y73.386 E0.33060
G1 X152.006 Y72.853 E0.02365
G1 X144.550 Y80.309 E0.33060
G1 X144.017 Y79.776 E0.02365
G1 X151.472 Y72.320 E0.33060
G1 X150.939 Y71.787 E0.02365
G1 X143.483 Y79.242 E0.33060
G1 X142.950 Y78.709 E0.02365
G1 X150.406 Y71.253 E0.33060
G1 X149.873 Y70.720 E0.02365
G1 X142.417 Y78.176 E0.33060
G1 X141.884 Y77.643 E0.02365
G1 X149.339 Y70.187 E0.33060
G1 X148.806 Y69.653 E0.02365
G1 X141.230 Y77.229 E0.33592
G1 X159.027 Y82.897 F10800.000
G1 F1200
G1 X144.001 Y97.922 E0.66625
G1 X143.468 Y97.389 E0.02365
G1 X158.373 Y82.484 E0.66093
G1 X157.840 Y81.950 E0.02365
G1 X142.935 Y96.856 E0.66093
G1 X142.401 Y96.322 E0.02365
G1 X158.938 Y79.786 E0.73327
G1 X158.405 Y79.252 E0.02365
G1 X141.868 Y95.789 E0.73327
G1 X141.335 Y95.256 E0.02365
G1 X157.872 Y78.719 E0.73327
G1 X157.338 Y78.186 E0.02365
G1 X140.802 Y94.723 E0.73327
G1 X140.405 Y94.326 E0.01759
G1 X138.773 Y95.957 E0.07234
G1 X138.637 Y95.821 E0.00606
G1 X156.805 Y77.653 E0.80561
G1 X156.272 Y77.119 E0.02365
G1 X138.104 Y95.287 E0.80561
G1 X137.570 Y94.754 E0.02365
G1 X155.739 Y76.586 E0.80561
G1 X155.205 Y76.053 E0.02365
G1 X131.436 Y99.822 E1.05397
M73 P2 R52
G1 X131.969 Y100.355 E0.02365
G1 X135.455 Y96.869 E0.15457
G1 X135.989 Y97.403 E0.02365
G1 X132.503 Y100.889 E0.15457
G1 X132.949 Y101.335 E0.01980
G1 X131.318 Y102.966 E0.07234
G1 X131.404 Y103.053 E0.00385
G1 X136.522 Y97.936 E0.22691
G1 X136.658 Y98.072 E0.00606
G1 X135.027 Y99.704 E0.07234
G1 X135.424 Y100.100 E0.01759
G1 X131.938 Y103.586 E0.15457
G1 X132.471 Y104.120 E0.02365
G1 X135.957 Y100.634 E0.15457
G1 X136.490 Y101.167 E0.02365
G1 X131.373 Y106.284 E0.22691
G1 X131.906 Y106.818 E0.02365
G1 X137.024 Y101.700 E0.22691
G1 X137.557 Y102.234 E0.02365
G1 X132.439 Y107.351 E0.22691
G1 X132.949 Y107.860 E0.02260
G1 X129.686 Y111.123 E0.14467
G1 X129.710 Y111.147 E0.00105
G1 X138.090 Y102.767 E0.37158
G1 X138.623 Y103.300 E0.02365
G1 X130.243 Y111.680 E0.37158
G1 X130.777 Y112.213 E0.02365
G1 X154.546 Y88.444 E1.05397
G1 X155.079 Y88.977 E0.02365
G1 X129.686 Y114.386 E1.12631
G1 X130.212 Y114.911 E0.02330
G1 X155.612 Y89.511 E1.12631
G1 X156.017 Y89.916 E0.01796
G1 X149.492 Y96.441 E0.28935
G1 X149.620 Y96.569 E0.00569
G1 X130.745 Y115.445 E0.83696
G1 X131.278 Y115.978 E0.02365
G1 X150.153 Y97.103 E0.83696
G1 X150.687 Y97.636 E0.02365
G1 X130.180 Y118.142 E0.90929
G1 X130.713 Y118.676 E0.02365
G1 X149.589 Y99.801 E0.83696
G1 X150.122 Y100.334 E0.02365
G1 X131.247 Y119.209 E0.83696
G1 X131.780 Y119.742 E0.02365
G1 X150.655 Y100.867 E0.83696
G1 X151.189 Y101.400 E0.02365
G1 X132.313 Y120.276 E0.83696
G1 X132.847 Y120.809 E0.02365
G1 X151.722 Y101.934 E0.83696
G1 X152.255 Y102.467 E0.02365
G1 X131.748 Y122.973 E0.90929
G1 X132.282 Y123.507 E0.02365
G1 X149.526 Y106.263 E0.76462
G1 X150.059 Y106.796 E0.02365
G1 X132.815 Y124.040 E0.76462
G1 X133.348 Y124.573 E0.02365
G1 X150.592 Y107.329 E0.76462
G1 X151.123 Y107.860 E0.02355
G1 X133.882 Y125.106 E0.76462
G1 X134.415 Y125.640 E0.02365
G1 X146.765 Y113.290 E0.54761
G1 X147.298 Y113.823 E0.02365
G1 X133.317 Y127.804 E0.61995
G1 X133.850 Y128.338 E0.02365
G1 X147.831 Y114.357 E0.61995
G1 X147.861 Y114.386 E0.00130
G1 X146.229 Y116.017 E0.07234
G1 X146.733 Y116.521 E0.02234
G1 X134.383 Y128.871 E0.54761
G1 X134.580 Y129.068 E0.00874
G1 X132.949 Y130.699 E0.07234
G1 X133.285 Y131.036 E0.01490
G1 X147.266 Y117.054 E0.61995
G1 X147.800 Y117.588 E0.02365
G1 X133.818 Y131.569 E0.61995
G1 X134.352 Y132.102 E0.02365
G1 X148.333 Y118.121 E0.61995
G1 X148.866 Y118.654 E0.02365
G1 X134.885 Y132.635 E0.61995
G1 X135.418 Y133.169 E0.02365
G1 X149.399 Y119.187 E0.61995
G1 X149.492 Y119.280 E0.00410
G1 X147.861 Y120.911 E0.07234
G1 X148.301 Y121.352 E0.01955
G1 X135.952 Y133.702 E0.54761
G1 X136.485 Y134.235 E0.02365
G1 X148.835 Y121.885 E0.54761
G1 X149.368 Y122.419 E0.02365
G1 X137.018 Y134.768 E0.54761
G1 X137.551 Y135.302 E0.02365
G1 X149.901 Y122.952 E0.54761
G1 X150.434 Y123.485 E0.02365
G1 X138.085 Y135.835 E0.54761
G1 X138.618 Y136.368 E0.02365
G1 X150.968 Y124.018 E0.54761
G1 X151.501 Y124.552 E0.02365
G1 X139.151 Y136.902 E0.54761
G1 X139.684 Y137.435 E0.02365
G1 X152.034 Y125.085 E0.54761
G1 X152.568 Y125.618 E0.02365
G1 X140.098 Y138.088 E0.55293
G1 E-0.80000 F2100.00000
G1 Z0.800 F10800.000
G1 X139.538 Y98.274
G1 Z0.200
G1 E0.80000 F2100.00000
G1 F1200
G1 X139.231 Y98.238 E0.00967
G1 X139.064 Y98.170 E0.00568
G1 X138.624 Y97.935 E0.01564
G1 X139.233 Y97.795 E0.01959
G1 X139.621 Y97.823 E0.01219
G1 X139.993 Y97.943 E0.01226
G1 X140.149 Y98.048 E0.00588
G1 X140.033 Y98.165 E0.00516
G1 X139.980 Y98.193 E0.00188
G1 X139.598 Y98.272 E0.01225
G1 X139.385 Y98.006 F10800.000
G1 X139.658 Y98.049
G1 F1200
G1 X139.287 Y98.021 E0.00230
G1 X139.250 Y98.013 E0.00021
G1 X139.217 Y98.010 E0.00015
G1 E-0.80000 F2100.00000
G1 Z0.800 F10800.000
G1 X128.324 Y90.351
G1 Z0.200
G1 E0.80000 F2100.00000
G1 F1200
G1 X113.298 Y105.376 E0.66625
G1 X112.765 Y104.843 E0.02365
G1 X127.670 Y89.937 E0.66093
G1 X127.137 Y89.404 E0.02365
G1 X112.232 Y104.310 E0.66093
G1 X111.698 Y103.776 E0.02365
G1 X128.235 Y87.240 E0.73327
G1 X127.702 Y86.706 E0.02365
G1 X111.165 Y103.243 E0.73327
G1 X110.632 Y102.710 E0.02365
G1 X127.169 Y86.173 E0.73327
G1 X126.635 Y85.640 E0.02365
G1 X110.099 Y102.176 E0.73327
G1 X109.702 Y101.780 E0.01759
G1 X108.070 Y103.411 E0.07234
G1 X107.934 Y103.275 E0.00606
G1 X126.102 Y85.106 E0.80561
G1 X125.569 Y84.573 E0.02365
G1 X107.401 Y102.741 E0.80561
G1 X106.867 Y102.208 E0.02365
G1 X125.036 Y84.040 E0.80561
G1 X124.502 Y83.507 E0.02365
G1 X100.733 Y107.276 E1.05397
M73 P3 R51
G1 X101.266 Y107.809 E0.02365
G1 X104.752 Y104.323 E0.15457
G1 X105.286 Y104.856 E0.02365
G1 X101.800 Y108.342 E0.15457
G1 X102.246 Y108.789 E0.01980
G1 X100.615 Y110.420 E0.07234
G1 X100.701 Y110.507 E0.00385
G1 X105.819 Y105.390 E0.22691
G1 X105.955 Y105.526 E0.00606
G1 X104.324 Y107.158 E0.07234
G1 X104.721 Y107.554 E0.01759
G1 X101.235 Y111.040 E0.15457
G1 X101.768 Y111.574 E0.02365
G1 X105.254 Y108.088 E0.15457
G1 X105.787 Y108.621 E0.02365
G1 X100.670 Y113.738 E0.22691
G1 X101.203 Y114.271 E0.02365
G1 X106.321 Y109.154 E0.22691
G1 X106.854 Y109.687 E0.02365
G1 X101.736 Y114.805 E0.22691
G1 X102.246 Y115.314 E0.02260
G1 X98.983 Y118.577 E0.14467
G1 X99.007 Y118.601 E0.00105
G1 X107.387 Y110.221 E0.37158
G1 X107.920 Y110.754 E0.02365
G1 X99.540 Y119.134 E0.37158
G1 X100.074 Y119.667 E0.02365
G1 X123.843 Y95.898 E1.05397
G1 X124.376 Y96.431 E0.02365
G1 X98.983 Y121.840 E1.12631
G1 X99.509 Y122.365 E0.02330
G1 X124.909 Y96.965 E1.12631
G1 X125.314 Y97.370 E0.01796
G1 X118.789 Y103.895 E0.28935
G1 X118.917 Y104.023 E0.00569
G1 X100.042 Y122.898 E0.83696
G1 X100.575 Y123.432 E0.02365
G1 X119.450 Y104.556 E0.83696
G1 X119.984 Y105.090 E0.02365
G1 X99.477 Y125.596 E0.90929
G1 X100.010 Y126.130 E0.02365
G1 X118.886 Y107.254 E0.83696
G1 X119.419 Y107.788 E0.02365
G1 X100.544 Y126.663 E0.83696
G1 X101.077 Y127.196 E0.02365
G1 X119.952 Y108.321 E0.83696
G1 X120.486 Y108.854 E0.02365
G1 X101.610 Y127.729 E0.83696
G1 X102.144 Y128.263 E0.02365
G1 X121.019 Y109.387 E0.83696
G1 X121.552 Y109.921 E0.02365
G1 X101.045 Y130.427 E0.90929
G1 X101.579 Y130.961 E0.02365
G1 X118.823 Y113.717 E0.76462
G1 X119.356 Y114.250 E0.02365
G1 X102.112 Y131.494 E0.76462
G1 X102.645 Y132.027 E0.02365
G1 X119.889 Y114.783 E0.76462
G1 X120.420 Y115.314 E0.02355
G1 X103.179 Y132.560 E0.76462
G1 X103.712 Y133.094 E0.02365
G1 X116.062 Y120.744 E0.54761
G1 X116.595 Y121.277 E0.02365
G1 X102.614 Y135.258 E0.61995
G1 X103.147 Y135.792 E0.02365
G1 X117.128 Y121.810 E0.61995
G1 X117.158 Y121.840 E0.00130
G1 X115.526 Y123.471 E0.07234
G1 X116.030 Y123.975 E0.02234
G1 X103.680 Y136.325 E0.54761
G1 X103.877 Y136.522 E0.00874
G1 X102.246 Y138.153 E0.07234
G1 X102.582 Y138.489 E0.01490
G1 X116.563 Y124.508 E0.61995
G1 X117.097 Y125.042 E0.02365
G1 X103.115 Y139.023 E0.61995
G1 X103.649 Y139.556 E0.02365
G1 X117.630 Y125.575 E0.61995
G1 X118.163 Y126.108 E0.02365
G1 X104.182 Y140.089 E0.61995
G1 X104.715 Y140.623 E0.02365
G1 X118.696 Y126.641 E0.61995
G1 X118.789 Y126.734 E0.00410
G1 X117.158 Y128.365 E0.07234
G1 X117.598 Y128.806 E0.01955
G1 X105.249 Y141.156 E0.54761
G1 X105.782 Y141.689 E0.02365
G1 X118.132 Y129.339 E0.54761
G1 X118.665 Y129.873 E0.02365
G1 X106.315 Y142.222 E0.54761
G1 X106.848 Y142.756 E0.02365
G1 X119.198 Y130.406 E0.54761
G1 X119.731 Y130.939 E0.02365
G1 X107.382 Y143.289 E0.54761
G1 X107.915 Y143.822 E0.02365
G1 X120.265 Y131.472 E0.54761
G1 X120.798 Y132.006 E0.02365
G1 X108.448 Y144.355 E0.54761
G1 X108.981 Y144.889 E0.02365
G1 X121.331 Y132.539 E0.54761
G1 X121.865 Y133.072 E0.02365
G1 X109.395 Y145.542 E0.55293
G1 E-0.80000 F2100.00000
G1 Z0.800 F10800.000
G1 X107.723 Y110.268
G1 Z0.200
G1 E0.80000 F2100.00000
G1 F1200
G1 X112.715 Y105.277 E0.18025
G1 X112.356 Y104.918 E0.01295
G1 X107.462 Y109.812 E0.17673
G1 X107.104 Y109.454 E0.01295
G1 X111.998 Y104.559 E0.17673
G1 X111.639 Y104.201 E0.01295
G1 X106.745 Y109.095 E0.17673
G1 X106.387 Y108.736 E0.01295
G1 X108.704 Y106.419 E0.08370
G1 X108.387 Y106.382 E0.00815
G1 X108.122 Y106.284 E0.00722
G1 X106.028 Y108.378 E0.07561
G1 X105.669 Y108.019 E0.01295
G1 X107.659 Y106.029 E0.07186
G1 X107.584 Y105.949 E0.00280
G1 X107.449 Y105.737 E0.00642
G1 X107.402 Y105.569 E0.00445
G1 X105.311 Y107.661 E0.07553
G1 X104.952 Y107.302 E0.01295
G1 X109.846 Y102.408 E0.17673
G1 X110.205 Y102.767 E0.01295
G1 X108.416 Y104.555 E0.06458
G1 X108.522 Y104.545 E0.00272
G1 X109.091 Y104.597 E0.01459
G1 X110.564 Y103.125 E0.05316
G1 X110.922 Y103.484 E0.01295
G1 X109.626 Y104.780 E0.04680
G1 X109.829 Y104.924 E0.00635
G1 X110.002 Y105.121 E0.00670
G1 X111.378 Y103.745 E0.04970
G1 E-0.80000 F2100.00000
G1 Z0.800 F10800.000
G1 X106.127 Y105.410
G1 Z0.200
G1 E0.80000 F2100.00000
G1 F1200
G1 X107.856 Y103.681 E0.06244
G1 X107.498 Y103.322 E0.01295
G1 X105.867 Y104.954 E0.05891
G1 X105.508 Y104.595 E0.01295
G1 X107.139 Y102.964 E0.05891
G1 X106.781 Y102.605 E0.01295
G1 X105.052 Y104.334 E0.06244
G1 X100.080 Y106.863 F10800.000
G1 F1200
G1 X110.918 Y96.024 E0.48059
G1 X110.385 Y95.491 E0.02365
G1 X99.666 Y106.209 E0.47527
G1 X99.133 Y105.676 E0.02365
G1 X109.852 Y94.958 E0.47527
G1 X109.702 Y94.808 E0.00664
G1 X108.070 Y96.439 E0.07234
G1 X107.687 Y96.056 E0.01700
G1 X98.600 Y105.143 E0.40294
G1 X98.067 Y104.610 E0.02365
G1 X108.785 Y93.891 E0.47527
G1 X108.252 Y93.358 E0.02365
G1 X97.533 Y104.076 E0.47527
G1 X97.000 Y103.543 E0.02365
G1 X107.719 Y92.825 E0.47527
G1 X107.185 Y92.291 E0.02365
G1 X96.467 Y103.010 E0.47527
G1 X95.934 Y102.476 E0.02365
G1 X106.652 Y91.758 E0.47527
G1 X106.119 Y91.225 E0.02365
G1 X97.032 Y100.312 E0.40294
G1 X96.498 Y99.779 E0.02365
G1 X105.585 Y90.691 E0.40294
G1 X105.052 Y90.158 E0.02365
G1 X95.965 Y99.245 E0.40294
G1 X95.432 Y98.712 E0.02365
G1 X104.519 Y89.625 E0.40294
M73 P5 R50
G1 X104.107 Y89.213 E0.01828
G1 X109.702 Y83.618 E0.24809
G1 X110.114 Y84.030 E0.01828
G1 X117.570 Y76.574 E0.33060
G1 X117.036 Y76.041 E0.02365
G1 X94.899 Y98.179 E0.98163
G1 X94.365 Y97.645 E0.02365
G1 X116.503 Y75.508 E0.98163
