; generated by Slic3r Prusa Edition 1.39.1-prusa3d on 2018-06-04 at 12:39:58

; 

; external perimeters extrusion width = 0.45mm
; perimeters extrusion width = 0.45mm
; infill extrusion width = 0.45mm
; solid infill extrusion width = 0.45mm
; top infill extrusion width = 0.45mm
; support material extrusion width = 0.35mm
; first layer extrusion width = 0.42mm

M107
M115 U3.1.0 ; tell printer latest fw version
M83  ; extruder relative mode
M104 S220 ; set extruder temp
M140 S60 ; set bed temp
M190 S60 ; wait for bed temp
M109 S220 ; wait for extruder temp
G28 W ; home all without mesh bed level
G80 ; mesh bed leveling
G1 Y-3.0 F1000.0 ; go outside print area
G92 E0.0
G1 X60.0 E9.0  F1000.0 ; intro line
G1 X100.0 E12.5  F1000.0 ; intro line
G92 E0.0
M900 K30; Filament gcode
G21 ; set units to millimeters
G90 ; use absolute coordinates
M83 ; use relative distances for extrusion
;BEFORE_LAYER_CHANGE
;0.2


G1 E-0.80000 F2100.00000
G1 Z0.600 F7200.000
;AFTER_LAYER_CHANGE
;0.2
G1 X71.069 Y135.595 F7200.000
G1 Z0.200 F7200.000
G1 E0.80000 F2100.00000
M204 S1000
G1 F1800
G1 X78.464 Y135.598 E0.23187
G1 X78.526 Y136.152 E0.01749
G1 X79.080 Y138.023 E0.06118
G1 X79.991 Y139.756 E0.06137
G1 X81.222 Y141.277 E0.06137
G1 X82.727 Y142.529 E0.06137
G1 X84.447 Y143.463 E0.06137
G1 X86.316 Y144.044 E0.06135
G1 X87.211 Y144.139 E0.02824
G1 X87.205 Y153.685 E0.29929
G1 X90.830 Y156.658 E0.14700
G1 X90.259 Y157.340 E0.02790
G1 X89.163 Y159.009 E0.06261
G1 X85.794 Y165.835 E0.23867
G1 X84.120 Y170.985 E0.16978
G1 X83.458 Y176.579 E0.17663
G1 X83.122 Y181.376 E0.15078
G1 X83.012 Y182.517 E0.03593
G1 X81.332 Y184.198 E0.07451
G1 X72.725 Y184.196 E0.26989
G1 X71.069 Y182.540 E0.07344
G1 X71.069 Y135.655 E1.47005
G1 X70.691 Y135.218 F7200.000
G1 F1800
G1 X78.801 Y135.221 E0.25426
G1 X78.897 Y136.077 E0.02701
G1 X79.431 Y137.881 E0.05897
G1 X80.307 Y139.547 E0.05904
G1 X81.492 Y141.011 E0.05904
G1 X82.940 Y142.215 E0.05905
G1 X84.594 Y143.114 E0.05905
G1 X86.392 Y143.673 E0.05903
G1 X87.589 Y143.800 E0.03773
G1 X87.582 Y153.506 E0.30433
G1 X91.364 Y156.608 E0.15335
G1 X90.562 Y157.565 E0.03916
G1 X89.491 Y159.197 E0.06120
G1 X86.144 Y165.978 E0.23709
G1 X84.490 Y171.066 E0.16776
G1 X83.833 Y176.614 E0.17518
G1 X83.498 Y181.408 E0.15066
G1 X83.374 Y182.688 E0.04032
G1 X81.489 Y184.575 E0.08365
G1 X72.568 Y184.573 E0.27969
G1 X70.691 Y182.696 E0.08323
G1 X70.691 Y135.278 E1.48678
G1 X71.040 Y135.413 F7200.000
G1 F5760
G1 X72.886 Y135.262 E-0.76000
G1 E-0.04000 F2100.00000
G1 Z0.800 F7200.000
G1 X77.798 Y135.711 F7200.000
G1 Z0.200 F7200.000
G1 E0.80000 F2100.00000
G1 F1800
G1 X78.242 Y136.154 E0.01980
G1 X78.453 Y136.903 E0.02456
G1 X77.431 Y135.880 E0.04566
G1 X76.894 Y135.880 E0.01696
G1 X78.679 Y137.666 E0.07972
G1 X78.817 Y138.130 E0.01530
G1 X79.049 Y138.573 E0.01578
G1 X76.356 Y135.880 E0.12023
G1 X75.819 Y135.879 E0.01696
G1 X79.645 Y139.705 E0.17080
G1 F5760
G1 X78.093 Y138.153 E-0.76000
G1 E-0.04000 F2100.00000
G1 Z0.800 F7200.000
G1 X82.866 Y142.927 F7200.000
G1 Z0.200 F7200.000
G1 E0.80000 F2100.00000
G1 F1800
G1 X86.927 Y146.987 E0.18128
G1 X86.927 Y146.450 E0.01694
G1 X84.042 Y143.565 E0.12881
G1 X84.336 Y143.725 E0.01058
G1 X84.920 Y143.907 E0.01930
G1 X86.927 Y145.914 E0.08961
G1 X86.928 Y145.377 E0.01694
G1 X85.699 Y144.149 E0.05484
G1 X86.258 Y144.322 E0.01847
G1 X86.428 Y144.341 E0.00539
G1 X87.098 Y145.010 E0.02990
G1 F5760
G1 X86.428 Y144.341 E-0.32800
G1 F5760
G1 X86.258 Y144.322 E-0.05916
G1 F5760
G1 X85.699 Y144.149 E-0.20266
G1 F5760
G1 X86.047 Y144.496 E-0.17018
G1 E-0.04000 F2100.00000
G1 Z0.800 F7200.000
G1 X87.096 Y147.693 F7200.000
G1 Z0.200 F7200.000
G1 E0.80000 F2100.00000
G1 F1800
G1 X75.282 Y135.879 E0.52746
G1 X74.745 Y135.879 E0.01696
G1 X86.926 Y148.060 E0.54385
G1 X86.925 Y148.597 E0.01694
G1 X74.207 Y135.878 E0.56782
G1 X73.670 Y135.878 E0.01696
G1 X86.925 Y149.133 E0.59179
G1 X86.925 Y149.670 E0.01694
G1 X73.133 Y135.878 E0.61576
G1 X72.596 Y135.878 E0.01696
G1 X86.924 Y150.206 E0.63973
G1 X86.924 Y150.743 E0.01694
G1 X72.059 Y135.878 E0.66369
G1 X71.522 Y135.878 E0.01695
G1 X86.924 Y151.279 E0.68765
G1 X86.923 Y151.816 E0.01694
G1 X71.351 Y136.244 E0.69524
G1 X71.351 Y136.781 E0.01695
G1 X86.923 Y152.353 E0.69522
G1 X86.922 Y152.889 E0.01694
G1 X71.351 Y137.318 E0.69520
G1 X71.351 Y137.855 E0.01695
G1 X86.922 Y153.426 E0.69519
G1 F5760
G1 X85.371 Y151.874 E-0.76000
G1 E-0.04000 F2100.00000
G1 Z0.800 F7200.000
G1 X89.106 Y155.610 F7200.000
G1 Z0.200 F7200.000
G1 E0.80000 F2100.00000
G1 F1800
G1 X90.321 Y156.825 E0.05424
G1 X90.077 Y157.117 E0.01203
G1 X71.351 Y138.392 E0.83603
G1 X71.351 Y138.929 E0.01695
G1 X89.858 Y157.435 E0.82626
G1 X89.645 Y157.760 E0.01224
G1 X71.351 Y139.466 E0.81677
G1 X71.351 Y140.003 E0.01695
G1 X89.432 Y158.084 E0.80727
G1 X89.220 Y158.408 E0.01224
G1 X71.351 Y140.540 E0.79777
G1 X71.351 Y141.077 E0.01695
G1 X89.007 Y158.732 E0.78827
G1 X88.815 Y159.077 E0.01246
G1 X71.351 Y141.613 E0.77968
G1 X71.351 Y142.150 E0.01695
G1 X88.637 Y159.436 E0.77176
G1 X88.460 Y159.796 E0.01266
G1 X71.351 Y142.687 E0.76384
G1 X71.351 Y143.224 E0.01695
G1 X88.282 Y160.155 E0.75592
G1 X88.105 Y160.515 E0.01266
G1 X71.351 Y143.761 E0.74799
G1 X71.351 Y144.298 E0.01695
G1 X87.927 Y160.874 E0.74007
G1 X87.750 Y161.234 E0.01266
G1 X71.351 Y144.835 E0.73215
G1 X71.351 Y145.372 E0.01695
G1 X87.573 Y161.593 E0.72423
G1 X87.395 Y161.953 E0.01266
G1 X71.351 Y145.909 E0.71631
G1 X71.351 Y146.446 E0.01695
G1 X87.218 Y162.312 E0.70838
G1 X87.040 Y162.672 E0.01266
G1 X71.351 Y146.983 E0.70046
G1 X71.351 Y147.520 E0.01695
G1 X86.863 Y163.031 E0.69254
G1 X86.685 Y163.391 E0.01266
G1 X71.351 Y148.057 E0.68462
G1 X71.351 Y148.594 E0.01695
G1 X86.508 Y163.750 E0.67669
G1 X86.331 Y164.110 E0.01266
G1 X71.351 Y149.131 E0.66877
G1 X71.351 Y149.668 E0.01695
G1 X86.153 Y164.469 E0.66085
G1 X85.976 Y164.829 E0.01266
G1 X71.351 Y150.205 E0.65293
G1 X71.351 Y150.741 E0.01695
G1 X85.798 Y165.188 E0.64501
G1 X85.621 Y165.548 E0.01266
G1 X71.351 Y151.278 E0.63708
G1 X71.351 Y151.815 E0.01695
G1 X85.466 Y165.930 E0.63018
G1 X85.334 Y166.335 E0.01345
G1 X71.351 Y152.352 E0.62429
G1 X71.351 Y152.889 E0.01695
G1 X85.203 Y166.740 E0.61841
G1 X85.071 Y167.146 E0.01345
G1 X71.351 Y153.426 E0.61253
G1 X71.351 Y153.963 E0.01695
G1 X84.939 Y167.551 E0.60664
G1 X84.807 Y167.956 E0.01345
G1 X71.351 Y154.500 E0.60076
G1 X71.351 Y155.037 E0.01695
G1 X84.675 Y168.361 E0.59488
G1 X84.544 Y168.766 E0.01345
G1 X71.351 Y155.574 E0.58900
G1 X71.351 Y156.111 E0.01695
G1 X84.412 Y169.171 E0.58311
G1 X84.280 Y169.577 E0.01345
G1 X71.351 Y156.648 E0.57723
G1 X71.351 Y157.185 E0.01695
G1 X84.148 Y169.982 E0.57135
G1 X84.017 Y170.387 E0.01345
G1 X71.351 Y157.722 E0.56546
G1 X71.351 Y158.259 E0.01695
G1 X83.885 Y170.792 E0.55958
G1 X83.842 Y170.924 E0.00437
G1 X83.804 Y171.248 E0.01031
G1 X71.351 Y158.796 E0.55596
G1 X71.351 Y159.333 E0.01695
G1 X83.747 Y171.728 E0.55342
G1 X83.690 Y172.208 E0.01526
G1 X71.351 Y159.869 E0.55089
G1 X71.351 Y160.406 E0.01695
G1 X83.633 Y172.688 E0.54835
G1 X83.577 Y173.169 E0.01526
G1 X71.351 Y160.943 E0.54582
G1 X71.351 Y161.480 E0.01695
G1 X83.520 Y173.649 E0.54328
G1 X83.463 Y174.129 E0.01526
G1 X71.351 Y162.017 E0.54074
G1 X71.351 Y162.554 E0.01695
G1 X83.406 Y174.609 E0.53821
G1 X83.349 Y175.089 E0.01526
G1 X71.351 Y163.091 E0.53567
G1 X71.351 Y163.628 E0.01695
G1 X83.293 Y175.569 E0.53314
G1 X83.236 Y176.049 E0.01526
G1 X71.351 Y164.165 E0.53060
G1 X71.351 Y164.702 E0.01695
G1 X83.179 Y176.530 E0.52807
G1 X83.143 Y177.030 E0.01585
G1 X71.351 Y165.239 E0.52645
G1 X71.351 Y165.776 E0.01695
G1 X83.108 Y177.532 E0.52489
G1 X83.073 Y178.034 E0.01588
G1 X71.351 Y166.313 E0.52332
G1 X71.351 Y166.850 E0.01695
G1 X83.038 Y178.536 E0.52175
G1 X83.002 Y179.038 E0.01588
G1 X71.351 Y167.387 E0.52018
G1 X71.351 Y167.924 E0.01695
G1 X82.967 Y179.540 E0.51862
G1 X82.932 Y180.041 E0.01588
G1 X71.351 Y168.461 E0.51705
G1 X71.351 Y168.997 E0.01695
G1 X82.897 Y180.543 E0.51548
G1 X82.862 Y181.045 E0.01588
G1 X71.351 Y169.534 E0.51392
G1 X71.351 Y170.071 E0.01695
G1 X82.822 Y181.542 E0.51213
G1 X82.775 Y182.032 E0.01552
G1 X71.351 Y170.608 E0.51001
G1 X71.351 Y171.145 E0.01695
G1 X82.667 Y182.461 E0.50523
G1 X82.399 Y182.730 E0.01199
G1 X71.351 Y171.682 E0.49325
G1 X71.351 Y172.219 E0.01695
G1 X82.131 Y182.999 E0.48127
G1 X81.863 Y183.267 E0.01199
G1 X71.351 Y172.756 E0.46929
G1 X71.351 Y173.293 E0.01695
G1 X81.594 Y183.536 E0.45731
G1 X81.326 Y183.805 E0.01199
G1 X71.351 Y173.830 E0.44534
G1 X71.351 Y174.367 E0.01695
G1 X80.900 Y183.915 E0.42631
G1 X80.363 Y183.915 E0.01696
G1 X71.351 Y174.904 E0.40233
G1 X71.351 Y175.441 E0.01695
G1 X79.826 Y183.915 E0.37835
G1 X79.289 Y183.915 E0.01696
G1 X71.351 Y175.978 E0.35437
G1 X71.351 Y176.515 E0.01695
G1 X78.751 Y183.915 E0.33039
G1 X78.214 Y183.915 E0.01696
G1 X71.351 Y177.052 E0.30642
G1 X71.351 Y177.589 E0.01695
G1 X77.677 Y183.915 E0.28244
G1 X77.140 Y183.914 E0.01696
G1 X71.351 Y178.125 E0.25846
G1 X71.351 Y178.662 E0.01695
G1 X76.603 Y183.914 E0.23448
G1 X76.066 Y183.914 E0.01696
G1 X71.351 Y179.199 E0.21050
G1 X71.351 Y179.736 E0.01695
G1 X75.529 Y183.914 E0.18652
G1 X74.992 Y183.914 E0.01696
G1 X71.351 Y180.273 E0.16254
G1 X71.351 Y180.810 E0.01695
G1 X74.455 Y183.914 E0.13856
G1 X73.918 Y183.914 E0.01696
G1 X71.351 Y181.347 E0.11459
G1 X71.351 Y181.884 E0.01695
G1 X73.381 Y183.913 E0.09061
G1 X72.844 Y183.913 E0.01696
G1 X71.182 Y182.251 E0.07420
G1 F5760
G1 X72.733 Y183.803 E-0.76000
G1 E-0.04000 F2100.00000
G1 Z0.800 F7200.000
G1 X71.202 Y132.922 F7200.000
G1 Z0.200 F7200.000
G1 E0.80000 F2100.00000
G1 F1800
G1 X71.069 Y132.921 E0.00418
G1 X71.069 Y110.244 E0.71104
G1 X72.725 Y108.587 E0.07345
G1 X86.992 Y108.588 E0.44734
G1 X86.992 Y124.398 E0.49572
G1 X86.443 Y124.462 E0.01732
G1 X84.573 Y125.015 E0.06114
G1 X82.841 Y125.926 E0.06138
G1 X81.319 Y127.157 E0.06137
G1 X80.067 Y128.662 E0.06137
G1 X79.132 Y130.382 E0.06137
G1 X78.553 Y132.245 E0.06117
G1 X78.466 Y132.925 E0.02149
G1 X71.262 Y132.922 E0.22589
G1 X70.691 Y133.298 F7200.000
G1 F1800
G1 X70.691 Y110.088 E0.72776
G1 X72.568 Y108.210 E0.08324
G1 X87.369 Y108.211 E0.46406
G1 X87.369 Y124.733 E0.51806
G1 X86.519 Y124.833 E0.02683
G1 X84.716 Y125.366 E0.05896
G1 X83.049 Y126.243 E0.05905
G1 X81.585 Y127.427 E0.05904
G1 X80.380 Y128.874 E0.05904
G1 X79.481 Y130.529 E0.05904
G1 X78.923 Y132.325 E0.05897
G1 X78.799 Y133.302 E0.03087
G1 X70.751 Y133.298 E0.25231
G1 X70.878 Y132.944 F7200.000
G1 F5760
G1 X70.746 Y131.104 E-0.76000
G1 E-0.04000 F2100.00000
G1 Z0.800 F7200.000
G1 X71.953 Y132.809 F7200.000
G1 Z0.200 F7200.000
G1 E0.80000 F2100.00000
G1 F1800
G1 X71.351 Y132.207 E0.02694
G1 X71.351 Y131.669 E0.01708
G1 X72.322 Y132.639 E0.04350
G1 X72.861 Y132.639 E0.01708
G1 X71.351 Y131.130 E0.06766
G1 X71.351 Y130.591 E0.01708
G1 X73.400 Y132.640 E0.09182
G1 X73.939 Y132.640 E0.01708
G1 X71.351 Y130.052 E0.11598
G1 X71.351 Y129.513 E0.01708
G1 X74.479 Y132.640 E0.14014
G1 X75.018 Y132.640 E0.01708
G1 X71.351 Y128.974 E0.16430
G1 X71.351 Y128.435 E0.01708
G1 X75.557 Y132.641 E0.18846
G1 X76.096 Y132.641 E0.01708
G1 X71.351 Y127.896 E0.21262
G1 X71.351 Y127.357 E0.01708
G1 X76.635 Y132.641 E0.23678
G1 X77.174 Y132.641 E0.01708
G1 X71.351 Y126.818 E0.26094
G1 X71.351 Y126.279 E0.01708
G1 X77.713 Y132.641 E0.28509
G1 X78.217 Y132.642 E0.01597
G1 X78.221 Y132.610 E0.00100
G1 X71.351 Y125.740 E0.30786
G1 X71.351 Y125.201 E0.01708
G1 X78.290 Y132.140 E0.31091
G1 X78.417 Y131.729 E0.01364
G1 X71.351 Y124.663 E0.31664
G1 X71.351 Y124.124 E0.01708
G1 X78.545 Y131.317 E0.32236
G1 X78.673 Y130.906 E0.01364
G1 X71.351 Y123.585 E0.32809
G1 X71.351 Y123.046 E0.01708
G1 X78.801 Y130.495 E0.33382
G1 X78.870 Y130.271 E0.00744
G1 X78.957 Y130.112 E0.00573
G1 X71.351 Y122.507 E0.34081
G1 X71.351 Y121.968 E0.01708
G1 X79.146 Y129.763 E0.34931
G1 X79.336 Y129.414 E0.01259
G1 X71.351 Y121.429 E0.35781
G1 X71.351 Y120.890 E0.01708
G1 X79.526 Y129.065 E0.36632
G1 X79.716 Y128.716 E0.01259
G1 X71.351 Y120.351 E0.37482
G1 X71.351 Y119.812 E0.01708
G1 X79.927 Y128.388 E0.38428
G1 X80.172 Y128.094 E0.01213
G1 X71.351 Y119.273 E0.39525
G1 X71.351 Y118.734 E0.01708
G1 X80.416 Y127.800 E0.40622
G1 X80.661 Y127.505 E0.01213
G1 X71.351 Y118.195 E0.41719
G1 X71.351 Y117.657 E0.01708
G1 X80.906 Y127.211 E0.42816
G1 X81.158 Y126.924 E0.01210
G1 X71.351 Y117.118 E0.43944
G1 X71.351 Y116.579 E0.01708
G1 X81.456 Y126.683 E0.45279
G1 X81.753 Y126.442 E0.01214
G1 X71.351 Y116.040 E0.46614
G1 X71.351 Y115.501 E0.01708
G1 X82.051 Y126.201 E0.47948
G1 X82.349 Y125.960 E0.01214
G1 X71.351 Y114.962 E0.49283
G1 X71.351 Y114.423 E0.01708
G1 X82.647 Y125.719 E0.50618
G1 X82.993 Y125.526 E0.01256
G1 X71.351 Y113.884 E0.52170
G1 X71.351 Y113.345 E0.01708
G1 X83.347 Y125.341 E0.53753
G1 X83.700 Y125.155 E0.01265
G1 X71.351 Y112.806 E0.55336
G1 X71.351 Y112.267 E0.01708
G1 X84.053 Y124.969 E0.56919
G1 X84.406 Y124.783 E0.01265
G1 X71.351 Y111.728 E0.58502
G1 X71.351 Y111.190 E0.01708
G1 X84.812 Y124.650 E0.60318
G1 X85.228 Y124.527 E0.01374
G1 X71.351 Y110.651 E0.62181
G1 X71.351 Y110.361 E0.00918
G1 X71.476 Y110.236 E0.00558
G1 X85.643 Y124.404 E0.63487
G1 X86.059 Y124.281 E0.01374
G1 X71.745 Y109.967 E0.64143
G1 X72.015 Y109.697 E0.01207
G1 X86.489 Y124.172 E0.64863
G1 X86.709 Y124.146 E0.00701
G1 X86.709 Y123.853 E0.00930
G1 X72.284 Y109.428 E0.64640
G1 X72.554 Y109.158 E0.01207
G1 X86.709 Y123.314 E0.63433
G1 X86.709 Y122.775 E0.01708
G1 X72.823 Y108.889 E0.62226
G1 X72.842 Y108.870 E0.00084
G1 X73.343 Y108.870 E0.01588
G1 X86.709 Y122.236 E0.59895
G1 X86.709 Y121.697 E0.01708
G1 X73.882 Y108.870 E0.57480
G1 X74.421 Y108.870 E0.01708
G1 X86.709 Y121.158 E0.55065
G1 X86.709 Y120.619 E0.01708
G1 X74.960 Y108.870 E0.52650
G1 X75.499 Y108.870 E0.01708
G1 X86.709 Y120.080 E0.50235
G1 X86.709 Y119.541 E0.01708
G1 X76.038 Y108.870 E0.47820
G1 X76.577 Y108.870 E0.01708
G1 X86.709 Y119.002 E0.45405
G1 X86.709 Y118.463 E0.01708
G1 X77.116 Y108.870 E0.42989
G1 X77.655 Y108.870 E0.01708
G1 X86.709 Y117.925 E0.40574
G1 X86.709 Y117.386 E0.01708
G1 X78.194 Y108.870 E0.38159
G1 X78.733 Y108.870 E0.01708
G1 X86.709 Y116.847 E0.35744
G1 X86.709 Y116.308 E0.01708
G1 X79.271 Y108.870 E0.33329
G1 X79.810 Y108.870 E0.01708
G1 X86.709 Y115.769 E0.30914
G1 X86.709 Y115.230 E0.01708
G1 X80.349 Y108.870 E0.28499
G1 X80.888 Y108.870 E0.01708
G1 X86.709 Y114.691 E0.26084
G1 X86.709 Y114.152 E0.01708
G1 X81.427 Y108.870 E0.23669
G1 X81.966 Y108.870 E0.01708
G1 X86.709 Y113.613 E0.21254
G1 X86.709 Y113.074 E0.01708
G1 X82.505 Y108.870 E0.18839
G1 X83.044 Y108.870 E0.01708
G1 X86.709 Y112.535 E0.16424
G1 X86.709 Y111.996 E0.01708
G1 X83.583 Y108.870 E0.14009
G1 X84.122 Y108.870 E0.01708
G1 X86.709 Y111.457 E0.11593
G1 X86.709 Y110.919 E0.01708
G1 X84.661 Y108.870 E0.09178
G1 X85.200 Y108.870 E0.01708
G1 X86.709 Y110.380 E0.06763
G1 X86.709 Y109.841 E0.01708
G1 X85.739 Y108.870 E0.04348
G1 X86.278 Y108.870 E0.01708
G1 X86.879 Y109.471 E0.02694
G1 F5760
G1 X86.278 Y108.870 E-0.29442
G1 F5760
G1 X85.739 Y108.870 E-0.18666
G1 F5760
G1 X86.308 Y109.440 E-0.27891
G1 E-0.04000 F2100.00000
G1 Z0.800 F7200.000
G1 X89.671 Y108.588 F7200.000
G1 Z0.200 F7200.000
G1 E0.80000 F2100.00000
G1 F1800
G1 X103.691 Y108.588 E0.43959
G1 X105.347 Y110.244 E0.07344
G1 X105.347 Y132.934 E0.71144
G1 X98.199 Y132.932 E0.22412
G1 X98.137 Y132.379 E0.01746
G1 X97.583 Y130.508 E0.06117
G1 X96.672 Y128.775 E0.06137
G1 X95.440 Y127.254 E0.06137
G1 X93.936 Y126.002 E0.06137
G1 X92.216 Y125.068 E0.06138
G1 X90.355 Y124.489 E0.06110
G1 X89.674 Y124.397 E0.02153
G1 X89.671 Y108.648 E0.49381
G1 X89.294 Y108.211 F7200.000
G1 F1800
G1 X103.847 Y108.211 E0.45631
G1 X105.724 Y110.088 E0.08323
G1 X105.724 Y133.312 E0.72817
G1 X97.862 Y133.309 E0.24651
G1 X97.766 Y132.454 E0.02698
G1 X97.232 Y130.650 E0.05897
G1 X96.355 Y128.984 E0.05904
G1 X95.171 Y127.520 E0.05904
G1 X93.723 Y126.316 E0.05904
G1 X92.068 Y125.417 E0.05905
G1 X90.273 Y124.859 E0.05895
G1 X89.297 Y124.726 E0.03087
G1 X89.294 Y108.271 E0.51596
G1 X89.644 Y108.404 F7200.000
G1 F5760
G1 X91.488 Y108.262 E-0.76000
G1 E-0.04000 F2100.00000
G1 Z0.800 F7200.000
