; generated by PrusaSlicer 2.0.0+ on 2019-07-11 at 16:18:29

; 

; external perimeters extrusion width = 0.45mm
; perimeters extrusion width = 0.45mm
; infill extrusion width = 0.45mm
; solid infill extrusion width = 0.45mm
; top infill extrusion width = 0.40mm
; support material extrusion width = 0.35mm
; first layer extrusion width = 0.42mm

M73 P0 R69
M201 X9000 Y9000 Z500 E10000 ; sets maximum accelerations, mm/sec^2
M203 X500 Y500 Z12 E120 ; sets maximum feedrates, mm/sec
M204 P2000 R1500 T2000 ; sets acceleration (P, T) and retract acceleration (R), mm/sec^2
M205 X10.00 Y10.00 Z0.20 E2.50 ; sets the jerk limits, mm/sec
M205 S0 T0 ; sets the minimum extruding and travel feed rate, mm/sec
M107
M115 U3.2.3 ; tell printer latest fw version
G90 ; use absolute coordinates
M83 ; extruder relative mode
M204 S2000 T1500 ; MK2 firmware only supports the old M204 format
M104 S200 ; set extruder temp
M140 S60 ; set bed temp
M190 S60 ; wait for bed temp
M109 S200 ; wait for extruder temp
G28 W ; home all without mesh bed level
G80 ; mesh bed leveling
G1 Y-3.0 F1000.0 ; go outside print area
G92 E0.0
G1 X60.0 E9.0  F1000.0 ; intro line
M73 P0 R69
G1 X100.0 E12.5 F1000.0 ; intro line
G92 E0.0
M900 K30 ; Filament gcode
G21 ; set units to millimeters
G90 ; use absolute coordinates
M83 ; use relative distances for extrusion
;BEFORE_LAYER_CHANGE
G92 E0.0
;0.2


G1 E-0.80000 F2100.00000
G1 Z0.600 F10800.000
;AFTER_LAYER_CHANGE
;0.2
G1 X101.994 Y85.929
G1 Z0.200
G1 E0.80000 F2100.00000
M204 S1000
G1 F1200
G1 X101.994 Y97.643 E0.36727
G1 X102.749 Y97.643 E0.02365
G1 X102.749 Y86.099 E0.36195
G1 X103.503 Y86.099 E0.02365
G1 X103.503 Y97.643 E0.36195
G1 X104.257 Y97.643 E0.02365
G1 X104.257 Y86.099 E0.36195
G1 X104.309 Y86.099 E0.00162
G1 X104.309 Y60.835 E0.79213
G1 X105.011 Y60.835 E0.02203
G1 X105.011 Y111.678 E1.59415
G1 X105.765 Y111.678 E0.02365
G1 X105.765 Y60.835 E1.59415
G1 X106.519 Y60.835 E0.02365
G1 X106.519 Y111.678 E1.59415
G1 X107.274 Y111.678 E0.02365
G1 X107.274 Y60.835 E1.59415
G1 X108.028 Y60.835 E0.02365
G1 X108.028 Y111.678 E1.59415
G1 X108.782 Y111.678 E0.02365
G1 X108.782 Y60.835 E1.59415
G1 X109.536 Y60.835 E0.02365
G1 X109.536 Y111.678 E1.59415
G1 X109.923 Y111.678 E0.01213
G1 X109.923 Y114.485 E0.08801
G1 X110.290 Y114.485 E0.01152
G1 X110.290 Y60.835 E1.68216
G1 X111.044 Y60.835 E0.02365
G1 X111.044 Y114.485 E1.68216
G1 X111.799 Y114.485 E0.02365
G1 X111.799 Y60.835 E1.68216
G1 X112.553 Y60.835 E0.02365
G1 X112.553 Y114.655 E1.68748
G1 F8640
G1 X112.553 Y111.364 E-0.76000
G1 E-0.04000 F2100.00000
G1 Z0.800 F10800.000
G1 X130.653 Y106.234
G1 Z0.200
G1 E0.80000 F2100.00000
G1 F1200
G1 X130.653 Y99.043 E0.22546
G1 X130.943 Y98.796 E0.01198
G1 X131.407 Y98.223 E0.02310
G1 X131.407 Y106.064 E0.24587
G1 X132.161 Y106.064 E0.02365
G1 X132.161 Y97.164 E0.27905
G1 X132.734 Y96.072 E0.03866
G1 X132.915 Y95.474 E0.01959
G1 X132.915 Y106.064 E0.33204
G1 X133.669 Y106.064 E0.02365
G1 X133.669 Y80.485 E0.80202
G1 X134.423 Y80.485 E0.02365
G1 X134.423 Y106.234 E0.80734
G1 F8640
G1 X134.423 Y102.942 E-0.76000
G1 E-0.04000 F2100.00000
G1 Z0.800 F10800.000
G1 X132.915 Y90.855
G1 Z0.200
G1 E0.80000 F2100.00000
G1 F1200
G1 X132.915 Y80.485 E0.32515
G1 X132.161 Y80.485 E0.02365
G1 X132.161 Y88.597 E0.25435
G1 X131.893 Y88.112 E0.01738
G1 X131.407 Y87.528 E0.02382
G1 X131.407 Y80.485 E0.22084
G1 X130.653 Y80.485 E0.02365
G1 X130.653 Y86.916 E0.20164
G1 F8640
G1 X130.653 Y83.624 E-0.76000
G1 E-0.04000 F2100.00000
G1 Z0.800 F10800.000
G1 X115.569 Y80.315
G1 Z0.200
G1 E0.80000 F2100.00000
G1 F1200
G1 X115.569 Y117.293 E1.15940
G1 X114.815 Y117.293 E0.02365
G1 X114.815 Y80.485 E1.15408
G1 X114.061 Y80.485 E0.02365
G1 X114.061 Y117.293 E1.15408
G1 X113.307 Y117.293 E0.02365
G1 X113.307 Y80.485 E1.15408
G1 X113.046 Y80.485 E0.00819
G1 X113.046 Y72.379 E0.25414
G1 X113.307 Y72.379 E0.00819
G1 X113.307 Y60.835 E0.36195
G1 X114.061 Y60.835 E0.02365
G1 X114.061 Y72.379 E0.36195
G1 X114.815 Y72.379 E0.02365
G1 X114.815 Y60.835 E0.36195
G1 X115.569 Y60.835 E0.02365
G1 X115.569 Y72.379 E0.36195
G1 X116.323 Y72.379 E0.02365
G1 X116.323 Y60.835 E0.36195
G1 X117.078 Y60.835 E0.02365
G1 X117.078 Y72.379 E0.36195
G1 X117.832 Y72.379 E0.02365
G1 X117.832 Y60.835 E0.36195
G1 X118.586 Y60.835 E0.02365
G1 X118.586 Y72.379 E0.36195
G1 X119.340 Y72.379 E0.02365
G1 X119.340 Y60.835 E0.36195
G1 X120.094 Y60.835 E0.02365
G1 X120.094 Y72.549 E0.36727
G1 X134.423 Y60.666 F10800.000
G1 F1200
G1 X134.423 Y72.379 E0.36727
G1 X133.669 Y72.379 E0.02365
G1 X133.669 Y60.835 E0.36195
G1 X132.915 Y60.835 E0.02365
G1 X132.915 Y72.379 E0.36195
M73 P1 R68
G1 X132.161 Y72.379 E0.02365
G1 X132.161 Y60.835 E0.36195
G1 X131.407 Y60.835 E0.02365
G1 X131.407 Y72.379 E0.36195
G1 X130.653 Y72.379 E0.02365
G1 X130.653 Y60.835 E0.36195
G1 X129.898 Y60.835 E0.02365
G1 X129.898 Y86.087 E0.79175
G1 X129.539 Y85.802 E0.01438
G1 X129.144 Y85.594 E0.01400
G1 X129.144 Y60.835 E0.77629
G1 X128.390 Y60.835 E0.02365
G1 X128.390 Y85.197 E0.76385
G1 X128.071 Y85.034 E0.01124
G1 X127.636 Y84.905 E0.01423
G1 X127.636 Y60.835 E0.75468
G1 X126.882 Y60.835 E0.02365
G1 X126.882 Y84.681 E0.74768
G1 X126.521 Y84.574 E0.01180
G1 X126.128 Y84.534 E0.01240
G1 X126.128 Y60.835 E0.74307
G1 X125.373 Y60.835 E0.02365
G1 X125.373 Y84.465 E0.74089
G1 X124.871 Y84.419 E0.01582
G1 X124.619 Y84.441 E0.00792
G1 X124.619 Y60.835 E0.74014
G1 X123.865 Y60.835 E0.02365
G1 X123.865 Y84.520 E0.74262
G1 X123.222 Y84.587 E0.02027
G1 X123.111 Y84.618 E0.00361
G1 X123.111 Y60.835 E0.74568
G1 X122.357 Y60.835 E0.02365
G1 X122.357 Y84.851 E0.75301
G1 X121.603 Y85.089 E0.02479
G1 X121.603 Y60.835 E0.76046
G1 X120.848 Y60.835 E0.02365
G1 X120.848 Y72.379 E0.36195
G1 X121.151 Y72.379 E0.00949
G1 X121.151 Y80.485 E0.25414
G1 X120.848 Y80.485 E0.00949
G1 X120.848 Y85.498 E0.15718
G1 X120.178 Y85.861 E0.02390
G1 X120.094 Y85.926 E0.00333
G1 X120.094 Y80.485 E0.17060
G1 X119.340 Y80.485 E0.02365
G1 X119.340 Y86.553 E0.19025
G1 X118.900 Y86.918 E0.01792
G1 X118.586 Y87.300 E0.01551
G1 X118.586 Y80.485 E0.21367
G1 X117.832 Y80.485 E0.02365
G1 X117.832 Y88.236 E0.24303
G1 X117.078 Y89.667 E0.05073
G1 X117.078 Y80.485 E0.28792
G1 X116.323 Y80.485 E0.02365
G1 X116.323 Y117.293 E1.15408
G1 X117.078 Y117.293 E0.02365
G1 X117.078 Y96.057 E0.66583
G1 X117.121 Y96.182 E0.00417
G1 X117.832 Y97.488 E0.04662
G1 X117.832 Y117.293 E0.62095
G1 X118.344 Y117.293 E0.01606
G1 X118.344 Y122.907 E0.17603
G1 X118.586 Y122.907 E0.00759
G1 X118.586 Y98.439 E0.76716
G1 X118.953 Y98.880 E0.01799
G1 X119.340 Y99.198 E0.01569
G1 X119.340 Y122.907 E0.74338
G1 X120.094 Y122.907 E0.02365
G1 X120.094 Y99.807 E0.72427
G1 X120.274 Y99.947 E0.00716
G1 X120.848 Y100.249 E0.02033
G1 X120.848 Y122.907 E0.71042
G1 X121.151 Y122.907 E0.00949
G1 X121.151 Y128.521 E0.17603
G1 X121.603 Y128.521 E0.01416
G1 X121.603 Y100.645 E0.87403
G1 X121.744 Y100.715 E0.00495
G1 X122.357 Y100.896 E0.02003
G1 X122.357 Y128.521 E0.86617
G1 X123.111 Y128.521 E0.02365
G1 X123.111 Y101.119 E0.85918
G1 X123.335 Y101.181 E0.00730
G1 X123.865 Y101.229 E0.01668
G1 X123.865 Y128.521 E0.85571
G1 X123.958 Y128.521 E0.00292
G1 X123.958 Y145.363 E0.52808
G1 X124.619 Y145.363 E0.02073
G1 X124.619 Y101.298 E1.38163
G1 X124.987 Y101.328 E0.01155
G1 X125.373 Y101.287 E0.01220
G1 X125.373 Y145.363 E1.38199
G1 X126.128 Y145.363 E0.02365
G1 X126.128 Y101.207 E1.38449
G1 X126.595 Y101.158 E0.01472
G1 X126.882 Y101.073 E0.00939
G1 X126.882 Y148.170 E1.47670
G1 X127.636 Y148.170 E0.02365
G1 X127.636 Y100.840 E1.48402
G1 X128.180 Y100.671 E0.01785
G1 X128.390 Y100.562 E0.00744
G1 X128.390 Y148.170 E1.49274
G1 X129.144 Y148.170 E0.02365
G1 X129.144 Y100.152 E1.50559
G1 X129.639 Y99.883 E0.01765
G1 X129.898 Y99.672 E0.01049
G1 X129.898 Y148.170 E1.52065
G1 X130.653 Y148.170 E0.02365
G1 X130.653 Y114.170 E1.06607
G1 X131.407 Y114.170 E0.02365
G1 X131.407 Y148.170 E1.06607
G1 X132.161 Y148.170 E0.02365
G1 X132.161 Y114.170 E1.06607
M73 P3 R67
G1 X132.695 Y114.170 E0.01675
G1 X132.695 Y122.591 E0.26404
G1 X132.915 Y122.591 E0.00689
G1 X132.915 Y148.170 E0.80202
G1 X133.669 Y148.170 E0.02365
G1 X133.669 Y122.591 E0.80202
G1 X134.423 Y122.591 E0.02365
G1 X134.423 Y148.170 E0.80202
G1 X135.177 Y148.170 E0.02365
G1 X135.177 Y60.835 E2.73833
G1 X135.932 Y60.835 E0.02365
G1 X135.932 Y148.170 E2.73833
G1 X136.686 Y148.170 E0.02365
G1 X136.686 Y60.835 E2.73833
G1 X137.440 Y60.835 E0.02365
G1 X137.440 Y148.170 E2.73833
G1 X138.194 Y148.170 E0.02365
G1 X138.194 Y60.835 E2.73833
G1 X138.948 Y60.835 E0.02365
G1 X138.948 Y148.170 E2.73833
G1 X139.702 Y148.170 E0.02365
G1 X139.702 Y60.835 E2.73833
G1 X140.457 Y60.835 E0.02365
G1 X140.457 Y148.170 E2.73833
G1 X141.211 Y148.170 E0.02365
G1 X141.211 Y60.835 E2.73833
G1 X141.965 Y60.835 E0.02365
G1 X141.965 Y148.170 E2.73833
G1 X142.719 Y148.170 E0.02365
G1 X142.719 Y60.835 E2.73833
G1 X143.473 Y60.835 E0.02365
G1 X143.473 Y148.170 E2.73833
G1 X144.227 Y148.170 E0.02365
G1 X144.227 Y63.642 E2.65032
M73 P4 R66
G1 X144.982 Y63.642 E0.02365
G1 X144.982 Y148.170 E2.65032
G1 X145.736 Y148.170 E0.02365
G1 X145.736 Y63.642 E2.65032
G1 X146.490 Y63.642 E0.02365
G1 X146.490 Y148.340 E2.65564
G1 F8640
G1 X146.490 Y145.049 E-0.76000
G1 E-0.04000 F2100.00000
G1 Z0.800 F10800.000
G1 X124.962 Y100.703
G1 Z0.200
G1 E0.80000 F2100.00000
G1 F1200
G1 X123.433 Y100.563 E0.04814
G1 X121.960 Y100.128 E0.04814
G1 X120.601 Y99.414 E0.04815
G1 X119.406 Y98.449 E0.04815
G1 X118.423 Y97.269 E0.04816
G1 X117.688 Y95.920 E0.04816
G1 X117.231 Y94.454 E0.04817
G1 X117.070 Y92.926 E0.04817
G1 X117.211 Y91.396 E0.04817
G1 X117.648 Y89.923 E0.04816
G1 X118.363 Y88.564 E0.04816
G1 X119.330 Y87.371 E0.04815
G1 X120.512 Y86.390 E0.04815
G1 X121.861 Y85.658 E0.04814
G1 X123.328 Y85.203 E0.04814
G1 X124.855 Y85.043 E0.04813
G1 X126.383 Y85.184 E0.04813
G1 X127.855 Y85.620 E0.04812
G1 X129.213 Y86.334 E0.04812
G1 X130.406 Y87.300 E0.04811
G1 X131.387 Y88.479 E0.04811
G1 X132.120 Y89.827 E0.04811
G1 X132.576 Y91.293 E0.04811
G1 X132.737 Y92.819 E0.04811
G1 X132.598 Y94.347 E0.04812
G1 X132.163 Y95.819 E0.04812
G1 X131.449 Y97.178 E0.04813
G1 X130.484 Y98.372 E0.04813
G1 X129.305 Y99.355 E0.04814
G1 X127.956 Y100.088 E0.04814
G1 X126.489 Y100.542 E0.04815
G1 X125.021 Y100.697 E0.04626
G1 X124.759 Y100.358 F10800.000
G1 X124.959 Y100.324
G1 F1200
G1 X123.504 Y100.191 E0.04581
G1 X122.103 Y99.777 E0.04582
G1 X120.809 Y99.098 E0.04582
G1 X119.672 Y98.179 E0.04582
G1 X118.736 Y97.057 E0.04583
G1 X118.037 Y95.773 E0.04583
G1 X117.603 Y94.377 E0.04583
G1 X117.449 Y92.923 E0.04583
G1 X117.583 Y91.468 E0.04583
G1 X117.999 Y90.066 E0.04583
G1 X118.680 Y88.773 E0.04583
G1 X119.600 Y87.638 E0.04582
G1 X120.724 Y86.704 E0.04582
G1 X122.009 Y86.007 E0.04581
G1 X123.404 Y85.574 E0.04581
G1 X124.857 Y85.422 E0.04580
G1 X126.311 Y85.556 E0.04580
G1 X127.712 Y85.971 E0.04579
G1 X129.004 Y86.651 E0.04579
G1 X130.139 Y87.570 E0.04579
G1 X131.074 Y88.692 E0.04578
G1 X131.771 Y89.975 E0.04578
G1 X132.205 Y91.369 E0.04578
G1 X132.358 Y92.821 E0.04579
G1 X132.226 Y94.276 E0.04579
G1 X131.812 Y95.676 E0.04579
G1 X131.133 Y96.970 E0.04580
G1 X130.214 Y98.106 E0.04581
G1 X129.092 Y99.041 E0.04581
G1 X127.809 Y99.739 E0.04580
G1 X126.412 Y100.171 E0.04582
G1 X125.019 Y100.318 E0.04394
G1 F8640
G1 X123.504 Y100.191 E-0.35099
G1 X122.103 Y99.777 E-0.33742
G1 X121.828 Y99.633 E-0.07159
G1 E-0.04000 F2100.00000
G1 Z0.800 F10800.000
G1 X118.136 Y95.709
G1 Z0.200
G1 E0.80000 F2100.00000
G1 F1200
G1 X121.644 Y99.217 E0.15565
G1 X122.209 Y99.514 E0.02003
G1 X122.586 Y99.625 E0.01231
G1 X118.153 Y95.192 E0.19668
G1 X117.911 Y94.417 E0.02546
G1 X123.343 Y99.849 E0.24099
G1 X123.557 Y99.912 E0.00702
G1 X123.978 Y99.951 E0.01326
G1 X117.826 Y93.798 E0.27297
G1 X117.763 Y93.202 E0.01882
G1 X124.566 Y100.004 E0.30182
G1 X124.957 Y100.040 E0.01233
G1 X125.118 Y100.023 E0.00508
G1 X117.757 Y92.662 E0.32658
G1 X117.802 Y92.174 E0.01539
G1 X125.601 Y99.972 E0.34600
G1 X126.083 Y99.921 E0.01522
G1 X117.847 Y91.685 E0.36542
G1 X117.862 Y91.521 E0.00516
G1 X117.943 Y91.248 E0.00895
G1 X126.533 Y99.838 E0.38111
G1 X126.941 Y99.711 E0.01338
G1 X118.065 Y90.836 E0.39377
G1 X118.187 Y90.425 E0.01347
G1 X127.348 Y99.585 E0.40643
G1 X127.698 Y99.477 E0.01150
G1 X127.747 Y99.451 E0.00174
G1 X118.333 Y90.037 E0.41764
G1 X118.518 Y89.688 E0.01239
G1 X128.092 Y99.263 E0.42481
G1 X128.438 Y99.075 E0.01234
G1 X118.702 Y89.338 E0.43197
G1 X118.886 Y88.989 E0.01239
G1 X128.784 Y98.887 E0.43914
G1 X128.932 Y98.806 E0.00531
G1 X129.098 Y98.668 E0.00677
G1 X119.115 Y88.685 E0.44291
G1 X119.354 Y88.390 E0.01190
G1 X129.389 Y98.425 E0.44523
G1 X129.680 Y98.183 E0.01189
G1 X119.593 Y88.095 E0.44754
G1 X119.838 Y87.807 E0.01187
G1 X129.971 Y97.940 E0.44957
G1 X130.217 Y97.652 E0.01187
G1 X120.130 Y87.565 E0.44754
G1 X120.421 Y87.323 E0.01189
G1 X130.456 Y97.357 E0.44520
G1 X130.694 Y97.062 E0.01190
G1 X120.713 Y87.081 E0.44285
G1 X120.883 Y86.939 E0.00696
G1 X121.027 Y86.861 E0.00512
G1 X130.924 Y96.759 E0.43912
G1 X131.108 Y96.409 E0.01240
G1 X121.373 Y86.674 E0.43192
G1 X121.719 Y86.486 E0.01235
G1 X131.292 Y96.059 E0.42472
G1 X131.475 Y95.709 E0.01240
G1 X122.065 Y86.298 E0.41752
G1 X122.462 Y86.162 E0.01318
G1 X131.622 Y95.322 E0.40638
G1 X131.743 Y94.910 E0.01347
G1 X122.870 Y86.036 E0.39371
G1 X123.277 Y85.910 E0.01338
G1 X131.865 Y94.498 E0.38103
G1 X131.947 Y94.222 E0.00903
G1 X131.961 Y94.061 E0.00508
G1 X123.726 Y85.825 E0.36540
G1 X124.208 Y85.774 E0.01523
G1 X132.006 Y93.572 E0.34595
G1 X132.051 Y93.083 E0.01540
G1 X124.691 Y85.724 E0.32650
G1 X124.859 Y85.706 E0.00528
G1 X125.243 Y85.742 E0.01210
G1 X132.045 Y92.543 E0.30177
G1 X131.981 Y91.947 E0.01882
G1 X125.831 Y85.796 E0.27290
G1 X126.258 Y85.835 E0.01346
G1 X126.465 Y85.896 E0.00677
G1 X131.896 Y91.327 E0.24095
G1 X131.654 Y90.553 E0.02545
G1 X127.223 Y86.121 E0.19661
G1 X127.605 Y86.234 E0.01250
G1 X128.163 Y86.528 E0.01980
G1 X131.671 Y90.036 E0.15564
M106 S255
;BEFORE_LAYER_CHANGE
G92 E0.0
;0.4


G1 F8640
G1 X129.344 Y87.709 E-0.76000
G1 E-0.04000 F2100.00000
G1 Z0.800 F10800.000
;AFTER_LAYER_CHANGE
;0.4
G1 X124.964 Y100.984
G1 Z0.400
G1 E0.80000 F2100.00000
M204 S800
G1 F1661
G1 X123.380 Y100.840 E0.05384
G1 X121.854 Y100.389 E0.05384
G1 X120.446 Y99.649 E0.05385
G1 X119.208 Y98.649 E0.05385
G1 X118.190 Y97.427 E0.05386
G1 X117.429 Y96.030 E0.05386
G1 X116.956 Y94.510 E0.05387
G1 X116.788 Y92.928 E0.05387
G1 X116.934 Y91.343 E0.05387
G1 X117.387 Y89.817 E0.05386
G1 X118.128 Y88.410 E0.05386
G1 X119.130 Y87.174 E0.05385
G1 X120.354 Y86.157 E0.05385
G1 X121.752 Y85.399 E0.05384
G1 X123.271 Y84.928 E0.05383
G1 X124.853 Y84.762 E0.05383
G1 X126.436 Y84.908 E0.05382
G1 X127.960 Y85.360 E0.05382
G1 X129.367 Y86.100 E0.05381
G1 X130.603 Y87.100 E0.05381
G1 X131.620 Y88.322 E0.05381
G1 X132.379 Y89.718 E0.05380
G1 X132.851 Y91.236 E0.05381
G1 X133.018 Y92.817 E0.05381
G1 X132.874 Y94.400 E0.05381
G1 X132.423 Y95.925 E0.05382
G1 X131.684 Y97.332 E0.05382
G1 X130.684 Y98.569 E0.05383
G1 X129.462 Y99.587 E0.05384
G1 X128.065 Y100.348 E0.05384
G1 X126.546 Y100.818 E0.05384
G1 X125.023 Y100.978 E0.05181
M204 S1000
G1 X124.761 Y100.639 F10800.000
G1 X124.961 Y100.575
M204 S800
G1 F1661
G1 X123.457 Y100.438 E0.05113
G1 X122.008 Y100.010 E0.05113
G1 X120.671 Y99.308 E0.05113
G1 X119.495 Y98.358 E0.05114
G1 X118.528 Y97.198 E0.05114
G1 X117.806 Y95.870 E0.05115
G1 X117.356 Y94.428 E0.05115
G1 X117.198 Y92.925 E0.05115
G1 X117.336 Y91.420 E0.05115
G1 X117.766 Y89.972 E0.05115
G1 X118.470 Y88.635 E0.05114
G1 X119.421 Y87.461 E0.05114
G1 X120.583 Y86.496 E0.05113
G1 X121.911 Y85.776 E0.05113
G1 X123.353 Y85.329 E0.05112
G1 X124.855 Y85.171 E0.05111
G1 X126.359 Y85.310 E0.05111
G1 X127.806 Y85.739 E0.05110
G1 X129.142 Y86.441 E0.05110
G1 X130.316 Y87.391 E0.05110
G1 X131.281 Y88.551 E0.05109
G1 X132.002 Y89.877 E0.05109
G1 X132.451 Y91.319 E0.05109
G1 X132.609 Y92.820 E0.05109
G1 X132.472 Y94.323 E0.05110
G1 X132.044 Y95.771 E0.05110
G1 X131.342 Y97.108 E0.05111
G1 X130.393 Y98.282 E0.05112
G1 X129.233 Y99.249 E0.05112
G1 X127.906 Y99.971 E0.05111
G1 X126.463 Y100.417 E0.05113
G1 X125.021 Y100.569 E0.04911
