; generated by PrusaSlicer 2.1.1+win64 on 2020-03-02 at 16:54:05 UTC

; 

; external perimeters extrusion width = 0.45mm
; perimeters extrusion width = 0.45mm
; infill extrusion width = 0.45mm
; solid infill extrusion width = 0.45mm
; top infill extrusion width = 0.40mm
; first layer extrusion width = 0.42mm

M73 P0 R8
M201 X9000 Y9000 Z500 E10000 ; sets maximum accelerations, mm/sec^2
M203 X500 Y500 Z12 E120 ; sets maximum feedrates, mm/sec
M204 P2000 R1500 T2000 ; sets acceleration (P, T) and retract acceleration (R), mm/sec^2
M205 X10.00 Y10.00 Z0.20 E2.50 ; sets the jerk limits, mm/sec
M205 S0 T0 ; sets the minimum extruding and travel feed rate, mm/sec
M107
M862.3 P "MK2S" ; printer model check
M862.1 P0.4 ; nozzle diameter check
M115 U3.2.3 ; tell printer latest fw version
G90 ; use absolute coordinates
M83 ; extruder relative mode
M204 S2000 T1500 ; MK2 firmware only supports the old M204 format
M104 S215 ; set extruder temp
M140 S60 ; set bed temp
M190 S60 ; wait for bed temp
M109 S215 ; wait for extruder temp
G28 W ; home all without mesh bed level
G80 ; mesh bed leveling
G1 Y-3.0 F1000.0 ; go outside print area
G92 E0.0
G1 X60.0 E9.0  F1000.0 ; intro line
M73 P0 R8
G1 X100.0 E12.5 F1000.0 ; intro line
G92 E0.0
G21 ; set units to millimeters
G90 ; use absolute coordinates
M83 ; use relative distances for extrusion
M900 K30 ; Filament gcode
;BEFORE_LAYER_CHANGE
G92 E0.0
;0.2


G1 E-0.80000 F2100.00000
G1 Z0.600 F10800.000
;AFTER_LAYER_CHANGE
;0.2
G1 X125.000 Y121.351
G1 Z0.200
G1 E0.80000 F2100.00000
M204 S1000
G1 F1200
G1 X123.397 Y121.273 E0.05031
G1 X121.810 Y121.037 E0.05031
G1 X120.253 Y120.647 E0.05031
G1 X118.743 Y120.107 E0.05031
G1 X117.292 Y119.421 E0.05031
G1 X115.916 Y118.596 E0.05031
G1 X114.627 Y117.640 E0.05031
G1 X113.438 Y116.562 E0.05031
G1 X112.360 Y115.373 E0.05031
G1 X111.404 Y114.084 E0.05031
G1 X110.579 Y112.708 E0.05031
G1 X109.893 Y111.257 E0.05031
G1 X109.353 Y109.747 E0.05031
G1 X108.963 Y108.190 E0.05031
G1 X108.727 Y106.603 E0.05031
G1 X108.649 Y105.000 E0.05031
G1 X108.727 Y103.397 E0.05031
G1 X108.963 Y101.810 E0.05031
G1 X109.353 Y100.253 E0.05031
G1 X109.893 Y98.743 E0.05031
G1 X110.579 Y97.292 E0.05031
G1 X111.404 Y95.916 E0.05031
G1 X112.360 Y94.627 E0.05031
G1 X113.438 Y93.438 E0.05031
G1 X114.627 Y92.360 E0.05031
G1 X115.916 Y91.404 E0.05031
G1 X117.292 Y90.579 E0.05031
G1 X118.743 Y89.893 E0.05031
G1 X120.253 Y89.353 E0.05031
G1 X121.810 Y88.963 E0.05031
G1 X123.397 Y88.728 E0.05029
G1 X125.104 Y88.654 E0.05357
G1 X126.603 Y88.727 E0.04706
G1 X128.190 Y88.963 E0.05031
G1 X129.747 Y89.353 E0.05031
G1 X131.257 Y89.893 E0.05031
G1 X132.708 Y90.579 E0.05031
G1 X134.084 Y91.404 E0.05031
G1 X135.373 Y92.360 E0.05031
G1 X136.562 Y93.438 E0.05031
G1 X137.640 Y94.627 E0.05031
G1 X138.596 Y95.916 E0.05031
G1 X139.421 Y97.292 E0.05031
G1 X140.107 Y98.743 E0.05031
G1 X140.647 Y100.253 E0.05031
G1 X141.037 Y101.810 E0.05031
G1 X141.273 Y103.397 E0.05031
G1 X141.351 Y105.000 E0.05031
G1 X141.273 Y106.603 E0.05031
G1 X141.037 Y108.190 E0.05031
G1 X140.647 Y109.747 E0.05031
G1 X140.107 Y111.257 E0.05031
G1 X139.421 Y112.708 E0.05031
G1 X138.596 Y114.084 E0.05031
G1 X137.640 Y115.373 E0.05031
G1 X136.562 Y116.562 E0.05031
G1 X135.373 Y117.640 E0.05031
G1 X134.084 Y118.596 E0.05031
G1 X132.708 Y119.421 E0.05031
G1 X131.257 Y120.107 E0.05031
G1 X129.747 Y120.647 E0.05031
G1 X128.190 Y121.037 E0.05031
G1 X126.603 Y121.273 E0.05031
G1 X125.060 Y121.348 E0.04843
G1 X124.800 Y121.005 F10800.000
G1 X125.000 Y120.974
G1 F1200
G1 X123.434 Y120.897 E0.04915
G1 X121.884 Y120.667 E0.04915
G1 X120.363 Y120.286 E0.04915
G1 X118.887 Y119.758 E0.04915
G1 X117.470 Y119.088 E0.04915
G1 X116.125 Y118.282 E0.04915
G1 X114.866 Y117.348 E0.04915
G1 X113.705 Y116.295 E0.04915
G1 X112.652 Y115.134 E0.04915
G1 X111.718 Y113.875 E0.04915
G1 X110.912 Y112.530 E0.04915
G1 X110.242 Y111.113 E0.04915
G1 X109.714 Y109.637 E0.04915
G1 X109.333 Y108.116 E0.04915
G1 X109.103 Y106.566 E0.04915
G1 X109.026 Y105.000 E0.04915
G1 X109.103 Y103.434 E0.04915
G1 X109.333 Y101.884 E0.04915
G1 X109.714 Y100.363 E0.04915
G1 X110.242 Y98.887 E0.04915
G1 X110.912 Y97.470 E0.04915
G1 X111.718 Y96.125 E0.04915
G1 X112.652 Y94.866 E0.04915
G1 X113.705 Y93.705 E0.04915
G1 X114.866 Y92.652 E0.04915
G1 X116.125 Y91.718 E0.04915
G1 X117.470 Y90.912 E0.04915
G1 X118.887 Y90.242 E0.04915
G1 X120.363 Y89.714 E0.04915
G1 X121.884 Y89.333 E0.04915
G1 X123.433 Y89.103 E0.04910
G1 X125.102 Y89.031 E0.05241
G1 X126.566 Y89.103 E0.04593
G1 X128.116 Y89.333 E0.04915
G1 X129.637 Y89.714 E0.04915
G1 X131.113 Y90.242 E0.04915
G1 X132.530 Y90.912 E0.04915
G1 X133.875 Y91.718 E0.04915
G1 X135.134 Y92.652 E0.04915
G1 X136.295 Y93.705 E0.04915
G1 X137.348 Y94.866 E0.04915
G1 X138.282 Y96.125 E0.04915
G1 X139.088 Y97.470 E0.04915
G1 X139.758 Y98.887 E0.04915
G1 X140.286 Y100.363 E0.04915
G1 X140.667 Y101.884 E0.04915
G1 X140.897 Y103.434 E0.04915
G1 X140.974 Y105.000 E0.04915
G1 X140.897 Y106.566 E0.04915
G1 X140.667 Y108.116 E0.04915
G1 X140.286 Y109.637 E0.04915
G1 X139.758 Y111.113 E0.04915
G1 X139.088 Y112.530 E0.04915
G1 X138.282 Y113.875 E0.04915
G1 X137.348 Y115.134 E0.04915
G1 X136.295 Y116.295 E0.04915
G1 X135.134 Y117.348 E0.04915
G1 X133.875 Y118.282 E0.04915
G1 X132.530 Y119.088 E0.04915
G1 X131.113 Y119.758 E0.04915
G1 X129.637 Y120.286 E0.04915
G1 X128.116 Y120.667 E0.04915
G1 X126.566 Y120.897 E0.04915
G1 X125.060 Y120.971 E0.04727
G1 F8640
G1 X123.434 Y120.897 E-0.37575
G1 X121.884 Y120.667 E-0.36196
G1 X121.790 Y120.643 E-0.02229
G1 E-0.04000 F2100.00000
G1 Z0.800 F10800.000
G1 X118.176 Y119.297
G1 Z0.200
G1 E0.80000 F2100.00000
G1 F1200
G1 X111.060 Y112.180 E0.31641
G1 X110.580 Y111.165 E0.03528
G1 X118.835 Y119.420 E0.36701
G1 X118.995 Y119.496 E0.00559
G1 X119.696 Y119.747 E0.02340
G1 X110.253 Y110.304 E0.41983
G1 X109.967 Y109.483 E0.02732
G1 X120.517 Y120.033 E0.46903
G1 X121.230 Y120.212 E0.02312
G1 X109.788 Y108.770 E0.50869
G1 X109.610 Y108.057 E0.02310
G1 X121.943 Y120.390 E0.54831
G1 X122.571 Y120.483 E0.01995
G1 X109.517 Y107.429 E0.58036
G1 X109.424 Y106.801 E0.01995
G1 X123.199 Y120.576 E0.61241
G1 X123.462 Y120.615 E0.00837
G1 X123.788 Y120.631 E0.01027
G1 X109.369 Y106.212 E0.64108
G1 X109.341 Y105.649 E0.01770
G1 X124.351 Y120.659 E0.66731
G1 X124.913 Y120.686 E0.01770
G1 X109.314 Y105.087 E0.69354
G1 X109.331 Y104.569 E0.01629
G1 X125.431 Y120.669 E0.71581
G1 X125.940 Y120.644 E0.01604
G1 X109.356 Y104.060 E0.73736
G1 X109.381 Y103.550 E0.01604
G1 X126.450 Y120.619 E0.75890
G1 X126.923 Y120.558 E0.01500
G1 X109.442 Y103.077 E0.77721
G1 X109.511 Y102.611 E0.01480
G1 X127.389 Y120.489 E0.79484
G1 X127.855 Y120.420 E0.01480
G1 X109.580 Y102.145 E0.81247
G1 X109.670 Y101.701 E0.01426
G1 X128.299 Y120.330 E0.82822
G1 X128.727 Y120.222 E0.01386
G1 X109.778 Y101.273 E0.84246
G1 X109.885 Y100.846 E0.01386
G1 X129.154 Y120.115 E0.85671
G1 X129.580 Y120.006 E0.01381
G1 X109.994 Y100.420 E0.87077
G1 X110.135 Y100.027 E0.01315
G1 X129.973 Y119.865 E0.88201
G1 X130.367 Y119.724 E0.01315
G1 X110.276 Y99.633 E0.89326
G1 X110.417 Y99.239 E0.01315
G1 X130.761 Y119.583 E0.90450
G1 X131.143 Y119.431 E0.01293
G1 X110.569 Y98.857 E0.91470
G1 X110.741 Y98.494 E0.01262
G1 X131.506 Y119.259 E0.92321
G1 X131.869 Y119.087 E0.01262
G1 X110.913 Y98.131 E0.93171
G1 X111.084 Y97.768 E0.01262
G1 X132.232 Y118.916 E0.94022
G1 X132.579 Y118.728 E0.01241
G1 X111.272 Y97.421 E0.94733
G1 X111.472 Y97.086 E0.01225
G1 X132.914 Y118.528 E0.95328
G1 X133.248 Y118.328 E0.01225
G1 X111.672 Y96.752 E0.95924
G1 X111.873 Y96.418 E0.01225
G1 X133.582 Y118.127 E0.96519
G1 X133.900 Y117.911 E0.01210
G1 X112.089 Y96.100 E0.96970
G1 X112.317 Y95.793 E0.01202
G1 X134.207 Y117.683 E0.97322
G1 X134.514 Y117.455 E0.01202
G1 X112.545 Y95.486 E0.97675
G1 X112.773 Y95.179 E0.01202
G1 X134.821 Y117.227 E0.98028
G1 X135.113 Y116.985 E0.01194
G1 X113.015 Y94.887 E0.98246
M73 P13 R7
G1 X113.269 Y94.606 E0.01190
G1 X135.394 Y116.731 E0.98363
G1 X135.674 Y116.476 E0.01190
G1 X113.524 Y94.326 E0.98480
G1 X113.778 Y94.045 E0.01190
G1 X135.955 Y116.222 E0.98597
G1 X136.222 Y115.955 E0.01189
G1 X114.045 Y93.778 E0.98597
G1 X114.326 Y93.524 E0.01190
G1 X136.476 Y115.674 E0.98480
G1 X136.730 Y115.394 E0.01190
G1 X114.606 Y93.270 E0.98363
G1 X114.887 Y93.015 E0.01190
G1 X136.985 Y115.113 E0.98246
G1 X137.227 Y114.821 E0.01194
G1 X115.179 Y92.773 E0.98028
G1 X115.486 Y92.545 E0.01202
G1 X137.455 Y114.514 E0.97675
G1 X137.683 Y114.207 E0.01202
G1 X115.793 Y92.317 E0.97322
G1 X116.100 Y92.090 E0.01202
G1 X137.910 Y113.900 E0.96970
G1 X138.127 Y113.582 E0.01210
G1 X116.418 Y91.873 E0.96519
G1 X116.752 Y91.672 E0.01225
G1 X138.328 Y113.248 E0.95924
G1 X138.528 Y112.914 E0.01225
G1 X117.086 Y91.472 E0.95328
G1 X117.421 Y91.272 E0.01225
G1 X138.728 Y112.579 E0.94733
G1 X138.916 Y112.232 E0.01241
G1 X117.768 Y91.084 E0.94022
G1 X118.131 Y90.913 E0.01262
G1 X139.087 Y111.869 E0.93171
G1 X139.259 Y111.506 E0.01262
G1 X118.494 Y90.741 E0.92321
G1 X118.857 Y90.569 E0.01262
G1 X139.431 Y111.143 E0.91470
G1 X139.583 Y110.761 E0.01293
G1 X119.239 Y90.417 E0.90450
G1 X119.633 Y90.276 E0.01315
G1 X139.724 Y110.367 E0.89326
G1 X139.865 Y109.974 E0.01315
G1 X120.026 Y90.135 E0.88202
G1 X120.420 Y89.994 E0.01315
G1 X140.006 Y109.580 E0.87077
G1 X140.115 Y109.154 E0.01381
G1 X120.846 Y89.885 E0.85672
G1 X121.273 Y89.778 E0.01386
G1 X140.222 Y108.727 E0.84247
G1 X140.330 Y108.299 E0.01386
G1 X121.701 Y89.670 E0.82822
G1 X122.145 Y89.580 E0.01426
G1 X140.420 Y107.855 E0.81247
G1 X140.489 Y107.389 E0.01480
G1 X122.611 Y89.511 E0.79484
G1 X123.077 Y89.442 E0.01480
G1 X140.558 Y106.923 E0.77721
G1 X140.619 Y106.450 E0.01500
G1 X123.551 Y89.381 E0.75887
G1 X124.063 Y89.359 E0.01613
G1 X140.644 Y105.941 E0.73720
G1 X140.669 Y105.431 E0.01604
G1 X124.576 Y89.337 E0.71552
G1 X125.088 Y89.315 E0.01613
G1 X140.686 Y104.913 E0.69349
G1 X140.659 Y104.351 E0.01770
G1 X125.649 Y89.341 E0.66732
G1 X126.211 Y89.369 E0.01770
G1 X140.631 Y103.789 E0.64109
G1 X140.615 Y103.462 E0.01028
G1 X140.576 Y103.199 E0.00837
G1 X126.801 Y89.424 E0.61242
G1 X127.429 Y89.517 E0.01995
G1 X140.483 Y102.571 E0.58037
G1 X140.390 Y101.943 E0.01995
G1 X128.057 Y89.610 E0.54831
G1 X128.770 Y89.788 E0.02310
G1 X140.212 Y101.230 E0.50870
G1 X140.033 Y100.517 E0.02312
G1 X129.483 Y89.967 E0.46904
G1 X130.304 Y90.253 E0.02732
G1 X139.747 Y99.696 E0.41985
G1 X139.496 Y98.995 E0.02340
G1 X139.420 Y98.835 E0.00558
G1 X131.165 Y90.580 E0.36703
G1 X132.180 Y91.059 E0.03528
G1 X139.297 Y98.177 E0.31642
G1 F8640
G1 X136.969 Y95.849 E-0.76000
G1 E-0.04000 F2100.00000
G1 Z0.800 F10800.000
G1 X138.703 Y97.048
G1 Z0.200
G1 E0.80000 F2100.00000
G1 F1200
G1 X132.952 Y91.297 E0.25568
G1 F8640
G1 X135.279 Y93.625 E-0.76000
G1 E-0.04000 F2100.00000
G1 Z0.800 F10800.000
G1 X134.548 Y92.359
G1 Z0.200
G1 E0.80000 F2100.00000
G1 F1200
G1 X137.641 Y95.452 E0.13752
G1 F8640
G1 X135.314 Y93.124 E-0.76000
G1 E-0.04000 F2100.00000
G1 Z0.800 F10800.000
G1 X117.048 Y118.703
G1 Z0.200
G1 E0.80000 F2100.00000
G1 F1200
G1 X111.297 Y112.952 E0.25566
G1 F8640
G1 X113.625 Y115.280 E-0.76000
G1 E-0.04000 F2100.00000
G1 Z0.800 F10800.000
G1 X112.359 Y114.549
G1 Z0.200
G1 E0.80000 F2100.00000
G1 F1200
G1 X115.451 Y117.641 E0.13748
M106 S255
;BEFORE_LAYER_CHANGE
G92 E0.0
;0.4


G1 F8640
G1 X113.124 Y115.314 E-0.76000
G1 E-0.04000 F2100.00000
G1 Z0.800 F10800.000
;AFTER_LAYER_CHANGE
;0.4
M104 S210 ; set temperature
G1 X125.000 Y120.929
G1 Z0.400
G1 E0.80000 F2100.00000
M73 P26 R6
M204 S800
G1 F3000
G1 X123.439 Y120.852 E0.05291
G1 X121.892 Y120.623 E0.05291
G1 X120.376 Y120.243 E0.05291
G1 X118.904 Y119.716 E0.05291
G1 X117.491 Y119.048 E0.05291
G1 X116.150 Y118.244 E0.05291
G1 X114.895 Y117.313 E0.05291
G1 X113.737 Y116.263 E0.05291
G1 X112.687 Y115.105 E0.05291
G1 X111.756 Y113.850 E0.05291
G1 X110.952 Y112.509 E0.05291
G1 X110.284 Y111.096 E0.05291
G1 X109.757 Y109.624 E0.05291
G1 X109.377 Y108.108 E0.05291
G1 X109.148 Y106.561 E0.05291
G1 X109.071 Y105.000 E0.05291
G1 X109.148 Y103.439 E0.05291
G1 X109.377 Y101.892 E0.05291
G1 X109.757 Y100.376 E0.05291
G1 X110.284 Y98.904 E0.05291
G1 X110.952 Y97.491 E0.05291
G1 X111.756 Y96.151 E0.05291
G1 X112.687 Y94.895 E0.05291
G1 X113.737 Y93.737 E0.05291
G1 X114.895 Y92.687 E0.05291
G1 X116.150 Y91.756 E0.05291
G1 X117.491 Y90.952 E0.05291
G1 X118.904 Y90.284 E0.05291
G1 X120.376 Y89.757 E0.05291
G1 X121.892 Y89.377 E0.05291
G1 X123.439 Y89.148 E0.05291
G1 X125.000 Y89.071 E0.05291
G1 X126.561 Y89.148 E0.05291
G1 X128.108 Y89.377 E0.05291
G1 X129.624 Y89.757 E0.05291
G1 X131.096 Y90.284 E0.05291
G1 X132.509 Y90.952 E0.05291
G1 X133.850 Y91.756 E0.05291
G1 X135.105 Y92.687 E0.05291
G1 X136.263 Y93.737 E0.05291
G1 X137.313 Y94.895 E0.05291
G1 X138.244 Y96.150 E0.05291
G1 X139.048 Y97.491 E0.05291
G1 X139.716 Y98.904 E0.05291
G1 X140.243 Y100.376 E0.05291
G1 X140.623 Y101.892 E0.05291
G1 X140.852 Y103.439 E0.05291
G1 X140.929 Y105.000 E0.05291
G1 X140.852 Y106.561 E0.05291
G1 X140.623 Y108.108 E0.05291
G1 X140.243 Y109.624 E0.05291
G1 X139.716 Y111.096 E0.05291
G1 X139.048 Y112.509 E0.05291
G1 X138.244 Y113.850 E0.05291
G1 X137.313 Y115.105 E0.05291
G1 X136.263 Y116.263 E0.05291
G1 X135.105 Y117.313 E0.05291
G1 X133.850 Y118.244 E0.05291
G1 X132.509 Y119.048 E0.05291
G1 X131.096 Y119.716 E0.05291
G1 X129.624 Y120.243 E0.05291
G1 X128.108 Y120.623 E0.05291
G1 X126.561 Y120.852 E0.05291
G1 X125.060 Y120.926 E0.05088
M204 S1000
G1 X125.000 Y121.336 F10800.000
M204 S800
G1 F2400
G1 X123.399 Y121.258 E0.05427
G1 X121.813 Y121.022 E0.05427
G1 X120.258 Y120.633 E0.05427
G1 X118.748 Y120.093 E0.05427
G1 X117.299 Y119.407 E0.05427
G1 X115.924 Y118.583 E0.05427
G1 X114.636 Y117.628 E0.05427
G1 X113.448 Y116.551 E0.05427
G1 X112.372 Y115.364 E0.05427
G1 X111.417 Y114.076 E0.05427
G1 X110.593 Y112.701 E0.05427
G1 X109.907 Y111.252 E0.05427
G1 X109.367 Y109.742 E0.05427
G1 X108.978 Y108.187 E0.05427
G1 X108.742 Y106.601 E0.05427
G1 X108.664 Y105.000 E0.05427
G1 X108.742 Y103.399 E0.05427
G1 X108.978 Y101.813 E0.05427
G1 X109.367 Y100.258 E0.05427
G1 X109.907 Y98.748 E0.05427
G1 X110.593 Y97.299 E0.05427
G1 X111.417 Y95.924 E0.05427
G1 X112.372 Y94.636 E0.05427
G1 X113.448 Y93.449 E0.05427
G1 X114.636 Y92.372 E0.05427
G1 X115.924 Y91.417 E0.05427
G1 X117.299 Y90.593 E0.05427
G1 X118.748 Y89.907 E0.05427
G1 X120.258 Y89.367 E0.05427
G1 X121.813 Y88.978 E0.05427
G1 X123.399 Y88.742 E0.05427
G1 X125.000 Y88.664 E0.05427
G1 X126.601 Y88.742 E0.05427
G1 X128.187 Y88.978 E0.05427
G1 X129.742 Y89.367 E0.05427
G1 X131.252 Y89.907 E0.05427
G1 X132.701 Y90.593 E0.05427
G1 X134.076 Y91.417 E0.05427
G1 X135.364 Y92.372 E0.05427
G1 X136.551 Y93.448 E0.05427
G1 X137.628 Y94.636 E0.05427
G1 X138.583 Y95.924 E0.05427
G1 X139.407 Y97.299 E0.05427
G1 X140.093 Y98.748 E0.05427
G1 X140.633 Y100.258 E0.05427
G1 X141.022 Y101.813 E0.05427
G1 X141.258 Y103.399 E0.05427
G1 X141.336 Y105.000 E0.05427
G1 X141.258 Y106.601 E0.05427
G1 X141.022 Y108.187 E0.05427
G1 X140.633 Y109.742 E0.05427
G1 X140.093 Y111.252 E0.05427
G1 X139.407 Y112.701 E0.05427
G1 X138.583 Y114.076 E0.05427
G1 X137.628 Y115.364 E0.05427
G1 X136.551 Y116.552 E0.05427
G1 X135.364 Y117.628 E0.05427
G1 X134.076 Y118.583 E0.05427
G1 X132.701 Y119.407 E0.05427
G1 X131.252 Y120.093 E0.05427
G1 X129.742 Y120.633 E0.05427
G1 X128.187 Y121.022 E0.05427
G1 X126.601 Y121.258 E0.05427
G1 X125.060 Y121.333 E0.05223
M204 S1000
G1 X124.800 Y120.990 F10800.000
G1 F8640
G1 X123.399 Y121.258 E-0.38397
G1 X121.813 Y121.022 E-0.37018
G1 X121.788 Y121.016 E-0.00586
G1 E-0.04000 F2100.00000
G1 Z1.000 F10800.000
G1 X131.574 Y119.355
G1 Z0.400
G1 E0.80000 F2100.00000
M204 S2000
G1 F3000
G1 X138.970 Y111.959 E0.35753
G1 X139.470 Y110.878 E0.04071
G1 X130.878 Y119.470 E0.41535
G1 X129.972 Y119.794 E0.03287
G1 X139.794 Y109.972 E0.47477
G1 X139.950 Y109.535 E0.01588
G1 X140.051 Y109.134 E0.01413
G1 X129.134 Y120.051 E0.52771
G1 X128.359 Y120.245 E0.02733
G1 X140.245 Y108.359 E0.57460
G1 X140.323 Y108.048 E0.01095
G1 X140.384 Y107.639 E0.01414
G1 X127.639 Y120.384 E0.61610
G1 X126.956 Y120.485 E0.02359
