; generated by PrusaSlicer 2.2.0+win64 on 2021-03-29 at 20:17:12 UTC

; 

; external perimeters extrusion width = 0.45mm
; perimeters extrusion width = 0.45mm
; infill extrusion width = 0.45mm
; solid infill extrusion width = 0.45mm
; top infill extrusion width = 0.40mm
; first layer extrusion width = 0.42mm

M73 P0 R38
M201 X9000 Y9000 Z500 E10000 ; sets maximum accelerations, mm/sec^2
M203 X500 Y500 Z12 E120 ; sets maximum feedrates, mm/sec
M204 P2000 R1500 T2000 ; sets acceleration (P, T) and retract acceleration (R), mm/sec^2
M205 X10.00 Y10.00 Z0.20 E2.50 ; sets the jerk limits, mm/sec
M205 S0 T0 ; sets the minimum extruding and travel feed rate, mm/sec
M107
M862.3 P "MK2S" ; printer model check
M862.1 P0.4 ; nozzle diameter check
M115 U3.2.3 ; tell printer latest fw version
G90 ; use absolute coordinates
M83 ; extruder relative mode
M204 S2000 T1500 ; MK2 firmware only supports the old M204 format
M104 S215 ; set extruder temp
M140 S60 ; set bed temp
M190 S60 ; wait for bed temp
M109 S215 ; wait for extruder temp
G28 W ; home all without mesh bed level
G80 ; mesh bed leveling
G1 Y-3.0 F1000.0 ; go outside print area
G92 E0.0
G1 X60.0 E9.0  F1000.0 ; intro line
M73 P0 R38
G1 X100.0 E12.5 F1000.0 ; intro line
G92 E0.0
G21 ; set units to millimeters
G90 ; use absolute coordinates
M83 ; use relative distances for extrusion
M900 K0.05 ; Filament gcode LA 1.5
M900 K30 ; Filament gcode LA 1.0
;BEFORE_LAYER_CHANGE
G92 E0.0
;0.2


G1 E-0.80000 F2100.00000
G1 Z0.600 F10800.000
;AFTER_LAYER_CHANGE
;0.2
G1 X137.348 Y102.437
G1 Z0.200
G1 E0.80000 F2100.00000
M204 S1000
G1 F1200.000
G1 X137.348 Y105.437 E0.09406
G1 X157.268 Y105.437 E0.62458
G1 X157.268 Y106.063 E0.01962
G1 X133.732 Y106.063 E0.73795
G1 X133.732 Y102.437 E0.11369
G1 X137.288 Y102.437 E0.11149
G1 E-0.80000 F2100.00000
G1 Z0.800 F10800.000
G1 X145.500 Y106.440
G1 Z0.200
G1 E0.80000 F2100.00000
G1 F1200.000
G1 X133.355 Y106.440 E0.38080
G1 X133.355 Y102.060 E0.13733
G1 X137.725 Y102.060 E0.13702
G1 X137.725 Y105.060 E0.09406
G1 X157.645 Y105.060 E0.62458
G1 X157.645 Y107.940 E0.09030
G1 X156.715 Y107.940 E0.02916
G1 X156.715 Y106.440 E0.04703
G1 X145.560 Y106.440 E0.34976
G1 X145.316 Y106.085 F10800.000
G1 E-0.80000 F2100.00000
G1 Z0.800 F10800.000
G1 X137.159 Y105.750
G1 Z0.200
G1 E0.80000 F2100.00000
G1 F1200.000
G1 X157.079 Y105.750 E0.41204
G1 X157.180 Y106.251 F10800.000
G1 F1200.000
G1 X157.180 Y107.751 E0.06896
G1 E-0.80000 F2100.00000
G1 Z0.800 F10800.000
G1 X137.235 Y103.371
G1 Z0.200
G1 E0.80000 F2100.00000
G1 F1200.000
G1 X136.584 Y102.720 E0.03095
G1 X136.012 Y102.720 E0.01924
G1 X137.065 Y103.773 E0.05009
G1 X137.065 Y104.345 E0.01924
G1 X135.440 Y102.720 E0.07730
G1 X134.868 Y102.720 E0.01924
G1 X137.065 Y104.917 E0.10451
G1 X137.065 Y105.321 E0.01360
G1 X136.897 Y105.321 E0.00564
G1 X134.296 Y102.720 E0.12374
G1 X134.015 Y102.720 E0.00945
G1 X134.015 Y103.011 E0.00979
G1 X136.784 Y105.780 E0.13172
G1 X136.212 Y105.780 E0.01924
G1 X134.015 Y103.583 E0.10451
G1 X134.015 Y104.155 E0.01924
G1 X135.640 Y105.780 E0.07730
G1 X135.068 Y105.780 E0.01924
G1 X134.015 Y104.727 E0.05009
G1 X134.015 Y105.299 E0.01924
G1 X134.665 Y105.950 E0.03095
G1 E-0.80000 F2100.00000
G1 Z0.800 F10800.000
G1 X109.645 Y100.531
G1 Z0.200
G1 E0.80000 F2100.00000
G1 F1200.000
G1 X107.058 Y100.531 E0.08112
G1 X107.058 Y93.898 E0.20799
G1 X112.232 Y93.898 E0.16223
G1 X112.232 Y100.531 E0.20799
G1 X109.705 Y100.531 E0.07923
G1 X109.645 Y100.154 F10800.000
G1 F1200.000
G1 X107.435 Y100.154 E0.06929
G1 X107.435 Y94.275 E0.18434
G1 X111.855 Y94.275 E0.13859
G1 X111.855 Y100.154 E0.18434
G1 X109.705 Y100.154 E0.06741
G1 X109.597 Y100.551 F10800.000
G1 E-0.80000 F2100.00000
G1 Z0.800 F10800.000
G1 X119.118 Y130.387
G1 Z0.200
G1 E0.80000 F2100.00000
G1 F1200.000
G1 X119.118 Y79.913 E1.58258
G1 X123.792 Y79.913 E0.14655
G1 X123.792 Y130.387 E1.58258
G1 X119.178 Y130.387 E0.14467
G1 X119.495 Y130.010 F10800.000
G1 F1200.000
G1 X119.495 Y80.290 E1.55894
G1 X123.415 Y80.290 E0.12291
G1 X123.415 Y130.010 E1.55894
G1 X119.555 Y130.010 E0.12103
G1 X119.143 Y130.201 F10800.000
G1 E-0.80000 F2100.00000
G1 Z0.800 F10800.000
G1 X109.645 Y130.531
G1 Z0.200
G1 E0.80000 F2100.00000
G1 F1200.000
G1 X107.058 Y130.531 E0.08112
G1 X107.058 Y123.898 E0.20799
G1 X112.232 Y123.898 E0.16223
G1 X112.232 Y130.531 E0.20799
G1 X109.705 Y130.531 E0.07923
G1 X109.645 Y130.154 F10800.000
G1 F1200.000
G1 X107.435 Y130.154 E0.06929
G1 X107.435 Y124.275 E0.18434
G1 X111.855 Y124.275 E0.13859
G1 X111.855 Y130.154 E0.18434
G1 X109.705 Y130.154 E0.06741
G1 X109.597 Y130.551 F10800.000
G1 E-0.80000 F2100.00000
G1 Z0.800 F10800.000
G1 X109.645 Y136.913
G1 Z0.200
G1 E0.80000 F2100.00000
G1 F1200.000
G1 X92.732 Y136.913 E0.53029
G1 X92.732 Y73.087 E2.00121
G1 X126.558 Y73.087 E1.06059
G1 X126.558 Y136.913 E2.00121
G1 X109.705 Y136.913 E0.52841
G1 X109.645 Y137.290 F10800.000
G1 F1200.000
G1 X92.355 Y137.290 E0.54212
G1 X92.355 Y72.710 E2.02486
G1 X126.935 Y72.710 E1.08423
G1 X126.935 Y137.290 E2.02486
G1 X109.705 Y137.290 E0.54023
G1 X109.317 Y137.061 F10800.000
G1 E-0.80000 F2100.00000
G1 Z0.800 F10800.000
G1 X107.229 Y130.644
G1 Z0.200
G1 E0.80000 F2100.00000
G1 F1200.000
G1 X113.215 Y136.630 E0.26602
G1 X113.750 Y136.630 E0.01680
G1 X107.933 Y130.814 E0.25848
G1 X108.468 Y130.814 E0.01680
G1 X114.284 Y136.630 E0.25848
G1 X114.819 Y136.630 E0.01680
G1 X109.002 Y130.814 E0.25848
G1 X109.537 Y130.814 E0.01680
G1 X115.353 Y136.630 E0.25848
G1 X115.888 Y136.630 E0.01680
G1 X110.071 Y130.814 E0.25848
G1 X110.606 Y130.814 E0.01680
G1 X116.422 Y136.630 E0.25848
G1 X116.957 Y136.630 E0.01680
G1 X111.140 Y130.814 E0.25848
G1 X111.675 Y130.814 E0.01680
G1 X117.491 Y136.630 E0.25848
G1 X118.025 Y136.630 E0.01680
G1 X112.209 Y130.814 E0.25848
G1 X112.515 Y130.814 E0.00960
G1 X112.515 Y130.585 E0.00719
G1 X118.560 Y136.630 E0.26865
G1 X119.094 Y136.630 E0.01680
G1 X112.515 Y130.051 E0.29241
G1 X112.515 Y129.516 E0.01680
G1 X119.629 Y136.630 E0.31616
G1 X120.163 Y136.630 E0.01680
G1 X112.515 Y128.982 E0.33991
G1 X112.515 Y128.447 E0.01680
G1 X120.698 Y136.630 E0.36367
G1 X121.232 Y136.630 E0.01680
G1 X112.515 Y127.913 E0.38742
G1 X112.515 Y127.378 E0.01680
G1 X121.767 Y136.630 E0.41117
G1 X122.301 Y136.630 E0.01680
G1 X112.515 Y126.844 E0.43492
G1 X112.515 Y126.309 E0.01680
M73 P2 R37
G1 X122.836 Y136.630 E0.45868
G1 X123.370 Y136.630 E0.01680
G1 X112.515 Y125.775 E0.48243
G1 X112.515 Y125.240 E0.01680
G1 X123.905 Y136.630 E0.50618
G1 X124.439 Y136.630 E0.01680
G1 X112.515 Y124.706 E0.52994
G1 X112.515 Y124.171 E0.01680
G1 X124.974 Y136.630 E0.55369
G1 X125.508 Y136.630 E0.01680
G1 X119.548 Y130.670 E0.26488
G1 X120.082 Y130.670 E0.01680
G1 X126.043 Y136.630 E0.26488
G1 X126.275 Y136.630 E0.00731
G1 X126.275 Y136.328 E0.00949
G1 X120.617 Y130.670 E0.25146
G1 X121.151 Y130.670 E0.01680
G1 X126.275 Y135.794 E0.22771
G1 X126.275 Y135.259 E0.01680
G1 X121.686 Y130.670 E0.20396
G1 X122.220 Y130.670 E0.01680
G1 X126.275 Y134.725 E0.18021
G1 X126.275 Y134.190 E0.01680
G1 X122.755 Y130.670 E0.15645
G1 X123.289 Y130.670 E0.01680
G1 X126.275 Y133.656 E0.13270
G1 X126.275 Y133.121 E0.01680
G1 X123.824 Y130.670 E0.10895
G1 X124.075 Y130.670 E0.00789
G1 X124.075 Y130.387 E0.00890
G1 X126.275 Y132.587 E0.09778
G1 X126.275 Y132.052 E0.01680
G1 X124.075 Y129.852 E0.09778
G1 X124.075 Y129.318 E0.01680
G1 X126.275 Y131.518 E0.09778
G1 X126.275 Y130.983 E0.01680
G1 X124.075 Y128.783 E0.09778
G1 X124.075 Y128.249 E0.01680
G1 X126.275 Y130.449 E0.09778
G1 X126.275 Y129.914 E0.01680
G1 X124.075 Y127.714 E0.09778
G1 X124.075 Y127.180 E0.01680
G1 X126.275 Y129.380 E0.09778
G1 X126.275 Y128.846 E0.01680
G1 X124.075 Y126.645 E0.09778
G1 X124.075 Y126.111 E0.01680
G1 X126.275 Y128.311 E0.09778
G1 X126.275 Y127.777 E0.01680
G1 X124.075 Y125.576 E0.09778
G1 X124.075 Y125.042 E0.01680
G1 X126.275 Y127.242 E0.09778
G1 X126.275 Y126.708 E0.01680
G1 X124.075 Y124.507 E0.09778
G1 X124.075 Y123.973 E0.01680
G1 X126.275 Y126.173 E0.09778
G1 X126.275 Y125.639 E0.01680
G1 X124.075 Y123.438 E0.09778
G1 X124.075 Y122.904 E0.01680
G1 X126.275 Y125.104 E0.09778
G1 X126.275 Y124.570 E0.01680
G1 X124.075 Y122.369 E0.09778
G1 X124.075 Y121.835 E0.01680
G1 X126.275 Y124.035 E0.09778
G1 X126.275 Y123.501 E0.01680
G1 X124.075 Y121.301 E0.09778
G1 X124.075 Y120.766 E0.01680
G1 X126.275 Y122.966 E0.09778
G1 X126.275 Y122.432 E0.01680
G1 X124.075 Y120.232 E0.09778
G1 X124.075 Y119.697 E0.01680
G1 X126.275 Y121.897 E0.09778
G1 X126.275 Y121.363 E0.01680
G1 X124.075 Y119.163 E0.09778
G1 X124.075 Y118.628 E0.01680
G1 X126.275 Y120.828 E0.09778
G1 X126.275 Y120.294 E0.01680
G1 X124.075 Y118.094 E0.09778
G1 X124.075 Y117.559 E0.01680
G1 X126.275 Y119.759 E0.09778
G1 X126.275 Y119.225 E0.01680
G1 X124.075 Y117.025 E0.09778
G1 X124.075 Y116.490 E0.01680
G1 X126.275 Y118.690 E0.09778
G1 X126.275 Y118.156 E0.01680
G1 X124.075 Y115.956 E0.09778
G1 X124.075 Y115.421 E0.01680
G1 X126.275 Y117.622 E0.09778
G1 X126.275 Y117.087 E0.01680
G1 X124.075 Y114.887 E0.09778
G1 X124.075 Y114.352 E0.01680
G1 X126.275 Y116.553 E0.09778
G1 X126.275 Y116.018 E0.01680
G1 X124.075 Y113.818 E0.09778
G1 X124.075 Y113.283 E0.01680
G1 X126.275 Y115.484 E0.09778
G1 X126.275 Y114.949 E0.01680
G1 X124.075 Y112.749 E0.09778
G1 X124.075 Y112.214 E0.01680
G1 X126.275 Y114.415 E0.09778
G1 X126.275 Y113.880 E0.01680
G1 X124.075 Y111.680 E0.09778
G1 X124.075 Y111.145 E0.01680
G1 X126.275 Y113.346 E0.09778
G1 X126.275 Y112.811 E0.01680
G1 X124.075 Y110.611 E0.09778
G1 X124.075 Y110.077 E0.01680
G1 X126.275 Y112.277 E0.09778
G1 X126.275 Y111.742 E0.01680
G1 X124.075 Y109.542 E0.09778
G1 X124.075 Y109.008 E0.01680
G1 X126.275 Y111.208 E0.09778
G1 X126.275 Y110.673 E0.01680
G1 X124.075 Y108.473 E0.09778
G1 X124.075 Y107.939 E0.01680
G1 X126.275 Y110.139 E0.09778
G1 X126.275 Y109.604 E0.01680
G1 X124.075 Y107.404 E0.09778
G1 X124.075 Y106.870 E0.01680
G1 X126.275 Y109.070 E0.09778
G1 X126.275 Y108.535 E0.01680
G1 X124.075 Y106.335 E0.09778
G1 X124.075 Y105.801 E0.01680
G1 X126.275 Y108.001 E0.09778
G1 X126.275 Y107.467 E0.01680
G1 X124.075 Y105.266 E0.09778
G1 X124.075 Y104.732 E0.01680
G1 X126.275 Y106.932 E0.09778
G1 X126.275 Y106.398 E0.01680
G1 X124.075 Y104.197 E0.09778
G1 X124.075 Y103.663 E0.01680
G1 X126.275 Y105.863 E0.09778
G1 X126.275 Y105.329 E0.01680
G1 X124.075 Y103.128 E0.09778
G1 X124.075 Y102.594 E0.01680
G1 X126.275 Y104.794 E0.09778
G1 X126.275 Y104.260 E0.01680
G1 X124.075 Y102.059 E0.09778
G1 X124.075 Y101.525 E0.01680
G1 X126.275 Y103.725 E0.09778
G1 X126.275 Y103.191 E0.01680
G1 X124.075 Y100.990 E0.09778
G1 X124.075 Y100.456 E0.01680
G1 X126.275 Y102.656 E0.09778
G1 X126.275 Y102.122 E0.01680
G1 X124.075 Y99.922 E0.09778
G1 X124.075 Y99.387 E0.01680
G1 X126.275 Y101.587 E0.09778
G1 X126.275 Y101.053 E0.01680
G1 X124.075 Y98.853 E0.09778
G1 X124.075 Y98.318 E0.01680
G1 X126.275 Y100.518 E0.09778
G1 X126.275 Y99.984 E0.01680
G1 X124.075 Y97.784 E0.09778
G1 X124.075 Y97.249 E0.01680
G1 X126.275 Y99.449 E0.09778
G1 X126.275 Y98.915 E0.01680
G1 X124.075 Y96.715 E0.09778
G1 X124.075 Y96.180 E0.01680
G1 X126.275 Y98.380 E0.09778
G1 X126.275 Y97.846 E0.01680
G1 X124.075 Y95.646 E0.09778
G1 X124.075 Y95.111 E0.01680
G1 X126.275 Y97.311 E0.09778
G1 X126.275 Y96.777 E0.01680
G1 X124.075 Y94.577 E0.09778
G1 X124.075 Y94.042 E0.01680
G1 X126.275 Y96.243 E0.09778
G1 X126.275 Y95.708 E0.01680
G1 X124.075 Y93.508 E0.09778
G1 X124.075 Y92.973 E0.01680
G1 X126.275 Y95.174 E0.09778
G1 X126.275 Y94.639 E0.01680
G1 X124.075 Y92.439 E0.09778
G1 X124.075 Y91.904 E0.01680
G1 X126.275 Y94.105 E0.09778
G1 X126.275 Y93.570 E0.01680
G1 X124.075 Y91.370 E0.09778
G1 X124.075 Y90.835 E0.01680
G1 X126.275 Y93.036 E0.09778
G1 X126.275 Y92.501 E0.01680
G1 X124.075 Y90.301 E0.09778
G1 X124.075 Y89.766 E0.01680
G1 X126.275 Y91.967 E0.09778
G1 X126.275 Y91.432 E0.01680
G1 X124.075 Y89.232 E0.09778
G1 X124.075 Y88.698 E0.01680
G1 X126.275 Y90.898 E0.09778
G1 X126.275 Y90.363 E0.01680
G1 X124.075 Y88.163 E0.09778
G1 X124.075 Y87.629 E0.01680
G1 X126.275 Y89.829 E0.09778
G1 X126.275 Y89.294 E0.01680
G1 X124.075 Y87.094 E0.09778
G1 X124.075 Y86.560 E0.01680
G1 X126.275 Y88.760 E0.09778
G1 X126.275 Y88.225 E0.01680
G1 X124.075 Y86.025 E0.09778
G1 X124.075 Y85.491 E0.01680
G1 X126.275 Y87.691 E0.09778
G1 X126.275 Y87.156 E0.01680
G1 X124.075 Y84.956 E0.09778
G1 X124.075 Y84.422 E0.01680
G1 X126.275 Y86.622 E0.09778
G1 X126.275 Y86.088 E0.01680
G1 X124.075 Y83.887 E0.09778
G1 X124.075 Y83.353 E0.01680
G1 X126.275 Y85.553 E0.09778
G1 X126.275 Y85.019 E0.01680
G1 X124.075 Y82.818 E0.09778
G1 X124.075 Y82.284 E0.01680
G1 X126.275 Y84.484 E0.09778
G1 X126.275 Y83.950 E0.01680
G1 X124.075 Y81.749 E0.09778
G1 X124.075 Y81.215 E0.01680
G1 X126.275 Y83.415 E0.09778
G1 X126.275 Y82.881 E0.01680
G1 X124.075 Y80.680 E0.09778
G1 X124.075 Y80.146 E0.01680
G1 X126.275 Y82.346 E0.09778
G1 X126.275 Y81.812 E0.01680
G1 X117.833 Y73.370 E0.37517
G1 X118.368 Y73.370 E0.01680
G1 X126.275 Y81.277 E0.35142
G1 X126.275 Y80.743 E0.01680
G1 X118.902 Y73.370 E0.32766
G1 X119.437 Y73.370 E0.01680
G1 X126.275 Y80.208 E0.30391
G1 X126.275 Y79.674 E0.01680
G1 X119.971 Y73.370 E0.28016
G1 X120.506 Y73.370 E0.01680
G1 X126.275 Y79.139 E0.25641
G1 X126.275 Y78.605 E0.01680
G1 X121.040 Y73.370 E0.23265
G1 X121.575 Y73.370 E0.01680
G1 X126.275 Y78.070 E0.20890
G1 X126.275 Y77.536 E0.01680
G1 X122.109 Y73.370 E0.18515
G1 X122.644 Y73.370 E0.01680
G1 X126.275 Y77.001 E0.16139
G1 X126.275 Y76.467 E0.01680
G1 X123.178 Y73.370 E0.13764
G1 X123.713 Y73.370 E0.01680
G1 X126.275 Y75.932 E0.11389
G1 X126.275 Y75.398 E0.01680
G1 X124.247 Y73.370 E0.09013
G1 X124.781 Y73.370 E0.01680
G1 X126.275 Y74.864 E0.06638
G1 X126.275 Y74.329 E0.01680
G1 X125.316 Y73.370 E0.04263
G1 X125.850 Y73.370 E0.01680
G1 X126.445 Y73.964 E0.02642
G1 E-0.80000 F2100.00000
G1 Z0.800 F10800.000
G1 X123.729 Y79.800
G1 Z0.200
G1 E0.80000 F2100.00000
G1 F1200.000
G1 X117.299 Y73.370 E0.28576
G1 X116.764 Y73.370 E0.01680
G1 X123.025 Y79.630 E0.27822
G1 X122.490 Y79.630 E0.01680
G1 X116.230 Y73.370 E0.27822
G1 X115.695 Y73.370 E0.01680
G1 X121.956 Y79.630 E0.27822
G1 X121.421 Y79.630 E0.01680
G1 X115.161 Y73.370 E0.27822
G1 X114.626 Y73.370 E0.01680
G1 X120.887 Y79.630 E0.27822
G1 X120.352 Y79.630 E0.01680
G1 X114.092 Y73.370 E0.27822
G1 X113.557 Y73.370 E0.01680
G1 X119.818 Y79.630 E0.27822
G1 X119.283 Y79.630 E0.01680
G1 X113.023 Y73.370 E0.27822
G1 X112.489 Y73.370 E0.01680
G1 X118.835 Y79.716 E0.28205
G1 X118.835 Y80.251 E0.01680
G1 X111.954 Y73.370 E0.30581
G1 X111.420 Y73.370 E0.01680
G1 X118.835 Y80.785 E0.32956
G1 X118.835 Y81.320 E0.01680
G1 X110.885 Y73.370 E0.35331
G1 X110.351 Y73.370 E0.01680
G1 X118.835 Y81.854 E0.37707
G1 X118.835 Y82.389 E0.01680
G1 X109.816 Y73.370 E0.40082
G1 X109.282 Y73.370 E0.01680
G1 X118.835 Y82.923 E0.42457
G1 X118.835 Y83.458 E0.01680
G1 X108.747 Y73.370 E0.44832
G1 X108.213 Y73.370 E0.01680
G1 X118.835 Y83.992 E0.47208
G1 X118.835 Y84.527 E0.01680
G1 X107.678 Y73.370 E0.49583
G1 X107.144 Y73.370 E0.01680
G1 X118.835 Y85.061 E0.51958
G1 X118.835 Y85.596 E0.01680
G1 X106.609 Y73.370 E0.54334
G1 X106.075 Y73.370 E0.01680
G1 X118.835 Y86.130 E0.56709
G1 X118.835 Y86.665 E0.01680
G1 X105.540 Y73.370 E0.59084
G1 X105.006 Y73.370 E0.01680
G1 X118.835 Y87.199 E0.61460
G1 X118.835 Y87.734 E0.01680
G1 X104.471 Y73.370 E0.63835
G1 X103.937 Y73.370 E0.01680
G1 X118.835 Y88.268 E0.66210
G1 X118.835 Y88.803 E0.01680
G1 X103.402 Y73.370 E0.68586
G1 X102.868 Y73.370 E0.01680
G1 X118.835 Y89.337 E0.70961
G1 X118.835 Y89.871 E0.01680
G1 X102.334 Y73.370 E0.73336
G1 X101.799 Y73.370 E0.01680
G1 X118.835 Y90.406 E0.75711
G1 X118.835 Y90.940 E0.01680
G1 X101.265 Y73.370 E0.78087
G1 X100.730 Y73.370 E0.01680
G1 X118.835 Y91.475 E0.80462
G1 X118.835 Y92.009 E0.01680
G1 X100.196 Y73.370 E0.82837
G1 X99.661 Y73.370 E0.01680
G1 X118.835 Y92.544 E0.85213
G1 X118.835 Y93.078 E0.01680
G1 X99.127 Y73.370 E0.87588
M73 P5 R36
G1 X98.592 Y73.370 E0.01680
G1 X118.835 Y93.613 E0.89963
G1 X118.835 Y94.147 E0.01680
G1 X98.058 Y73.370 E0.92339
G1 X97.523 Y73.370 E0.01680
