; generated by PrusaSlicer 2.2.0+win64 on 2021-01-18 at 23:15:47 UTC

; 

; external perimeters extrusion width = 0.45mm
; perimeters extrusion width = 0.45mm
; infill extrusion width = 0.45mm
; solid infill extrusion width = 0.45mm
; top infill extrusion width = 0.40mm
; support material extrusion width = 0.35mm
; first layer extrusion width = 0.42mm

M73 P0 R42
M201 X9000 Y9000 Z500 E10000 ; sets maximum accelerations, mm/sec^2
M203 X500 Y500 Z12 E120 ; sets maximum feedrates, mm/sec
M204 P2000 R1500 T2000 ; sets acceleration (P, T) and retract acceleration (R), mm/sec^2
M205 X10.00 Y10.00 Z0.20 E2.50 ; sets the jerk limits, mm/sec
M205 S0 T0 ; sets the minimum extruding and travel feed rate, mm/sec
M107
M862.3 P "MK2S" ; printer model check
M862.1 P0.4 ; nozzle diameter check
M115 U3.2.3 ; tell printer latest fw version
G90 ; use absolute coordinates
M83 ; extruder relative mode
M204 S2000 T1500 ; MK2 firmware only supports the old M204 format
M104 S215 ; set extruder temp
M140 S60 ; set bed temp
M190 S60 ; wait for bed temp
M109 S215 ; wait for extruder temp
G28 W ; home all without mesh bed level
G80 ; mesh bed leveling
G1 Y-3.0 F1000.0 ; go outside print area
G92 E0.0
G1 X60.0 E9.0  F1000.0 ; intro line
M73 P0 R42
G1 X100.0 E12.5 F1000.0 ; intro line
G92 E0.0
G21 ; set units to millimeters
G90 ; use absolute coordinates
M83 ; use relative distances for extrusion
M900 K0.05 ; Filament gcode LA 1.5
M900 K30 ; Filament gcode LA 1.0
;BEFORE_LAYER_CHANGE
G92 E0.0
;0.2


G1 E-0.80000 F2100.00000
G1 Z0.600 F10800.000
;AFTER_LAYER_CHANGE
;0.2
G1 X76.584 Y104.355
G1 Z0.200
G1 E0.80000 F2100.00000
M204 S1000
G1 F1200.000
G1 X69.009 Y111.930 E0.33592
G1 X69.542 Y112.464 E0.02365
G1 X76.998 Y105.008 E0.33060
G1 X77.531 Y105.541 E0.02365
G1 X70.075 Y112.997 E0.33060
G1 X70.235 Y113.157 E0.00709
G1 X68.604 Y114.788 E0.07234
G1 X68.977 Y115.162 E0.01656
G1 X79.696 Y104.443 E0.47527
G1 X80.229 Y104.976 E0.02365
G1 X69.510 Y115.695 E0.47527
G1 X70.044 Y116.228 E0.02365
G1 X80.762 Y105.510 E0.47527
G1 X80.954 Y105.701 E0.00849
G1 X82.585 Y104.070 E0.07234
G1 X82.927 Y104.412 E0.01516
G1 X68.946 Y118.393 E0.61995
G1 X69.479 Y118.926 E0.02365
G1 X83.460 Y104.945 E0.61995
G1 X83.993 Y105.478 E0.02365
G1 X69.892 Y119.579 E0.62527
G1 E-0.80000 F2100.00000
G1 Z0.800 F10800.000
G1 X88.683 Y125.319
G1 Z0.200
G1 E0.80000 F2100.00000
G1 F1200.000
G1 X97.890 Y116.112 E0.40826
G1 X97.357 Y115.579 E0.02365
G1 X88.270 Y124.666 E0.40294
G1 X87.736 Y124.133 E0.02365
G1 X96.823 Y115.045 E0.40294
G1 X96.566 Y114.788 E0.01141
G1 X98.197 Y113.157 E0.07234
G1 X97.921 Y112.881 E0.01224
G1 X82.309 Y128.493 E0.69228
G1 X81.776 Y127.960 E0.02365
G1 X97.388 Y112.348 E0.69228
G1 X96.855 Y111.814 E0.02365
G1 X81.242 Y127.427 E0.69228
G1 X80.954 Y127.138 E0.01281
G1 X79.322 Y128.769 E0.07234
G1 X79.078 Y128.525 E0.01084
G1 X96.322 Y111.281 E0.76462
G1 X95.788 Y110.748 E0.02365
G1 X78.545 Y127.992 E0.76462
G1 X78.011 Y127.458 E0.02365
G1 X88.773 Y116.696 E0.47720
G1 X88.395 Y116.728 E0.01190
G1 X87.675 Y116.728 E0.02257
G1 X75.847 Y128.556 E0.52449
G1 X75.313 Y128.023 E0.02365
G1 X86.608 Y116.728 E0.50084
G1 X85.542 Y116.728 E0.03344
G1 X74.780 Y127.490 E0.47719
G1 X74.247 Y126.957 E0.02365
G1 X84.475 Y116.728 E0.45355
G1 X83.409 Y116.728 E0.03344
G1 X73.714 Y126.423 E0.42990
G1 X73.180 Y125.890 E0.02365
G1 X82.342 Y116.728 E0.40626
G1 X81.276 Y116.728 E0.03344
G1 X72.647 Y125.357 E0.38261
G1 X72.114 Y124.823 E0.02365
G1 X80.209 Y116.728 E0.35896
G1 X79.143 Y116.728 E0.03344
G1 X71.580 Y124.290 E0.33532
G1 X71.047 Y123.757 E0.02365
G1 X78.076 Y116.728 E0.31167
G1 X77.009 Y116.728 E0.03344
G1 X70.514 Y123.224 E0.28803
G1 X69.981 Y122.690 E0.02365
G1 X75.943 Y116.728 E0.26438
G1 X75.505 Y116.728 E0.01372
G1 X75.197 Y116.407 E0.01394
G1 X69.447 Y122.157 E0.25496
G1 X68.914 Y121.624 E0.02365
G1 X86.158 Y104.380 E0.76462
G1 X86.691 Y104.913 E0.02365
G1 X76.130 Y115.475 E0.46832
G1 X77.196 Y115.475 E0.03344
G1 X87.224 Y105.447 E0.44467
G1 X87.758 Y105.980 E0.02365
G1 X78.263 Y115.475 E0.42102
G1 X79.329 Y115.475 E0.03344
G1 X87.860 Y106.944 E0.37827
G1 X87.860 Y108.010 E0.03344
G1 X80.396 Y115.475 E0.33098
G1 X81.462 Y115.475 E0.03344
G1 X87.860 Y109.077 E0.28369
G1 X87.806 Y110.198 E0.03518
G1 X82.529 Y115.475 E0.23399
G1 X83.608 Y115.462 E0.03383
G1 X87.538 Y111.532 E0.17429
G1 X87.349 Y112.147 E0.02019
G1 X86.968 Y112.982 E0.02877
G1 X86.641 Y113.496 E0.01911
G1 X84.795 Y115.342 E0.08186
G1 E-0.80000 F2100.00000
G1 Z0.800 F10800.000
G1 X91.257 Y114.212
G1 Z0.200
G1 E0.80000 F2100.00000
G1 F1200.000
G1 X95.255 Y110.214 E0.17727
G1 X94.722 Y109.681 E0.02365
G1 X91.864 Y112.539 E0.12671
G1 X91.912 Y111.730 E0.02539
G1 X91.912 Y111.424 E0.00959
G1 X93.720 Y109.617 E0.08016
G1 X92.653 Y109.617 E0.03344
G1 X91.743 Y110.527 E0.04039
G1 E-0.80000 F2100.00000
G1 Z0.800 F10800.000
G1 X151.832 Y110.164
G1 Z0.200
G1 E0.80000 F2100.00000
G1 F1200.000
G1 X152.380 Y109.617 E0.02427
G1 X153.446 Y109.617 E0.03344
G1 X152.486 Y110.577 E0.04259
G1 X153.019 Y111.110 E0.02365
G1 X154.513 Y109.617 E0.06624
G1 X155.579 Y109.617 E0.03344
G1 X151.921 Y113.275 E0.16222
G1 X152.454 Y113.808 E0.02365
G1 X156.646 Y109.617 E0.18587
G1 X157.712 Y109.617 E0.03344
G1 X152.987 Y114.342 E0.20952
G1 X153.434 Y114.788 E0.01980
G1 X151.803 Y116.419 E0.07234
G1 X151.889 Y116.506 E0.00385
G1 X158.088 Y110.308 E0.27485
G1 X158.088 Y111.374 E0.03344
G1 X152.423 Y117.039 E0.25120
G1 X152.956 Y117.573 E0.02365
G1 X158.127 Y112.401 E0.22931
G1 X158.139 Y112.565 E0.00515
G1 X158.274 Y113.321 E0.02409
G1 X153.489 Y118.106 E0.21217
G1 X154.022 Y118.639 E0.02365
G1 X158.523 Y114.139 E0.19956
G1 X158.863 Y114.865 E0.02515
G1 X154.556 Y119.173 E0.19100
G1 X155.089 Y119.706 E0.02365
G1 X159.293 Y115.501 E0.18643
G1 X159.512 Y115.751 E0.01042
G1 X159.822 Y116.039 E0.01326
G1 X155.622 Y120.239 E0.18622
G1 X156.156 Y120.772 E0.02365
G1 X160.470 Y116.457 E0.19133
G1 X160.920 Y116.631 E0.01510
G1 X161.288 Y116.706 E0.01179
G1 X156.689 Y121.306 E0.20395
G1 X157.222 Y121.839 E0.02365
G1 X162.333 Y116.728 E0.22662
G1 X163.399 Y116.728 E0.03344
G1 X157.755 Y122.372 E0.25027
G1 X158.289 Y122.905 E0.02365
G1 X164.466 Y116.728 E0.27391
G1 X165.532 Y116.728 E0.03344
G1 X158.822 Y123.439 E0.29756
G1 X159.355 Y123.972 E0.02365
G1 X166.599 Y116.728 E0.32121
G1 X167.666 Y116.728 E0.03344
G1 X159.888 Y124.505 E0.34485
G1 X160.422 Y125.038 E0.02365
G1 X168.732 Y116.728 E0.36850
G1 X169.799 Y116.728 E0.03344
G1 X162.586 Y123.940 E0.31981
G1 X163.120 Y124.474 E0.02365
G1 X170.865 Y116.728 E0.34345
G1 X171.932 Y116.728 E0.03344
G1 X163.653 Y125.007 E0.36710
G1 X164.152 Y125.507 E0.02215
G1 X165.784 Y123.875 E0.07234
G1 X165.817 Y123.909 E0.00149
G1 X172.998 Y116.728 E0.31841
G1 X174.065 Y116.728 E0.03344
G1 X166.231 Y124.562 E0.34738
G1 E-0.80000 F2100.00000
G1 Z0.800 F10800.000
G1 X175.359 Y127.165
G1 Z0.200
G1 E0.80000 F2100.00000
G1 F1200.000
G1 X181.304 Y121.221 E0.26358
G1 X180.771 Y120.688 E0.02365
G1 X174.946 Y126.512 E0.25826
G1 X174.413 Y125.979 E0.02365
G1 X180.237 Y120.154 E0.25826
G1 X179.765 Y119.682 E0.02094
G1 X181.396 Y118.051 E0.07234
G1 X181.335 Y117.990 E0.00270
G1 X172.248 Y127.077 E0.40294
G1 X171.715 Y126.544 E0.02365
G1 X180.802 Y117.457 E0.40294
G1 X180.269 Y116.923 E0.02365
G1 X171.182 Y126.010 E0.40294
G1 X170.678 Y125.507 E0.02234
G1 X169.046 Y127.138 E0.07234
G1 X169.017 Y127.108 E0.00130
G1 X181.367 Y114.759 E0.54761
G1 X180.834 Y114.225 E0.02365
G1 X168.484 Y126.575 E0.54761
G1 X167.951 Y126.042 E0.02365
G1 X180.300 Y113.692 E0.54761
G1 X179.767 Y113.159 E0.02365
G1 X167.417 Y125.509 E0.54761
G1 X166.884 Y124.975 E0.02365
G1 X180.865 Y110.994 E0.61995
G1 X180.332 Y110.461 E0.02365
G1 X174.804 Y115.989 E0.24511
G1 X174.805 Y115.784 E0.00642
G1 X174.496 Y115.475 E0.01370
G1 X174.252 Y115.475 E0.00768
G1 X179.799 Y109.928 E0.24597
G1 X179.265 Y109.394 E0.02365
G1 X173.185 Y115.475 E0.26961
G1 X172.118 Y115.475 E0.03344
G1 X178.732 Y108.861 E0.29326
G1 X178.199 Y108.328 E0.02365
G1 X171.052 Y115.475 E0.31690
M73 P2 R41
G1 X169.985 Y115.475 E0.03344
G1 X177.666 Y107.795 E0.34055
G1 X177.132 Y107.261 E0.02365
G1 X168.919 Y115.475 E0.36420
G1 X167.852 Y115.475 E0.03344
G1 X176.599 Y106.728 E0.38784
G1 X176.066 Y106.195 E0.02365
G1 X166.786 Y115.475 E0.41149
G1 X166.239 Y115.452 E0.01715
G1 X165.821 Y115.373 E0.01334
G1 X175.532 Y105.662 E0.43060
G1 X174.999 Y105.128 E0.02365
G1 X165.051 Y115.076 E0.44110
G1 X164.780 Y114.925 E0.00974
G1 X164.404 Y114.657 E0.01448
G1 X174.466 Y104.595 E0.44617
G1 X173.941 Y104.070 E0.02330
G1 X163.853 Y114.141 E0.44695
G1 X163.391 Y113.537 E0.02386
G1 X171.768 Y105.160 E0.37146
G1 X171.235 Y104.627 E0.02365
G1 X162.994 Y112.868 E0.36542
G1 X162.768 Y112.435 E0.01531
G1 X162.663 Y112.132 E0.01005
G1 X170.701 Y104.093 E0.35645
G1 X170.678 Y104.070 E0.00105
G1 X169.046 Y105.701 E0.07234
G1 X168.537 Y105.191 E0.02260
G1 X162.401 Y111.327 E0.27209
G1 X162.223 Y110.438 E0.02843
G1 X168.004 Y104.658 E0.25631
G1 X167.470 Y104.125 E0.02365
G1 X162.151 Y109.444 E0.23586
G1 X162.140 Y108.389 E0.03309
G1 X165.306 Y105.223 E0.14038
G1 X164.772 Y104.690 E0.02365
G1 X162.140 Y107.322 E0.11673
G1 X162.140 Y106.256 E0.03344
G1 X164.239 Y104.156 E0.09309
G1 X163.706 Y103.623 E0.02365
G1 X162.140 Y105.189 E0.06944
G1 X162.140 Y104.123 E0.03344
G1 X163.173 Y103.090 E0.04580
G1 X162.639 Y102.557 E0.02365
G1 X161.970 Y103.226 E0.02967
G1 E-0.80000 F2100.00000
G1 Z0.800 F10800.000
G1 X125.715 Y106.678
G1 Z0.200
G1 E0.80000 F2100.00000
G1 F1200.000
G1 X141.807 Y92.540 E0.67162
G1 X157.899 Y106.678 E0.67162
G1 X125.775 Y106.678 E1.00722
G1 X126.715 Y106.300 F10800.000
G1 F1200.000
G1 X141.807 Y93.042 E0.62986
G1 X156.898 Y106.300 E0.62986
G1 X126.775 Y106.300 E0.94448
G1 X126.337 Y106.172 F10800.000
G1 E-0.80000 F2100.00000
G1 Z0.800 F10800.000
G1 X159.201 Y105.391
G1 Z0.200
G1 E0.80000 F2100.00000
G1 F1200.000
G1 X142.522 Y90.737 E0.69612
G1 X159.201 Y90.737 E0.52296
G1 X159.201 Y105.331 E0.45757
G1 X158.824 Y104.558 F10800.000
G1 F1200.000
G1 X143.522 Y91.114 E0.63863
G1 X158.824 Y91.114 E0.47977
G1 X158.824 Y104.498 E0.41962
G1 X158.745 Y104.950 F10800.000
G1 E-0.80000 F2100.00000
G1 Z0.800 F10800.000
G1 X125.000 Y104.875
G1 Z0.200
G1 E0.80000 F2100.00000
G1 F1200.000
G1 X108.908 Y90.737 E0.67162
G1 X141.092 Y90.737 E1.00910
G1 X125.045 Y104.836 E0.66974
G1 X125.000 Y104.373 F10800.000
G1 F1200.000
G1 X109.909 Y91.114 E0.62986
G1 X140.091 Y91.114 E0.94636
G1 X125.045 Y104.334 E0.62798
G1 X124.922 Y104.766 F10800.000
G1 E-0.80000 F2100.00000
G1 Z0.800 F10800.000
G1 X90.799 Y105.391
G1 Z0.200
G1 E0.80000 F2100.00000
G1 F1200.000
G1 X90.799 Y90.737 E0.45945
G1 X107.478 Y90.737 E0.52296
G1 X90.844 Y105.351 E0.69424
G1 X91.176 Y104.558 F10800.000
G1 F1200.000
G1 X91.176 Y91.114 E0.42151
G1 X106.478 Y91.114 E0.47977
G1 X91.221 Y104.518 E0.63674
G1 X90.830 Y104.758 F10800.000
G1 E-0.80000 F2100.00000
G1 Z0.800 F10800.000
G1 X124.285 Y106.678
G1 Z0.200
G1 E0.80000 F2100.00000
G1 F1200.000
G1 X92.101 Y106.678 E1.00910
G1 X108.193 Y92.540 E0.67162
G1 X124.240 Y106.638 E0.66974
G1 X123.285 Y106.300 F10800.000
G1 F1200.000
G1 X93.102 Y106.300 E0.94636
G1 X108.193 Y93.042 E0.62986
G1 X123.239 Y106.261 E0.62798
G1 X123.485 Y106.647 F10800.000
G1 E-0.80000 F2100.00000
G1 Z0.800 F10800.000
G1 X161.244 Y115.565
G1 Z0.200
G1 E0.80000 F2100.00000
G1 F1200.000
G1 X160.870 Y115.415 E0.01265
G1 X160.673 Y115.291 E0.00730
G1 X160.499 Y115.156 E0.00692
G1 X160.153 Y114.793 E0.01570
G1 X159.829 Y114.308 E0.01832
G1 X159.564 Y113.742 E0.01957
G1 X159.366 Y113.105 E0.02092
G1 X159.243 Y112.419 E0.02186
G1 X159.201 Y111.690 E0.02288
G1 X159.201 Y108.503 E0.09992
G1 X90.799 Y108.503 E2.14469
G1 X90.799 Y111.690 E0.09992
G1 X90.757 Y112.419 E0.02288
G1 X90.634 Y113.105 E0.02186
G1 X90.436 Y113.742 E0.02092
G1 X90.171 Y114.308 E0.01957
G1 X89.847 Y114.793 E0.01832
G1 X89.502 Y115.155 E0.01566
G1 X89.131 Y115.414 E0.01420
G1 X88.756 Y115.565 E0.01269
G1 X88.365 Y115.615 E0.01234
G1 X86.160 Y115.615 E0.06915
G1 X86.736 Y115.141 E0.02339
G1 X87.394 Y114.386 E0.03140
G1 X87.938 Y113.530 E0.03182
G1 X88.391 Y112.545 E0.03399
G1 X88.713 Y111.500 E0.03428
G1 X88.905 Y110.427 E0.03418
G1 X88.973 Y109.304 E0.03527
G1 X88.973 Y88.912 E0.63940
G1 X161.027 Y88.912 E2.25918
G1 X161.027 Y109.306 E0.63944
G1 X161.106 Y110.529 E0.03845
G1 X161.343 Y111.714 E0.03788
G1 X161.743 Y112.876 E0.03854
G1 X162.285 Y113.915 E0.03675
G1 X162.952 Y114.811 E0.03502
G1 X163.344 Y115.215 E0.01763
G1 X163.824 Y115.615 E0.01960
G1 X161.635 Y115.615 E0.06864
G1 X161.303 Y115.577 E0.01046
G1 X161.147 Y115.930 F10800.000
G1 F1200.000
G1 X160.904 Y115.848 E0.00805
G1 X160.689 Y115.746 E0.00746
G1 X160.456 Y115.600 E0.00861
G1 X160.251 Y115.441 E0.00813
G1 X160.037 Y115.234 E0.00934
G1 X159.853 Y115.023 E0.00880
G1 X159.499 Y114.493 E0.01997
G1 X159.212 Y113.879 E0.02127
G1 X158.999 Y113.195 E0.02246
G1 X158.868 Y112.463 E0.02330
G1 X158.824 Y111.701 E0.02393
G1 X158.824 Y108.880 E0.08844
G1 X91.176 Y108.880 E2.12104
M73 P4 R40
G1 X91.176 Y111.701 E0.08844
G1 X91.132 Y112.463 E0.02393
G1 X91.001 Y113.195 E0.02330
G1 X90.788 Y113.879 E0.02246
G1 X90.501 Y114.493 E0.02127
G1 X90.147 Y115.023 E0.01997
G1 X89.963 Y115.234 E0.00880
G1 X89.749 Y115.441 E0.00932
G1 X89.522 Y115.615 E0.00897
G1 X89.312 Y115.746 E0.00777
G1 X89.096 Y115.848 E0.00748
G1 X88.853 Y115.930 E0.00805
G1 X88.633 Y115.974 E0.00702
G1 X88.379 Y115.992 E0.00800
G1 X84.678 Y115.992 E0.11603
G1 X85.015 Y115.865 E0.01130
G1 X85.408 Y115.670 E0.01376
G1 X85.779 Y115.440 E0.01366
G1 X86.472 Y114.870 E0.02815
G1 X87.091 Y114.160 E0.02953
G1 X87.606 Y113.349 E0.03012
G1 X88.038 Y112.410 E0.03241
G1 X88.346 Y111.411 E0.03278
G1 X88.530 Y110.382 E0.03276
G1 X88.596 Y109.293 E0.03422
G1 X88.596 Y88.534 E0.65087
G1 X161.404 Y88.534 E2.28283
G1 X161.404 Y109.293 E0.65088
G1 X161.481 Y110.480 E0.03728
G1 X161.708 Y111.615 E0.03630
G1 X162.090 Y112.727 E0.03686
G1 X162.605 Y113.714 E0.03492
G1 X163.240 Y114.566 E0.03331
G1 X163.602 Y114.940 E0.01631
G1 X163.985 Y115.268 E0.01581
G1 X164.389 Y115.550 E0.01546
G1 X164.812 Y115.785 E0.01515
G1 X165.323 Y115.992 E0.01729
G1 X161.621 Y115.992 E0.11605
G1 X161.206 Y115.942 E0.01312
G1 X161.071 Y115.685 F10800.000
G1 X161.484 Y115.482
G1 F1200.000
G1 X159.993 Y113.990 E0.06628
G1 X159.829 Y113.640 E0.01216
G1 X159.672 Y113.135 E0.01662
G1 X161.869 Y115.332 E0.09766
G1 X162.403 Y115.332 E0.01680
G1 X159.540 Y112.468 E0.12729
G1 X159.496 Y111.890 E0.01823
G1 X162.938 Y115.332 E0.15299
G1 X163.063 Y115.332 E0.00394
G1 X162.736 Y114.995 E0.01476
G1 X162.044 Y114.066 E0.03640
G1 X161.868 Y113.727 E0.01201
G1 X159.484 Y111.343 E0.10596
G1 X159.484 Y110.809 E0.01680
G1 X161.387 Y112.713 E0.08461
G1 X161.107 Y111.898 E0.02709
G1 X159.484 Y110.274 E0.07215
G1 X159.484 Y109.740 E0.01680
G1 X160.954 Y111.210 E0.06534
G1 X160.824 Y110.546 E0.02127
G1 X159.484 Y109.205 E0.05958
G1 X159.484 Y108.671 E0.01680
G1 X160.969 Y110.156 E0.06601
G1 E-0.80000 F2100.00000
G1 Z0.800 F10800.000
G1 X164.002 Y115.678
G1 Z0.200
G1 E0.80000 F2100.00000
G1 F1200.000
G1 X164.383 Y115.788 E0.00339
G1 E-0.80000 F2100.00000
G1 Z0.800 F10800.000
G1 X141.132 Y90.853
G1 Z0.200
G1 E0.80000 F2100.00000
G1 F1200.000
G1 X147.034 Y96.756 E0.26235
G1 X142.632 Y92.889 E0.18415
G1 X140.967 Y91.223 E0.07401
G1 X140.683 Y91.473 E0.01190
G1 X141.576 Y92.366 E0.03969
G1 X141.291 Y92.616 E0.01190
G1 X140.398 Y91.723 E0.03969
G1 X140.114 Y91.973 E0.01190
G1 X141.007 Y92.866 E0.03969
G1 X140.722 Y93.116 E0.01190
G1 X139.829 Y92.223 E0.03969
G1 X139.545 Y92.473 E0.01190
G1 X140.438 Y93.366 E0.03969
G1 X140.153 Y93.616 E0.01190
G1 X139.260 Y92.723 E0.03969
G1 X138.975 Y92.973 E0.01190
G1 X139.868 Y93.866 E0.03969
G1 X139.584 Y94.116 E0.01190
G1 X138.691 Y93.223 E0.03969
G1 X138.406 Y93.473 E0.01190
G1 X139.299 Y94.366 E0.03969
G1 X139.015 Y94.616 E0.01190
G1 X138.122 Y93.723 E0.03969
G1 X137.837 Y93.973 E0.01190
G1 X138.730 Y94.866 E0.03969
G1 X138.446 Y95.116 E0.01190
G1 X137.553 Y94.223 E0.03969
G1 X137.268 Y94.473 E0.01190
G1 X138.161 Y95.366 E0.03969
G1 X137.877 Y95.616 E0.01190
