; generated by PrusaSlicer 2.2.0+win64 on 2021-01-18 at 23:18:47 UTC

; 

; external perimeters extrusion width = 0.45mm
; perimeters extrusion width = 0.45mm
; infill extrusion width = 0.45mm
; solid infill extrusion width = 0.45mm
; top infill extrusion width = 0.40mm
; support material extrusion width = 0.35mm
; first layer extrusion width = 0.42mm

M73 P0 R8
M201 X9000 Y9000 Z500 E10000 ; sets maximum accelerations, mm/sec^2
M203 X500 Y500 Z12 E120 ; sets maximum feedrates, mm/sec
M204 P2000 R1500 T2000 ; sets acceleration (P, T) and retract acceleration (R), mm/sec^2
M205 X10.00 Y10.00 Z0.20 E2.50 ; sets the jerk limits, mm/sec
M205 S0 T0 ; sets the minimum extruding and travel feed rate, mm/sec
M107
M862.3 P "MK2S" ; printer model check
M862.1 P0.4 ; nozzle diameter check
M115 U3.2.3 ; tell printer latest fw version
G90 ; use absolute coordinates
M83 ; extruder relative mode
M204 S2000 T1500 ; MK2 firmware only supports the old M204 format
M104 S215 ; set extruder temp
M140 S60 ; set bed temp
M190 S60 ; wait for bed temp
M109 S215 ; wait for extruder temp
G28 W ; home all without mesh bed level
G80 ; mesh bed leveling
G1 Y-3.0 F1000.0 ; go outside print area
G92 E0.0
G1 X60.0 E9.0  F1000.0 ; intro line
M73 P0 R8
G1 X100.0 E12.5 F1000.0 ; intro line
G92 E0.0
G21 ; set units to millimeters
G90 ; use absolute coordinates
M83 ; use relative distances for extrusion
M900 K0.05 ; Filament gcode LA 1.5
M900 K30 ; Filament gcode LA 1.0
;BEFORE_LAYER_CHANGE
G92 E0.0
;0.2


G1 E-0.80000 F2100.00000
G1 Z0.600 F10800.000
;AFTER_LAYER_CHANGE
;0.2
G1 X135.612 Y86.735
G1 Z0.200
G1 E0.80000 F2100.00000
M204 S1000
G1 F1200.000
G1 X135.712 Y86.886 E0.00567
G1 X136.455 Y87.194 E0.02522
G1 X137.013 Y87.493 E0.01984
G1 X137.315 Y87.622 E0.01030
G1 X137.504 Y87.673 E0.00612
G1 X137.814 Y87.845 E0.01113
G1 X138.672 Y88.233 E0.02952
G1 X139.523 Y88.517 E0.02813
G1 X139.851 Y88.576 E0.01044
G1 X139.888 Y89.083 E0.01593
G1 X139.946 Y89.394 E0.00991
G1 X140.187 Y90.024 E0.02117
G1 X140.309 Y90.252 E0.00810
G1 X140.663 Y90.780 E0.01993
G1 X141.301 Y91.589 E0.03232
G1 X142.377 Y92.777 E0.05026
G1 X142.590 Y93.113 E0.01246
G1 X143.057 Y93.655 E0.02245
G1 X144.005 Y94.692 E0.04405
G1 X144.281 Y95.019 E0.01340
G1 X144.472 Y95.311 E0.01096
G1 X144.617 Y95.399 E0.00531
G1 X144.726 Y95.498 E0.00463
G1 X145.762 Y96.560 E0.04652
G1 X146.115 Y96.958 E0.01668
G1 X146.699 Y97.979 E0.03687
G1 X146.894 Y97.809 E0.00811
G1 X147.351 Y98.327 E0.02163
G1 X147.708 Y98.680 E0.01576
G1 X148.971 Y99.757 E0.05204
G1 X149.117 Y99.860 E0.00559
G1 X148.963 Y100.285 E0.01419
G1 X148.369 Y101.659 E0.04691
G1 X148.278 Y101.967 E0.01006
G1 X148.244 Y102.963 E0.03127
G1 X148.126 Y103.916 E0.03010
G1 X147.804 Y104.738 E0.02767
G1 X147.502 Y105.679 E0.03101
G1 X147.351 Y106.717 E0.03289
G1 X147.231 Y107.328 E0.01952
G1 X147.306 Y107.668 E0.01090
G1 X147.420 Y107.786 E0.00517
G1 X147.126 Y108.346 E0.01983
G1 X146.979 Y108.804 E0.01508
G1 X146.727 Y109.346 E0.01874
G1 X146.558 Y109.574 E0.00889
G1 X146.389 Y109.715 E0.00689
G1 X146.206 Y109.826 E0.00673
G1 X145.625 Y110.064 E0.01968
G1 X145.093 Y110.320 E0.01852
G1 X144.733 Y110.470 E0.01223
G1 X144.091 Y110.642 E0.02084
G1 X143.725 Y110.677 E0.01151
G1 X142.725 Y110.875 E0.03197
G1 X142.384 Y111.065 E0.01224
G1 X142.094 Y111.346 E0.01266
G1 X141.964 Y111.585 E0.00853
G1 X141.890 Y111.650 E0.00309
G1 X141.826 Y112.027 E0.01197
G1 X141.852 Y112.367 E0.01072
G1 X142.002 Y112.746 E0.01278
G1 X142.085 Y113.206 E0.01464
G1 X142.463 Y113.439 E0.01392
G1 X142.760 Y113.554 E0.00999
G1 X142.912 Y113.585 E0.00488
G1 X142.937 Y113.612 E0.00114
G1 X143.278 Y113.737 E0.01139
G1 X144.121 Y113.957 E0.02732
G1 X144.959 Y114.219 E0.02751
G1 X144.176 Y114.236 E0.02454
G1 X143.504 Y114.284 E0.02112
G1 X143.348 Y114.076 E0.00814
G1 X142.958 Y114.271 E0.01366
G1 X142.087 Y114.079 E0.02796
G1 X142.390 Y115.247 E0.03783
G1 X142.556 Y115.605 E0.01239
G1 X142.912 Y116.161 E0.02067
G1 X143.265 Y116.536 E0.01618
G1 X143.484 Y116.632 E0.00749
G1 X144.048 Y117.025 E0.02155
G1 X144.372 Y117.303 E0.01340
G1 X144.555 Y117.502 E0.00846
G1 X144.898 Y117.960 E0.01794
G1 X145.128 Y118.398 E0.01551
G1 X145.340 Y119.047 E0.02143
G1 X145.529 Y119.811 E0.02467
G1 X145.691 Y120.303 E0.01623
G1 X145.854 Y120.653 E0.01211
G1 X146.154 Y121.043 E0.01543
G1 X146.314 Y121.321 E0.01005
G1 X146.390 Y121.508 E0.00635
G1 X146.102 Y122.004 E0.01796
G1 X145.863 Y122.694 E0.02292
G1 X146.565 Y123.009 E0.02413
G1 X147.186 Y123.216 E0.02052
G1 X148.334 Y123.527 E0.03729
G1 X148.405 Y123.722 E0.00650
G1 X148.595 Y124.031 E0.01136
G1 X148.815 Y124.242 E0.00958
G1 X148.959 Y124.345 E0.00554
G1 X149.246 Y124.718 E0.01477
G1 X149.656 Y124.881 E0.01382
G1 X149.742 Y125.060 E0.00624
G1 X149.915 Y125.287 E0.00894
G1 X150.257 Y125.505 E0.01273
G1 X150.475 Y125.600 E0.00744
G1 X150.729 Y126.028 E0.01560
G1 X151.010 Y126.354 E0.01350
G1 X151.141 Y126.429 E0.00473
G1 X151.425 Y126.894 E0.01707
G1 X151.196 Y127.014 E0.00809
G1 X150.229 Y127.383 E0.03247
G1 X149.314 Y127.822 E0.03179
G1 X148.993 Y127.956 E0.01091
G1 X148.770 Y127.992 E0.00711
G1 X148.506 Y128.071 E0.00863
G1 X147.731 Y128.423 E0.02667
G1 X147.470 Y128.426 E0.00820
G1 X146.400 Y128.369 E0.03358
G1 X145.886 Y128.321 E0.01621
G1 X145.586 Y128.243 E0.00971
G1 X145.111 Y128.043 E0.01615
G1 X144.988 Y128.012 E0.00398
G1 X143.865 Y127.472 E0.03908
G1 X142.967 Y128.048 E0.03346
G1 X142.682 Y128.154 E0.00953
G1 X142.279 Y128.197 E0.01271
G1 X140.765 Y128.193 E0.04745
G1 X140.166 Y128.174 E0.01879
G1 X139.960 Y127.718 E0.01569
G1 X139.010 Y128.088 E0.03196
G1 X138.662 Y128.300 E0.01276
G1 X138.350 Y128.555 E0.01265
G1 X137.966 Y128.462 E0.01239
G1 X137.546 Y128.410 E0.01326
G1 X136.422 Y128.389 E0.03524
G1 X135.832 Y128.449 E0.01858
G1 X135.640 Y128.329 E0.00711
G1 X135.248 Y128.135 E0.01372
G1 X135.051 Y127.647 E0.01649
G1 X134.965 Y127.241 E0.01302
G1 X134.712 Y126.818 E0.01545
G1 X134.322 Y126.446 E0.01691
G1 X133.841 Y126.602 E0.01585
G1 X133.383 Y126.889 E0.01694
G1 X133.023 Y127.028 E0.01212
G1 X130.614 Y127.643 E0.07796
G1 X130.113 Y127.735 E0.01597
G1 X129.505 Y127.775 E0.01909
G1 X128.993 Y127.726 E0.01613
G1 X128.301 Y127.540 E0.02246
G1 X126.846 Y127.059 E0.04804
G1 X126.932 Y126.478 E0.01843
G1 X127.253 Y125.429 E0.03441
G1 X127.639 Y124.424 E0.03373
G1 X128.001 Y123.756 E0.02383
G1 X128.440 Y123.134 E0.02388
G1 X128.520 Y123.050 E0.00363
G1 X128.750 Y123.021 E0.00728
G1 X129.000 Y122.819 E0.01007
G1 X129.281 Y122.670 E0.00999
G1 X129.422 Y122.650 E0.00447
G1 X129.876 Y122.530 E0.01472
G1 X130.382 Y122.335 E0.01701
G1 X130.759 Y122.277 E0.01194
G1 X131.121 Y122.278 E0.01137
G1 X131.291 Y122.304 E0.00539
G1 X131.679 Y122.411 E0.01260
G1 X131.996 Y122.432 E0.00996
G1 X132.227 Y122.421 E0.00727
G1 X132.557 Y122.301 E0.01101
G1 X132.788 Y121.973 E0.01257
G1 X132.960 Y121.578 E0.01351
G1 X133.078 Y121.080 E0.01606
G1 X133.011 Y120.653 E0.01354
G1 X132.794 Y120.339 E0.01199
G1 X133.065 Y119.855 E0.01738
G1 X133.341 Y119.477 E0.01469
G1 X133.637 Y119.372 E0.00985
G1 X133.864 Y119.092 E0.01130
G1 X134.533 Y118.572 E0.02656
G1 X135.152 Y118.008 E0.02628
G1 X135.462 Y117.695 E0.01382
G1 X135.659 Y117.450 E0.00984
G1 X135.789 Y117.219 E0.00832
G1 X135.902 Y116.793 E0.01382
G1 X136.107 Y114.346 E0.07699
G1 X136.076 Y114.369 E0.00122
G1 X136.077 Y114.004 E0.01144
G1 X135.985 Y112.471 E0.04815
G1 X136.026 Y112.020 E0.01422
G1 X136.057 Y111.893 E0.00408
G1 X136.222 Y111.586 E0.01093
G1 X136.380 Y110.991 E0.01931
G1 X136.431 Y110.747 E0.00781
G1 X136.482 Y110.312 E0.01374
G1 X136.668 Y109.582 E0.02361
G1 X136.965 Y108.983 E0.02095
G1 X137.288 Y108.441 E0.01978
G1 X137.405 Y108.174 E0.00916
G1 X137.714 Y107.788 E0.01549
G1 X137.811 Y107.802 E0.00307
G1 X138.528 Y107.528 E0.02407
G1 X139.346 Y107.250 E0.02710
G1 X139.792 Y107.062 E0.01518
G1 X140.791 Y106.931 E0.03159
G1 X141.070 Y106.833 E0.00926
G1 X141.967 Y106.349 E0.03197
G1 X142.487 Y106.037 E0.01902
G1 X142.808 Y105.801 E0.01249
G1 X143.011 Y105.551 E0.01008
G1 X143.172 Y105.054 E0.01641
G1 X142.991 Y104.772 E0.01049
G1 X142.712 Y104.129 E0.02198
G1 X143.611 Y105.131 E0.04220
G1 X144.262 Y104.053 E0.03947
G1 X144.348 Y103.858 E0.00670
G1 X144.668 Y103.327 E0.01943
G1 X145.251 Y102.187 E0.04015
G1 X145.422 Y101.748 E0.01476
G1 X145.467 Y101.697 E0.00216
G1 X145.859 Y100.789 E0.03101
G1 X146.079 Y99.998 E0.02574
G1 X146.110 Y99.770 E0.00720
G1 X146.081 Y99.484 E0.00901
G1 X145.877 Y99.050 E0.01502
G1 X145.591 Y98.626 E0.01604
G1 X144.541 Y97.470 E0.04898
G1 X143.875 Y96.498 E0.03694
G1 X143.569 Y96.102 E0.01567
G1 X143.526 Y96.039 E0.00242
G1 X143.468 Y95.884 E0.00518
G1 X143.118 Y95.411 E0.01844
G1 X142.833 Y94.939 E0.01730
G1 X142.585 Y94.608 E0.01297
G1 X142.202 Y93.969 E0.02336
G1 X142.141 Y93.686 E0.00906
G1 X141.835 Y93.276 E0.01606
G1 X141.502 Y93.271 E0.01044
G1 X141.445 Y92.990 E0.00897
G1 X141.296 Y92.753 E0.00880
G1 X140.477 Y91.865 E0.03789
G1 X140.373 Y91.717 E0.00566
G1 X140.001 Y90.812 E0.03068
G1 X139.833 Y90.255 E0.01824
G1 X139.673 Y90.012 E0.00912
G1 X139.248 Y89.509 E0.02066
G1 X139.159 Y89.371 E0.00516
G1 X138.967 Y88.920 E0.01535
G1 X138.703 Y88.592 E0.01320
G1 X138.423 Y88.374 E0.01112
G1 X136.365 Y87.231 E0.07381
G1 X135.467 Y86.799 E0.03123
G1 X135.557 Y86.760 E0.00308
G1 X132.964 Y86.687 F10800.000
G1 F1200.000
G1 X133.535 Y85.957 E0.02905
G1 X133.939 Y86.247 E0.01560
G1 X134.178 Y86.357 E0.00824
G1 X133.707 Y86.385 E0.01477
G1 X133.419 Y86.456 E0.00931
G1 X133.159 Y86.566 E0.00886
G1 X133.015 Y86.655 E0.00531
G1 E-0.80000 F2100.00000
G1 Z0.800 F10800.000
G1 X138.400 Y128.955
G1 Z0.200
G1 E0.80000 F2100.00000
G1 F1200.000
G1 X137.898 Y128.834 E0.01619
G1 X137.519 Y128.787 E0.01198
G1 X136.438 Y128.766 E0.03390
G1 X135.764 Y128.836 E0.02124
G1 X135.715 Y128.821 E0.00161
G1 X135.456 Y128.659 E0.00956
G1 X135.073 Y128.470 E0.01339
G1 X134.935 Y128.367 E0.00541
G1 X134.690 Y127.758 E0.02060
G1 X134.609 Y127.381 E0.01207
G1 X134.414 Y127.056 E0.01189
G1 X134.224 Y126.874 E0.00825
G1 X134.002 Y126.946 E0.00732
G1 X133.553 Y127.228 E0.01661
G1 X133.138 Y127.388 E0.01396
G1 X130.694 Y128.012 E0.07906
G1 X130.159 Y128.110 E0.01706
G1 X129.499 Y128.154 E0.02074
G1 X128.925 Y128.099 E0.01808
G1 X128.193 Y127.902 E0.02377
G1 X126.736 Y127.424 E0.04808
G1 X126.468 Y127.295 E0.00932
G1 X126.469 Y127.014 E0.00882
G1 X126.563 Y126.394 E0.01967
G1 X126.896 Y125.306 E0.03569
G1 X127.296 Y124.266 E0.03491
G1 X127.680 Y123.557 E0.02529
G1 X128.147 Y122.894 E0.02542
G1 X128.328 Y122.704 E0.00823
G1 X128.597 Y122.660 E0.00855
G1 X128.787 Y122.506 E0.00768
G1 X129.050 Y122.358 E0.00947
G1 X129.180 Y122.303 E0.00442
G1 X129.348 Y122.280 E0.00531
G1 X129.755 Y122.172 E0.01320
G1 X130.297 Y121.966 E0.01818
G1 X130.730 Y121.900 E0.01375
G1 X131.151 Y121.901 E0.01318
G1 X131.370 Y121.935 E0.00697
G1 X131.742 Y122.037 E0.01208
G1 X132.152 Y122.047 E0.01286
G1 X132.317 Y121.987 E0.00550
G1 X132.457 Y121.788 E0.00765
G1 X132.601 Y121.458 E0.01127
G1 X132.694 Y121.065 E0.01267
G1 X132.652 Y120.797 E0.00851
G1 X132.421 Y120.462 E0.01277
G1 X132.402 Y120.322 E0.00442
G1 X132.469 Y120.119 E0.00671
G1 X132.750 Y119.648 E0.01720
G1 X133.088 Y119.183 E0.01800
G1 X133.130 Y119.151 E0.00167
G1 X133.411 Y119.052 E0.00933
G1 X133.598 Y118.821 E0.00933
G1 X134.290 Y118.284 E0.02746
G1 X134.891 Y117.735 E0.02552
G1 X135.181 Y117.443 E0.01290
G1 X135.346 Y117.238 E0.00825
G1 X135.437 Y117.076 E0.00583
G1 X135.529 Y116.728 E0.01127
G1 X135.662 Y115.143 E0.04989
G1 X135.112 Y115.548 E0.02142
G1 X134.971 Y115.604 E0.00478
G1 X133.662 Y116.309 E0.04659
G1 X135.552 Y114.795 E0.07592
G1 X135.647 Y114.673 E0.00486
G1 X135.699 Y114.405 E0.00854
G1 X135.700 Y114.015 E0.01223
G1 X135.607 Y112.465 E0.04868
G1 X135.653 Y111.957 E0.01601
G1 X135.702 Y111.757 E0.00644
G1 X135.868 Y111.446 E0.01105
G1 X136.013 Y110.903 E0.01763
G1 X136.059 Y110.686 E0.00695
G1 X136.110 Y110.246 E0.01389
G1 X136.267 Y109.583 E0.02136
G1 X136.320 Y109.434 E0.00497
G1 X136.634 Y108.803 E0.02209
G1 X136.948 Y108.275 E0.01926
G1 X137.031 Y108.063 E0.00715
G1 X137.352 Y107.637 E0.01673
G1 X137.355 Y107.355 E0.00882
G1 X137.318 Y107.154 E0.00642
G1 X137.574 Y107.386 E0.01083
G1 X137.768 Y107.415 E0.00615
G1 X138.399 Y107.174 E0.02118
G1 X139.211 Y106.897 E0.02690
G1 X139.695 Y106.693 E0.01645
G1 X140.696 Y106.564 E0.03166
G1 X140.917 Y106.487 E0.00733
G1 X141.780 Y106.021 E0.03076
G1 X142.278 Y105.723 E0.01820
G1 X142.546 Y105.526 E0.01041
G1 X142.674 Y105.368 E0.00637
G1 X142.758 Y105.108 E0.00859
G1 X142.656 Y104.949 E0.00591
G1 X142.438 Y104.432 E0.01760
G1 X141.750 Y102.969 E0.05071
G1 X141.401 Y102.138 E0.02825
G1 X141.974 Y102.742 E0.02609
G1 X143.552 Y104.500 E0.07407
G1 X143.926 Y103.880 E0.02273
G1 X144.012 Y103.684 E0.00670
G1 X144.338 Y103.144 E0.01978
G1 X144.908 Y102.028 E0.03927
G1 X145.049 Y101.689 E0.01152
G1 X145.072 Y101.575 E0.00365
G1 X145.145 Y101.493 E0.00345
G1 X145.503 Y100.663 E0.02834
G1 X145.709 Y99.921 E0.02413
G1 X145.730 Y99.764 E0.00499
G1 X145.712 Y99.586 E0.00559
G1 X145.548 Y99.237 E0.01210
G1 X145.294 Y98.859 E0.01428
G1 X144.245 Y97.704 E0.04893
G1 X143.570 Y96.720 E0.03741
G1 X143.265 Y96.325 E0.01565
G1 X143.189 Y96.214 E0.00421
G1 X143.133 Y96.065 E0.00498
G1 X142.805 Y95.621 E0.01732
G1 X142.520 Y95.150 E0.01727
G1 X142.272 Y94.818 E0.01299
G1 X141.854 Y94.146 E0.02482
G1 X141.790 Y93.846 E0.00961
G1 X141.643 Y93.650 E0.00766
G1 X141.397 Y93.646 E0.00772
G1 X141.213 Y93.748 E0.00660
G1 X139.895 Y94.859 E0.05405
G1 X140.223 Y94.426 E0.01705
G1 X140.742 Y93.822 E0.02496
G1 X140.983 Y93.492 E0.01280
G1 X141.142 Y93.395 E0.00583
G1 X141.089 Y93.132 E0.00841
G1 X140.996 Y92.983 E0.00553
G1 X140.183 Y92.102 E0.03757
G1 X140.040 Y91.900 E0.00777
G1 X139.645 Y90.938 E0.03258
G1 X139.488 Y90.417 E0.01708
G1 X139.371 Y90.239 E0.00669
G1 X138.945 Y89.734 E0.02071
G1 X138.824 Y89.549 E0.00693
G1 X138.640 Y89.116 E0.01474
G1 X138.436 Y88.863 E0.01019
G1 X138.214 Y88.689 E0.00883
G1 X136.193 Y87.567 E0.07250
G1 X135.432 Y87.208 E0.02637
G1 X134.727 Y86.832 E0.02507
G1 X134.452 Y86.747 E0.00901
G1 X134.114 Y86.732 E0.01060
G1 X133.767 Y86.759 E0.01092
G1 X133.538 Y86.815 E0.00739
G1 X133.333 Y86.902 E0.00699
G1 X133.114 Y87.037 E0.00807
G1 X132.217 Y87.841 E0.03775
G1 X132.119 Y87.858 E0.00313
G1 X131.819 Y87.801 E0.00957
G1 X131.955 Y87.603 E0.00755
G1 X132.294 Y86.981 E0.02220
G1 X132.516 Y86.646 E0.01260
G1 X133.415 Y85.481 E0.04614
G1 X133.533 Y85.508 E0.00379
G1 X133.617 Y85.552 E0.00298
G1 X134.130 Y85.920 E0.01980
G1 X135.136 Y86.387 E0.03479
G1 X135.363 Y86.433 E0.00726
G1 X135.553 Y86.349 E0.00652
G1 X135.666 Y86.206 E0.00571
G1 X135.874 Y85.768 E0.01519
G1 X135.838 Y86.277 E0.01599
G1 X135.858 Y86.425 E0.00470
G1 X135.962 Y86.581 E0.00588
G1 X136.617 Y86.853 E0.02222
G1 X137.177 Y87.153 E0.01991
G1 X137.439 Y87.265 E0.00895
G1 X137.646 Y87.321 E0.00673
G1 X137.983 Y87.508 E0.01207
G1 X138.810 Y87.881 E0.02843
G1 X139.617 Y88.151 E0.02668
G1 X140.049 Y88.229 E0.01377
G1 X140.151 Y88.289 E0.00373
G1 X140.221 Y88.469 E0.00605
G1 X140.263 Y89.034 E0.01777
G1 X140.310 Y89.291 E0.00818
G1 X140.531 Y89.868 E0.01936
G1 X140.632 Y90.058 E0.00676
G1 X140.968 Y90.558 E0.01887
G1 X141.589 Y91.345 E0.03146
G1 X142.159 Y91.974 E0.02660
G1 X142.293 Y91.030 E0.02990
G1 X142.373 Y90.783 E0.00814
G1 X142.467 Y90.281 E0.01602
G1 X142.562 Y89.992 E0.00954
G1 X142.696 Y89.264 E0.02321
G1 X142.755 Y89.084 E0.00595
G1 X142.884 Y88.433 E0.02082
G1 X142.854 Y89.395 E0.03020
G1 X142.714 Y91.317 E0.06041
G1 X142.696 Y92.308 E0.03107
G1 X142.734 Y92.637 E0.01039
G1 X142.893 Y92.887 E0.00930
G1 X143.340 Y93.405 E0.02142
G1 X144.289 Y94.443 E0.04412
G1 X144.584 Y94.793 E0.01435
G1 X144.741 Y95.033 E0.00897
G1 X144.844 Y95.095 E0.00380
G1 X144.989 Y95.228 E0.00614
G1 X146.038 Y96.303 E0.04712
G1 X146.423 Y96.737 E0.01819
G1 X146.798 Y97.393 E0.02368
G1 X147.283 Y96.971 E0.02016
G1 X147.419 Y96.908 E0.00470
G1 X147.552 Y96.751 E0.00644
G1 X147.812 Y96.568 E0.00998
G1 X148.796 Y95.767 E0.03978
G1 X149.307 Y95.383 E0.02004
G1 X147.227 Y97.617 E0.09570
G1 X147.625 Y98.067 E0.01886
G1 X147.963 Y98.402 E0.01492
