; generated by PrusaSlicer 2.2.0+win64 on 2020-12-14 at 18:24:46 UTC

; 

; external perimeters extrusion width = 0.45mm
; perimeters extrusion width = 0.45mm
; infill extrusion width = 0.45mm
; solid infill extrusion width = 0.45mm
; top infill extrusion width = 0.40mm
; support material extrusion width = 0.35mm
; first layer extrusion width = 0.42mm

; external perimeters extrusion width = 0.45mm
; perimeters extrusion width = 0.45mm
; infill extrusion width = 0.45mm
; solid infill extrusion width = 0.45mm
; top infill extrusion width = 0.40mm
; support material extrusion width = 0.35mm
; first layer extrusion width = 0.42mm

M73 P0 R60
M201 X9000 Y9000 Z500 E10000 ; sets maximum accelerations, mm/sec^2
M203 X500 Y500 Z12 E120 ; sets maximum feedrates, mm/sec
M204 P2000 R1500 T2000 ; sets acceleration (P, T) and retract acceleration (R), mm/sec^2
M205 X10.00 Y10.00 Z0.20 E2.50 ; sets the jerk limits, mm/sec
M205 S0 T0 ; sets the minimum extruding and travel feed rate, mm/sec
M107
M862.3 P "MK2S" ; printer model check
M862.1 P0.4 ; nozzle diameter check
M115 U3.2.3 ; tell printer latest fw version
G90 ; use absolute coordinates
M83 ; extruder relative mode
M204 S2000 T1500 ; MK2 firmware only supports the old M204 format
M104 S215 ; set extruder temp
M140 S60 ; set bed temp
M190 S60 ; wait for bed temp
M109 S215 ; wait for extruder temp
G28 W ; home all without mesh bed level
G80 ; mesh bed leveling
G1 Y-3.0 F1000.0 ; go outside print area
G92 E0.0
G1 X60.0 E9.0  F1000.0 ; intro line
M73 P0 R60
G1 X100.0 E12.5 F1000.0 ; intro line
G92 E0.0
G21 ; set units to millimeters
G90 ; use absolute coordinates
M83 ; use relative distances for extrusion
M900 K0.05 ; Filament gcode LA 1.5
M900 K30 ; Filament gcode LA 1.0
;BEFORE_LAYER_CHANGE
G92 E0.0
;0.2


G1 E-0.80000 F2100.00000
G1 Z0.600 F10800.000
;AFTER_LAYER_CHANGE
;0.2
G1 X117.636 Y104.529
G1 Z0.200
G1 E0.80000 F2100.00000
M204 S1000
G1 F1200.000
G1 X118.241 Y103.923 E0.02685
G1 X119.308 Y103.923 E0.03344
G1 X118.289 Y104.942 E0.04518
G1 X118.822 Y105.475 E0.02365
G1 X120.374 Y103.923 E0.06882
G1 X121.441 Y103.923 E0.03344
G1 X119.355 Y106.009 E0.09247
G1 X119.889 Y106.542 E0.02365
G1 X122.507 Y103.923 E0.11612
G1 X122.911 Y103.923 E0.01265
G1 X123.002 Y104.495 E0.01816
G1 X120.422 Y107.075 E0.11441
G1 X120.955 Y107.608 E0.02365
G1 X123.115 Y105.448 E0.09579
G1 X123.168 Y106.463 E0.03184
G1 X119.857 Y109.773 E0.14679
G1 X120.390 Y110.306 E0.02365
G1 X123.774 Y106.923 E0.15002
G1 X124.840 Y106.923 E0.03344
G1 X120.924 Y110.840 E0.17366
G1 X121.457 Y111.373 E0.02365
G1 X125.907 Y106.923 E0.19731
G1 X126.973 Y106.923 E0.03344
G1 X121.990 Y111.906 E0.22096
G1 X122.523 Y112.439 E0.02365
G1 X128.040 Y106.923 E0.24460
G1 X129.106 Y106.923 E0.03344
G1 X123.057 Y112.973 E0.26825
G1 X123.590 Y113.506 E0.02365
G1 X130.173 Y106.923 E0.29189
G1 X131.239 Y106.923 E0.03344
G1 X124.123 Y114.039 E0.31554
G1 X124.657 Y114.573 E0.02365
G1 X132.306 Y106.923 E0.33919
G1 X133.372 Y106.923 E0.03344
G1 X125.190 Y115.106 E0.36283
G1 X125.723 Y115.639 E0.02365
G1 X137.439 Y103.923 E0.51950
G1 X138.505 Y103.923 E0.03344
G1 X126.256 Y116.172 E0.54314
G1 X126.790 Y116.706 E0.02365
G1 X139.572 Y103.923 E0.56679
G1 X139.814 Y103.923 E0.00759
G1 X135.998 Y107.740 E0.16922
G1 X136.410 Y108.152 E0.01828
G1 X128.954 Y115.608 E0.33060
G1 X129.488 Y116.141 E0.02365
G1 X136.943 Y108.685 E0.33060
G1 X137.477 Y109.218 E0.02365
G1 X129.901 Y116.794 E0.33592
G1 X133.741 Y106.555 F10800.000
G1 F1200.000
G1 X136.372 Y103.923 E0.11670
G1 X135.306 Y103.923 E0.03344
G1 X133.980 Y105.250 E0.05881
G1 X133.988 Y105.083 E0.00524
G1 X134.161 Y104.002 E0.03433
G1 X134.409 Y103.754 E0.01100
G1 E-0.80000 F2100.00000
G1 Z0.800 F10800.000
G1 X128.542 Y97.276
G1 Z0.200
G1 E0.80000 F2100.00000
G1 F1200.000
G1 X127.424 Y97.188 E0.03516
G1 X126.334 Y96.926 E0.03516
G1 X125.298 Y96.497 E0.03516
G1 X124.349 Y95.915 E0.03491
G1 X123.490 Y95.184 E0.03537
G1 X122.761 Y94.331 E0.03518
G1 X122.176 Y93.375 E0.03516
G1 X121.746 Y92.339 E0.03516
G1 X121.485 Y91.248 E0.03516
G1 X121.397 Y90.131 E0.03516
G1 X121.485 Y89.013 E0.03516
G1 X121.746 Y87.923 E0.03516
G1 X122.176 Y86.887 E0.03516
G1 X122.757 Y85.937 E0.03491
G1 X123.489 Y85.079 E0.03537
G1 X124.342 Y84.350 E0.03518
G1 X125.298 Y83.764 E0.03516
G1 X126.334 Y83.335 E0.03516
G1 X127.424 Y83.073 E0.03516
G1 X128.534 Y82.986 E0.03491
G1 X129.659 Y83.073 E0.03537
G1 X130.750 Y83.335 E0.03518
G1 X131.786 Y83.764 E0.03516
G1 X132.742 Y84.350 E0.03516
G1 X133.595 Y85.078 E0.03516
G1 X134.323 Y85.931 E0.03516
G1 X134.909 Y86.887 E0.03516
G1 X135.335 Y87.915 E0.03491
G1 X135.599 Y89.012 E0.03537
G1 X135.688 Y90.131 E0.03518
G1 X135.600 Y91.248 E0.03516
G1 X135.338 Y92.339 E0.03516
G1 X134.909 Y93.375 E0.03516
G1 X134.323 Y94.331 E0.03516
G1 X133.595 Y95.183 E0.03516
G1 X132.742 Y95.911 E0.03516
G1 X131.786 Y96.497 E0.03516
G1 X130.757 Y96.923 E0.03491
G1 X129.661 Y97.188 E0.03537
G1 X128.602 Y97.271 E0.03330
G1 X128.542 Y96.898 F10800.000
G1 F1200.000
G1 X127.484 Y96.814 E0.03329
G1 X126.451 Y96.567 E0.03329
G1 X125.470 Y96.160 E0.03329
G1 X124.571 Y95.609 E0.03306
G1 X123.757 Y94.916 E0.03351
G1 X123.067 Y94.108 E0.03331
G1 X122.513 Y93.203 E0.03329
G1 X122.106 Y92.222 E0.03329
G1 X121.858 Y91.189 E0.03329
G1 X121.775 Y90.131 E0.03329
G1 X121.858 Y89.072 E0.03329
G1 X122.106 Y88.039 E0.03329
G1 X122.513 Y87.058 E0.03329
G1 X123.063 Y86.159 E0.03306
G1 X123.757 Y85.346 E0.03351
G1 X124.565 Y84.656 E0.03331
G1 X125.470 Y84.101 E0.03329
G1 X126.451 Y83.695 E0.03329
G1 X127.484 Y83.447 E0.03329
G1 X128.535 Y83.364 E0.03306
G1 X129.600 Y83.447 E0.03351
G1 X130.633 Y83.695 E0.03331
G1 X131.614 Y84.101 E0.03329
G1 X132.520 Y84.656 E0.03329
G1 X133.327 Y85.345 E0.03329
G1 X134.017 Y86.153 E0.03329
G1 X134.572 Y87.058 E0.03329
G1 X134.975 Y88.032 E0.03306
G1 X135.226 Y89.071 E0.03351
G1 X135.309 Y90.131 E0.03331
G1 X135.226 Y91.189 E0.03329
G1 X134.978 Y92.222 E0.03329
G1 X134.572 Y93.203 E0.03329
G1 X134.017 Y94.108 E0.03329
G1 X133.327 Y94.916 E0.03329
G1 X132.520 Y95.605 E0.03329
G1 X131.614 Y96.160 E0.03329
G1 X130.640 Y96.564 E0.03306
G1 X129.601 Y96.814 E0.03351
G1 X128.602 Y96.893 E0.03143
G1 X128.542 Y96.519 F10800.000
G1 F1200.000
G1 X127.543 Y96.441 E0.03143
G1 X126.568 Y96.207 E0.03143
G1 X125.642 Y95.823 E0.03143
G1 X124.793 Y95.303 E0.03120
G1 X124.025 Y94.648 E0.03165
G1 X123.373 Y93.886 E0.03144
G1 X122.850 Y93.031 E0.03143
G1 X122.466 Y92.105 E0.03143
G1 X122.232 Y91.130 E0.03143
G1 X122.153 Y90.131 E0.03143
G1 X122.232 Y89.131 E0.03143
G1 X122.466 Y88.156 E0.03143
G1 X122.850 Y87.230 E0.03143
G1 X123.370 Y86.382 E0.03120
G1 X124.024 Y85.613 E0.03165
G1 X124.787 Y84.962 E0.03144
G1 X125.642 Y84.438 E0.03143
G1 X126.568 Y84.054 E0.03143
G1 X127.543 Y83.820 E0.03143
G1 X128.535 Y83.742 E0.03120
G1 X129.541 Y83.820 E0.03165
G1 X130.516 Y84.054 E0.03144
G1 X131.443 Y84.438 E0.03143
G1 X132.297 Y84.962 E0.03143
G1 X133.060 Y85.613 E0.03143
G1 X133.711 Y86.375 E0.03143
G1 X134.235 Y87.230 E0.03143
G1 X134.616 Y88.150 E0.03120
G1 X134.852 Y89.131 E0.03165
G1 X134.931 Y90.131 E0.03144
G1 X134.852 Y91.130 E0.03143
G1 X134.618 Y92.105 E0.03143
G1 X134.235 Y93.031 E0.03143
G1 X133.711 Y93.886 E0.03143
G1 X133.060 Y94.648 E0.03143
G1 X132.297 Y95.299 E0.03143
G1 X131.443 Y95.823 E0.03143
G1 X130.523 Y96.204 E0.03120
G1 X129.542 Y96.441 E0.03165
G1 X128.602 Y96.515 E0.02956
G1 X128.542 Y96.141 F10800.000
G1 F1200.000
G1 X127.602 Y96.067 E0.02957
G1 X126.685 Y95.847 E0.02957
G1 X125.813 Y95.486 E0.02957
G1 X125.015 Y94.997 E0.02935
G1 X124.292 Y94.381 E0.02979
G1 X123.679 Y93.664 E0.02958
G1 X123.187 Y92.859 E0.02957
G1 X122.826 Y91.988 E0.02957
G1 X122.605 Y91.071 E0.02957
G1 X122.531 Y90.131 E0.02957
G1 X122.605 Y89.190 E0.02957
G1 X122.826 Y88.273 E0.02957
G1 X123.187 Y87.402 E0.02957
G1 X123.676 Y86.604 E0.02935
G1 X124.292 Y85.880 E0.02979
G1 X125.009 Y85.268 E0.02958
G1 X125.813 Y84.775 E0.02957
G1 X126.685 Y84.414 E0.02957
G1 X127.602 Y84.194 E0.02957
G1 X128.535 Y84.120 E0.02935
G1 X129.482 Y84.194 E0.02979
G1 X130.400 Y84.414 E0.02958
G1 X131.271 Y84.775 E0.02957
G1 X132.075 Y85.268 E0.02957
G1 X132.792 Y85.880 E0.02957
G1 X133.405 Y86.598 E0.02957
G1 X133.898 Y87.402 E0.02957
G1 X134.256 Y88.267 E0.02935
G1 X134.479 Y89.190 E0.02979
G1 X134.553 Y90.131 E0.02958
G1 X134.479 Y91.071 E0.02957
G1 X134.259 Y91.988 E0.02957
G1 X133.898 Y92.859 E0.02957
G1 X133.405 Y93.664 E0.02957
G1 X132.792 Y94.381 E0.02957
G1 X132.075 Y94.993 E0.02957
G1 X131.271 Y95.486 E0.02957
G1 X130.406 Y95.844 E0.02935
G1 X129.483 Y96.067 E0.02979
G1 X128.602 Y96.137 E0.02770
G1 X128.342 Y96.488 F10800.000
G1 E-0.80000 F2100.00000
G1 Z0.800 F10800.000
G1 X128.542 Y105.056
G1 Z0.200
G1 E0.80000 F2100.00000
G1 F1200.000
G1 X124.964 Y105.056 E0.11218
G1 X124.955 Y104.885 E0.00535
G1 X124.717 Y103.391 E0.04745
G1 X124.322 Y101.930 E0.04745
G1 X123.775 Y100.519 E0.04744
G1 X123.083 Y99.173 E0.04747
G1 X122.253 Y97.908 E0.04741
G1 X120.580 Y95.855 E0.08305
G1 X119.974 Y94.901 E0.03544
G1 X119.482 Y93.882 E0.03549
G1 X119.110 Y92.813 E0.03549
G1 X118.863 Y91.708 E0.03549
G1 X118.746 Y90.582 E0.03549
G1 X118.759 Y89.450 E0.03549
G1 X118.903 Y88.328 E0.03549
G1 X119.175 Y87.229 E0.03549
G1 X119.572 Y86.169 E0.03549
G1 X120.088 Y85.161 E0.03549
G1 X120.717 Y84.220 E0.03549
G1 X121.444 Y83.365 E0.03520
G1 X122.278 Y82.585 E0.03580
G1 X123.189 Y81.914 E0.03547
G1 X124.171 Y81.352 E0.03549
G1 X125.212 Y80.907 E0.03549
G1 X126.297 Y80.584 E0.03549
G1 X127.412 Y80.389 E0.03549
G1 X128.542 Y80.324 E0.03549
G1 X129.663 Y80.389 E0.03520
G1 X130.788 Y80.585 E0.03580
G1 X131.872 Y80.907 E0.03547
G1 X132.913 Y81.352 E0.03549
G1 X133.895 Y81.914 E0.03549
G1 X134.807 Y82.586 E0.03549
G1 X135.634 Y83.358 E0.03549
G1 X136.367 Y84.220 E0.03549
G1 X136.996 Y85.161 E0.03549
G1 X137.513 Y86.169 E0.03549
G1 X137.910 Y87.229 E0.03549
G1 X138.181 Y88.328 E0.03549
G1 X138.325 Y89.450 E0.03549
G1 X138.338 Y90.582 E0.03549
G1 X138.221 Y91.708 E0.03549
G1 X137.975 Y92.813 E0.03549
G1 X137.603 Y93.882 E0.03549
G1 X137.110 Y94.901 E0.03549
G1 X136.504 Y95.855 E0.03544
G1 X134.831 Y97.908 E0.08305
G1 X134.001 Y99.173 E0.04741
G1 X133.309 Y100.519 E0.04746
G1 X132.762 Y101.930 E0.04746
G1 X132.368 Y103.391 E0.04745
G1 X132.129 Y104.886 E0.04746
G1 X132.120 Y105.056 E0.00534
G1 X128.602 Y105.056 E0.11030
G1 X128.542 Y105.433 F10800.000
G1 F1200.000
G1 X124.607 Y105.433 E0.12339
G1 X124.580 Y104.925 E0.01594
G1 X124.347 Y103.470 E0.04620
G1 X123.963 Y102.048 E0.04620
G1 X123.431 Y100.674 E0.04619
G1 X122.757 Y99.363 E0.04622
G1 X121.949 Y98.132 E0.04617
G1 X120.274 Y96.076 E0.08314
G1 X119.644 Y95.085 E0.03682
G1 X119.133 Y94.026 E0.03686
G1 X118.746 Y92.916 E0.03686
G1 X118.491 Y91.769 E0.03686
G1 X118.369 Y90.600 E0.03686
G1 X118.382 Y89.424 E0.03686
G1 X118.532 Y88.258 E0.03686
G1 X118.814 Y87.117 E0.03686
G1 X119.226 Y86.016 E0.03686
G1 X119.762 Y84.970 E0.03686
G1 X120.415 Y83.993 E0.03686
G1 X121.171 Y83.104 E0.03656
G1 X122.037 Y82.295 E0.03717
G1 X122.983 Y81.598 E0.03684
G1 X124.003 Y81.014 E0.03686
G1 X125.084 Y80.552 E0.03686
G1 X126.211 Y80.217 E0.03686
G1 X127.369 Y80.014 E0.03686
G1 X128.542 Y79.946 E0.03686
G1 X129.706 Y80.014 E0.03656
G1 X130.874 Y80.217 E0.03717
G1 X132.001 Y80.552 E0.03684
G1 X133.081 Y81.014 E0.03686
G1 X134.102 Y81.598 E0.03686
G1 X135.048 Y82.295 E0.03686
G1 X135.907 Y83.097 E0.03686
G1 X136.669 Y83.993 E0.03686
G1 X137.322 Y84.970 E0.03686
G1 X137.858 Y86.016 E0.03686
G1 X138.270 Y87.117 E0.03686
G1 X138.553 Y88.258 E0.03686
G1 X138.702 Y89.424 E0.03686
G1 X138.716 Y90.600 E0.03686
G1 X138.594 Y91.769 E0.03686
G1 X138.338 Y92.916 E0.03686
G1 X137.952 Y94.026 E0.03686
G1 X137.440 Y95.085 E0.03686
G1 X136.811 Y96.076 E0.03682
G1 X135.135 Y98.132 E0.08314
G1 X134.328 Y99.363 E0.04617
G1 X133.653 Y100.673 E0.04621
G1 X133.121 Y102.048 E0.04621
G1 X132.737 Y103.470 E0.04620
G1 X132.504 Y104.925 E0.04621
G1 X132.478 Y105.433 E0.01593
G1 X128.602 Y105.433 E0.12151
G1 X128.542 Y105.810 F10800.000
G1 F1200.000
G1 X124.249 Y105.810 E0.13461
G1 X124.204 Y104.965 E0.02653
G1 X123.978 Y103.549 E0.04495
G1 X123.604 Y102.165 E0.04496
G1 X123.087 Y100.828 E0.04494
G1 X122.430 Y99.553 E0.04497
G1 X121.644 Y98.355 E0.04494
G1 X119.967 Y96.297 E0.08323
G1 X119.314 Y95.269 E0.03820
G1 X118.784 Y94.171 E0.03822
G1 X118.383 Y93.020 E0.03822
G1 X118.118 Y91.830 E0.03822
G1 X117.991 Y90.617 E0.03822
G1 X118.006 Y89.398 E0.03822
G1 X118.160 Y88.189 E0.03822
G1 X118.453 Y87.005 E0.03822
G1 X118.881 Y85.864 E0.03822
G1 X119.437 Y84.779 E0.03822
G1 X120.114 Y83.765 E0.03822
G1 X120.897 Y82.844 E0.03792
G1 X121.795 Y82.004 E0.03853
G1 X122.776 Y81.281 E0.03822
G1 X123.835 Y80.676 E0.03822
G1 X124.955 Y80.196 E0.03822
G1 X126.124 Y79.849 E0.03822
G1 X127.325 Y79.639 E0.03822
G1 X128.542 Y79.569 E0.03822
G1 X129.750 Y79.638 E0.03792
G1 X130.960 Y79.849 E0.03853
G1 X132.129 Y80.196 E0.03822
G1 X133.250 Y80.676 E0.03822
G1 X134.308 Y81.281 E0.03822
G1 X135.289 Y82.005 E0.03822
G1 X136.181 Y82.836 E0.03822
G1 X136.970 Y83.765 E0.03822
G1 X137.648 Y84.779 E0.03822
G1 X138.204 Y85.864 E0.03822
G1 X138.631 Y87.005 E0.03822
G1 X138.924 Y88.189 E0.03822
G1 X139.079 Y89.398 E0.03822
G1 X139.093 Y90.617 E0.03822
G1 X138.967 Y91.830 E0.03822
G1 X138.701 Y93.020 E0.03822
G1 X138.301 Y94.171 E0.03822
G1 X137.770 Y95.269 E0.03822
G1 X137.117 Y96.297 E0.03820
G1 X135.440 Y98.355 E0.08323
G1 X134.654 Y99.553 E0.04494
G1 X133.998 Y100.828 E0.04496
G1 X133.480 Y102.165 E0.04496
G1 X133.106 Y103.549 E0.04495
G1 X132.880 Y104.965 E0.04496
G1 X132.835 Y105.810 E0.02652
G1 X128.602 Y105.810 E0.13273
G1 X128.542 Y106.187 F10800.000
G1 F1200.000
G1 X123.891 Y106.187 E0.14582
G1 X123.829 Y105.005 E0.03712
G1 X123.609 Y103.628 E0.04370
G1 X123.245 Y102.283 E0.04371
G1 X122.742 Y100.983 E0.04369
G1 X122.104 Y99.743 E0.04372
G1 X121.340 Y98.578 E0.04370
G1 X119.661 Y96.518 E0.08332
G1 X118.984 Y95.452 E0.03958
G1 X118.435 Y94.315 E0.03959
G1 X118.020 Y93.123 E0.03959
G1 X117.745 Y91.890 E0.03959
G1 X117.614 Y90.634 E0.03959
G1 X117.629 Y89.372 E0.03959
G1 X117.789 Y88.119 E0.03959
G1 X118.092 Y86.894 E0.03959
G1 X118.535 Y85.711 E0.03959
G1 X119.111 Y84.587 E0.03959
G1 X119.813 Y83.537 E0.03959
G1 X120.624 Y82.583 E0.03928
G1 X121.554 Y81.714 E0.03990
G1 X122.570 Y80.965 E0.03959
G1 X123.666 Y80.338 E0.03959
G1 X124.827 Y79.841 E0.03959
G1 X126.038 Y79.481 E0.03959
G1 X127.282 Y79.264 E0.03959
G1 X128.542 Y79.191 E0.03959
G1 X129.793 Y79.263 E0.03928
G1 X131.047 Y79.481 E0.03990
G1 X132.257 Y79.841 E0.03959
G1 X133.418 Y80.338 E0.03959
G1 X134.514 Y80.965 E0.03959
G1 X135.530 Y81.714 E0.03959
G1 X136.454 Y82.575 E0.03959
G1 X137.272 Y83.537 E0.03959
G1 X137.973 Y84.587 E0.03959
G1 X138.549 Y85.711 E0.03959
G1 X138.992 Y86.894 E0.03959
G1 X139.295 Y88.119 E0.03959
G1 X139.455 Y89.372 E0.03959
G1 X139.470 Y90.634 E0.03959
G1 X139.339 Y91.890 E0.03959
G1 X139.065 Y93.123 E0.03959
G1 X138.650 Y94.315 E0.03959
G1 X138.100 Y95.452 E0.03959
G1 X137.423 Y96.518 E0.03958
G1 X135.745 Y98.578 E0.08332
G1 X134.980 Y99.743 E0.04370
G1 X134.342 Y100.983 E0.04371
G1 X133.839 Y102.283 E0.04371
G1 X133.475 Y103.628 E0.04370
G1 X133.255 Y105.005 E0.04371
G1 X133.193 Y106.187 E0.03711
G1 X128.602 Y106.187 E0.14394
G1 X128.314 Y105.858 F10800.000
G1 X125.845 Y104.943
G1 F1200.000
G1 X125.138 Y104.236 E0.03140
G1 X125.036 Y103.600 E0.02021
G1 X126.209 Y104.773 E0.05209
G1 X126.743 Y104.773 E0.01677
G1 X124.879 Y102.909 E0.08277
G1 X124.682 Y102.177 E0.02380
G1 X127.277 Y104.773 E0.11527
G1 X127.812 Y104.773 E0.01677
G1 X124.408 Y101.370 E0.15112
G1 X124.071 Y100.498 E0.02935
G1 X128.346 Y104.773 E0.18982
G1 X128.880 Y104.773 E0.01677
G1 X123.530 Y99.423 E0.23755
G1 X123.328 Y99.030 E0.01390
G1 X122.673 Y98.033 E0.03745
G1 X129.414 Y104.773 E0.29930
G1 X129.948 Y104.773 E0.01677
G1 X120.715 Y95.541 E0.40995
G1 X120.222 Y94.763 E0.02893
G1 X119.988 Y94.279 E0.01689
G1 X130.482 Y104.773 E0.46599
G1 X131.016 Y104.773 E0.01677
G1 X119.598 Y93.355 E0.50701
G1 X119.382 Y92.735 E0.02060
G1 X119.345 Y92.568 E0.00538
G1 X131.550 Y104.773 E0.54195
G1 X131.860 Y104.773 E0.00976
