; generated by PrusaSlicer 2.2.0+win64 on 2020-12-14 at 18:36:00 UTC

; 

; external perimeters extrusion width = 0.45mm
; perimeters extrusion width = 0.45mm
; infill extrusion width = 0.45mm
; solid infill extrusion width = 0.45mm
; top infill extrusion width = 0.40mm
; support material extrusion width = 0.35mm
; first layer extrusion width = 0.42mm

M73 P0 R25
M201 X9000 Y9000 Z500 E10000 ; sets maximum accelerations, mm/sec^2
M203 X500 Y500 Z12 E120 ; sets maximum feedrates, mm/sec
M204 P2000 R1500 T2000 ; sets acceleration (P, T) and retract acceleration (R), mm/sec^2
M205 X10.00 Y10.00 Z0.20 E2.50 ; sets the jerk limits, mm/sec
M205 S0 T0 ; sets the minimum extruding and travel feed rate, mm/sec
M107
M862.3 P "MK2S" ; printer model check
M862.1 P0.4 ; nozzle diameter check
M115 U3.2.3 ; tell printer latest fw version
G90 ; use absolute coordinates
M83 ; extruder relative mode
M204 S2000 T1500 ; MK2 firmware only supports the old M204 format
M104 S215 ; set extruder temp
M140 S60 ; set bed temp
M190 S60 ; wait for bed temp
M109 S215 ; wait for extruder temp
G28 W ; home all without mesh bed level
G80 ; mesh bed leveling
G1 Y-3.0 F1000.0 ; go outside print area
G92 E0.0
G1 X60.0 E9.0  F1000.0 ; intro line
M73 P0 R25
G1 X100.0 E12.5 F1000.0 ; intro line
G92 E0.0
G21 ; set units to millimeters
G90 ; use absolute coordinates
M83 ; use relative distances for extrusion
M900 K0.05 ; Filament gcode LA 1.5
M900 K30 ; Filament gcode LA 1.0
;BEFORE_LAYER_CHANGE
G92 E0.0
;0.2


G1 E-0.80000 F2100.00000
G1 Z0.600 F10800.000
;AFTER_LAYER_CHANGE
;0.2
G1 X105.832 Y100.619
G1 Z0.200
G1 E0.80000 F2100.00000
M204 S1000
G1 F1200.000
G1 X107.208 Y99.244 E0.06101
G1 X107.741 Y99.777 E0.02365
G1 X106.101 Y101.417 E0.07273
G1 X106.218 Y102.367 E0.03001
G1 X108.274 Y100.310 E0.09120
G1 X108.808 Y100.843 E0.02365
G1 X106.334 Y103.317 E0.10968
G1 X106.451 Y104.267 E0.03001
G1 X109.341 Y101.377 E0.12815
G1 X109.874 Y101.910 E0.02365
G1 X106.567 Y105.217 E0.14663
G1 X106.684 Y106.167 E0.03001
G1 X110.407 Y102.443 E0.16510
G1 X110.941 Y102.976 E0.02365
G1 X106.801 Y107.117 E0.18358
G1 X106.917 Y108.066 E0.03001
G1 X111.474 Y103.510 E0.20205
G1 X112.007 Y104.043 E0.02365
G1 X107.034 Y109.016 E0.22052
G1 X107.151 Y109.966 E0.03001
G1 X112.541 Y104.576 E0.23900
G1 X113.074 Y105.110 E0.02365
G1 X107.267 Y110.916 E0.25747
G1 X107.384 Y111.866 E0.03001
G1 X113.607 Y105.643 E0.27595
G1 X114.140 Y106.176 E0.02365
G1 X107.501 Y112.816 E0.29442
G1 X107.617 Y113.766 E0.03001
G1 X113.042 Y108.341 E0.24056
G1 X113.576 Y108.874 E0.02365
G1 X106.120 Y116.330 E0.33060
G1 X106.653 Y116.863 E0.02365
G1 X114.109 Y109.407 E0.33060
G1 X114.511 Y109.809 E0.01783
G1 X112.880 Y111.441 E0.07234
G1 X113.011 Y111.572 E0.00582
G1 X107.186 Y117.396 E0.25826
G1 X107.720 Y117.930 E0.02365
G1 X113.544 Y112.105 E0.25826
G1 X114.077 Y112.638 E0.02365
G1 X108.133 Y118.583 E0.26358
G1 X105.467 Y115.916 F10800.000
G1 F1200.000
G1 X106.276 Y115.107 E0.03591
G1 E-0.80000 F2100.00000
G1 Z0.800 F10800.000
G1 X135.740 Y103.775
G1 Z0.200
G1 E0.80000 F2100.00000
G1 F1200.000
G1 X141.673 Y97.841 E0.26309
G1 X142.739 Y97.841 E0.03344
G1 X136.393 Y104.188 E0.28141
G1 X136.926 Y104.721 E0.02365
G1 X143.702 Y97.945 E0.30045
G1 X143.884 Y98.030 E0.00630
G1 X144.092 Y98.171 E0.00786
G1 X144.315 Y98.399 E0.01000
G1 X135.828 Y106.886 E0.37633
G1 X136.361 Y107.419 E0.02365
G1 X144.628 Y99.152 E0.36657
G1 X144.745 Y100.102 E0.03001
G1 X136.895 Y107.952 E0.34809
G1 X137.428 Y108.486 E0.02365
G1 X144.862 Y101.052 E0.32962
G1 X144.978 Y102.002 E0.03001
G1 X137.961 Y109.019 E0.31114
G1 X138.495 Y109.552 E0.02365
G1 X145.095 Y102.952 E0.29267
G1 X145.211 Y103.902 E0.03001
G1 X139.028 Y110.085 E0.27419
G1 X139.561 Y110.619 E0.02365
G1 X145.328 Y104.852 E0.25572
G1 X145.445 Y105.801 E0.03001
G1 X140.094 Y111.152 E0.23725
G1 X140.628 Y111.685 E0.02365
G1 X145.561 Y106.751 E0.21877
G1 X145.678 Y107.701 E0.03001
G1 X141.161 Y112.218 E0.20030
G1 X141.694 Y112.752 E0.02365
G1 X145.795 Y108.651 E0.18182
G1 X145.911 Y109.601 E0.03001
G1 X142.227 Y113.285 E0.16335
G1 X142.761 Y113.818 E0.02365
G1 X146.260 Y110.319 E0.15518
G1 X146.315 Y110.362 E0.00218
G1 X147.419 Y110.226 E0.03489
G1 X144.925 Y112.720 E0.11060
G1 X145.459 Y113.253 E0.02365
G1 X148.635 Y110.077 E0.14086
G1 X148.987 Y110.034 E0.01110
G1 X149.070 Y110.709 E0.02133
G1 X146.831 Y112.947 E0.09925
G1 E-0.80000 F2100.00000
G1 Z0.800 F10800.000
G1 X106.540 Y114.124
G1 Z0.200
G1 E0.80000 F2100.00000
G1 F1200.000
G1 X105.422 Y114.261 E0.03531
G1 X103.547 Y98.988 E0.48248
G1 X103.511 Y98.770 E0.00691
G1 X103.391 Y98.372 E0.01303
G1 X103.291 Y98.148 E0.00770
G1 X103.067 Y97.783 E0.01342
G1 X102.786 Y97.460 E0.01342
G1 X102.602 Y97.298 E0.00770
G1 X102.247 Y97.057 E0.01342
G1 X101.858 Y96.880 E0.01342
G1 X101.623 Y96.808 E0.00770
G1 X101.201 Y96.736 E0.01342
G1 X89.837 Y96.729 E0.35631
G1 X89.837 Y95.502 E0.03845
G1 X160.163 Y95.502 E2.20502
G1 X160.163 Y96.728 E0.03844
G1 X149.486 Y96.728 E0.33478
G1 X149.074 Y96.763 E0.01295
G1 X148.651 Y96.873 E0.01373
G1 X148.251 Y97.053 E0.01373
G1 X147.899 Y97.291 E0.01334
G1 X147.715 Y97.451 E0.00765
G1 X147.433 Y97.770 E0.01334
G1 X147.203 Y98.142 E0.01373
G1 X147.043 Y98.536 E0.01334
G1 X146.980 Y98.772 E0.00765
G1 X146.926 Y99.181 E0.01294
G1 X146.925 Y99.425 E0.00764
G1 X148.096 Y109.021 E0.30313
G1 X146.978 Y109.159 E0.03533
G1 X145.698 Y98.795 E0.32743
G1 X145.638 Y98.557 E0.00769
G1 X145.484 Y98.171 E0.01303
G1 X145.366 Y97.956 E0.00770
G1 X145.112 Y97.611 E0.01342
G1 X144.804 Y97.314 E0.01343
G1 X144.617 Y97.175 E0.00730
G1 X144.419 Y97.052 E0.00730
G1 X144.029 Y96.875 E0.01342
G1 X143.602 Y96.764 E0.01382
G1 X143.188 Y96.728 E0.01303
G1 X107.303 Y96.728 E1.12516
G1 X106.892 Y96.763 E0.01295
G1 X106.480 Y96.870 E0.01334
G1 X106.254 Y96.961 E0.00765
G1 X105.882 Y97.168 E0.01334
G1 X105.541 Y97.442 E0.01373
G1 X105.251 Y97.770 E0.01373
G1 X105.020 Y98.142 E0.01373
G1 X104.855 Y98.548 E0.01373
G1 X104.761 Y98.975 E0.01373
G1 X104.741 Y99.412 E0.01372
G1 X106.533 Y114.064 E0.46283
G1 X106.960 Y114.452 F10800.000
G1 F1200.000
G1 X105.094 Y114.681 E0.05895
G1 X103.174 Y99.042 E0.49406
G1 X103.143 Y98.856 E0.00590
G1 X103.037 Y98.504 E0.01152
G1 X102.956 Y98.324 E0.00618
G1 X102.762 Y98.007 E0.01166
G1 X102.518 Y97.727 E0.01166
G1 X102.370 Y97.596 E0.00618
G1 X102.062 Y97.387 E0.01166
G1 X101.724 Y97.234 E0.01166
G1 X101.535 Y97.176 E0.00619
G1 X101.169 Y97.113 E0.01166
G1 X89.460 Y97.105 E0.36712
G1 X89.460 Y95.125 E0.06209
G1 X160.540 Y95.125 E2.22866
G1 X160.540 Y97.105 E0.06208
G1 X149.502 Y97.105 E0.34610
G1 X149.138 Y97.136 E0.01144
G1 X148.776 Y97.230 E0.01172
G1 X148.435 Y97.384 E0.01172
G1 X148.129 Y97.590 E0.01158
G1 X147.982 Y97.719 E0.00614
G1 X147.737 Y97.996 E0.01158
G1 X147.540 Y98.313 E0.01172
G1 X147.401 Y98.656 E0.01158
G1 X147.351 Y98.845 E0.00614
G1 X147.303 Y99.207 E0.01144
G1 X147.302 Y99.403 E0.00614
G1 X148.516 Y109.350 E0.31420
G1 X146.650 Y109.579 E0.05896
G1 X145.327 Y98.865 E0.33849
G1 X145.278 Y98.673 E0.00618
G1 X145.143 Y98.332 E0.01152
G1 X145.047 Y98.159 E0.00618
G1 X144.827 Y97.860 E0.01166
G1 X144.560 Y97.602 E0.01166
G1 X144.405 Y97.487 E0.00604
G1 X144.241 Y97.385 E0.00604
G1 X143.902 Y97.232 E0.01166
G1 X143.538 Y97.137 E0.01180
G1 X143.172 Y97.105 E0.01152
G1 X107.319 Y97.105 E1.12415
G1 X106.955 Y97.136 E0.01144
G1 X106.598 Y97.229 E0.01158
G1 X106.416 Y97.302 E0.00614
G1 X106.093 Y97.481 E0.01158
G1 X105.802 Y97.716 E0.01172
G1 X105.554 Y97.996 E0.01172
G1 X105.357 Y98.313 E0.01172
G1 X105.217 Y98.660 E0.01172
G1 X105.136 Y99.025 E0.01172
G1 X105.119 Y99.398 E0.01172
G1 X106.953 Y114.393 E0.47364
G1 X106.592 Y114.295 F10800.000
G1 X105.414 Y113.265
G1 F1200.000
G1 X106.048 Y113.899 E0.02815
G1 X106.225 Y113.878 E0.00559
G1 X106.178 Y113.496 E0.01208
G1 X105.534 Y112.851 E0.02859
G1 X105.459 Y112.243 E0.01924
G1 X106.104 Y112.887 E0.02860
G1 X106.029 Y112.279 E0.01923
G1 X105.385 Y111.634 E0.02862
G1 X105.310 Y111.026 E0.01924
G1 X105.955 Y111.671 E0.02863
G1 X105.881 Y111.063 E0.01923
G1 X105.235 Y110.418 E0.02865
G1 X105.160 Y109.809 E0.01924
G1 X105.806 Y110.455 E0.02866
G1 X105.732 Y109.847 E0.01923
G1 X105.086 Y109.201 E0.02867
G1 X105.011 Y108.592 E0.01924
G1 X105.657 Y109.239 E0.02869
G1 X105.583 Y108.630 E0.01923
G1 X104.936 Y107.984 E0.02870
G1 X104.862 Y107.375 E0.01924
G1 X105.509 Y108.022 E0.02872
G1 X105.434 Y107.414 E0.01923
G1 X104.787 Y106.767 E0.02873
G1 X104.712 Y106.158 E0.01924
G1 X105.360 Y106.806 E0.02875
G1 X105.286 Y106.198 E0.01923
G1 X104.637 Y105.550 E0.02876
G1 X104.563 Y104.941 E0.01924
G1 X105.211 Y105.590 E0.02878
G1 X105.137 Y104.982 E0.01923
G1 X104.488 Y104.333 E0.02879
G1 X104.413 Y103.725 E0.01924
G1 X105.062 Y104.374 E0.02881
G1 X104.988 Y103.765 E0.01923
G1 X104.339 Y103.116 E0.02882
G1 X104.264 Y102.508 E0.01924
G1 X104.914 Y103.157 E0.02884
G1 X104.839 Y102.549 E0.01923
G1 X104.189 Y101.899 E0.02885
G1 X104.115 Y101.291 E0.01924
G1 X104.765 Y101.941 E0.02886
G1 X104.691 Y101.333 E0.01923
G1 X104.040 Y100.682 E0.02888
G1 X103.965 Y100.074 E0.01924
G1 X104.616 Y100.725 E0.02889
G1 X104.542 Y100.117 E0.01923
G1 X103.890 Y99.465 E0.02891
G1 X103.811 Y98.852 E0.01940
G1 X104.467 Y99.509 E0.02913
G1 X104.478 Y98.985 E0.01643
G1 X101.278 Y95.785 E0.14201
G1 X101.812 Y95.785 E0.01675
G1 X104.567 Y98.541 E0.12229
G1 X104.711 Y98.151 E0.01304
G1 X102.345 Y95.785 E0.10499
G1 X102.879 Y95.785 E0.01675
G1 X104.897 Y97.803 E0.08956
G1 X105.023 Y97.600 E0.00749
G1 X105.119 Y97.492 E0.00456
G1 X103.413 Y95.785 E0.07573
G1 X103.947 Y95.785 E0.01675
G1 X105.374 Y97.213 E0.06336
G1 X105.670 Y96.975 E0.01191
G1 X104.480 Y95.785 E0.05280
G1 X105.014 Y95.785 E0.01675
G1 X106.004 Y96.776 E0.04396
G1 X106.371 Y96.609 E0.01265
G1 X105.548 Y95.785 E0.03655
G1 X106.082 Y95.785 E0.01675
G1 X106.793 Y96.497 E0.03157
G1 X107.277 Y96.447 E0.01526
G1 X106.615 Y95.785 E0.02936
G1 X107.149 Y95.785 E0.01675
G1 X107.809 Y96.445 E0.02930
G1 X108.343 Y96.445 E0.01675
G1 X107.683 Y95.785 E0.02930
G1 X108.217 Y95.785 E0.01675
G1 X108.877 Y96.445 E0.02930
G1 X109.411 Y96.445 E0.01675
G1 X108.750 Y95.785 E0.02930
G1 X109.284 Y95.785 E0.01675
G1 X109.944 Y96.445 E0.02930
G1 X110.478 Y96.445 E0.01675
G1 X109.818 Y95.785 E0.02930
G1 X110.352 Y95.785 E0.01675
G1 X111.012 Y96.445 E0.02930
G1 X111.546 Y96.445 E0.01675
G1 X110.885 Y95.785 E0.02930
G1 X111.419 Y95.785 E0.01675
G1 X112.079 Y96.445 E0.02930
G1 X112.613 Y96.445 E0.01675
G1 X111.953 Y95.785 E0.02930
G1 X112.487 Y95.785 E0.01675
G1 X113.147 Y96.445 E0.02930
G1 X113.681 Y96.445 E0.01675
G1 X113.020 Y95.785 E0.02930
G1 X113.554 Y95.785 E0.01675
G1 X114.214 Y96.445 E0.02930
G1 X114.748 Y96.445 E0.01675
G1 X114.088 Y95.785 E0.02930
G1 X114.622 Y95.785 E0.01675
G1 X115.282 Y96.445 E0.02930
G1 X115.816 Y96.445 E0.01675
G1 X115.155 Y95.785 E0.02930
G1 X115.689 Y95.785 E0.01675
G1 X116.349 Y96.445 E0.02930
G1 X116.883 Y96.445 E0.01675
G1 X116.223 Y95.785 E0.02930
G1 X116.757 Y95.785 E0.01675
G1 X117.417 Y96.445 E0.02930
G1 X117.951 Y96.445 E0.01675
G1 X117.290 Y95.785 E0.02930
G1 X117.824 Y95.785 E0.01675
G1 X118.484 Y96.445 E0.02930
G1 X119.018 Y96.445 E0.01675
G1 X118.358 Y95.785 E0.02930
G1 X118.892 Y95.785 E0.01675
G1 X119.552 Y96.445 E0.02930
G1 X120.086 Y96.445 E0.01675
G1 X119.425 Y95.785 E0.02930
G1 X119.959 Y95.785 E0.01675
G1 X120.619 Y96.445 E0.02930
G1 X121.153 Y96.445 E0.01675
G1 X120.493 Y95.785 E0.02930
G1 X121.027 Y95.785 E0.01675
G1 X121.687 Y96.445 E0.02930
G1 X122.221 Y96.445 E0.01675
G1 X121.560 Y95.785 E0.02930
G1 X122.094 Y95.785 E0.01675
G1 X122.754 Y96.445 E0.02930
G1 X123.288 Y96.445 E0.01675
G1 X122.628 Y95.785 E0.02930
G1 X123.162 Y95.785 E0.01675
G1 X123.822 Y96.445 E0.02930
G1 X124.356 Y96.445 E0.01675
G1 X123.695 Y95.785 E0.02930
G1 X124.229 Y95.785 E0.01675
G1 X124.889 Y96.445 E0.02930
G1 X125.423 Y96.445 E0.01675
G1 X124.763 Y95.785 E0.02930
G1 X125.297 Y95.785 E0.01675
G1 X125.957 Y96.445 E0.02930
G1 X126.491 Y96.445 E0.01675
G1 X125.830 Y95.785 E0.02930
G1 X126.364 Y95.785 E0.01675
G1 X127.024 Y96.445 E0.02930
G1 X127.558 Y96.445 E0.01675
G1 X126.898 Y95.785 E0.02930
G1 X127.432 Y95.785 E0.01675
G1 X128.092 Y96.445 E0.02930
G1 X128.626 Y96.445 E0.01675
G1 X127.965 Y95.785 E0.02930
G1 X128.499 Y95.785 E0.01675
G1 X129.159 Y96.445 E0.02930
G1 X129.693 Y96.445 E0.01675
G1 X129.033 Y95.785 E0.02930
G1 X129.567 Y95.785 E0.01675
G1 X130.227 Y96.445 E0.02930
G1 X130.761 Y96.445 E0.01675
G1 X130.100 Y95.785 E0.02930
G1 X130.634 Y95.785 E0.01675
G1 X131.294 Y96.445 E0.02930
G1 X131.828 Y96.445 E0.01675
G1 X131.168 Y95.785 E0.02930
G1 X131.702 Y95.785 E0.01675
G1 X132.362 Y96.445 E0.02930
G1 X132.896 Y96.445 E0.01675
G1 X132.235 Y95.785 E0.02930
G1 X132.769 Y95.785 E0.01675
G1 X133.429 Y96.445 E0.02930
G1 X133.963 Y96.445 E0.01675
G1 X133.303 Y95.785 E0.02930
G1 X133.837 Y95.785 E0.01675
G1 X134.497 Y96.445 E0.02930
G1 X135.031 Y96.445 E0.01675
G1 X134.370 Y95.785 E0.02930
G1 X134.904 Y95.785 E0.01675
G1 X135.564 Y96.445 E0.02930
G1 X136.098 Y96.445 E0.01675
G1 X135.438 Y95.785 E0.02930
G1 X135.972 Y95.785 E0.01675
G1 X136.632 Y96.445 E0.02930
G1 X137.166 Y96.445 E0.01675
G1 X136.505 Y95.785 E0.02930
G1 X137.039 Y95.785 E0.01675
G1 X137.699 Y96.445 E0.02930
G1 X138.233 Y96.445 E0.01675
G1 X137.573 Y95.785 E0.02930
G1 X138.107 Y95.785 E0.01675
G1 X138.767 Y96.445 E0.02930
G1 X139.301 Y96.445 E0.01675
G1 X138.640 Y95.785 E0.02930
G1 X139.174 Y95.785 E0.01675
G1 X139.834 Y96.445 E0.02930
G1 X140.368 Y96.445 E0.01675
G1 X139.708 Y95.785 E0.02930
G1 X140.242 Y95.785 E0.01675
G1 X140.902 Y96.445 E0.02930
G1 X141.436 Y96.445 E0.01675
G1 X140.775 Y95.785 E0.02930
G1 X141.309 Y95.785 E0.01675
G1 X141.969 Y96.445 E0.02930
G1 X142.503 Y96.445 E0.01675
G1 X141.843 Y95.785 E0.02930
G1 X142.377 Y95.785 E0.01675
G1 X143.037 Y96.445 E0.02930
G1 X143.605 Y96.480 E0.01787
G1 X142.910 Y95.785 E0.03084
G1 X143.444 Y95.785 E0.01675
G1 X145.118 Y97.459 E0.07429
G1 E-0.80000 F2100.00000
G1 Z0.800 F10800.000
G1 X147.558 Y108.973
G1 Z0.200
G1 E0.80000 F2100.00000
G1 F1200.000
G1 X147.195 Y108.610 E0.01612
G1 X147.120 Y108.001 E0.01925
G1 X147.766 Y108.647 E0.02865
G1 X147.691 Y108.039 E0.01922
G1 X147.045 Y107.392 E0.02869
G1 X146.970 Y106.783 E0.01925
G1 X147.617 Y107.431 E0.02874
G1 X147.543 Y106.823 E0.01922
G1 X146.895 Y106.174 E0.02878
G1 X146.819 Y105.566 E0.01925
G1 X147.469 Y106.215 E0.02882
G1 X147.395 Y105.607 E0.01922
G1 X146.744 Y104.957 E0.02886
G1 X146.669 Y104.348 E0.01925
G1 X147.320 Y104.999 E0.02891
G1 X147.246 Y104.391 E0.01922
G1 X146.594 Y103.739 E0.02895
G1 X146.519 Y103.130 E0.01925
G1 X147.172 Y103.783 E0.02899
G1 X147.098 Y103.175 E0.01922
G1 X146.443 Y102.521 E0.02903
G1 X146.368 Y101.912 E0.01925
G1 X147.023 Y102.567 E0.02908
G1 X146.949 Y101.959 E0.01922
G1 X146.293 Y101.303 E0.02912
G1 X146.218 Y100.694 E0.01925
G1 X146.875 Y101.351 E0.02916
G1 X146.801 Y100.743 E0.01922
G1 X146.143 Y100.085 E0.02920
G1 X146.068 Y99.476 E0.01925
G1 X146.727 Y100.135 E0.02925
G1 X146.652 Y99.527 E0.01922
G1 X145.992 Y98.867 E0.02929
G1 X145.907 Y98.469 E0.01277
G1 X145.762 Y98.103 E0.01236
G1 X146.664 Y99.005 E0.04003
G1 X146.702 Y98.717 E0.00913
G1 X146.746 Y98.553 E0.00532
G1 X143.978 Y95.785 E0.12284
G1 X144.512 Y95.785 E0.01675
G1 X146.889 Y98.163 E0.10551
G1 X146.950 Y98.013 E0.00506
G1 X147.073 Y97.813 E0.00738
G1 X145.045 Y95.785 E0.09002
G1 X145.579 Y95.785 E0.01675
G1 X147.294 Y97.500 E0.07612
G1 X147.549 Y97.221 E0.01186
G1 X146.113 Y95.785 E0.06373
G1 X146.647 Y95.785 E0.01675
G1 X147.846 Y96.985 E0.05324
G1 X148.173 Y96.778 E0.01214
G1 X147.180 Y95.785 E0.04406
G1 X147.714 Y95.785 E0.01675
G1 X148.541 Y96.612 E0.03671
G1 X148.963 Y96.500 E0.01369
G1 X148.248 Y95.785 E0.03172
G1 X148.782 Y95.785 E0.01675
G1 X149.444 Y96.448 E0.02941
G1 X149.976 Y96.445 E0.01667
G1 X149.315 Y95.785 E0.02930
G1 X149.849 Y95.785 E0.01675
G1 X150.509 Y96.445 E0.02930
G1 X151.043 Y96.445 E0.01675
G1 X150.383 Y95.785 E0.02930
G1 X150.917 Y95.785 E0.01675
G1 X151.577 Y96.445 E0.02930
G1 X152.111 Y96.445 E0.01675
G1 X151.450 Y95.785 E0.02930
G1 X151.984 Y95.785 E0.01675
G1 X152.644 Y96.445 E0.02930
