; generated by PrusaSlicer 2.1.1+win64 on 2020-06-02 at 19:55:42 UTC

; 

; external perimeters extrusion width = 0.45mm
; perimeters extrusion width = 0.45mm
; infill extrusion width = 0.45mm
; solid infill extrusion width = 0.45mm
; top infill extrusion width = 0.40mm
; support material extrusion width = 0.35mm
; first layer extrusion width = 0.42mm

M73 P0 R124
M201 X9000 Y9000 Z500 E10000 ; sets maximum accelerations, mm/sec^2
M203 X500 Y500 Z12 E120 ; sets maximum feedrates, mm/sec
M204 P2000 R1500 T2000 ; sets acceleration (P, T) and retract acceleration (R), mm/sec^2
M205 X10.00 Y10.00 Z0.20 E2.50 ; sets the jerk limits, mm/sec
M205 S0 T0 ; sets the minimum extruding and travel feed rate, mm/sec
M107
M862.3 P "MK2S" ; printer model check
M862.1 P0.4 ; nozzle diameter check
M115 U3.2.3 ; tell printer latest fw version
G90 ; use absolute coordinates
M83 ; extruder relative mode
M204 S2000 T1500 ; MK2 firmware only supports the old M204 format
M104 S215 ; set extruder temp
M140 S60 ; set bed temp
M190 S60 ; wait for bed temp
M109 S215 ; wait for extruder temp
G28 W ; home all without mesh bed level
G80 ; mesh bed leveling
G1 Y-3.0 F1000.0 ; go outside print area
G92 E0.0
G1 X60.0 E9.0  F1000.0 ; intro line
M73 P0 R124
G1 X100.0 E12.5 F1000.0 ; intro line
G92 E0.0
G21 ; set units to millimeters
G90 ; use absolute coordinates
M83 ; use relative distances for extrusion
M900 K30 ; Filament gcode
;BEFORE_LAYER_CHANGE
G92 E0.0
;0.2


G1 E-0.80000 F2100.00000
G1 Z0.600 F10800.000
;AFTER_LAYER_CHANGE
;0.2
G1 X99.647 Y122.984
G1 Z0.200
G1 E0.80000 F2100.00000
M204 S1000
G1 F1200
G1 X104.089 Y118.542 E0.19696
G1 X105.130 Y118.174 E0.03462
G1 X105.605 Y118.092 E0.01510
G1 X99.483 Y124.214 E0.27145
G1 X99.376 Y124.712 E0.01597
G1 X99.346 Y125.418 E0.02215
G1 X106.813 Y117.951 E0.33111
G1 X107.750 Y117.951 E0.02936
G1 X107.861 Y117.970 E0.00353
G1 X99.375 Y126.456 E0.37629
G1 X99.504 Y127.393 E0.02965
G1 X108.771 Y118.126 E0.41091
G1 X109.050 Y118.174 E0.00886
G1 X109.597 Y118.367 E0.01819
G1 X99.754 Y128.209 E0.43643
G1 X99.874 Y128.600 E0.01280
G1 X100.060 Y128.970 E0.01300
G1 X110.373 Y118.658 E0.45726
G1 X111.057 Y119.040 E0.02458
G1 X100.418 Y129.679 E0.47175
G1 X100.468 Y129.778 E0.00346
G1 X100.858 Y130.305 E0.02058
G1 X111.700 Y119.463 E0.48077
G1 X112.291 Y119.939 E0.02378
G1 X101.323 Y130.907 E0.48630
G1 X101.868 Y131.428 E0.02365
G1 X107.590 Y125.707 E0.25371
G1 X107.910 Y126.027 E0.01421
G1 X108.611 Y125.326 E0.03108
G1 X108.291 Y125.006 E0.01421
G1 X112.818 Y120.479 E0.20073
G1 X113.317 Y121.046 E0.02369
G1 X102.448 Y131.915 E0.48196
G1 X103.084 Y132.345 E0.02408
G1 X113.728 Y121.701 E0.47198
G1 X114.034 Y122.199 E0.01831
G1 X114.110 Y122.386 E0.00634
G1 X103.786 Y132.710 E0.45778
G1 X104.523 Y133.039 E0.02532
G1 X114.415 Y123.147 E0.43863
G1 X114.526 Y123.423 E0.00931
G1 X114.647 Y123.982 E0.01795
G1 X105.370 Y133.259 E0.41136
G1 X105.776 Y133.365 E0.01315
G1 X106.287 Y133.409 E0.01609
G1 X114.811 Y124.884 E0.37799
G1 X114.855 Y125.907 E0.03211
G1 X107.303 Y133.459 E0.33485
G1 X108.404 Y133.365 E0.03465
G1 X108.484 Y133.344 E0.00259
G1 X114.722 Y127.107 E0.27659
G1 X114.693 Y127.338 E0.00733
G1 X114.311 Y128.584 E0.04085
G1 X109.689 Y133.206 E0.20493
G1 E-0.80000 F2100.00000
G1 Z0.800 F10800.000
G1 X117.409 Y123.353
G1 Z0.200
G1 E0.80000 F2100.00000
G1 F1200
G1 X122.341 Y118.421 E0.21872
G1 X123.040 Y118.174 E0.02324
G1 X123.782 Y118.047 E0.02359
G1 X117.332 Y124.496 E0.28599
G1 X117.286 Y124.712 E0.00692
G1 X117.246 Y125.649 E0.02941
G1 X124.944 Y117.951 E0.34135
G1 X125.660 Y117.951 E0.02242
G1 X125.959 Y118.002 E0.00954
G1 X117.310 Y126.652 E0.38355
G1 X117.397 Y127.338 E0.02169
G1 X117.466 Y127.562 E0.00734
G1 X126.870 Y118.158 E0.41698
G1 X126.960 Y118.174 E0.00286
G1 X127.670 Y118.425 E0.02362
G1 X117.716 Y128.379 E0.44137
G1 X117.784 Y128.600 E0.00724
G1 X118.045 Y129.117 E0.01816
G1 X128.425 Y118.737 E0.46027
G1 X129.109 Y119.119 E0.02458
G1 X118.409 Y129.819 E0.47447
G1 X118.862 Y130.433 E0.02391
G1 X123.746 Y125.549 E0.21655
G1 X124.224 Y126.027 E0.02120
G1 X124.925 Y125.326 E0.03108
G1 X124.447 Y124.848 E0.02120
G1 X129.733 Y119.562 E0.23440
G1 X130.323 Y120.038 E0.02378
G1 X119.346 Y131.015 E0.48672
G1 X119.891 Y131.537 E0.02365
G1 X130.831 Y120.596 E0.48511
G1 X131.253 Y121.076 E0.02001
G1 X131.316 Y121.178 E0.00378
G1 X120.490 Y132.005 E0.48006
G1 X121.126 Y132.435 E0.02408
G1 X131.722 Y121.838 E0.46986
G1 X131.944 Y122.199 E0.01327
G1 X132.083 Y122.544 E0.01167
G1 X121.848 Y132.779 E0.45384
G1 X122.409 Y133.033 E0.01931
G1 X122.609 Y133.085 E0.00647
G1 X132.389 Y123.305 E0.43366
G1 X132.436 Y123.423 E0.00398
G1 X132.596 Y124.164 E0.02379
G1 X123.455 Y133.305 E0.40532
G1 X123.686 Y133.365 E0.00747
G1 X124.401 Y133.426 E0.02250
G1 X132.730 Y125.096 E0.36935
G1 X132.770 Y126.030 E0.02930
G1 X132.756 Y126.137 E0.00338
G1 X125.455 Y133.438 E0.32375
G1 X126.314 Y133.365 E0.02704
G1 X126.694 Y133.266 E0.01229
G1 X132.594 Y127.366 E0.26164
G1 X132.216 Y128.600 E0.04046
G1 X132.002 Y129.024 E0.01491
G1 X127.986 Y133.040 E0.17808
G1 E-0.80000 F2100.00000
G1 Z0.800 F10800.000
G1 X139.030 Y118.797
G1 Z0.200
G1 E0.80000 F2100.00000
G1 F1200
G1 X136.506 Y121.320 E0.11189
G1 X135.966 Y122.199 E0.03234
G1 X135.476 Y123.418 E0.04118
G1 X140.593 Y118.300 E0.22692
G1 X140.950 Y118.174 E0.01187
G1 X141.959 Y118.001 E0.03209
G1 X135.194 Y124.766 E0.29999
G1 X135.146 Y125.880 E0.03496
G1 X143.076 Y117.951 E0.35160
G1 X143.570 Y117.951 E0.01549
G1 X144.058 Y118.035 E0.01555
G1 X135.245 Y126.848 E0.39081
G1 X135.307 Y127.338 E0.01549
G1 X135.428 Y127.732 E0.01289
G1 X144.955 Y118.204 E0.42247
G1 X145.744 Y118.483 E0.02621
G1 X135.678 Y128.548 E0.44632
G1 X136.029 Y129.264 E0.02499
G1 X146.477 Y118.816 E0.46327
G1 X147.161 Y119.198 E0.02458
G1 X136.413 Y129.947 E0.47659
G1 X136.866 Y130.560 E0.02391
G1 X147.765 Y119.661 E0.48329
G1 X148.345 Y120.147 E0.02374
G1 X137.369 Y131.123 E0.48670
G1 X137.914 Y131.645 E0.02365
G1 X148.845 Y120.714 E0.48469
G1 X149.163 Y121.076 E0.01509
G1 X149.310 Y121.315 E0.00882
G1 X138.532 Y132.094 E0.47794
G1 X139.176 Y132.516 E0.02415
G1 X149.717 Y121.975 E0.46740
G1 X149.854 Y122.199 E0.00823
G1 X150.057 Y122.702 E0.01700
G1 X139.910 Y132.848 E0.44990
G1 X140.319 Y133.033 E0.01406
G1 X140.694 Y133.131 E0.01216
G1 X150.356 Y123.469 E0.42841
G1 X150.545 Y124.346 E0.02814
G1 X141.541 Y133.351 E0.39928
G1 X142.515 Y133.443 E0.03068
G1 X150.649 Y125.309 E0.36071
G1 X150.680 Y126.030 E0.02264
G1 X150.634 Y126.391 E0.01140
G1 X143.607 Y133.418 E0.31159
G1 X144.224 Y133.365 E0.01943
G1 X144.903 Y133.189 E0.02198
G1 X150.406 Y127.685 E0.24405
G1 X150.126 Y128.600 E0.03000
G1 X149.687 Y129.471 E0.03058
G1 X146.300 Y132.858 E0.15020
G1 X146.688 Y133.718 F10800.000
G1 F1200
G1 X145.873 Y134.086 E0.02806
G1 X144.413 Y134.466 E0.04730
G1 X142.910 Y134.594 E0.04730
G1 X141.407 Y134.466 E0.04730
G1 X139.947 Y134.086 E0.04730
G1 X138.572 Y133.465 E0.04730
G1 X137.322 Y132.620 E0.04730
G1 X136.252 Y131.594 E0.04651
G1 X135.337 Y130.364 E0.04806
G1 X134.657 Y129.016 E0.04733
G1 X134.215 Y127.574 E0.04730
G1 X134.055 Y126.318 E0.03971
G1 X133.855 Y126.318 E0.00624
G1 X133.695 Y127.574 E0.03971
G1 X133.253 Y129.016 E0.04730
G1 X132.574 Y130.363 E0.04730
G1 X131.677 Y131.576 E0.04730
G1 X130.588 Y132.620 E0.04730
G1 X129.359 Y133.451 E0.04650
G1 X127.964 Y134.086 E0.04806
G1 X126.503 Y134.466 E0.04733
G1 X125.000 Y134.594 E0.04730
G1 X123.497 Y134.466 E0.04730
G1 X122.037 Y134.086 E0.04730
G1 X120.662 Y133.465 E0.04730
G1 X119.412 Y132.620 E0.04730
G1 X118.342 Y131.594 E0.04651
G1 X117.427 Y130.364 E0.04806
G1 X116.747 Y129.016 E0.04733
G1 X116.305 Y127.574 E0.04730
G1 X116.145 Y126.318 E0.03971
G1 X115.945 Y126.318 E0.00624
G1 X115.788 Y127.549 E0.03892
G1 X115.343 Y129.015 E0.04806
G1 X114.664 Y130.363 E0.04733
G1 X113.767 Y131.576 E0.04730
G1 X112.678 Y132.620 E0.04730
G1 X111.449 Y133.451 E0.04651
G1 X110.054 Y134.086 E0.04806
G1 X108.593 Y134.466 E0.04733
G1 X107.090 Y134.594 E0.04730
G1 X105.587 Y134.466 E0.04730
G1 X104.127 Y134.086 E0.04730
G1 X102.752 Y133.465 E0.04730
G1 X101.502 Y132.620 E0.04730
G1 X100.413 Y131.576 E0.04730
G1 X99.516 Y130.363 E0.04730
G1 X98.849 Y129.039 E0.04651
G1 X98.396 Y127.575 E0.04806
G1 X98.204 Y126.077 E0.04733
G1 X98.268 Y124.570 E0.04730
G1 X98.586 Y123.096 E0.04730
G1 X99.148 Y121.696 E0.04730
G1 X99.939 Y120.411 E0.04730
G1 X100.919 Y119.298 E0.04651
G1 X102.109 Y118.331 E0.04806
G1 X103.426 Y117.595 E0.04733
G1 X104.849 Y117.093 E0.04730
G1 X106.336 Y116.838 E0.04730
G1 X107.844 Y116.838 E0.04730
G1 X109.331 Y117.093 E0.04730
G1 X110.754 Y117.595 E0.04730
G1 X112.071 Y118.331 E0.04730
G1 X113.244 Y119.279 E0.04730
G1 X114.241 Y120.411 E0.04730
G1 X115.032 Y121.696 E0.04730
G1 X115.594 Y123.096 E0.04730
G1 X115.912 Y124.570 E0.04730
G1 X115.937 Y125.145 E0.01804
G1 X116.153 Y125.145 E0.00680
G1 X116.178 Y124.570 E0.01804
G1 X116.496 Y123.096 E0.04730
G1 X117.058 Y121.696 E0.04730
G1 X117.849 Y120.411 E0.04730
G1 X118.846 Y119.279 E0.04730
G1 X120.019 Y118.331 E0.04730
G1 X121.336 Y117.595 E0.04730
G1 X122.759 Y117.093 E0.04730
G1 X124.246 Y116.838 E0.04730
G1 X125.754 Y116.838 E0.04730
G1 X127.216 Y117.089 E0.04650
G1 X128.663 Y117.595 E0.04806
G1 X129.981 Y118.331 E0.04733
G1 X131.154 Y119.279 E0.04730
G1 X132.151 Y120.411 E0.04730
G1 X132.942 Y121.696 E0.04730
G1 X133.495 Y123.072 E0.04651
G1 X133.822 Y124.569 E0.04806
G1 X133.847 Y125.145 E0.01807
G1 X134.063 Y125.145 E0.00680
G1 X134.088 Y124.570 E0.01804
G1 X134.406 Y123.096 E0.04730
G1 X134.968 Y121.696 E0.04730
G1 X135.759 Y120.411 E0.04730
G1 X136.756 Y119.279 E0.04730
G1 X137.929 Y118.331 E0.04730
G1 X139.246 Y117.595 E0.04730
G1 X140.669 Y117.093 E0.04730
G1 X142.156 Y116.838 E0.04730
G1 X143.664 Y116.838 E0.04730
G1 X145.151 Y117.093 E0.04730
G1 X146.574 Y117.595 E0.04730
G1 X147.891 Y118.331 E0.04730
G1 X149.064 Y119.279 E0.04730
G1 X150.061 Y120.411 E0.04730
G1 X150.852 Y121.696 E0.04730
G1 X151.405 Y123.072 E0.04651
G1 X151.732 Y124.569 E0.04806
G1 X151.796 Y126.077 E0.04733
G1 X151.605 Y127.574 E0.04730
G1 X151.163 Y129.016 E0.04730
G1 X150.484 Y130.363 E0.04730
G1 X149.587 Y131.576 E0.04730
G1 X148.498 Y132.620 E0.04730
G1 X147.248 Y133.465 E0.04730
G1 X146.743 Y133.693 E0.01736
G1 E-0.80000 F2100.00000
G1 Z0.800 F10800.000
G1 X115.418 Y127.469
G1 Z0.200
G1 E0.80000 F2100.00000
G1 F1200
G1 X114.992 Y128.875 E0.04604
G1 X114.341 Y130.165 E0.04530
G1 X113.483 Y131.326 E0.04529
G1 X112.440 Y132.326 E0.04529
G1 X111.264 Y133.120 E0.04451
G1 X109.927 Y133.729 E0.04604
G1 X108.529 Y134.093 E0.04530
G1 X107.090 Y134.216 E0.04529
G1 X105.651 Y134.093 E0.04529
G1 X104.253 Y133.729 E0.04529
G1 X102.937 Y133.134 E0.04529
G1 X101.740 Y132.326 E0.04529
G1 X100.697 Y131.326 E0.04529
G1 X99.839 Y130.165 E0.04529
G1 X99.199 Y128.897 E0.04451
G1 X98.765 Y127.494 E0.04604
G1 X98.582 Y126.061 E0.04530
G1 X98.643 Y124.618 E0.04529
G1 X98.948 Y123.206 E0.04529
G1 X99.486 Y121.866 E0.04529
G1 X100.243 Y120.636 E0.04529
G1 X101.181 Y119.571 E0.04451
G1 X102.321 Y118.645 E0.04604
G1 X103.582 Y117.940 E0.04530
G1 X104.944 Y117.459 E0.04529
G1 X106.368 Y117.215 E0.04529
G1 X107.812 Y117.215 E0.04529
G1 X109.236 Y117.459 E0.04529
G1 X110.598 Y117.940 E0.04529
G1 X111.859 Y118.645 E0.04529
G1 X112.982 Y119.552 E0.04529
G1 X113.937 Y120.636 E0.04529
G1 X114.694 Y121.866 E0.04529
G1 X115.232 Y123.206 E0.04529
G1 X115.537 Y124.618 E0.04529
G1 X115.598 Y126.061 E0.04529
G1 X115.425 Y127.410 E0.04263
G1 X115.715 Y127.737 F10800.000
G1 X116.645 Y127.254
G1 F1200
G1 X116.492 Y126.061 E0.03769
G1 X116.553 Y124.618 E0.04529
G1 X116.858 Y123.206 E0.04529
G1 X117.396 Y121.866 E0.04529
G1 X118.153 Y120.636 E0.04529
G1 X119.108 Y119.552 E0.04529
G1 X120.231 Y118.645 E0.04529
G1 X121.492 Y117.940 E0.04529
G1 X122.854 Y117.459 E0.04529
G1 X124.278 Y117.215 E0.04529
G1 X125.722 Y117.215 E0.04529
G1 X127.121 Y117.455 E0.04451
G1 X128.507 Y117.940 E0.04604
G1 X129.769 Y118.645 E0.04530
G1 X130.892 Y119.552 E0.04529
G1 X131.847 Y120.636 E0.04529
G1 X132.604 Y121.866 E0.04529
G1 X133.133 Y123.183 E0.04451
G1 X133.447 Y124.618 E0.04604
G1 X133.508 Y126.061 E0.04530
G1 X133.325 Y127.494 E0.04529
G1 X132.902 Y128.875 E0.04529
G1 X132.251 Y130.165 E0.04529
G1 X131.393 Y131.326 E0.04529
G1 X130.350 Y132.326 E0.04529
G1 X129.174 Y133.120 E0.04451
G1 X127.837 Y133.729 E0.04604
G1 X126.439 Y134.093 E0.04530
G1 X125.000 Y134.216 E0.04529
G1 X123.561 Y134.093 E0.04529
G1 X122.163 Y133.729 E0.04529
G1 X120.847 Y133.134 E0.04529
G1 X119.650 Y132.326 E0.04529
G1 X118.625 Y131.343 E0.04451
G1 X117.749 Y130.165 E0.04604
G1 X117.098 Y128.875 E0.04530
G1 X116.675 Y127.494 E0.04529
G1 X116.652 Y127.313 E0.00571
G1 X116.269 Y127.118 F10800.000
G1 E-0.80000 F2100.00000
G1 Z0.800 F10800.000
G1 X134.402 Y126.061
G1 Z0.200
G1 E0.80000 F2100.00000
M73 P0 R123
G1 F1200
G1 X134.463 Y124.618 E0.04529
G1 X134.768 Y123.206 E0.04529
G1 X135.306 Y121.866 E0.04529
G1 X136.063 Y120.636 E0.04529
G1 X137.018 Y119.552 E0.04529
G1 X138.141 Y118.645 E0.04529
G1 X139.402 Y117.940 E0.04529
G1 X140.764 Y117.459 E0.04529
G1 X142.188 Y117.215 E0.04529
G1 X143.632 Y117.215 E0.04529
G1 X145.056 Y117.459 E0.04529
G1 X146.418 Y117.940 E0.04529
G1 X147.679 Y118.645 E0.04529
G1 X148.802 Y119.552 E0.04529
G1 X149.757 Y120.636 E0.04529
G1 X150.514 Y121.866 E0.04529
G1 X151.043 Y123.183 E0.04451
G1 X151.357 Y124.618 E0.04604
G1 X151.418 Y126.061 E0.04530
G1 X151.235 Y127.494 E0.04529
G1 X150.812 Y128.875 E0.04529
G1 X150.161 Y130.165 E0.04529
G1 X149.303 Y131.326 E0.04529
G1 X148.260 Y132.326 E0.04529
G1 X147.063 Y133.134 E0.04529
G1 X145.747 Y133.729 E0.04529
G1 X144.349 Y134.093 E0.04529
G1 X142.910 Y134.216 E0.04529
G1 X141.471 Y134.093 E0.04529
G1 X140.073 Y133.729 E0.04529
G1 X138.757 Y133.134 E0.04529
G1 X137.560 Y132.326 E0.04529
G1 X136.535 Y131.343 E0.04451
G1 X135.659 Y130.165 E0.04604
G1 X135.008 Y128.875 E0.04530
G1 X134.585 Y127.494 E0.04529
G1 X134.410 Y126.121 E0.04341
G1 X134.047 Y125.876 F10800.000
G1 E-0.80000 F2100.00000
G1 Z0.800 F10800.000
G1 X97.125 Y126.470
G1 Z0.200
G1 E0.80000 F2100.00000
G1 F1200
G1 X97.125 Y112.904 E0.42536
G1 X152.875 Y112.904 E1.74802
G1 X152.875 Y138.496 E0.80243
G1 X97.125 Y138.496 E1.74802
G1 X97.125 Y126.530 E0.37518
G1 X96.748 Y126.530 F10800.000
G1 F1200
G1 X96.748 Y112.527 E0.43907
G1 X153.252 Y112.527 E1.77166
G1 X153.252 Y138.873 E0.82607
G1 X96.748 Y138.873 E1.77166
G1 X96.748 Y126.590 E0.38512
G1 X96.972 Y126.199 F10800.000
G1 X99.348 Y130.611
G1 F1200
G1 X97.408 Y128.671 E0.08651
G1 X97.408 Y128.135 E0.01690
G1 X98.756 Y129.483 E0.06010
G1 X98.585 Y129.145 E0.01192
G1 X98.420 Y128.611 E0.01762
G1 X97.408 Y127.598 E0.04515
G1 X97.408 Y127.062 E0.01690
G1 X98.180 Y127.835 E0.03444
G1 X98.118 Y127.635 E0.00659
G1 X98.060 Y127.178 E0.01452
G1 X97.408 Y126.526 E0.02907
G1 X97.408 Y125.990 E0.01690
G1 X97.981 Y126.563 E0.02556
G1 X97.920 Y126.090 E0.01505
G1 X97.925 Y125.971 E0.00373
G1 X97.408 Y125.454 E0.02308
G1 X97.408 Y124.917 E0.01690
G1 X97.947 Y125.457 E0.02406
G1 X97.969 Y124.943 E0.01623
G1 X97.408 Y124.381 E0.02503
G1 X97.408 Y123.845 E0.01690
G1 X98.006 Y124.443 E0.02668
G1 X98.101 Y124.002 E0.01423
G1 X97.408 Y123.309 E0.03092
G1 X97.408 Y122.773 E0.01690
G1 X98.196 Y123.561 E0.03515
G1 X98.291 Y123.120 E0.01423
G1 X97.408 Y122.236 E0.03939
G1 X97.408 Y121.700 E0.01690
G1 X98.431 Y122.723 E0.04561
G1 X98.584 Y122.341 E0.01300
G1 X97.408 Y121.164 E0.05246
G1 X97.408 Y120.628 E0.01690
G1 X98.738 Y121.958 E0.05931
G1 X98.892 Y121.576 E0.01300
G1 X97.408 Y120.092 E0.06617
G1 X97.408 Y119.555 E0.01690
G1 X99.095 Y121.243 E0.07523
G1 X99.299 Y120.911 E0.01229
G1 X97.408 Y119.019 E0.08434
G1 X97.408 Y118.483 E0.01690
G1 X99.504 Y120.579 E0.09345
G1 X99.708 Y120.247 E0.01229
G1 X97.408 Y117.947 E0.10256
G1 X97.408 Y117.411 E0.01690
G1 X99.958 Y119.961 E0.11372
G1 X100.209 Y119.676 E0.01198
G1 X97.408 Y116.874 E0.12491
G1 X97.408 Y116.338 E0.01690
G1 X100.460 Y119.391 E0.13610
G1 X100.711 Y119.106 E0.01198
G1 X97.408 Y115.802 E0.14730
G1 X97.408 Y115.266 E0.01690
G1 X101.005 Y118.864 E0.16040
