; generated by PrusaSlicer 2.2.0+win64 on 2020-12-14 at 18:35:31 UTC

; 

; external perimeters extrusion width = 0.45mm
; perimeters extrusion width = 0.45mm
; infill extrusion width = 0.45mm
; solid infill extrusion width = 0.45mm
; top infill extrusion width = 0.40mm
; support material extrusion width = 0.35mm
; first layer extrusion width = 0.42mm

M73 P0 R86
M201 X9000 Y9000 Z500 E10000 ; sets maximum accelerations, mm/sec^2
M203 X500 Y500 Z12 E120 ; sets maximum feedrates, mm/sec
M204 P2000 R1500 T2000 ; sets acceleration (P, T) and retract acceleration (R), mm/sec^2
M205 X10.00 Y10.00 Z0.20 E2.50 ; sets the jerk limits, mm/sec
M205 S0 T0 ; sets the minimum extruding and travel feed rate, mm/sec
M107
M862.3 P "MK2S" ; printer model check
M862.1 P0.4 ; nozzle diameter check
M115 U3.2.3 ; tell printer latest fw version
G90 ; use absolute coordinates
M83 ; extruder relative mode
M204 S2000 T1500 ; MK2 firmware only supports the old M204 format
M104 S215 ; set extruder temp
M140 S60 ; set bed temp
M190 S60 ; wait for bed temp
M109 S215 ; wait for extruder temp
G28 W ; home all without mesh bed level
G80 ; mesh bed leveling
G1 Y-3.0 F1000.0 ; go outside print area
G92 E0.0
G1 X60.0 E9.0  F1000.0 ; intro line
M73 P0 R86
G1 X100.0 E12.5 F1000.0 ; intro line
G92 E0.0
G21 ; set units to millimeters
G90 ; use absolute coordinates
M83 ; use relative distances for extrusion
M900 K0.05 ; Filament gcode LA 1.5
M900 K30 ; Filament gcode LA 1.0
;BEFORE_LAYER_CHANGE
G92 E0.0
;0.2


G1 E-0.80000 F2100.00000
G1 Z0.600 F10800.000
;AFTER_LAYER_CHANGE
;0.2
G1 X98.118 Y119.882
G1 Z0.200
G1 E0.80000 F2100.00000
M204 S1000
G1 F1200.000
G1 X100.140 Y117.860 E0.08967
G1 X101.764 Y117.068 E0.05665
G1 X101.881 Y117.185 E0.00520
G1 X98.705 Y120.362 E0.14086
G1 X99.921 Y120.213 E0.03841
G1 X102.415 Y117.718 E0.11060
G1 X102.764 Y118.067 E0.01548
G1 X104.395 Y116.436 E0.07234
G1 X104.579 Y116.620 E0.00817
G1 X101.080 Y120.120 E0.15518
G1 X101.368 Y120.345 E0.01148
G1 X101.429 Y120.837 E0.01555
G1 X105.113 Y117.153 E0.16335
G1 X105.646 Y117.687 E0.02365
G1 X101.545 Y121.787 E0.18182
G1 X101.662 Y122.737 E0.03001
G1 X106.179 Y118.220 E0.20030
G1 X106.712 Y118.753 E0.02365
G1 X101.779 Y123.687 E0.21877
G1 X101.895 Y124.637 E0.03001
G1 X107.246 Y119.287 E0.23725
G1 X107.779 Y119.820 E0.02365
G1 X102.012 Y125.587 E0.25572
G1 X102.129 Y126.537 E0.03001
G1 X108.312 Y120.353 E0.27419
G1 X108.846 Y120.886 E0.02365
G1 X102.245 Y127.487 E0.29267
G1 X102.362 Y128.437 E0.03001
G1 X109.379 Y121.420 E0.31114
G1 X109.912 Y121.953 E0.02365
G1 X102.479 Y129.387 E0.32962
G1 X102.595 Y130.336 E0.03001
G1 X110.445 Y122.486 E0.34809
G1 X110.979 Y123.019 E0.02365
G1 X102.712 Y131.286 E0.36657
G1 X102.807 Y131.667 E0.01229
G1 X102.919 Y131.891 E0.00786
G1 X103.025 Y132.040 E0.00572
G1 X111.512 Y123.553 E0.37633
G1 X111.851 Y123.892 E0.01503
G1 X110.220 Y125.523 E0.07234
G1 X110.414 Y125.717 E0.00861
G1 X103.638 Y132.493 E0.30045
G1 X103.804 Y132.549 E0.00549
G1 X104.051 Y132.591 E0.00786
G1 X104.601 Y132.597 E0.01722
G1 X110.947 Y126.251 E0.28141
G1 X111.480 Y126.784 E0.02365
G1 X105.498 Y132.767 E0.26529
G1 E-0.80000 F2100.00000
G1 Z0.800 F10800.000
G1 X133.143 Y117.920
G1 Z0.200
G1 E0.80000 F2100.00000
G1 F1200.000
G1 X139.087 Y111.976 E0.26358
G1 X139.620 Y112.509 E0.02365
G1 X133.796 Y118.333 E0.25826
G1 X134.329 Y118.867 E0.02365
G1 X140.154 Y113.042 E0.25826
G1 X140.687 Y113.575 E0.02365
G1 X133.231 Y121.031 E0.33060
G1 X133.765 Y121.564 E0.02365
G1 X141.220 Y114.109 E0.33060
G1 X141.754 Y114.642 E0.02365
G1 X141.064 Y115.332 E0.03059
G1 X139.875 Y116.520 F10800.000
G1 F1200.000
G1 X134.298 Y122.098 E0.24731
G1 X134.461 Y122.260 E0.00721
G1 X132.829 Y123.892 E0.07234
G1 X133.200 Y124.262 E0.01643
G1 X139.840 Y117.622 E0.29442
G1 X139.956 Y118.572 E0.03001
G1 X133.733 Y124.796 E0.27595
G1 X134.266 Y125.329 E0.02365
G1 X140.073 Y119.522 E0.25747
G1 X140.189 Y120.472 E0.03001
G1 X134.800 Y125.862 E0.23900
G1 X135.333 Y126.395 E0.02365
G1 X140.306 Y121.422 E0.22052
G1 X140.423 Y122.372 E0.03001
G1 X135.866 Y126.929 E0.20205
G1 X136.399 Y127.462 E0.02365
G1 X140.539 Y123.322 E0.18357
G1 X140.656 Y124.272 E0.03001
G1 X136.933 Y127.995 E0.16510
G1 X137.466 Y128.528 E0.02365
G1 X140.773 Y125.222 E0.14663
G1 X140.889 Y126.172 E0.03001
G1 X137.999 Y129.062 E0.12815
G1 X138.532 Y129.595 E0.02365
G1 X141.006 Y127.122 E0.10968
G1 X141.123 Y128.071 E0.03001
G1 X139.066 Y130.128 E0.09120
G1 X139.599 Y130.662 E0.02365
G1 X141.239 Y129.021 E0.07273
G1 X141.356 Y129.971 E0.03001
G1 X140.012 Y131.315 E0.05957
G1 E-0.80000 F2100.00000
G1 Z0.800 F10800.000
G1 X122.340 Y134.936
G1 Z0.200
G1 E0.80000 F2100.00000
G1 F1200.000
G1 X87.177 Y134.936 E1.10251
G1 X87.177 Y133.710 E0.03845
G1 X98.049 Y133.703 E0.34087
G1 X98.480 Y133.629 E0.01372
G1 X98.893 Y133.484 E0.01373
G1 X99.275 Y133.271 E0.01373
G1 X99.607 Y133.004 E0.01334
G1 X99.776 Y132.829 E0.00765
G1 X100.023 Y132.498 E0.01294
G1 X100.142 Y132.285 E0.00765
G1 X100.302 Y131.891 E0.01334
G1 X100.396 Y131.463 E0.01373
G1 X100.417 Y131.026 E0.01372
G1 X99.244 Y121.417 E0.30352
G1 X100.362 Y121.280 E0.03533
G1 X101.642 Y131.644 E0.32743
G1 X101.702 Y131.882 E0.00769
G1 X101.856 Y132.268 E0.01303
G1 X101.974 Y132.483 E0.00770
G1 X102.228 Y132.828 E0.01342
G1 X102.536 Y133.125 E0.01343
G1 X102.723 Y133.264 E0.00730
G1 X102.921 Y133.386 E0.00730
G1 X103.311 Y133.563 E0.01342
G1 X103.738 Y133.675 E0.01382
G1 X104.152 Y133.710 E0.01303
G1 X140.037 Y133.710 E1.12516
G1 X140.448 Y133.675 E0.01295
G1 X140.872 Y133.565 E0.01373
G1 X141.260 Y133.391 E0.01334
G1 X141.468 Y133.263 E0.00765
G1 X141.799 Y132.997 E0.01334
G1 X142.089 Y132.669 E0.01373
G1 X142.320 Y132.297 E0.01373
G1 X142.485 Y131.891 E0.01373
G1 X142.579 Y131.463 E0.01373
G1 X142.600 Y131.026 E0.01372
G1 X140.800 Y116.315 E0.46471
G1 X141.918 Y116.177 E0.03531
G1 X143.828 Y131.663 E0.48921
G1 X143.953 Y132.078 E0.01361
G1 X144.150 Y132.473 E0.01382
G1 X144.411 Y132.828 E0.01382
G1 X144.728 Y133.134 E0.01382
G1 X145.093 Y133.381 E0.01382
G1 X145.494 Y133.563 E0.01382
G1 X145.920 Y133.675 E0.01382
G1 X146.334 Y133.710 E0.01303
G1 X157.503 Y133.710 E0.35018
G1 X157.503 Y134.936 E0.03844
G1 X122.400 Y134.936 E1.10063
G1 X122.340 Y135.313 F10800.000
G1 F1200.000
G1 X86.800 Y135.313 E1.11433
G1 X86.800 Y133.333 E0.06209
G1 X98.016 Y133.326 E0.35168
G1 X98.385 Y133.263 E0.01172
G1 X98.737 Y133.139 E0.01172
G1 X99.064 Y132.957 E0.01172
G1 X99.352 Y132.726 E0.01158
G1 X99.488 Y132.584 E0.00614
G1 X99.706 Y132.292 E0.01144
G1 X99.802 Y132.121 E0.00614
G1 X99.941 Y131.779 E0.01158
G1 X100.021 Y131.414 E0.01172
G1 X100.039 Y131.040 E0.01172
G1 X98.824 Y121.089 E0.31434
G1 X100.690 Y120.860 E0.05896
G1 X102.013 Y131.574 E0.33849
G1 X102.062 Y131.765 E0.00618
G1 X102.197 Y132.106 E0.01152
G1 X102.293 Y132.279 E0.00618
G1 X102.513 Y132.579 E0.01166
G1 X102.780 Y132.837 E0.01166
G1 X102.935 Y132.952 E0.00604
G1 X103.099 Y133.053 E0.00604
G1 X103.438 Y133.207 E0.01166
G1 X103.802 Y133.302 E0.01180
G1 X104.168 Y133.333 E0.01152
G1 X140.021 Y133.333 E1.12415
G1 X140.385 Y133.302 E0.01144
G1 X140.746 Y133.208 E0.01172
G1 X141.083 Y133.057 E0.01158
G1 X141.250 Y132.954 E0.00614
G1 X141.538 Y132.723 E0.01158
G1 X141.786 Y132.443 E0.01172
G1 X141.983 Y132.125 E0.01172
G1 X142.123 Y131.779 E0.01172
G1 X142.204 Y131.414 E0.01172
G1 X142.221 Y131.040 E0.01172
G1 X140.380 Y115.986 E0.47552
G1 X142.246 Y115.757 E0.05895
G1 X144.149 Y131.251 E0.48944
G1 X144.197 Y131.581 E0.01045
G1 X144.305 Y131.939 E0.01172
G1 X144.473 Y132.275 E0.01180
G1 X144.695 Y132.579 E0.01180
G1 X144.966 Y132.840 E0.01180
G1 X145.278 Y133.051 E0.01180
G1 X145.620 Y133.207 E0.01180
G1 X145.985 Y133.302 E0.01180
G1 X146.351 Y133.333 E0.01152
G1 X157.880 Y133.333 E0.36150
G1 X157.880 Y135.313 E0.06208
G1 X122.400 Y135.313 E1.11245
G1 X122.134 Y134.970 F10800.000
G1 E-0.80000 F2100.00000
G1 Z0.800 F10800.000
G1 X100.493 Y130.716
G1 Z0.200
G1 E0.80000 F2100.00000
G1 F1200.000
G1 X101.348 Y131.571 E0.03793
G1 X101.272 Y130.962 E0.01925
G1 X100.613 Y130.303 E0.02925
G1 X100.539 Y129.695 E0.01922
G1 X101.197 Y130.353 E0.02920
G1 X101.122 Y129.744 E0.01925
G1 X100.465 Y129.087 E0.02916
G1 X100.391 Y128.479 E0.01922
G1 X101.047 Y129.135 E0.02912
G1 X100.972 Y128.527 E0.01925
G1 X100.317 Y127.871 E0.02908
G1 X100.242 Y127.263 E0.01922
G1 X100.897 Y127.918 E0.02903
G1 X100.821 Y127.309 E0.01925
G1 X100.168 Y126.655 E0.02899
G1 X100.094 Y126.047 E0.01922
G1 X100.746 Y126.700 E0.02895
G1 X100.671 Y126.091 E0.01925
G1 X100.020 Y125.439 E0.02891
G1 X99.945 Y124.832 E0.01922
G1 X100.596 Y125.482 E0.02886
G1 X100.521 Y124.873 E0.01925
G1 X99.871 Y124.224 E0.02882
G1 X99.797 Y123.616 E0.01922
G1 X100.446 Y124.264 E0.02878
G1 X100.370 Y123.655 E0.01925
G1 X99.723 Y123.008 E0.02874
G1 X99.649 Y122.400 E0.01922
G1 X100.295 Y123.046 E0.02869
G1 X100.220 Y122.437 E0.01925
G1 X99.574 Y121.792 E0.02865
G1 X99.559 Y121.663 E0.00406
G1 X99.934 Y121.617 E0.01186
G1 X100.340 Y122.023 E0.01802
G1 E-0.80000 F2100.00000
G1 Z0.800 F10800.000
G1 X87.290 Y134.060
G1 Z0.200
G1 E0.80000 F2100.00000
G1 F1200.000
G1 X87.883 Y134.653 E0.02633
G1 X88.417 Y134.653 E0.01675
G1 X87.756 Y133.992 E0.02934
G1 X88.290 Y133.992 E0.01674
G1 X88.951 Y134.653 E0.02935
G1 X89.485 Y134.653 E0.01675
G1 X88.823 Y133.992 E0.02936
G1 X89.356 Y133.991 E0.01674
G1 X90.018 Y134.653 E0.02938
G1 X90.552 Y134.653 E0.01675
G1 X89.890 Y133.991 E0.02939
G1 X90.423 Y133.991 E0.01674
G1 X91.086 Y134.653 E0.02941
G1 X91.620 Y134.653 E0.01675
G1 X90.957 Y133.990 E0.02942
G1 X91.490 Y133.990 E0.01674
G1 X92.153 Y134.653 E0.02944
G1 X92.687 Y134.653 E0.01675
G1 X92.024 Y133.990 E0.02945
G1 X92.557 Y133.989 E0.01674
G1 X93.221 Y134.653 E0.02947
G1 X93.755 Y134.653 E0.01675
G1 X93.090 Y133.989 E0.02948
G1 X93.624 Y133.989 E0.01674
G1 X94.288 Y134.653 E0.02950
G1 X94.822 Y134.653 E0.01675
G1 X94.157 Y133.988 E0.02951
G1 X94.691 Y133.988 E0.01674
G1 X95.356 Y134.653 E0.02953
G1 X95.890 Y134.653 E0.01675
G1 X95.224 Y133.988 E0.02954
G1 X95.757 Y133.987 E0.01674
G1 X96.423 Y134.653 E0.02956
G1 X96.957 Y134.653 E0.01675
G1 X96.291 Y133.987 E0.02957
G1 X96.824 Y133.987 E0.01674
G1 X97.491 Y134.653 E0.02959
G1 X98.025 Y134.653 E0.01675
G1 X97.358 Y133.986 E0.02960
G1 X97.891 Y133.986 E0.01674
G1 X98.558 Y134.653 E0.02962
G1 X99.092 Y134.653 E0.01675
G1 X98.373 Y133.934 E0.03190
G1 X98.551 Y133.904 E0.00566
G1 X98.792 Y133.819 E0.00801
G1 X99.626 Y134.653 E0.03702
G1 X100.160 Y134.653 E0.01675
G1 X99.163 Y133.657 E0.04422
G1 X99.496 Y133.456 E0.01220
G1 X100.693 Y134.653 E0.05313
G1 X101.227 Y134.653 E0.01675
G1 X99.792 Y133.218 E0.06369
G1 X100.047 Y132.939 E0.01186
G1 X101.761 Y134.653 E0.07609
G1 X102.295 Y134.653 E0.01675
G1 X100.272 Y132.631 E0.08977
G1 X100.451 Y132.276 E0.01247
G1 X102.828 Y134.653 E0.10551
G1 X103.362 Y134.653 E0.01675
G1 X100.593 Y131.884 E0.12289
G1 X100.681 Y131.438 E0.01428
G1 X101.578 Y132.335 E0.03983
G1 X101.736 Y132.636 E0.01064
G1 X102.014 Y133.015 E0.01476
G1 X102.353 Y133.341 E0.01476
G1 X102.564 Y133.498 E0.00826
G1 X102.788 Y133.636 E0.00826
G1 X102.955 Y133.712 E0.00576
G1 X103.896 Y134.653 E0.04176
G1 X104.430 Y134.653 E0.01675
G1 X103.735 Y133.958 E0.03084
G1 X104.303 Y133.993 E0.01787
G1 X104.963 Y134.653 E0.02930
G1 X105.497 Y134.653 E0.01675
G1 X104.837 Y133.993 E0.02930
G1 X105.371 Y133.993 E0.01675
G1 X106.031 Y134.653 E0.02930
G1 X106.565 Y134.653 E0.01675
G1 X105.904 Y133.993 E0.02930
G1 X106.438 Y133.993 E0.01675
G1 X107.098 Y134.653 E0.02930
G1 X107.632 Y134.653 E0.01675
G1 X106.972 Y133.993 E0.02930
G1 X107.506 Y133.993 E0.01675
G1 X108.166 Y134.653 E0.02930
G1 X108.700 Y134.653 E0.01675
G1 X108.039 Y133.993 E0.02930
G1 X108.573 Y133.993 E0.01675
G1 X109.233 Y134.653 E0.02930
G1 X109.767 Y134.653 E0.01675
G1 X109.107 Y133.993 E0.02930
G1 X109.641 Y133.993 E0.01675
G1 X110.301 Y134.653 E0.02930
G1 X110.835 Y134.653 E0.01675
G1 X110.174 Y133.993 E0.02930
G1 X110.708 Y133.993 E0.01675
G1 X111.368 Y134.653 E0.02930
G1 X111.902 Y134.653 E0.01675
G1 X111.242 Y133.993 E0.02930
G1 X111.776 Y133.993 E0.01675
G1 X112.436 Y134.653 E0.02930
G1 X112.970 Y134.653 E0.01675
G1 X112.309 Y133.993 E0.02930
G1 X112.843 Y133.993 E0.01675
G1 X113.503 Y134.653 E0.02930
G1 X114.037 Y134.653 E0.01675
G1 X113.377 Y133.993 E0.02930
G1 X113.911 Y133.993 E0.01675
G1 X114.571 Y134.653 E0.02930
G1 X115.105 Y134.653 E0.01675
G1 X114.444 Y133.993 E0.02930
G1 X114.978 Y133.993 E0.01675
G1 X115.638 Y134.653 E0.02930
G1 X116.172 Y134.653 E0.01675
G1 X115.512 Y133.993 E0.02930
G1 X116.046 Y133.993 E0.01675
G1 X116.706 Y134.653 E0.02930
G1 X117.240 Y134.653 E0.01675
G1 X116.579 Y133.993 E0.02930
G1 X117.113 Y133.993 E0.01675
G1 X117.773 Y134.653 E0.02930
G1 X118.307 Y134.653 E0.01675
G1 X117.647 Y133.993 E0.02930
G1 X118.181 Y133.993 E0.01675
G1 X118.841 Y134.653 E0.02930
G1 X119.375 Y134.653 E0.01675
G1 X118.714 Y133.993 E0.02930
G1 X119.248 Y133.993 E0.01675
G1 X119.908 Y134.653 E0.02930
G1 X120.442 Y134.653 E0.01675
G1 X119.782 Y133.993 E0.02930
G1 X120.316 Y133.993 E0.01675
G1 X120.976 Y134.653 E0.02930
G1 X121.510 Y134.653 E0.01675
G1 X120.849 Y133.993 E0.02930
G1 X121.383 Y133.993 E0.01675
G1 X122.043 Y134.653 E0.02930
G1 X122.577 Y134.653 E0.01675
G1 X121.917 Y133.993 E0.02930
G1 X122.451 Y133.993 E0.01675
G1 X123.111 Y134.653 E0.02930
G1 X123.645 Y134.653 E0.01675
G1 X122.984 Y133.993 E0.02930
G1 X123.518 Y133.993 E0.01675
G1 X124.178 Y134.653 E0.02930
G1 X124.712 Y134.653 E0.01675
G1 X124.052 Y133.993 E0.02930
G1 X124.586 Y133.993 E0.01675
G1 X125.246 Y134.653 E0.02930
G1 X125.780 Y134.653 E0.01675
G1 X125.119 Y133.993 E0.02930
G1 X125.653 Y133.993 E0.01675
G1 X126.313 Y134.653 E0.02930
G1 X126.847 Y134.653 E0.01675
G1 X126.187 Y133.993 E0.02930
G1 X126.721 Y133.993 E0.01675
G1 X127.381 Y134.653 E0.02930
G1 X127.915 Y134.653 E0.01675
G1 X127.254 Y133.993 E0.02930
G1 X127.788 Y133.993 E0.01675
G1 X128.448 Y134.653 E0.02930
G1 X128.982 Y134.653 E0.01675
G1 X128.322 Y133.993 E0.02930
G1 X128.856 Y133.993 E0.01675
G1 X129.516 Y134.653 E0.02930
G1 X130.050 Y134.653 E0.01675
G1 X129.389 Y133.993 E0.02930
G1 X129.923 Y133.993 E0.01675
G1 X130.583 Y134.653 E0.02930
G1 X131.117 Y134.653 E0.01675
G1 X130.457 Y133.993 E0.02930
G1 X130.991 Y133.993 E0.01675
G1 X131.651 Y134.653 E0.02930
G1 X132.185 Y134.653 E0.01675
G1 X131.524 Y133.993 E0.02930
G1 X132.058 Y133.993 E0.01675
G1 X132.718 Y134.653 E0.02930
G1 X133.252 Y134.653 E0.01675
G1 X132.592 Y133.993 E0.02930
G1 X133.126 Y133.993 E0.01675
G1 X133.786 Y134.653 E0.02930
G1 X134.320 Y134.653 E0.01675
G1 X133.659 Y133.993 E0.02930
G1 X134.193 Y133.993 E0.01675
G1 X134.853 Y134.653 E0.02930
G1 X135.387 Y134.653 E0.01675
G1 X134.727 Y133.993 E0.02930
G1 X135.261 Y133.993 E0.01675
G1 X135.921 Y134.653 E0.02930
G1 X136.455 Y134.653 E0.01675
G1 X135.794 Y133.993 E0.02930
G1 X136.328 Y133.993 E0.01675
G1 X136.988 Y134.653 E0.02930
G1 X137.522 Y134.653 E0.01675
G1 X136.862 Y133.993 E0.02930
G1 X137.396 Y133.993 E0.01675
G1 X138.056 Y134.653 E0.02930
G1 X138.590 Y134.653 E0.01675
G1 X137.929 Y133.993 E0.02930
G1 X138.463 Y133.993 E0.01675
G1 X139.123 Y134.653 E0.02930
G1 X139.657 Y134.653 E0.01675
G1 X138.997 Y133.993 E0.02930
G1 X139.531 Y133.993 E0.01675
G1 X140.191 Y134.653 E0.02930
G1 X140.725 Y134.653 E0.01675
G1 X140.063 Y133.992 E0.02936
G1 X140.547 Y133.942 E0.01526
G1 X141.258 Y134.653 E0.03157
G1 X141.792 Y134.653 E0.01675
G1 X140.970 Y133.831 E0.03648
G1 X141.338 Y133.666 E0.01267
G1 X142.326 Y134.653 E0.04384
G1 X142.860 Y134.653 E0.01675
G1 X141.670 Y133.463 E0.05280
G1 X141.966 Y133.226 E0.01191
G1 X143.393 Y134.653 E0.06336
G1 X143.927 Y134.653 E0.01675
G1 X142.221 Y132.947 E0.07573
G1 X142.317 Y132.838 E0.00456
G1 X142.443 Y132.635 E0.00749
G1 X144.461 Y134.653 E0.08956
G1 X144.995 Y134.653 E0.01675
G1 X142.629 Y132.288 E0.10499
G1 X142.773 Y131.898 E0.01304
G1 X145.698 Y134.823 E0.12982
G1 E-0.80000 F2100.00000
G1 Z0.800 F10800.000
G1 X157.390 Y134.238
G1 Z0.200
G1 E0.80000 F2100.00000
G1 F1200.000
G1 X157.144 Y133.993 E0.01089
G1 X156.611 Y133.993 E0.01675
G1 X157.220 Y134.602 E0.02705
G1 X157.220 Y134.653 E0.00159
