; generated by PrusaSlicer 2.1.0+win64 on 2019-11-27 at 17:54:43 UTC

; 

; external perimeters extrusion width = 0.45mm
; perimeters extrusion width = 0.45mm
; infill extrusion width = 0.45mm
; solid infill extrusion width = 0.45mm
; top infill extrusion width = 0.40mm
; support material extrusion width = 0.35mm
; first layer extrusion width = 0.42mm

M73 P0 R90
M201 X9000 Y9000 Z500 E10000 ; sets maximum accelerations, mm/sec^2
M203 X500 Y500 Z12 E120 ; sets maximum feedrates, mm/sec
M204 P2000 R1500 T2000 ; sets acceleration (P, T) and retract acceleration (R), mm/sec^2
M205 X10.00 Y10.00 Z0.20 E2.50 ; sets the jerk limits, mm/sec
M205 S0 T0 ; sets the minimum extruding and travel feed rate, mm/sec
M107
M862.3 P "MK2S" ; printer model check
M862.1 P0.4 ; nozzle diameter check
M115 U3.2.3 ; tell printer latest fw version
G90 ; use absolute coordinates
M83 ; extruder relative mode
M204 S2000 T1500 ; MK2 firmware only supports the old M204 format
M104 S215 ; set extruder temp
M140 S60 ; set bed temp
M190 S60 ; wait for bed temp
M109 S215 ; wait for extruder temp
G28 W ; home all without mesh bed level
G80 ; mesh bed leveling
G1 Y-3.0 F1000.0 ; go outside print area
G92 E0.0
G1 X60.0 E9.0  F1000.0 ; intro line
M73 P0 R90
G1 X100.0 E12.5 F1000.0 ; intro line
G92 E0.0
G21 ; set units to millimeters
G90 ; use absolute coordinates
M83 ; use relative distances for extrusion
M900 K30 ; Filament gcode
;BEFORE_LAYER_CHANGE
G92 E0.0
;0.2


G1 E-0.80000 F2100.00000
G1 Z0.600 F10800.000
;AFTER_LAYER_CHANGE
;0.2
G1 X93.278 Y75.412
G1 Z0.200
G1 E0.80000 F2100.00000
M204 S1000
G1 F1200
G1 X93.826 Y74.986 E0.02179
G1 X123.182 Y58.935 E1.04905
G1 X123.695 Y58.734 E0.01726
G1 X124.227 Y58.668 E0.01680
G1 X159.675 Y58.668 E1.11144
G1 X160.502 Y58.830 E0.02642
G1 X161.208 Y59.295 E0.02653
G1 X161.685 Y59.991 E0.02642
G1 X161.863 Y60.818 E0.02653
G1 X161.863 Y149.317 E2.77482
G1 X161.709 Y150.109 E0.02529
G1 X161.276 Y150.794 E0.02541
G1 X160.561 Y151.303 E0.02754
G1 X159.702 Y151.490 E0.02754
G1 X125.723 Y151.491 E1.06541
G1 X123.779 Y151.274 E0.06133
G1 X88.711 Y135.810 E1.20170
G1 X88.107 Y135.411 E0.02270
G1 X87.607 Y134.715 E0.02687
G1 X87.412 Y133.880 E0.02687
G1 X87.419 Y114.454 E0.60911
G1 X92.714 Y76.580 E1.19907
G1 X92.908 Y75.953 E0.02055
G1 X93.244 Y75.462 E0.01867
G1 E-0.80000 F2100.00000
G1 Z0.800 F10800.000
G1 X124.229 Y68.263
G1 Z0.200
G1 E0.80000 F2100.00000
G1 F1200
G1 X124.229 Y60.857 E0.23223
G1 X124.983 Y60.857 E0.02365
G1 X124.983 Y68.094 E0.22691
G1 X125.738 Y68.094 E0.02365
G1 X125.738 Y60.857 E0.22691
G1 X126.492 Y60.857 E0.02365
G1 X126.492 Y68.263 E0.23223
G1 X127.246 Y68.263 F10800.000
G1 F1200
G1 X127.246 Y65.301 E0.09288
G1 X128.000 Y64.578 F10800.000
G1 F1200
G1 X128.000 Y64.763 E0.00580
G1 X128.754 Y64.763 E0.02365
G1 X128.754 Y64.747 E0.00048
G1 X129.508 Y64.747 E0.02365
G1 X129.508 Y64.763 E0.00048
G1 X130.262 Y64.763 E0.02365
G1 X130.262 Y64.747 E0.00048
G1 X131.017 Y64.747 E0.02365
G1 X131.017 Y64.763 E0.00048
G1 X131.771 Y64.763 E0.02365
G1 X131.771 Y64.747 E0.00048
G1 X132.525 Y64.747 E0.02365
G1 X132.525 Y64.763 E0.00048
G1 X133.279 Y64.763 E0.02365
G1 X133.279 Y64.747 E0.00048
G1 X134.033 Y64.747 E0.02365
G1 X134.033 Y64.763 E0.00048
G1 X134.787 Y64.763 E0.02365
G1 X134.787 Y64.747 E0.00048
G1 X135.542 Y64.747 E0.02365
G1 X135.542 Y64.763 E0.00048
G1 X136.296 Y64.763 E0.02365
G1 X136.296 Y64.747 E0.00048
G1 X137.050 Y64.747 E0.02365
G1 X137.050 Y64.763 E0.00048
G1 X137.804 Y64.763 E0.02365
G1 X137.804 Y64.747 E0.00048
G1 X138.558 Y64.747 E0.02365
G1 X138.558 Y64.763 E0.00048
G1 X139.312 Y64.763 E0.02365
G1 X139.312 Y64.747 E0.00048
G1 X140.067 Y64.747 E0.02365
G1 X140.067 Y64.763 E0.00048
G1 X140.821 Y64.763 E0.02365
G1 X140.821 Y64.747 E0.00048
G1 X141.575 Y64.747 E0.02365
G1 X141.575 Y64.763 E0.00048
G1 X142.329 Y64.763 E0.02365
G1 X142.329 Y64.747 E0.00048
G1 X143.083 Y64.747 E0.02365
G1 X143.083 Y64.763 E0.00048
G1 X143.837 Y64.763 E0.02365
G1 X143.837 Y64.747 E0.00048
G1 X144.591 Y64.747 E0.02365
G1 X144.591 Y64.763 E0.00048
G1 X145.346 Y64.763 E0.02365
G1 X145.346 Y64.747 E0.00048
G1 X146.100 Y64.747 E0.02365
G1 X146.100 Y64.763 E0.00048
G1 X146.854 Y64.763 E0.02365
G1 X146.854 Y64.747 E0.00048
G1 X147.608 Y64.747 E0.02365
G1 X147.608 Y64.763 E0.00048
G1 X148.362 Y64.763 E0.02365
G1 X148.362 Y64.747 E0.00048
G1 X149.116 Y64.747 E0.02365
G1 X149.116 Y64.763 E0.00048
G1 X149.871 Y64.763 E0.02365
G1 X149.871 Y64.747 E0.00048
G1 X150.625 Y64.747 E0.02365
G1 X150.625 Y64.763 E0.00048
G1 X151.379 Y64.763 E0.02365
G1 X151.379 Y64.747 E0.00048
G1 X152.133 Y64.747 E0.02365
G1 X152.133 Y64.763 E0.00048
G1 X153.641 Y64.747 E0.04729
G1 X153.641 Y64.763 E0.00048
G1 X154.396 Y64.763 E0.02365
G1 X154.396 Y64.747 E0.00048
G1 X155.904 Y64.763 E0.04729
G1 X155.904 Y64.747 E0.00048
G1 X156.645 Y64.747 E0.02323
G1 X156.658 Y64.932 E0.00582
G1 X156.396 Y64.543 F10800.000
G1 F1200
G1 X156.396 Y63.821 E0.01844
G1 X155.889 Y63.821 E0.01295
G1 X155.889 Y64.405 E0.01491
G1 X155.382 Y64.405 E0.01295
G1 X155.382 Y63.821 E0.01491
G1 X154.875 Y63.821 E0.01295
G1 X154.875 Y64.405 E0.01491
G1 X154.368 Y64.405 E0.01295
G1 X154.368 Y63.821 E0.01491
G1 X153.861 Y63.821 E0.01295
G1 X153.861 Y64.405 E0.01491
G1 X153.354 Y64.405 E0.01295
G1 X153.354 Y63.821 E0.01491
G1 X152.847 Y63.821 E0.01295
G1 X152.847 Y64.405 E0.01491
G1 X152.340 Y64.405 E0.01295
G1 X152.340 Y63.821 E0.01491
G1 X151.833 Y63.821 E0.01295
G1 X151.833 Y64.405 E0.01491
G1 X151.326 Y64.405 E0.01295
G1 X151.326 Y63.821 E0.01491
G1 X150.819 Y63.821 E0.01295
G1 X150.819 Y64.405 E0.01491
G1 X150.311 Y64.405 E0.01295
G1 X150.311 Y63.821 E0.01491
G1 X149.804 Y63.821 E0.01295
G1 X149.804 Y64.405 E0.01491
G1 X149.297 Y64.405 E0.01295
G1 X149.297 Y63.821 E0.01491
G1 X148.790 Y63.821 E0.01295
G1 X148.790 Y64.405 E0.01491
G1 X148.283 Y64.405 E0.01295
G1 X148.283 Y63.821 E0.01491
G1 X147.776 Y63.821 E0.01295
G1 X147.776 Y64.405 E0.01491
G1 X147.269 Y64.405 E0.01295
G1 X147.269 Y63.821 E0.01491
G1 X146.762 Y63.821 E0.01295
G1 X146.762 Y64.405 E0.01491
G1 X146.255 Y64.405 E0.01295
G1 X146.255 Y63.821 E0.01491
G1 X145.748 Y63.821 E0.01295
G1 X145.748 Y64.405 E0.01491
G1 X145.241 Y64.405 E0.01295
G1 X145.241 Y63.821 E0.01491
G1 X144.734 Y63.821 E0.01295
G1 X144.734 Y64.405 E0.01491
G1 X144.227 Y64.405 E0.01295
G1 X144.227 Y63.821 E0.01491
G1 X143.719 Y63.821 E0.01295
G1 X143.719 Y64.405 E0.01491
G1 X143.212 Y64.405 E0.01295
G1 X143.212 Y63.821 E0.01491
G1 X142.705 Y63.821 E0.01295
G1 X142.705 Y64.405 E0.01491
G1 X142.198 Y64.405 E0.01295
G1 X142.198 Y63.821 E0.01491
G1 X141.691 Y63.821 E0.01295
G1 X141.691 Y64.405 E0.01491
G1 X141.184 Y64.405 E0.01295
G1 X141.184 Y63.821 E0.01491
G1 X140.677 Y63.821 E0.01295
G1 X140.677 Y64.405 E0.01491
G1 X140.170 Y64.405 E0.01295
G1 X140.170 Y63.821 E0.01491
G1 X139.663 Y63.821 E0.01295
G1 X139.663 Y64.405 E0.01491
G1 X139.156 Y64.405 E0.01295
G1 X139.156 Y63.821 E0.01491
G1 X138.649 Y63.821 E0.01295
G1 X138.649 Y64.405 E0.01491
G1 X138.142 Y64.405 E0.01295
G1 X138.142 Y63.821 E0.01491
G1 X137.635 Y63.821 E0.01295
G1 X137.635 Y64.405 E0.01491
G1 X137.127 Y64.405 E0.01295
G1 X137.127 Y63.821 E0.01491
G1 X136.620 Y63.821 E0.01295
G1 X136.620 Y64.405 E0.01491
G1 X136.113 Y64.405 E0.01295
G1 X136.113 Y63.821 E0.01491
G1 X135.606 Y63.821 E0.01295
G1 X135.606 Y64.405 E0.01491
G1 X135.099 Y64.405 E0.01295
G1 X135.099 Y63.821 E0.01491
G1 X134.592 Y63.821 E0.01295
G1 X134.592 Y64.405 E0.01491
G1 X134.085 Y64.405 E0.01295
G1 X134.085 Y63.821 E0.01491
G1 X133.578 Y63.821 E0.01295
G1 X133.578 Y64.405 E0.01491
G1 X133.071 Y64.405 E0.01295
G1 X133.071 Y63.821 E0.01491
G1 X132.564 Y63.821 E0.01295
G1 X132.564 Y64.405 E0.01491
G1 X132.057 Y64.405 E0.01295
G1 X132.057 Y63.821 E0.01491
G1 X131.550 Y63.821 E0.01295
G1 X131.550 Y64.405 E0.01491
G1 X131.042 Y64.405 E0.01295
G1 X131.042 Y63.821 E0.01491
G1 X130.535 Y63.821 E0.01295
G1 X130.535 Y64.405 E0.01491
G1 X130.028 Y64.405 E0.01295
G1 X130.028 Y63.821 E0.01491
G1 X129.521 Y63.821 E0.01295
G1 X129.521 Y64.405 E0.01491
G1 X129.014 Y64.405 E0.01295
G1 X129.014 Y63.821 E0.01491
G1 X128.507 Y63.821 E0.01295
G1 X128.507 Y64.405 E0.01491
G1 X128.000 Y64.405 E0.01295
G1 X128.000 Y63.821 E0.01491
G1 X127.493 Y63.821 E0.01295
G1 X127.493 Y65.129 E0.03338
G1 X126.986 Y65.129 E0.01295
G1 X126.986 Y63.683 E0.03690
G1 X127.246 Y63.649 F10800.000
G1 F1200
G1 X127.246 Y60.857 E0.08756
G1 X128.000 Y60.857 E0.02365
G1 X128.000 Y63.479 E0.08224
G1 X128.754 Y63.479 E0.02365
G1 X128.754 Y60.857 E0.08224
G1 X129.508 Y60.857 E0.02365
G1 X129.508 Y63.479 E0.08224
G1 X130.262 Y63.479 E0.02365
G1 X130.262 Y60.857 E0.08224
G1 X131.017 Y60.857 E0.02365
G1 X131.017 Y63.479 E0.08224
G1 X131.771 Y63.479 E0.02365
G1 X131.771 Y60.857 E0.08224
G1 X132.525 Y60.857 E0.02365
G1 X132.525 Y63.479 E0.08224
G1 X133.279 Y63.479 E0.02365
G1 X133.279 Y60.857 E0.08224
G1 X134.033 Y60.857 E0.02365
G1 X134.033 Y63.479 E0.08224
G1 X134.787 Y63.479 E0.02365
G1 X134.787 Y60.857 E0.08224
G1 X135.542 Y60.857 E0.02365
G1 X135.542 Y63.479 E0.08224
G1 X136.296 Y63.479 E0.02365
G1 X136.296 Y60.857 E0.08224
G1 X137.050 Y60.857 E0.02365
G1 X137.050 Y63.479 E0.08224
G1 X137.804 Y63.479 E0.02365
G1 X137.804 Y60.857 E0.08224
G1 X138.558 Y60.857 E0.02365
G1 X138.558 Y63.479 E0.08224
G1 X139.312 Y63.479 E0.02365
G1 X139.312 Y60.857 E0.08224
G1 X140.067 Y60.857 E0.02365
G1 X140.067 Y63.479 E0.08224
G1 X140.821 Y63.479 E0.02365
G1 X140.821 Y60.857 E0.08224
G1 X141.575 Y60.857 E0.02365
G1 X141.575 Y63.479 E0.08224
G1 X142.329 Y63.479 E0.02365
G1 X142.329 Y60.857 E0.08224
G1 X143.083 Y60.857 E0.02365
G1 X143.083 Y63.479 E0.08224
G1 X143.837 Y63.479 E0.02365
G1 X143.837 Y60.857 E0.08224
G1 X144.591 Y60.857 E0.02365
G1 X144.591 Y63.479 E0.08224
G1 X145.346 Y63.479 E0.02365
G1 X145.346 Y60.857 E0.08224
G1 X146.100 Y60.857 E0.02365
G1 X146.100 Y63.479 E0.08224
G1 X146.854 Y63.479 E0.02365
G1 X146.854 Y60.857 E0.08224
G1 X147.608 Y60.857 E0.02365
G1 X147.608 Y63.479 E0.08224
G1 X148.362 Y63.479 E0.02365
G1 X148.362 Y60.857 E0.08224
G1 X149.116 Y60.857 E0.02365
G1 X149.116 Y63.479 E0.08224
G1 X149.871 Y63.479 E0.02365
G1 X149.871 Y60.857 E0.08224
G1 X150.625 Y60.857 E0.02365
G1 X150.625 Y63.479 E0.08224
G1 X151.379 Y63.479 E0.02365
G1 X151.379 Y60.857 E0.08224
G1 X152.133 Y60.857 E0.02365
G1 X152.133 Y63.479 E0.08224
G1 X152.887 Y63.479 E0.02365
G1 X152.887 Y60.857 E0.08224
G1 X153.641 Y60.857 E0.02365
G1 X153.641 Y63.479 E0.08224
G1 X154.396 Y63.479 E0.02365
G1 X154.396 Y60.857 E0.08224
G1 X155.150 Y60.857 E0.02365
G1 X155.150 Y63.479 E0.08224
G1 X155.904 Y63.479 E0.02365
G1 X155.904 Y60.857 E0.08224
G1 X156.658 Y60.857 E0.02365
G1 X156.658 Y63.479 E0.08224
G1 X157.098 Y63.479 E0.01379
G1 X157.098 Y65.471 E0.06243
G1 X157.043 Y65.471 E0.00171
G1 X157.043 Y68.094 E0.08224
G1 X157.412 Y68.094 E0.01157
G1 X157.412 Y60.857 E0.22691
G1 X158.166 Y60.857 E0.02365
G1 X158.166 Y68.094 E0.22691
G1 X158.921 Y68.094 E0.02365
G1 X158.921 Y60.857 E0.22691
G1 X159.675 Y60.857 E0.02365
G1 X159.675 Y68.263 E0.23223
G1 E-0.80000 F2100.00000
G1 Z0.800 F10800.000
G1 X156.658 Y145.422
G1 Z0.200
G1 E0.80000 F2100.00000
G1 F1200
G1 X156.658 Y145.237 E0.00580
G1 X153.641 Y145.253 E0.09459
G1 X153.641 Y145.237 E0.00048
G1 X152.887 Y145.237 E0.02365
G1 X152.887 Y145.253 E0.00048
G1 X152.133 Y145.253 E0.02365
G1 X152.133 Y145.237 E0.00048
G1 X151.379 Y145.237 E0.02365
G1 X151.379 Y145.253 E0.00048
G1 X150.625 Y145.253 E0.02365
G1 X150.625 Y145.237 E0.00048
G1 X149.871 Y145.237 E0.02365
G1 X149.871 Y145.253 E0.00048
G1 X149.116 Y145.253 E0.02365
G1 X149.116 Y145.237 E0.00048
G1 X148.362 Y145.237 E0.02365
G1 X148.362 Y145.253 E0.00048
G1 X147.608 Y145.253 E0.02365
G1 X147.608 Y145.237 E0.00048
G1 X146.854 Y145.237 E0.02365
G1 X146.854 Y145.253 E0.00048
G1 X146.100 Y145.253 E0.02365
G1 X146.100 Y145.237 E0.00048
G1 X145.346 Y145.237 E0.02365
G1 X145.346 Y145.253 E0.00048
G1 X143.837 Y145.237 E0.04729
G1 X143.837 Y145.253 E0.00048
G1 X143.083 Y145.253 E0.02365
G1 X143.083 Y145.237 E0.00048
G1 X142.329 Y145.237 E0.02365
G1 X142.329 Y145.253 E0.00048
G1 X141.575 Y145.253 E0.02365
G1 X141.575 Y145.237 E0.00048
G1 X140.821 Y145.237 E0.02365
G1 X140.821 Y145.253 E0.00048
G1 X140.067 Y145.253 E0.02365
G1 X140.067 Y145.237 E0.00048
G1 X139.312 Y145.237 E0.02365
G1 X139.312 Y145.253 E0.00048
G1 X138.558 Y145.253 E0.02365
G1 X138.558 Y145.237 E0.00048
G1 X137.804 Y145.237 E0.02365
G1 X137.804 Y145.253 E0.00048
G1 X137.050 Y145.253 E0.02365
G1 X137.050 Y145.237 E0.00048
G1 X136.296 Y145.237 E0.02365
G1 X136.296 Y145.253 E0.00048
G1 X135.542 Y145.253 E0.02365
G1 X135.542 Y145.237 E0.00048
G1 X134.787 Y145.237 E0.02365
G1 X134.787 Y145.253 E0.00048
G1 X134.033 Y145.253 E0.02365
G1 X134.033 Y145.237 E0.00048
G1 X133.279 Y145.237 E0.02365
G1 X133.279 Y145.253 E0.00048
G1 X132.525 Y145.253 E0.02365
G1 X132.525 Y145.237 E0.00048
G1 X131.771 Y145.237 E0.02365
G1 X131.771 Y145.253 E0.00048
G1 X128.754 Y145.237 E0.09459
G1 X128.754 Y145.253 E0.00048
G1 X128.000 Y145.253 E0.02365
G1 X128.000 Y145.068 E0.00580
G1 X127.246 Y144.688 F10800.000
G1 F1200
G1 X127.246 Y141.895 E0.08756
G1 X126.492 Y141.895 E0.02365
G1 X126.492 Y149.132 E0.22691
G1 X127.246 Y149.132 E0.02365
G1 X127.246 Y146.510 E0.08224
G1 X128.000 Y146.510 E0.02365
G1 X128.000 Y149.132 E0.08224
G1 X128.754 Y149.132 E0.02365
G1 X128.754 Y146.510 E0.08224
G1 X129.508 Y146.510 E0.02365
G1 X129.508 Y149.132 E0.08224
G1 X130.262 Y149.132 E0.02365
G1 X130.262 Y146.510 E0.08224
G1 X131.017 Y146.510 E0.02365
G1 X131.017 Y149.132 E0.08224
G1 X131.771 Y149.132 E0.02365
G1 X131.771 Y146.510 E0.08224
G1 X132.525 Y146.510 E0.02365
G1 X132.525 Y149.132 E0.08224
G1 X133.279 Y149.132 E0.02365
G1 X133.279 Y146.510 E0.08224
G1 X134.033 Y146.510 E0.02365
G1 X134.033 Y149.132 E0.08224
G1 X134.787 Y149.132 E0.02365
G1 X134.787 Y146.510 E0.08224
G1 X135.542 Y146.510 E0.02365
G1 X135.542 Y149.132 E0.08224
G1 X136.296 Y149.132 E0.02365
G1 X136.296 Y146.510 E0.08224
G1 X137.050 Y146.510 E0.02365
G1 X137.050 Y149.132 E0.08224
G1 X137.804 Y149.132 E0.02365
G1 X137.804 Y146.510 E0.08224
G1 X138.558 Y146.510 E0.02365
G1 X138.558 Y149.132 E0.08224
G1 X139.312 Y149.132 E0.02365
G1 X139.312 Y146.510 E0.08224
G1 X140.067 Y146.510 E0.02365
G1 X140.067 Y149.132 E0.08224
G1 X140.821 Y149.132 E0.02365
G1 X140.821 Y146.510 E0.08224
G1 X141.575 Y146.510 E0.02365
G1 X141.575 Y149.132 E0.08224
G1 X142.329 Y149.132 E0.02365
G1 X142.329 Y146.510 E0.08224
G1 X143.083 Y146.510 E0.02365
G1 X143.083 Y149.132 E0.08224
G1 X143.837 Y149.132 E0.02365
G1 X143.837 Y146.510 E0.08224
G1 X144.591 Y146.510 E0.02365
G1 X144.591 Y149.132 E0.08224
G1 X145.346 Y149.132 E0.02365
G1 X145.346 Y146.510 E0.08224
G1 X146.100 Y146.510 E0.02365
G1 X146.100 Y149.132 E0.08224
G1 X146.854 Y149.132 E0.02365
G1 X146.854 Y146.510 E0.08224
G1 X147.608 Y146.510 E0.02365
G1 X147.608 Y149.132 E0.08224
G1 X148.362 Y149.132 E0.02365
G1 X148.362 Y146.510 E0.08224
G1 X149.116 Y146.510 E0.02365
G1 X149.116 Y149.132 E0.08224
G1 X149.871 Y149.132 E0.02365
G1 X149.871 Y146.510 E0.08224
G1 X150.625 Y146.510 E0.02365
G1 X150.625 Y149.132 E0.08224
G1 X151.379 Y149.132 E0.02365
G1 X151.379 Y146.510 E0.08224
G1 X152.133 Y146.510 E0.02365
G1 X152.133 Y149.132 E0.08224
G1 X152.887 Y149.132 E0.02365
G1 X152.887 Y146.510 E0.08224
G1 X153.641 Y146.510 E0.02365
G1 X153.641 Y149.132 E0.08224
G1 X154.396 Y149.132 E0.02365
G1 X154.396 Y146.510 E0.08224
G1 X155.150 Y146.510 E0.02365
G1 X155.150 Y149.132 E0.08224
G1 X155.904 Y149.132 E0.02365
G1 X155.904 Y146.510 E0.08224
G1 X156.658 Y146.510 E0.02365
G1 X156.658 Y149.132 E0.08224
G1 X157.412 Y149.132 E0.02365
G1 X157.412 Y141.895 E0.22691
G1 X158.166 Y141.895 E0.02365
G1 X158.166 Y149.132 E0.22692
G1 X158.921 Y149.132 E0.02365
G1 X158.921 Y141.895 E0.22692
G1 X159.675 Y141.895 E0.02365
G1 X159.675 Y149.302 E0.23225
G1 X156.396 Y146.306 F10800.000
G1 F1200
G1 X156.396 Y145.595 E0.01815
G1 X155.889 Y145.595 E0.01295
G1 X155.889 Y146.168 E0.01463
G1 X155.382 Y146.168 E0.01295
G1 X155.382 Y145.595 E0.01463
G1 X154.875 Y145.595 E0.01295
G1 X154.875 Y146.168 E0.01463
G1 X154.368 Y146.168 E0.01295
