; generated by PrusaSlicer 2.1.0+ on 2019-09-23 at 19:04:01 UTC

; 

; external perimeters extrusion width = 0.45mm
; perimeters extrusion width = 0.45mm
; infill extrusion width = 0.45mm
; solid infill extrusion width = 0.45mm
; top infill extrusion width = 0.40mm
; first layer extrusion width = 0.42mm

M73 P0 R6
M201 X9000 Y9000 Z500 E10000 ; sets maximum accelerations, mm/sec^2
M203 X500 Y500 Z12 E120 ; sets maximum feedrates, mm/sec
M204 P2000 R1500 T2000 ; sets acceleration (P, T) and retract acceleration (R), mm/sec^2
M205 X10.00 Y10.00 Z0.20 E2.50 ; sets the jerk limits, mm/sec
M205 S0 T0 ; sets the minimum extruding and travel feed rate, mm/sec
M107
M862.3 P "MK2S" ; printer model check
M862.1 P0.4 ; nozzle diameter check
M115 U3.2.3 ; tell printer latest fw version
G90 ; use absolute coordinates
M83 ; extruder relative mode
M204 S2000 T1500 ; MK2 firmware only supports the old M204 format
M104 S215 ; set extruder temp
M140 S60 ; set bed temp
M190 S60 ; wait for bed temp
M109 S215 ; wait for extruder temp
G28 W ; home all without mesh bed level
G80 ; mesh bed leveling
G1 Y-3.0 F1000.0 ; go outside print area
G92 E0.0
G1 X60.0 E9.0  F1000.0 ; intro line
M73 P1 R6
G1 X100.0 E12.5 F1000.0 ; intro line
G92 E0.0
G21 ; set units to millimeters
G90 ; use absolute coordinates
M83 ; use relative distances for extrusion
M900 K30 ; Filament gcode
;BEFORE_LAYER_CHANGE
G92 E0.0
;0.2


G1 E-0.80000 F2100.00000
G1 Z0.600 F10800.000
;AFTER_LAYER_CHANGE
;0.2
G1 X110.939 Y97.451
G1 Z0.200
G1 E0.80000 F2100.00000
M204 S1000
G1 F1191
G1 X111.588 Y96.861 E0.02750
G1 X112.361 Y96.422 E0.02788
G1 X113.161 Y96.173 E0.02628
G1 X123.921 Y94.402 E0.34190
G1 X135.554 Y94.376 E0.36475
G1 X136.512 Y94.468 E0.03017
G1 X137.379 Y94.719 E0.02829
G1 X138.025 Y95.022 E0.02239
G1 X138.785 Y95.544 E0.02891
G1 X139.456 Y96.216 E0.02978
G1 X139.974 Y96.974 E0.02879
G1 X140.359 Y97.855 E0.03014
G1 X140.537 Y98.559 E0.02276
G1 X140.616 Y99.430 E0.02743
G1 X140.586 Y111.099 E0.36588
G1 X140.391 Y112.049 E0.03039
G1 X140.000 Y112.979 E0.03163
G1 X139.443 Y113.800 E0.03114
G1 X138.682 Y114.539 E0.03323
G1 X137.934 Y115.028 E0.02804
G1 X137.103 Y115.380 E0.02829
G1 X136.425 Y115.547 E0.02190
G1 X135.502 Y115.624 E0.02903
G1 X114.713 Y114.086 E0.65360
G1 X113.889 Y113.957 E0.02615
G1 X112.872 Y113.535 E0.03452
G1 X112.149 Y112.998 E0.02824
G1 X111.643 Y112.421 E0.02405
G1 X111.185 Y111.605 E0.02936
G1 X110.930 Y110.704 E0.02936
G1 X109.916 Y100.140 E0.33274
G1 X110.007 Y99.279 E0.02713
G1 X110.308 Y98.401 E0.02911
G1 X110.906 Y97.501 E0.03387
G1 X111.218 Y97.709 F10800.000
G1 F1191
G1 X111.836 Y97.147 E0.02619
G1 X112.525 Y96.762 E0.02476
G1 X113.245 Y96.541 E0.02362
G1 X123.968 Y94.776 E0.34072
G1 X135.554 Y94.753 E0.36326
G1 X136.449 Y94.840 E0.02820
G1 X137.265 Y95.078 E0.02665
G1 X138.064 Y95.485 E0.02813
G1 X138.593 Y95.875 E0.02060
G1 X139.187 Y96.483 E0.02665
G1 X139.686 Y97.233 E0.02825
G1 X140.031 Y98.061 E0.02813
G1 X140.206 Y98.900 E0.02688
G1 X140.209 Y111.079 E0.38184
G1 X140.025 Y111.957 E0.02813
G1 X139.637 Y112.854 E0.03064
G1 X139.104 Y113.614 E0.02913
G1 X138.237 Y114.400 E0.03668
G1 X137.690 Y114.730 E0.02003
G1 X136.919 Y115.043 E0.02608
G1 X136.102 Y115.214 E0.02619
G1 X135.486 Y115.246 E0.01934
G1 X114.727 Y113.708 E0.65265
G1 X113.992 Y113.594 E0.02334
G1 X113.044 Y113.200 E0.03218
G1 X112.390 Y112.707 E0.02566
G1 X111.929 Y112.174 E0.02214
G1 X111.529 Y111.451 E0.02590
G1 X111.302 Y110.641 E0.02635
G1 X110.293 Y100.144 E0.33067
G1 X110.374 Y99.365 E0.02453
G1 X110.647 Y98.567 E0.02646
G1 X111.185 Y97.759 E0.03042
G1 F8640
G1 X111.836 Y97.147 E-0.20632
G1 X112.525 Y96.762 E-0.18233
G1 X113.245 Y96.541 E-0.17397
G1 X114.089 Y96.402 E-0.19738
G1 E-0.04000 F2100.00000
G1 Z0.800 F10800.000
G1 X124.252 Y109.280
G1 Z0.200
G1 E0.80000 F2100.00000
G1 F1191
G1 X124.419 Y109.143 E0.00677
G1 X124.610 Y109.041 E0.00677
G1 X124.816 Y108.978 E0.00677
G1 X125.021 Y108.958 E0.00644
G1 X125.245 Y108.978 E0.00706
G1 X125.452 Y109.041 E0.00680
G1 X125.643 Y109.143 E0.00677
G1 X125.810 Y109.280 E0.00677
G1 X125.947 Y109.447 E0.00677
G1 X126.048 Y109.637 E0.00677
G1 X126.111 Y109.844 E0.00677
G1 X126.132 Y110.058 E0.00677
G1 X126.111 Y110.273 E0.00677
G1 X126.048 Y110.480 E0.00677
G1 X125.947 Y110.670 E0.00677
G1 X125.810 Y110.837 E0.00677
G1 X125.643 Y110.974 E0.00677
G1 X125.452 Y111.076 E0.00677
G1 X125.246 Y111.138 E0.00677
G1 X125.031 Y111.159 E0.00677
G1 X124.816 Y111.138 E0.00677
G1 X124.610 Y111.076 E0.00677
G1 X124.419 Y110.974 E0.00677
G1 X124.252 Y110.837 E0.00677
G1 X124.116 Y110.670 E0.00677
G1 X124.014 Y110.480 E0.00677
G1 X123.951 Y110.273 E0.00677
G1 X123.930 Y110.058 E0.00677
G1 X123.951 Y109.844 E0.00677
G1 X124.014 Y109.637 E0.00677
G1 X124.116 Y109.447 E0.00677
G1 X124.214 Y109.326 E0.00489
G1 X124.197 Y109.071 F10800.000
G1 X124.134 Y109.260
G1 F1191
G1 X124.361 Y109.056 E0.00958
G1 X124.570 Y108.944 E0.00741
G1 X124.796 Y108.876 E0.00741
G1 X125.031 Y108.852 E0.00741
G1 X125.207 Y108.870 E0.00553
G1 X125.496 Y108.946 E0.00939
G1 X125.701 Y109.056 E0.00729
G1 X125.884 Y109.206 E0.00741
G1 X126.034 Y109.388 E0.00741
G1 X126.145 Y109.597 E0.00741
G1 X126.214 Y109.823 E0.00741
G1 X126.237 Y110.058 E0.00741
G1 X126.214 Y110.294 E0.00741
G1 X126.145 Y110.520 E0.00741
G1 X126.034 Y110.728 E0.00741
G1 X125.884 Y110.911 E0.00741
G1 X125.701 Y111.061 E0.00741
G1 X125.493 Y111.172 E0.00741
G1 X125.266 Y111.241 E0.00741
G1 X125.031 Y111.264 E0.00741
G1 X124.796 Y111.241 E0.00741
G1 X124.570 Y111.172 E0.00741
G1 X124.361 Y111.061 E0.00741
G1 X124.178 Y110.911 E0.00741
G1 X124.028 Y110.728 E0.00741
G1 X123.917 Y110.520 E0.00741
G1 X123.848 Y110.294 E0.00741
G1 X123.825 Y110.058 E0.00741
G1 X123.848 Y109.823 E0.00741
G1 X123.917 Y109.597 E0.00741
G1 X124.028 Y109.388 E0.00741
G1 X124.096 Y109.306 E0.00333
G1 X124.432 Y109.328 F10800.000
G1 F8640
G1 X124.361 Y109.056 E-0.08430
G1 X124.570 Y108.944 E-0.05459
G1 X124.796 Y108.876 E-0.05459
G1 X125.031 Y108.852 E-0.05459
G1 X125.207 Y108.870 E-0.04072
G1 X125.496 Y108.946 E-0.06912
G1 X125.701 Y109.056 E-0.05369
G1 X125.884 Y109.206 E-0.05459
G1 X126.034 Y109.388 E-0.05459
G1 X126.145 Y109.597 E-0.05459
G1 X126.214 Y109.823 E-0.05459
G1 X126.237 Y110.058 E-0.05459
G1 X126.214 Y110.294 E-0.05459
G1 X126.188 Y110.380 E-0.02089
G1 E-0.04000 F2100.00000
G1 Z0.800 F10800.000
G1 X116.013 Y110.058
G1 Z0.200
G1 E0.80000 F2100.00000
G1 F1191
G1 X115.991 Y110.273 E0.00677
G1 X115.929 Y110.480 E0.00677
G1 X115.827 Y110.670 E0.00677
G1 X115.690 Y110.837 E0.00677
G1 X115.523 Y110.974 E0.00677
G1 X115.333 Y111.076 E0.00677
G1 X115.126 Y111.138 E0.00677
G1 X114.912 Y111.159 E0.00677
G1 X114.697 Y111.138 E0.00677
G1 X114.490 Y111.076 E0.00677
G1 X114.300 Y110.974 E0.00677
G1 X114.133 Y110.837 E0.00677
G1 X113.996 Y110.670 E0.00677
G1 X113.894 Y110.480 E0.00677
G1 X113.832 Y110.273 E0.00677
G1 X113.810 Y110.058 E0.00677
G1 X113.832 Y109.844 E0.00677
G1 X113.894 Y109.637 E0.00677
G1 X113.996 Y109.447 E0.00677
G1 X114.133 Y109.280 E0.00677
G1 X114.300 Y109.143 E0.00677
G1 X114.490 Y109.041 E0.00677
G1 X114.697 Y108.978 E0.00677
G1 X114.901 Y108.958 E0.00644
G1 X115.125 Y108.978 E0.00706
G1 X115.333 Y109.041 E0.00680
G1 X115.523 Y109.143 E0.00677
G1 X115.690 Y109.280 E0.00677
G1 X115.827 Y109.447 E0.00677
G1 X115.929 Y109.637 E0.00677
G1 X115.991 Y109.844 E0.00677
G1 X116.007 Y109.999 E0.00489
G1 X116.200 Y110.166 F10800.000
G1 X116.111 Y109.988
G1 F1191
G1 X116.094 Y110.294 E0.00958
G1 X116.026 Y110.520 E0.00741
G1 X115.914 Y110.728 E0.00741
G1 X115.764 Y110.911 E0.00741
G1 X115.582 Y111.061 E0.00741
G1 X115.373 Y111.172 E0.00741
G1 X115.147 Y111.241 E0.00741
G1 X114.912 Y111.264 E0.00741
G1 X114.676 Y111.241 E0.00741
G1 X114.450 Y111.172 E0.00741
G1 X114.242 Y111.061 E0.00741
G1 X114.059 Y110.911 E0.00741
G1 X113.909 Y110.728 E0.00741
G1 X113.797 Y110.520 E0.00741
G1 X113.729 Y110.294 E0.00741
G1 X113.706 Y110.058 E0.00741
G1 X113.729 Y109.823 E0.00741
G1 X113.797 Y109.597 E0.00741
G1 X113.909 Y109.388 E0.00741
G1 X114.059 Y109.206 E0.00741
G1 X114.242 Y109.056 E0.00741
G1 X114.450 Y108.944 E0.00741
G1 X114.676 Y108.876 E0.00741
G1 X114.912 Y108.852 E0.00741
G1 X115.087 Y108.870 E0.00553
G1 X115.376 Y108.946 E0.00939
G1 X115.582 Y109.056 E0.00729
G1 X115.764 Y109.206 E0.00741
G1 X115.914 Y109.388 E0.00741
G1 X116.026 Y109.597 E0.00741
G1 X116.094 Y109.823 E0.00741
G1 X116.105 Y109.929 E0.00333
G1 X115.852 Y110.151 F10800.000
G1 F8640
G1 X116.094 Y110.294 E-0.08430
G1 X116.026 Y110.520 E-0.05459
G1 X115.914 Y110.728 E-0.05459
G1 X115.764 Y110.911 E-0.05459
G1 X115.582 Y111.061 E-0.05459
G1 X115.373 Y111.172 E-0.05459
G1 X115.147 Y111.241 E-0.05459
G1 X114.912 Y111.264 E-0.05459
G1 X114.676 Y111.241 E-0.05459
G1 X114.450 Y111.172 E-0.05459
G1 X114.242 Y111.061 E-0.05459
G1 X114.059 Y110.911 E-0.05459
G1 X113.909 Y110.728 E-0.05459
G1 X113.867 Y110.649 E-0.02066
G1 E-0.04000 F2100.00000
G1 Z0.800 F10800.000
G1 X114.166 Y101.210
G1 Z0.200
G1 E0.80000 F2100.00000
G1 F1191
G1 X113.951 Y101.231 E0.00677
G1 X113.736 Y101.210 E0.00677
G1 X113.530 Y101.147 E0.00677
G1 X113.339 Y101.045 E0.00677
G1 X113.172 Y100.908 E0.00677
G1 X113.035 Y100.742 E0.00677
G1 X112.934 Y100.551 E0.00677
G1 X112.871 Y100.345 E0.00677
G1 X112.850 Y100.130 E0.00677
G1 X112.871 Y99.915 E0.00677
G1 X112.934 Y99.709 E0.00677
G1 X113.035 Y99.518 E0.00677
G1 X113.172 Y99.351 E0.00677
G1 X113.339 Y99.214 E0.00677
G1 X113.530 Y99.113 E0.00677
G1 X113.736 Y99.050 E0.00677
G1 X113.941 Y99.030 E0.00644
G1 X114.165 Y99.050 E0.00706
G1 X114.372 Y99.113 E0.00680
G1 X114.563 Y99.214 E0.00677
G1 X114.730 Y99.351 E0.00677
G1 X114.867 Y99.518 E0.00677
G1 X114.968 Y99.709 E0.00677
G1 X115.031 Y99.915 E0.00677
G1 X115.052 Y100.130 E0.00677
G1 X115.031 Y100.345 E0.00677
G1 X114.968 Y100.551 E0.00677
G1 X114.867 Y100.742 E0.00677
G1 X114.730 Y100.908 E0.00677
G1 X114.563 Y101.045 E0.00677
G1 X114.372 Y101.147 E0.00677
G1 X114.223 Y101.192 E0.00489
G1 X114.096 Y101.414 F10800.000
G1 X114.254 Y101.292
G1 F1191
G1 X113.951 Y101.336 E0.00958
G1 X113.716 Y101.313 E0.00741
G1 X113.489 Y101.244 E0.00741
G1 X113.281 Y101.133 E0.00741
G1 X113.098 Y100.983 E0.00741
G1 X112.948 Y100.800 E0.00741
G1 X112.837 Y100.591 E0.00741
G1 X112.768 Y100.365 E0.00741
G1 X112.745 Y100.130 E0.00741
G1 X112.768 Y99.895 E0.00741
G1 X112.837 Y99.668 E0.00741
G1 X112.948 Y99.460 E0.00741
G1 X113.098 Y99.277 E0.00741
G1 X113.281 Y99.127 E0.00741
G1 X113.489 Y99.016 E0.00741
G1 X113.716 Y98.947 E0.00741
G1 X113.951 Y98.924 E0.00741
G1 X114.126 Y98.941 E0.00553
G1 X114.416 Y99.018 E0.00939
G1 X114.621 Y99.127 E0.00729
G1 X114.804 Y99.277 E0.00741
G1 X114.954 Y99.460 E0.00741
G1 X115.065 Y99.668 E0.00741
G1 X115.134 Y99.895 E0.00741
G1 X115.157 Y100.130 E0.00741
G1 X115.134 Y100.365 E0.00741
G1 X115.065 Y100.591 E0.00741
G1 X114.954 Y100.800 E0.00741
G1 X114.804 Y100.983 E0.00741
G1 X114.621 Y101.133 E0.00741
G1 X114.412 Y101.244 E0.00741
G1 X114.311 Y101.275 E0.00333
G1 X114.044 Y101.070 F10800.000
G1 F8640
G1 X113.951 Y101.336 E-0.08429
G1 X113.716 Y101.313 E-0.05459
G1 X113.489 Y101.244 E-0.05459
G1 X113.281 Y101.133 E-0.05459
G1 X113.098 Y100.983 E-0.05459
G1 X112.948 Y100.800 E-0.05459
G1 X112.837 Y100.591 E-0.05459
G1 X112.768 Y100.365 E-0.05459
G1 X112.745 Y100.130 E-0.05459
G1 X112.768 Y99.895 E-0.05459
G1 X112.837 Y99.668 E-0.05459
G1 X112.948 Y99.460 E-0.05459
G1 X113.098 Y99.277 E-0.05459
G1 X113.167 Y99.220 E-0.02066
G1 E-0.04000 F2100.00000
G1 Z0.800 F10800.000
G1 X133.917 Y99.441
G1 Z0.200
G1 E0.80000 F2100.00000
G1 F1191
G1 X133.949 Y99.123 E0.01004
G1 X134.042 Y98.816 E0.01004
G1 X134.192 Y98.534 E0.01004
G1 X134.395 Y98.287 E0.01004
G1 X134.643 Y98.084 E0.01004
G1 X134.925 Y97.933 E0.01004
G1 X135.231 Y97.840 E0.01003
G1 X135.546 Y97.809 E0.00991
G1 X135.868 Y97.840 E0.01015
G1 X136.175 Y97.933 E0.01006
G1 X136.457 Y98.084 E0.01004
G1 X136.705 Y98.287 E0.01004
G1 X136.908 Y98.534 E0.01004
G1 X137.058 Y98.816 E0.01004
G1 X137.151 Y99.123 E0.01004
G1 X137.183 Y99.441 E0.01004
G1 X137.151 Y99.760 E0.01004
G1 X137.058 Y100.066 E0.01004
G1 X136.908 Y100.348 E0.01004
G1 X136.705 Y100.596 E0.01004
G1 X136.457 Y100.799 E0.01004
G1 X136.175 Y100.950 E0.01004
G1 X135.869 Y101.043 E0.01004
G1 X135.550 Y101.074 E0.01004
G1 X135.231 Y101.043 E0.01004
G1 X134.925 Y100.950 E0.01004
G1 X134.643 Y100.799 E0.01004
G1 X134.395 Y100.596 E0.01004
G1 X134.192 Y100.348 E0.01004
G1 X134.042 Y100.066 E0.01004
G1 X133.949 Y99.760 E0.01004
G1 X133.923 Y99.501 E0.00815
G1 X134.298 Y99.464 F10800.000
G1 F1191
G1 X134.320 Y99.197 E0.00841
G1 X134.392 Y98.961 E0.00771
G1 X134.507 Y98.745 E0.00771
G1 X134.663 Y98.555 E0.00771
G1 X134.853 Y98.399 E0.00771
G1 X135.070 Y98.283 E0.00771
G1 X135.305 Y98.212 E0.00770
G1 X135.546 Y98.188 E0.00759
G1 X135.794 Y98.211 E0.00782
G1 X136.030 Y98.283 E0.00771
G1 X136.247 Y98.399 E0.00771
G1 X136.437 Y98.555 E0.00771
G1 X136.593 Y98.745 E0.00771
G1 X136.708 Y98.961 E0.00771
G1 X136.780 Y99.197 E0.00771
G1 X136.804 Y99.441 E0.00771
G1 X136.780 Y99.686 E0.00771
G1 X136.708 Y99.921 E0.00771
G1 X136.593 Y100.138 E0.00771
G1 X136.437 Y100.328 E0.00771
G1 X136.247 Y100.484 E0.00771
G1 X136.030 Y100.600 E0.00771
G1 X135.795 Y100.671 E0.00771
G1 X135.550 Y100.695 E0.00771
G1 X135.305 Y100.671 E0.00771
G1 X135.070 Y100.600 E0.00771
G1 X134.853 Y100.484 E0.00771
G1 X134.663 Y100.328 E0.00771
G1 X134.507 Y100.138 E0.00771
G1 X134.392 Y99.921 E0.00771
G1 X134.320 Y99.686 E0.00771
G1 X134.304 Y99.524 E0.00511
G1 X134.064 Y99.333 F10800.000
G1 X133.640 Y99.441
G1 F1191
G1 X133.677 Y99.069 E0.01174
G1 X133.785 Y98.710 E0.01174
G1 X133.962 Y98.380 E0.01174
G1 X134.199 Y98.091 E0.01174
G1 X134.489 Y97.853 E0.01174
G1 X134.819 Y97.677 E0.01174
G1 X135.191 Y97.564 E0.01220
G1 X135.597 Y97.533 E0.01275
G1 X135.920 Y97.567 E0.01020
G1 X136.281 Y97.677 E0.01182
G1 X136.611 Y97.853 E0.01174
G1 X136.901 Y98.091 E0.01174
G1 X137.138 Y98.380 E0.01174
G1 X137.315 Y98.710 E0.01174
G1 X137.423 Y99.069 E0.01174
G1 X137.460 Y99.441 E0.01174
G1 X137.423 Y99.814 E0.01174
G1 X137.315 Y100.172 E0.01174
G1 X137.138 Y100.502 E0.01174
G1 X136.901 Y100.792 E0.01174
G1 X136.611 Y101.029 E0.01174
G1 X136.281 Y101.206 E0.01174
G1 X135.923 Y101.315 E0.01174
G1 X135.550 Y101.351 E0.01174
G1 X135.177 Y101.315 E0.01174
G1 X134.819 Y101.206 E0.01174
G1 X134.489 Y101.029 E0.01174
G1 X134.199 Y100.792 E0.01174
G1 X133.962 Y100.502 E0.01174
G1 X133.785 Y100.172 E0.01174
G1 X133.677 Y99.814 E0.01174
G1 X133.646 Y99.501 E0.00986
G1 X133.261 Y99.441 F10800.000
G1 F1191
G1 X133.305 Y98.995 E0.01407
G1 X133.435 Y98.565 E0.01407
G1 X133.647 Y98.170 E0.01407
G1 X133.931 Y97.823 E0.01407
G1 X134.278 Y97.538 E0.01407
G1 X134.674 Y97.327 E0.01407
G1 X135.108 Y97.195 E0.01423
G1 X135.323 Y97.163 E0.00681
G1 X135.612 Y97.155 E0.00904
G1 X135.996 Y97.196 E0.01211
G1 X136.426 Y97.327 E0.01410
G1 X136.822 Y97.538 E0.01407
G1 X137.169 Y97.823 E0.01407
G1 X137.453 Y98.170 E0.01407
G1 X137.665 Y98.565 E0.01407
G1 X137.795 Y98.995 E0.01407
G1 X137.839 Y99.441 E0.01407
G1 X137.795 Y99.888 E0.01407
G1 X137.665 Y100.317 E0.01407
G1 X137.453 Y100.713 E0.01407
G1 X137.169 Y101.060 E0.01407
G1 X136.822 Y101.344 E0.01407
G1 X136.426 Y101.556 E0.01407
G1 X135.997 Y101.686 E0.01407
G1 X135.550 Y101.730 E0.01407
G1 X135.103 Y101.686 E0.01407
G1 X134.674 Y101.556 E0.01407
G1 X134.278 Y101.344 E0.01407
G1 X133.931 Y101.060 E0.01407
G1 X133.647 Y100.713 E0.01407
G1 X133.435 Y100.317 E0.01407
G1 X133.305 Y99.888 E0.01407
G1 X133.267 Y99.501 E0.01219
G1 X133.607 Y99.241 F10800.000
G1 F8640
G1 X133.305 Y98.995 E-0.11723
G1 X133.435 Y98.565 E-0.10361
G1 X133.647 Y98.170 E-0.10361
G1 X133.931 Y97.823 E-0.10361
G1 X134.278 Y97.538 E-0.10361
G1 X134.674 Y97.327 E-0.10361
G1 X135.108 Y97.195 E-0.10481
G1 X135.194 Y97.182 E-0.01992
G1 E-0.04000 F2100.00000
G1 Z0.800 F10800.000
G1 X135.231 Y108.957
G1 Z0.200
G1 E0.80000 F2100.00000
G1 F1191
G1 X135.546 Y108.926 E0.00991
G1 X135.868 Y108.957 E0.01015
G1 X136.175 Y109.050 E0.01006
G1 X136.457 Y109.201 E0.01004
G1 X136.705 Y109.404 E0.01004
G1 X136.908 Y109.652 E0.01004
G1 X137.058 Y109.934 E0.01004
