; generated by PrusaSlicer 2.1.1+win64 on 2020-05-11 at 17:11:47 UTC

; 

; external perimeters extrusion width = 0.45mm
; perimeters extrusion width = 0.45mm
; infill extrusion width = 0.45mm
; solid infill extrusion width = 0.45mm
; top infill extrusion width = 0.40mm
; first layer extrusion width = 0.42mm

M73 P0 R19
M201 X9000 Y9000 Z500 E10000 ; sets maximum accelerations, mm/sec^2
M203 X500 Y500 Z12 E120 ; sets maximum feedrates, mm/sec
M204 P2000 R1500 T2000 ; sets acceleration (P, T) and retract acceleration (R), mm/sec^2
M205 X10.00 Y10.00 Z0.20 E2.50 ; sets the jerk limits, mm/sec
M205 S0 T0 ; sets the minimum extruding and travel feed rate, mm/sec
M107
M862.3 P "MK2S" ; printer model check
M862.1 P0.4 ; nozzle diameter check
M115 U3.2.3 ; tell printer latest fw version
G90 ; use absolute coordinates
M83 ; extruder relative mode
M204 S2000 T1500 ; MK2 firmware only supports the old M204 format
M104 S215 ; set extruder temp
M140 S60 ; set bed temp
M190 S60 ; wait for bed temp
M109 S215 ; wait for extruder temp
G28 W ; home all without mesh bed level
G80 ; mesh bed leveling
G1 Y-3.0 F1000.0 ; go outside print area
G92 E0.0
G1 X60.0 E9.0  F1000.0 ; intro line
M73 P0 R19
G1 X100.0 E12.5 F1000.0 ; intro line
G92 E0.0
G21 ; set units to millimeters
G90 ; use absolute coordinates
M83 ; use relative distances for extrusion
M900 K30 ; Filament gcode
;BEFORE_LAYER_CHANGE
G92 E0.0
;0.2


G1 E-0.80000 F2100.00000
G1 Z0.600 F10800.000
;AFTER_LAYER_CHANGE
;0.2
G1 X160.470 Y122.894
G1 Z0.200
G1 E0.80000 F2100.00000
M204 S1000
G1 F1200
G1 X160.206 Y122.537 E0.01390
G1 X159.977 Y122.278 E0.01085
G1 X159.523 Y121.861 E0.01934
G1 X160.141 Y121.686 E0.02012
G1 X160.627 Y121.312 E0.01923
G1 X160.625 Y122.843 E0.04802
G1 X160.527 Y122.875 E0.00325
G1 X160.573 Y123.876 F10800.000
G1 F1200
G1 X160.541 Y123.876 E0.00099
G1 X160.353 Y123.457 E0.01442
G1 X160.103 Y123.032 E0.01546
G1 X159.913 Y122.775 E0.01001
G1 X159.707 Y122.543 E0.00972
G1 X159.414 Y122.272 E0.01251
G1 X159.148 Y122.069 E0.01051
G1 X158.715 Y121.801 E0.01596
G1 X158.171 Y121.521 E0.01917
G1 X158.329 Y121.136 E0.01306
G1 X158.620 Y121.256 E0.00987
G1 X159.049 Y121.387 E0.01406
G1 X159.343 Y121.434 E0.00934
G1 X159.647 Y121.433 E0.00955
G1 X159.968 Y121.342 E0.01046
G1 X160.159 Y121.195 E0.00756
G1 X160.318 Y120.911 E0.01020
G1 X160.363 Y120.666 E0.00782
G1 X160.356 Y114.404 E0.19634
G1 X160.239 Y114.210 E0.00711
G1 X160.045 Y114.134 E0.00653
G1 X158.595 Y114.132 E0.04546
G1 X158.595 Y113.547 E0.01834
G1 X162.774 Y113.548 E0.13103
G1 X162.780 Y114.132 E0.01833
G1 X161.307 Y114.134 E0.04619
G1 X161.119 Y114.215 E0.00643
G1 X161.012 Y114.409 E0.00692
G1 X161.001 Y123.880 E0.29695
G1 X160.633 Y123.877 E0.01153
G1 X160.546 Y123.860 F10800.000
G1 X160.753 Y123.689
G1 F1200
G1 X160.598 Y123.050 E0.01718
G1 X159.516 Y121.644 F10800.000
G1 F1200
G1 X158.926 Y121.710 E0.00470
G1 X158.840 Y121.585 F10800.000
G1 F1200
G1 X158.691 Y121.524 E0.00165
G1 X158.546 Y121.465 E0.00122
G1 X158.421 Y121.408 E0.00075
G1 X158.840 Y121.585 F10800.000
G1 F1200
G1 X159.225 Y121.749 E0.00581
G1 X159.125 Y121.795 F10800.000
G1 F1200
G1 X159.210 Y121.859 E0.00058
G1 X159.125 Y121.795 F10800.000
G1 F1200
G1 X159.112 Y121.760 E0.00035
G1 X159.099 Y121.724 E0.00050
G1 X159.086 Y121.688 E0.00065
G1 X159.513 Y121.623 E0.00739
G1 X160.651 Y121.055 F10800.000
G1 F1200
G1 X160.684 Y120.683 E0.00828
G1 X160.685 Y114.351 E0.14709
G1 X160.687 Y114.285 E0.00174
G1 X160.689 Y113.736 E0.01512
G1 X160.696 Y114.004 F10800.000
G1 F1200
G1 X160.429 Y113.903 E0.00902
G1 X160.326 Y113.883 E0.00289
G1 X160.224 Y113.864 E0.00256
G1 X160.121 Y113.845 E0.00222
G1 X160.081 Y113.841 E0.00072
G1 X158.784 Y113.840 E0.02258
G1 X160.402 Y114.115 F10800.000
G1 F1200
G1 X161.349 Y113.736 E0.03225
G1 X161.224 Y113.845 F10800.000
G1 F1200
G1 X162.589 Y113.840 E0.02374
G1 X160.964 Y114.105 F10800.000
G1 F1200
G1 X160.696 Y114.004 E0.01010
G1 E-0.80000 F2100.00000
G1 Z0.800 F10800.000
G1 X105.384 Y126.705
G1 Z0.200
G1 E0.80000 F2100.00000
G1 F1200
G1 X104.993 Y126.665 E0.01231
G1 X104.636 Y126.588 E0.01145
G1 X104.313 Y126.472 E0.01077
G1 X103.886 Y126.229 E0.01539
G1 X103.526 Y125.902 E0.01525
G1 X103.244 Y125.503 E0.01533
G1 X103.096 Y125.189 E0.01087
G1 X102.986 Y124.846 E0.01129
G1 X102.884 Y124.254 E0.01884
G1 X102.871 Y124.002 E0.00791
G1 X103.531 Y124.002 E0.02067
G1 X103.564 Y124.392 E0.01228
G1 X103.616 Y124.682 E0.00923
G1 X103.694 Y124.949 E0.00872
G1 X103.800 Y125.192 E0.00832
G1 X103.934 Y125.411 E0.00803
G1 X104.096 Y125.602 E0.00786
G1 X104.285 Y125.765 E0.00782
G1 X104.499 Y125.897 E0.00790
G1 X104.737 Y125.999 E0.00810
G1 X104.996 Y126.070 E0.00842
G1 X105.278 Y126.112 E0.00893
G1 X105.686 Y126.122 E0.01282
G1 X105.908 Y126.094 E0.00700
G1 X106.119 Y126.035 E0.00688
G1 X106.397 Y125.897 E0.00974
G1 X106.571 Y125.764 E0.00685
G1 X106.726 Y125.605 E0.00696
G1 X106.951 Y125.286 E0.01224
G1 X107.111 Y124.899 E0.01315
G1 X107.205 Y124.455 E0.01423
G1 X107.236 Y123.953 E0.01577
G1 X107.200 Y123.529 E0.01332
G1 X107.094 Y123.114 E0.01343
G1 X106.919 Y122.712 E0.01376
G1 X106.676 Y122.323 E0.01436
G1 X106.367 Y121.950 E0.01520
G1 X105.995 Y121.590 E0.01624
G1 X103.844 Y119.850 E0.08675
G1 X103.512 Y119.467 E0.01588
G1 X103.239 Y119.061 E0.01536
G1 X103.027 Y118.635 E0.01490
G1 X102.875 Y118.187 E0.01486
G1 X102.823 Y117.959 E0.00731
G1 X102.785 Y117.727 E0.00740
G1 X102.754 Y117.227 E0.01569
G1 X102.754 Y116.779 E0.01406
G1 X102.786 Y116.241 E0.01689
G1 X107.851 Y116.241 E0.15881
G1 X107.846 Y116.859 E0.01937
G1 X104.002 Y116.862 E0.12054
G1 X103.832 Y116.899 E0.00545
G1 X103.680 Y116.982 E0.00542
G1 X103.565 Y117.112 E0.00544
G1 X103.497 Y117.270 E0.00542
G1 X103.471 Y117.442 E0.00545
G1 X103.475 Y117.730 E0.00902
G1 X103.528 Y118.166 E0.01379
G1 X103.644 Y118.531 E0.01199
G1 X103.809 Y118.810 E0.01017
G1 X104.050 Y119.122 E0.01235
G1 X104.376 Y119.478 E0.01513
G1 X106.766 Y121.472 E0.09760
G1 X107.136 Y121.864 E0.01691
G1 X107.437 Y122.273 E0.01591
G1 X107.670 Y122.696 E0.01515
G1 X107.835 Y123.136 E0.01473
G1 X107.935 Y123.597 E0.01479
G1 X107.968 Y124.069 E0.01483
G1 X107.950 Y124.459 E0.01225
G1 X107.895 Y124.820 E0.01143
G1 X107.806 Y125.152 E0.01079
G1 X107.681 Y125.457 E0.01033
G1 X107.522 Y125.736 E0.01008
G1 X107.328 Y125.990 E0.01002
G1 X107.105 Y126.210 E0.00982
G1 X106.856 Y126.391 E0.00966
G1 X106.439 Y126.583 E0.01439
G1 X106.123 Y126.664 E0.01023
G1 X105.776 Y126.705 E0.01094
G1 X105.444 Y126.705 E0.01042
G1 X105.204 Y126.356 F10800.000
G1 X105.709 Y126.413
G1 F1200
G1 X105.246 Y126.400 E0.00792
G1 X104.942 Y126.356 E0.00526
G1 X104.718 Y126.301 E0.00393
G1 X104.355 Y126.158 E0.00668
G1 X104.113 Y126.016 E0.00481
G1 X103.966 Y125.899 E0.00321
G1 X103.676 Y125.585 E0.00730
G1 X103.525 Y125.352 E0.00475
G1 X103.396 Y125.071 E0.00529
G1 X103.301 Y124.764 E0.00549
G1 X103.212 Y124.190 E0.00993
G1 X105.709 Y126.413 F10800.000
G1 F1200
G1 X105.974 Y126.383 E0.00478
G1 X106.239 Y126.317 E0.00536
G1 X106.338 Y126.281 E0.00226
G1 X106.582 Y126.168 E0.00621
G1 X106.804 Y126.010 E0.00680
G1 X107.003 Y125.819 E0.00711
G1 X107.257 Y125.476 E0.01096
G1 X107.455 Y125.034 E0.01246
G1 X107.528 Y124.743 E0.00771
G1 X107.579 Y124.423 E0.00833
G1 X107.595 Y123.855 E0.01461
G1 X107.545 Y123.457 E0.01029
G1 X107.415 Y122.991 E0.01245
G1 X107.218 Y122.566 E0.01233
G1 X106.887 Y122.072 E0.01025
G1 X106.553 Y121.698 E0.00865
G1 X106.185 Y121.368 E0.00853
G1 X104.068 Y119.618 E0.05089
G1 X103.765 Y119.273 E0.00850
G1 X103.559 Y118.988 E0.00651
G1 X103.365 Y118.642 E0.00736
G1 X103.314 Y118.516 E0.00276
G1 X103.218 Y118.222 E0.00646
G1 X103.190 Y118.097 E0.00295
G1 X103.134 Y117.745 E0.00907
G1 X103.129 Y117.688 E0.00148
G1 X103.119 Y117.405 E0.00776
G1 X103.129 Y117.191 E0.00667
G1 X103.236 Y116.430 E0.02472
G1 X103.691 Y116.585 F10800.000
G1 F1200
G1 X103.981 Y116.552 E0.00593
G1 X107.660 Y116.550 E0.07463
G1 X104.068 Y116.430 F10800.000
G1 F1200
G1 X102.943 Y116.826 E0.04528
G1 E-0.80000 F2100.00000
G1 Z0.800 F10800.000
G1 X136.547 Y188.747
G1 Z0.200
G1 E0.80000 F2100.00000
G1 F1200
G1 X136.265 Y188.588 E0.01013
G1 X136.014 Y188.489 E0.00847
G1 X136.026 Y188.324 E0.00521
G1 X136.170 Y188.289 E0.00466
G1 X136.584 Y188.136 E0.01384
G1 X136.516 Y188.432 E0.00952
G1 X136.541 Y188.687 E0.00801
G1 X135.430 Y193.361 F10800.000
G1 F1200
G1 X134.859 Y193.317 E0.01797
G1 X134.606 Y193.265 E0.00809
G1 X134.366 Y193.191 E0.00788
G1 X134.142 Y193.096 E0.00762
G1 X133.934 Y192.981 E0.00746
G1 X133.741 Y192.846 E0.00740
G1 X133.562 Y192.689 E0.00746
G1 X133.397 Y192.510 E0.00762
G1 X133.108 Y192.085 E0.01611
G1 X132.945 Y191.758 E0.01147
G1 X133.505 Y191.389 E0.02101
G1 X133.605 Y191.634 E0.00828
G1 X133.810 Y192.001 E0.01318
G1 X134.063 Y192.300 E0.01230
G1 X134.220 Y192.434 E0.00645
G1 X134.540 Y192.622 E0.01166
G1 X134.729 Y192.692 E0.00632
G1 X134.944 Y192.743 E0.00693
G1 X135.327 Y192.777 E0.01204
G1 X135.581 Y192.762 E0.00798
G1 X135.826 Y192.716 E0.00781
G1 X136.160 Y192.592 E0.01117
G1 X136.374 Y192.468 E0.00775
G1 X136.570 Y192.317 E0.00778
G1 X136.752 Y192.138 E0.00800
G1 X136.907 Y191.939 E0.00789
G1 X137.031 Y191.723 E0.00781
G1 X137.126 Y191.489 E0.00794
G1 X137.205 Y191.122 E0.01177
G1 X137.221 Y190.854 E0.00841
G1 X137.203 Y190.529 E0.01020
G1 X137.152 Y190.226 E0.00964
G1 X137.064 Y189.944 E0.00925
G1 X136.940 Y189.686 E0.00899
G1 X136.779 Y189.453 E0.00888
G1 X136.583 Y189.247 E0.00891
G1 X136.356 Y189.072 E0.00898
G1 X136.103 Y188.930 E0.00910
G1 X135.825 Y188.820 E0.00937
G1 X135.523 Y188.743 E0.00976
G1 X135.199 Y188.698 E0.01026
G1 X134.817 Y188.681 E0.01201
G1 X134.817 Y188.094 E0.01839
G1 X135.302 Y188.065 E0.01523
G1 X135.697 Y188.014 E0.01248
G1 X136.061 Y187.928 E0.01174
G1 X136.392 Y187.805 E0.01107
G1 X136.689 Y187.645 E0.01057
G1 X136.949 Y187.447 E0.01025
G1 X137.171 Y187.212 E0.01013
G1 X137.352 Y186.942 E0.01020
G1 X137.491 Y186.639 E0.01046
G1 X137.588 Y186.305 E0.01091
G1 X137.646 Y185.941 E0.01153
G1 X137.665 Y185.549 E0.01233
G1 X137.649 Y185.219 E0.01035
G1 X137.598 Y184.909 E0.00985
G1 X137.512 Y184.619 E0.00948
G1 X137.391 Y184.350 E0.00923
G1 X137.235 Y184.105 E0.00912
G1 X137.042 Y183.882 E0.00926
G1 X136.711 Y183.613 E0.01335
G1 X136.456 Y183.472 E0.00913
G1 X136.169 Y183.364 E0.00963
G1 X135.748 Y183.280 E0.01347
G1 X135.427 Y183.263 E0.01008
G1 X135.015 Y183.293 E0.01293
G1 X134.628 Y183.387 E0.01247
G1 X134.271 Y183.543 E0.01224
G1 X133.945 Y183.762 E0.01231
G1 X133.663 Y184.035 E0.01230
G1 X133.438 Y184.354 E0.01223
G1 X133.272 Y184.714 E0.01244
G1 X133.164 Y185.106 E0.01276
G1 X132.546 Y184.812 E0.02145
G1 X132.567 Y184.701 E0.00354
G1 X132.705 Y184.338 E0.01218
G1 X132.850 Y184.046 E0.01020
G1 X133.014 Y183.784 E0.00969
G1 X133.196 Y183.552 E0.00927
G1 X133.398 Y183.348 E0.00899
G1 X133.618 Y183.171 E0.00886
G1 X133.859 Y183.022 E0.00889
G1 X134.121 Y182.899 E0.00907
G1 X134.406 Y182.803 E0.00940
G1 X134.712 Y182.734 E0.00986
G1 X135.042 Y182.692 E0.01042
G1 X135.413 Y182.679 E0.01165
G1 X136.026 Y182.731 E0.01929
G1 X136.583 Y182.886 E0.01812
G1 X136.749 Y182.957 E0.00566
G1 X137.079 Y183.140 E0.01181
G1 X137.382 Y183.370 E0.01194
G1 X137.521 Y183.498 E0.00591
G1 X137.663 Y183.651 E0.00656
G1 X137.884 Y183.944 E0.01150
G1 X137.977 Y184.100 E0.00570
G1 X138.141 Y184.455 E0.01225
G1 X138.202 Y184.635 E0.00594
G1 X138.296 Y185.039 E0.01301
G1 X138.349 Y185.699 E0.02077
G1 X138.340 Y185.958 E0.00814
G1 X138.270 Y186.458 E0.01580
G1 X138.213 Y186.676 E0.00707
G1 X138.040 Y187.100 E0.01435
G1 X137.936 Y187.281 E0.00657
G1 X137.663 Y187.632 E0.01392
G1 X137.320 Y187.940 E0.01447
G1 X137.029 Y188.149 E0.01121
G1 X136.936 Y188.291 E0.00533
G1 X136.898 Y188.457 E0.00535
G1 X136.918 Y188.669 E0.00667
G1 X137.006 Y188.858 E0.00655
G1 X137.336 Y189.227 E0.01551
G1 X137.621 Y189.657 E0.01620
G1 X137.751 Y189.951 E0.01008
G1 X137.838 Y190.262 E0.01010
G1 X137.881 Y190.583 E0.01018
G1 X137.866 Y191.118 E0.01677
G1 X137.807 Y191.454 E0.01070
G1 X137.708 Y191.772 E0.01044
G1 X137.569 Y192.070 E0.01031
G1 X137.392 Y192.347 E0.01030
G1 X137.046 Y192.734 E0.01628
G1 X136.793 Y192.941 E0.01026
G1 X136.524 Y193.105 E0.00986
G1 X136.078 Y193.278 E0.01501
G1 X135.766 Y193.340 E0.00999
G1 X135.490 Y193.357 E0.00865
G1 X135.233 Y193.013 F10800.000
G1 X135.624 Y193.054
G1 F1200
G1 X135.330 Y193.065 E0.00519
G1 X134.899 Y193.030 E0.00711
G1 X134.650 Y192.973 E0.00420
G1 X134.405 Y192.886 E0.00429
G1 X134.051 Y192.689 E0.00667
G1 X133.835 Y192.513 E0.00458
G1 X133.644 Y192.304 E0.00466
G1 X133.512 Y192.128 E0.00362
G1 X133.301 Y191.749 E0.00713
G1 X135.624 Y193.054 F10800.000
G1 F1200
G1 X135.915 Y193.003 E0.00554
G1 X136.299 Y192.865 E0.00811
G1 X136.540 Y192.731 E0.00548
G1 X136.781 Y192.547 E0.00603
G1 X136.988 Y192.337 E0.00586
G1 X137.172 Y192.107 E0.00615
G1 X137.312 Y191.870 E0.00601
G1 X137.435 Y191.572 E0.00704
G1 X137.529 Y191.155 E0.00981
G1 X137.547 Y190.847 E0.00708
G1 X137.535 Y190.500 E0.00843
G1 X137.471 Y190.159 E0.00846
G1 X137.352 Y189.821 E0.00578
G1 X137.197 Y189.546 E0.00511
G1 X137.003 Y189.280 E0.00532
G1 X136.860 Y189.123 E0.00343
G1 X135.831 Y188.404 F10800.000
G1 F1200
G1 X135.603 Y188.390 E0.00690
G1 X135.460 Y188.389 E0.00410
G1 X135.337 Y188.388 E0.00315
G1 X135.234 Y188.384 E0.00234
G1 X135.005 Y188.386 E0.00482
G1 X136.961 Y187.822 F10800.000
G1 F1200
G1 X137.147 Y187.682 E0.00463
G1 X137.426 Y187.411 E0.00773
G1 X137.654 Y187.093 E0.00779
G1 X137.806 Y186.768 E0.00712
G1 X137.879 Y186.564 E0.00431
G1 X137.927 Y186.389 E0.00362
G1 X137.994 Y185.929 E0.00924
G1 X138.003 Y185.556 E0.00742
G1 X137.981 Y185.192 E0.00725
G1 X137.913 Y184.828 E0.00735
G1 X137.839 Y184.576 E0.00523
G1 X137.621 Y184.121 E0.01001
G1 X137.476 Y183.914 E0.00502
G1 X137.260 Y183.671 E0.00647
G1 X136.914 Y183.392 E0.00849
G1 X136.587 Y183.208 E0.00695
G1 X136.257 Y183.088 E0.00621
G1 X135.790 Y182.997 E0.00802
G1 X135.406 Y182.971 E0.00618
G1 X134.961 Y183.002 E0.00718
G1 X134.490 Y183.105 E0.00774
G1 X134.017 Y183.314 E0.00831
G1 X133.726 Y183.512 E0.00865
G1 X133.449 Y183.775 E0.00936
G1 X133.158 Y184.177 E0.01218
G1 X133.013 Y184.473 E0.00781
G1 X132.903 Y184.773 E0.00759
G1 E-0.80000 F2100.00000
G1 Z0.800 F10800.000
G1 X91.924 Y167.732
G1 Z0.200
G1 E0.80000 F2100.00000
G1 F1200
G1 X91.757 Y167.565 E0.00739
G1 X89.003 Y163.004 E0.16706
G1 X88.918 Y162.823 E0.00627
G1 X88.916 Y162.593 E0.00721
G1 X89.089 Y162.429 E0.00746
G1 X89.288 Y162.398 E0.00632
G1 X91.947 Y162.400 E0.08338
G1 X92.166 Y162.460 E0.00713
G1 X92.313 Y162.602 E0.00640
G1 X92.364 Y162.814 E0.00682
G1 X92.364 Y167.385 E0.14335
G1 X92.335 Y167.568 E0.00580
G1 X92.196 Y167.734 E0.00680
G1 X91.984 Y167.732 E0.00665
G1 X91.736 Y167.875 F10800.000
G1 E-0.80000 F2100.00000
G1 Z0.800 F10800.000
G1 X92.714 Y162.467
G1 Z0.200
G1 E0.80000 F2100.00000
G1 F1200
G1 X92.343 Y162.106 E0.01625
G1 X92.713 Y161.745 E0.01621
G1 X92.830 Y161.953 E0.00747
G1 X93.063 Y162.102 E0.00866
G1 X92.765 Y162.314 E0.01146
G1 X92.733 Y162.410 E0.00317
G1 E-0.80000 F2100.00000
G1 Z0.800 F10800.000
G1 X92.465 Y168.881
G1 Z0.200
G1 E0.80000 F2100.00000
G1 F1200
G1 X91.999 Y168.110 E0.02825
G1 X92.370 Y168.113 E0.01163
G1 X92.632 Y167.801 E0.01277
G1 X92.631 Y168.835 E0.03242
G1 X92.523 Y168.865 E0.00350
G1 X92.363 Y169.399 F10800.000
G1 F1200
G1 X92.286 Y169.312 E0.00365
G1 X88.329 Y162.768 E0.23978
G1 X88.279 Y162.613 E0.00509
G1 X88.278 Y161.842 E0.02418
G1 X88.408 Y161.815 E0.00416
G1 X91.896 Y161.813 E0.10937
G1 X92.162 Y161.756 E0.00852
G1 X92.313 Y161.609 E0.00659
G1 X92.364 Y161.398 E0.00682
G1 X92.364 Y159.085 E0.07250
G1 X92.996 Y159.078 E0.01983
G1 X92.998 Y161.354 E0.07135
G1 X93.021 Y161.523 E0.00535
G1 X93.113 Y161.686 E0.00587
G1 X93.280 Y161.793 E0.00622
G1 X93.688 Y161.819 E0.01284
G1 X93.688 Y162.395 E0.01808
G1 X93.274 Y162.415 E0.01302
G1 X93.084 Y162.550 E0.00729
G1 X93.016 Y162.754 E0.00674
G1 X93.007 Y169.393 E0.20816
G1 X92.423 Y169.399 E0.01831
G1 X92.312 Y169.295 F10800.000
G1 X92.409 Y169.152
G1 F1200
G1 X92.614 Y169.123 E0.00286
G1 X92.819 Y169.094 E0.00340
G1 X92.549 Y167.590 F10800.000
G1 F1200
G1 X92.822 Y166.921 E0.00885
