; generated by PrusaSlicer 2.2.0+win64 on 2020-09-17 at 22:24:15 UTC

; 

; external perimeters extrusion width = 0.45mm
; perimeters extrusion width = 0.45mm
; infill extrusion width = 0.45mm
; solid infill extrusion width = 0.45mm
; top infill extrusion width = 0.40mm
; first layer extrusion width = 0.42mm

M73 P0 R100
M201 X9000 Y9000 Z500 E10000 ; sets maximum accelerations, mm/sec^2
M203 X500 Y500 Z12 E120 ; sets maximum feedrates, mm/sec
M204 P2000 R1500 T2000 ; sets acceleration (P, T) and retract acceleration (R), mm/sec^2
M205 X10.00 Y10.00 Z0.20 E2.50 ; sets the jerk limits, mm/sec
M205 S0 T0 ; sets the minimum extruding and travel feed rate, mm/sec
M107
M862.3 P "MK2S" ; printer model check
M862.1 P0.4 ; nozzle diameter check
M115 U3.2.3 ; tell printer latest fw version
G90 ; use absolute coordinates
M83 ; extruder relative mode
M204 S2000 T1500 ; MK2 firmware only supports the old M204 format
M104 S215 ; set extruder temp
M140 S60 ; set bed temp
M190 S60 ; wait for bed temp
M109 S215 ; wait for extruder temp
G28 W ; home all without mesh bed level
G80 ; mesh bed leveling
G1 Y-3.0 F1000.0 ; go outside print area
G92 E0.0
G1 X60.0 E9.0  F1000.0 ; intro line
M73 P0 R100
G1 X100.0 E12.5 F1000.0 ; intro line
G92 E0.0
G21 ; set units to millimeters
G90 ; use absolute coordinates
M83 ; use relative distances for extrusion
M900 K0.06 ; Filament gcode LA 1.5
M900 K30 ; Filament gcode LA 1.0
;BEFORE_LAYER_CHANGE
G92 E0.0
;0.2


G1 E-0.80000 F2100.00000
G1 Z0.600 F10800.000
;AFTER_LAYER_CHANGE
;0.2
G1 X115.139 Y116.752
G1 Z0.200
G1 E0.80000 F2100.00000
M204 S1000
G1 F1200.000
G1 X114.689 Y116.791 E0.01415
G1 X114.239 Y116.752 E0.01415
G1 X113.803 Y116.635 E0.01415
G1 X113.412 Y116.452 E0.01353
G1 X113.026 Y116.187 E0.01469
G1 X112.706 Y115.866 E0.01423
G1 X112.447 Y115.496 E0.01415
G1 X112.256 Y115.087 E0.01415
G1 X112.139 Y114.651 E0.01415
G1 X112.100 Y114.202 E0.01415
G1 X112.139 Y113.752 E0.01415
G1 X112.256 Y113.316 E0.01415
G1 X112.447 Y112.907 E0.01415
G1 X112.706 Y112.537 E0.01415
G1 X113.025 Y112.218 E0.01415
G1 X113.394 Y111.959 E0.01415
G1 X113.803 Y111.768 E0.01415
G1 X114.239 Y111.652 E0.01415
G1 X114.669 Y111.614 E0.01353
G1 X115.136 Y111.651 E0.01469
G1 X115.575 Y111.768 E0.01423
G1 X115.984 Y111.959 E0.01415
G1 X116.353 Y112.218 E0.01415
G1 X116.673 Y112.537 E0.01415
G1 X116.932 Y112.907 E0.01415
G1 X117.122 Y113.316 E0.01415
G1 X117.239 Y113.752 E0.01415
G1 X117.278 Y114.202 E0.01415
G1 X117.239 Y114.651 E0.01415
G1 X117.122 Y115.087 E0.01415
G1 X116.940 Y115.478 E0.01353
G1 X116.674 Y115.864 E0.01469
G1 X116.353 Y116.185 E0.01423
G1 X115.984 Y116.444 E0.01415
G1 X115.575 Y116.635 E0.01415
G1 X115.197 Y116.736 E0.01227
G1 X114.689 Y116.412 F10800.000
G1 F1200.000
G1 X114.305 Y116.379 E0.01208
G1 X113.933 Y116.279 E0.01208
G1 X113.600 Y116.124 E0.01151
G1 X113.269 Y115.896 E0.01262
G1 X112.996 Y115.623 E0.01211
G1 X112.774 Y115.307 E0.01208
G1 X112.612 Y114.958 E0.01208
G1 X112.512 Y114.585 E0.01208
G1 X112.478 Y114.202 E0.01208
G1 X112.512 Y113.818 E0.01208
G1 X112.612 Y113.445 E0.01208
G1 X112.774 Y113.096 E0.01208
G1 X112.996 Y112.780 E0.01208
G1 X113.268 Y112.508 E0.01208
G1 X113.584 Y112.287 E0.01208
G1 X113.933 Y112.124 E0.01208
G1 X114.305 Y112.024 E0.01208
G1 X114.671 Y111.992 E0.01151
G1 X115.072 Y112.024 E0.01262
G1 X115.445 Y112.124 E0.01211
G1 X115.794 Y112.287 E0.01208
G1 X116.110 Y112.508 E0.01208
G1 X116.383 Y112.780 E0.01208
G1 X116.604 Y113.096 E0.01208
G1 X116.767 Y113.445 E0.01208
G1 X116.866 Y113.818 E0.01208
G1 X116.900 Y114.202 E0.01208
G1 X116.866 Y114.585 E0.01208
G1 X116.767 Y114.958 E0.01208
G1 X116.611 Y115.290 E0.01151
G1 X116.383 Y115.622 E0.01262
G1 X116.110 Y115.895 E0.01211
G1 X115.794 Y116.116 E0.01208
G1 X115.445 Y116.279 E0.01208
G1 X115.073 Y116.379 E0.01208
G1 X114.749 Y116.407 E0.01020
G1 X114.496 Y116.746 F10800.000
G1 E-0.80000 F2100.00000
G1 Z0.800 F10800.000
G1 X156.313 Y130.039
G1 Z0.200
G1 E0.80000 F2100.00000
G1 F1200.000
G1 X156.313 Y124.364 E0.17791
G1 X159.987 Y124.364 E0.11520
G1 X159.987 Y130.039 E0.17791
G1 X156.373 Y130.039 E0.11332
G1 X156.690 Y129.662 F10800.000
G1 F1200.000
G1 X156.690 Y124.742 E0.15426
G1 X159.610 Y124.742 E0.09155
G1 X159.610 Y129.662 E0.15426
G1 X156.750 Y129.662 E0.08967
G1 X156.314 Y129.797 F10800.000
G1 E-0.80000 F2100.00000
G1 Z0.800 F10800.000
G1 X163.313 Y130.039
G1 Z0.200
G1 E0.80000 F2100.00000
G1 F1200.000
G1 X163.313 Y124.364 E0.17791
G1 X166.987 Y124.364 E0.11520
G1 X166.987 Y130.039 E0.17791
G1 X163.373 Y130.039 E0.11332
G1 X163.690 Y129.662 F10800.000
G1 F1200.000
G1 X163.690 Y124.742 E0.15426
G1 X166.610 Y124.742 E0.09155
G1 X166.610 Y129.662 E0.15426
G1 X163.750 Y129.662 E0.08967
G1 X163.314 Y129.797 F10800.000
G1 E-0.80000 F2100.00000
G1 Z0.800 F10800.000
G1 X93.267 Y159.406
G1 Z0.200
G1 E0.80000 F2100.00000
G1 F1200.000
G1 X89.593 Y159.406 E0.11520
G1 X89.593 Y153.732 E0.17791
G1 X93.267 Y153.732 E0.11520
G1 X93.267 Y159.346 E0.17603
G1 X92.890 Y159.029 F10800.000
G1 F1200.000
G1 X89.970 Y159.029 E0.09155
G1 X89.970 Y154.109 E0.15426
G1 X92.890 Y154.109 E0.09155
G1 X92.890 Y158.969 E0.15238
G1 X92.961 Y159.422 F10800.000
G1 E-0.80000 F2100.00000
G1 Z0.800 F10800.000
G1 X86.267 Y159.406
G1 Z0.200
G1 E0.80000 F2100.00000
G1 F1200.000
G1 X82.593 Y159.406 E0.11520
G1 X82.593 Y153.732 E0.17791
G1 X86.267 Y153.732 E0.11520
G1 X86.267 Y159.346 E0.17603
G1 X85.890 Y159.029 F10800.000
G1 F1200.000
G1 X82.970 Y159.029 E0.09155
G1 X82.970 Y154.109 E0.15426
G1 X85.890 Y154.109 E0.09155
G1 X85.890 Y158.969 E0.15238
G1 X85.961 Y159.422 F10800.000
G1 E-0.80000 F2100.00000
G1 Z0.800 F10800.000
G1 X125.000 Y165.564
G1 Z0.200
G1 E0.80000 F2100.00000
G1 F1200.000
G1 X78.737 Y165.564 E1.45054
G1 X78.737 Y118.039 E1.49014
G1 X97.528 Y118.039 E0.58918
G1 X105.276 Y111.034 E0.32749
G1 X106.383 Y110.171 E0.04402
G1 X107.587 Y109.491 E0.04334
G1 X108.877 Y108.994 E0.04334
G1 X110.156 Y108.707 E0.04111
G1 X111.628 Y108.589 E0.04630
G1 X117.752 Y108.589 E0.19201
G1 X119.081 Y108.687 E0.04178
G1 X120.503 Y108.995 E0.04562
G1 X121.791 Y109.491 E0.04328
G1 X122.995 Y110.171 E0.04334
G1 X124.102 Y111.034 E0.04402
G1 X131.850 Y118.039 E0.32749
G1 X171.263 Y118.039 E1.23576
G1 X171.263 Y165.564 E1.49014
G1 X125.060 Y165.564 E1.44866
G1 X125.000 Y165.942 F10800.000
G1 F1200.000
G1 X78.360 Y165.942 E1.46236
G1 X78.360 Y117.662 E1.51379
G1 X97.383 Y117.662 E0.59645
G1 X105.033 Y110.745 E0.32337
G1 X106.174 Y109.857 E0.04533
G1 X107.425 Y109.149 E0.04509
G1 X108.767 Y108.632 E0.04509
G1 X110.100 Y108.334 E0.04281
G1 X111.613 Y108.212 E0.04761
G1 X117.766 Y108.212 E0.19292
G1 X119.135 Y108.312 E0.04305
G1 X120.612 Y108.633 E0.04736
G1 X121.953 Y109.149 E0.04506
G1 X123.204 Y109.857 E0.04509
G1 X124.345 Y110.745 E0.04533
G1 X131.995 Y117.662 E0.32337
G1 X171.640 Y117.662 E1.24303
G1 X171.640 Y165.942 E1.51379
G1 X125.060 Y165.942 E1.46048
G1 X124.716 Y165.660 F10800.000
G1 E-0.80000 F2100.00000
G1 Z0.800 F10800.000
G1 X94.600 Y165.451
G1 Z0.200
G1 E0.80000 F2100.00000
G1 F1200.000
G1 X86.550 Y157.402 E0.35819
G1 X86.550 Y157.937 E0.01684
G1 X93.895 Y165.282 E0.32682
G1 X93.360 Y165.282 E0.01684
G1 X86.550 Y158.472 E0.30301
G1 X86.550 Y159.007 E0.01684
G1 X92.824 Y165.282 E0.27920
G1 X92.289 Y165.282 E0.01684
G1 X86.550 Y159.542 E0.25538
G1 X86.550 Y159.689 E0.00460
G1 X86.161 Y159.689 E0.01224
G1 X91.754 Y165.282 E0.24888
G1 X91.219 Y165.282 E0.01684
G1 X85.626 Y159.689 E0.24888
G1 X85.091 Y159.689 E0.01684
G1 X90.684 Y165.282 E0.24888
G1 X90.149 Y165.282 E0.01684
G1 X84.556 Y159.689 E0.24888
G1 X84.021 Y159.689 E0.01684
G1 X89.614 Y165.282 E0.24888
G1 X89.078 Y165.282 E0.01684
G1 X83.485 Y159.689 E0.24888
G1 X82.950 Y159.689 E0.01684
G1 X88.543 Y165.282 E0.24888
G1 X88.008 Y165.282 E0.01684
G1 X79.020 Y156.293 E0.39996
G1 X79.020 Y156.829 E0.01684
G1 X87.473 Y165.282 E0.37614
G1 X86.938 Y165.282 E0.01684
G1 X79.020 Y157.364 E0.35233
G1 X79.020 Y157.899 E0.01684
G1 X86.403 Y165.282 E0.32852
G1 X85.867 Y165.282 E0.01684
G1 X79.020 Y158.434 E0.30470
G1 X79.020 Y158.969 E0.01684
G1 X85.332 Y165.282 E0.28089
G1 X84.797 Y165.282 E0.01684
G1 X79.020 Y159.504 E0.25708
G1 X79.020 Y160.040 E0.01684
G1 X84.262 Y165.282 E0.23326
G1 X83.727 Y165.282 E0.01684
G1 X79.020 Y160.575 E0.20945
G1 X79.020 Y161.110 E0.01684
G1 X83.192 Y165.282 E0.18564
G1 X82.657 Y165.282 E0.01684
G1 X79.020 Y161.645 E0.16183
G1 X79.020 Y162.180 E0.01684
G1 X82.121 Y165.282 E0.13801
G1 X81.586 Y165.282 E0.01684
G1 X79.020 Y162.715 E0.11420
G1 X79.020 Y163.250 E0.01684
G1 X81.051 Y165.282 E0.09039
G1 X80.516 Y165.282 E0.01684
G1 X79.020 Y163.786 E0.06657
G1 X79.020 Y164.321 E0.01684
G1 X79.981 Y165.282 E0.04276
G1 X79.446 Y165.282 E0.01684
G1 X78.850 Y164.686 E0.02650
G1 E-0.80000 F2100.00000
G1 Z0.800 F10800.000
G1 X82.480 Y159.218
G1 Z0.200
G1 E0.80000 F2100.00000
G1 F1200.000
G1 X79.020 Y155.758 E0.15397
G1 X79.020 Y155.223 E0.01684
G1 X82.310 Y158.514 E0.14642
G1 X82.310 Y157.978 E0.01684
G1 X79.020 Y154.688 E0.14642
G1 X79.020 Y154.153 E0.01684
G1 X82.310 Y157.443 E0.14642
G1 X82.310 Y156.908 E0.01684
G1 X79.020 Y153.618 E0.14642
G1 X79.020 Y153.083 E0.01684
G1 X82.310 Y156.373 E0.14642
G1 X82.310 Y155.838 E0.01684
G1 X79.020 Y152.547 E0.14642
G1 X79.020 Y152.012 E0.01684
G1 X82.310 Y155.303 E0.14642
G1 X82.310 Y154.768 E0.01684
G1 X79.020 Y151.477 E0.14642
G1 X79.020 Y150.942 E0.01684
G1 X82.310 Y154.232 E0.14642
G1 X82.310 Y153.697 E0.01684
G1 X79.020 Y150.407 E0.14642
G1 X79.020 Y149.872 E0.01684
G1 X82.597 Y153.449 E0.15918
G1 X83.132 Y153.449 E0.01684
G1 X79.020 Y149.337 E0.18299
M73 P1 R99
G1 X79.020 Y148.801 E0.01684
G1 X83.667 Y153.449 E0.20681
G1 X84.203 Y153.449 E0.01684
G1 X79.020 Y148.266 E0.23062
G1 X79.020 Y147.731 E0.01684
G1 X84.738 Y153.449 E0.25443
G1 X85.273 Y153.449 E0.01684
G1 X79.020 Y147.196 E0.27825
G1 X79.020 Y146.661 E0.01684
G1 X85.978 Y153.619 E0.30961
G1 E-0.80000 F2100.00000
G1 Z0.800 F10800.000
G1 X78.850 Y139.534
G1 Z0.200
G1 E0.80000 F2100.00000
G1 F1200.000
G1 X92.765 Y153.449 E0.61918
G1 X92.230 Y153.449 E0.01684
G1 X79.020 Y140.239 E0.58782
G1 X79.020 Y140.774 E0.01684
G1 X91.695 Y153.449 E0.56400
G1 X91.160 Y153.449 E0.01684
G1 X79.020 Y141.309 E0.54019
G1 X79.020 Y141.844 E0.01684
G1 X90.624 Y153.449 E0.51638
G1 X90.089 Y153.449 E0.01684
G1 X79.020 Y142.380 E0.49256
G1 X79.020 Y142.915 E0.01684
G1 X89.554 Y153.449 E0.46875
G1 X89.310 Y153.449 E0.00767
G1 X89.310 Y153.740 E0.00917
G1 X79.020 Y143.450 E0.45790
G1 X79.020 Y143.985 E0.01684
G1 X89.310 Y154.275 E0.45790
G1 X89.310 Y154.811 E0.01684
G1 X79.020 Y144.520 E0.45790
G1 X79.020 Y145.055 E0.01684
G1 X89.310 Y155.346 E0.45790
G1 X89.310 Y155.881 E0.01684
G1 X79.020 Y145.590 E0.45790
G1 X79.020 Y146.126 E0.01684
G1 X89.310 Y156.416 E0.45790
G1 X89.310 Y156.951 E0.01684
G1 X86.550 Y154.191 E0.12283
G1 X86.550 Y154.726 E0.01684
G1 X89.310 Y157.486 E0.12283
G1 X89.310 Y158.022 E0.01684
G1 X86.550 Y155.261 E0.12283
G1 X86.550 Y155.796 E0.01684
G1 X89.310 Y158.557 E0.12283
G1 X89.310 Y159.092 E0.01684
G1 X86.550 Y156.332 E0.12283
G1 X86.550 Y156.867 E0.01684
G1 X94.965 Y165.282 E0.37445
G1 X95.500 Y165.282 E0.01684
G1 X89.907 Y159.689 E0.24888
G1 X90.442 Y159.689 E0.01684
G1 X96.035 Y165.282 E0.24888
G1 X96.570 Y165.282 E0.01684
G1 X90.977 Y159.689 E0.24888
G1 X91.513 Y159.689 E0.01684
G1 X97.106 Y165.282 E0.24888
G1 X97.641 Y165.282 E0.01684
G1 X92.048 Y159.689 E0.24888
G1 X92.583 Y159.689 E0.01684
G1 X98.176 Y165.282 E0.24888
G1 X98.711 Y165.282 E0.01684
G1 X93.118 Y159.689 E0.24888
G1 X93.550 Y159.689 E0.01359
G1 X93.550 Y159.586 E0.00325
G1 X99.246 Y165.282 E0.25347
G1 X99.781 Y165.282 E0.01684
G1 X93.550 Y159.050 E0.27728
G1 X93.550 Y158.515 E0.01684
G1 X100.317 Y165.282 E0.30109
G1 X100.852 Y165.282 E0.01684
G1 X93.550 Y157.980 E0.32491
G1 X93.550 Y157.445 E0.01684
G1 X101.387 Y165.282 E0.34872
G1 X101.922 Y165.282 E0.01684
G1 X93.550 Y156.910 E0.37253
G1 X93.550 Y156.375 E0.01684
G1 X102.457 Y165.282 E0.39635
G1 X102.992 Y165.282 E0.01684
G1 X93.550 Y155.839 E0.42016
G1 X93.550 Y155.304 E0.01684
G1 X103.527 Y165.282 E0.44397
G1 X104.063 Y165.282 E0.01684
G1 X93.550 Y154.769 E0.46779
G1 X93.550 Y154.234 E0.01684
G1 X104.598 Y165.282 E0.49160
G1 X105.133 Y165.282 E0.01684
G1 X79.020 Y139.169 E1.16198
G1 X79.020 Y138.633 E0.01684
G1 X105.668 Y165.282 E1.18579
G1 X106.203 Y165.282 E0.01684
G1 X79.020 Y138.098 E1.20960
G1 X79.020 Y137.563 E0.01684
G1 X106.738 Y165.282 E1.23342
G1 X107.274 Y165.282 E0.01684
G1 X79.020 Y137.028 E1.25723
G1 X79.020 Y136.493 E0.01684
G1 X107.809 Y165.282 E1.28104
G1 X108.344 Y165.282 E0.01684
G1 X79.020 Y135.958 E1.30486
G1 X79.020 Y135.423 E0.01684
G1 X108.879 Y165.282 E1.32867
G1 X109.414 Y165.282 E0.01684
G1 X79.020 Y134.887 E1.35248
G1 X79.020 Y134.352 E0.01684
G1 X109.949 Y165.282 E1.37630
G1 X110.484 Y165.282 E0.01684
G1 X79.020 Y133.817 E1.40011
G1 X79.020 Y133.282 E0.01684
G1 X111.020 Y165.282 E1.42392
G1 X111.555 Y165.282 E0.01684
G1 X79.020 Y132.747 E1.44774
G1 X79.020 Y132.212 E0.01684
G1 X112.090 Y165.282 E1.47155
G1 X112.625 Y165.282 E0.01684
G1 X79.020 Y131.677 E1.49536
G1 X79.020 Y131.141 E0.01684
G1 X113.160 Y165.282 E1.51918
G1 X113.695 Y165.282 E0.01684
G1 X79.020 Y130.606 E1.54299
M73 P2 R98
G1 X79.020 Y130.071 E0.01684
G1 X114.230 Y165.282 E1.56680
G1 X114.766 Y165.282 E0.01684
G1 X79.020 Y129.536 E1.59061
G1 X79.020 Y129.001 E0.01684
G1 X115.301 Y165.282 E1.61443
G1 X115.836 Y165.282 E0.01684
G1 X79.020 Y128.466 E1.63824
G1 X79.020 Y127.930 E0.01684
G1 X116.371 Y165.282 E1.66205
G1 X116.906 Y165.282 E0.01684
G1 X79.020 Y127.395 E1.68587
G1 X79.020 Y126.860 E0.01684
G1 X117.441 Y165.282 E1.70968
G1 X117.977 Y165.282 E0.01684
G1 X79.020 Y126.325 E1.73349
G1 X79.020 Y125.790 E0.01684
G1 X118.512 Y165.282 E1.75731
G1 X119.047 Y165.282 E0.01684
G1 X79.020 Y125.255 E1.78112
G1 X79.020 Y124.720 E0.01684
G1 X119.582 Y165.282 E1.80493
G1 X120.117 Y165.282 E0.01684
G1 X79.020 Y124.184 E1.82875
G1 X79.020 Y123.649 E0.01684
G1 X120.652 Y165.282 E1.85256
G1 X121.187 Y165.282 E0.01684
G1 X79.020 Y123.114 E1.87637
G1 X79.020 Y122.579 E0.01684
G1 X121.723 Y165.282 E1.90019
G1 X122.258 Y165.282 E0.01684
G1 X79.020 Y122.044 E1.92400
G1 X79.020 Y121.509 E0.01684
G1 X122.793 Y165.282 E1.94781
G1 X123.328 Y165.282 E0.01684
G1 X79.020 Y120.974 E1.97163
G1 X79.020 Y120.438 E0.01684
G1 X123.863 Y165.282 E1.99544
G1 X124.398 Y165.282 E0.01684
G1 X79.020 Y119.903 E2.01925
G1 X79.020 Y119.368 E0.01684
G1 X124.933 Y165.282 E2.04306
M73 P3 R97
G1 X125.469 Y165.282 E0.01684
G1 X79.020 Y118.833 E2.06688
G1 X79.020 Y118.321 E0.01609
G1 X79.044 Y118.321 E0.00075
G1 X126.004 Y165.282 E2.08964
G1 X126.539 Y165.282 E0.01684
G1 X79.579 Y118.321 E2.08964
G1 X80.114 Y118.321 E0.01684
G1 X127.074 Y165.282 E2.08964
G1 X127.609 Y165.282 E0.01684
G1 X80.649 Y118.321 E2.08964
G1 X81.184 Y118.321 E0.01684
G1 X128.144 Y165.282 E2.08964
G1 X128.680 Y165.282 E0.01684
G1 X81.719 Y118.321 E2.08964
G1 X82.254 Y118.321 E0.01684
G1 X129.215 Y165.282 E2.08964
G1 X129.750 Y165.282 E0.01684
G1 X82.790 Y118.321 E2.08964
G1 X83.325 Y118.321 E0.01684
G1 X130.285 Y165.282 E2.08964
G1 X130.820 Y165.282 E0.01684
G1 X83.860 Y118.321 E2.08964
G1 X84.395 Y118.321 E0.01684
G1 X131.355 Y165.282 E2.08964
G1 X131.890 Y165.282 E0.01684
G1 X84.930 Y118.321 E2.08964
G1 X85.465 Y118.321 E0.01684
G1 X132.426 Y165.282 E2.08964
G1 X132.961 Y165.282 E0.01684
G1 X86.001 Y118.321 E2.08964
G1 X86.536 Y118.321 E0.01684
G1 X133.496 Y165.282 E2.08964
G1 X134.031 Y165.282 E0.01684
G1 X87.071 Y118.321 E2.08964
G1 X87.606 Y118.321 E0.01684
G1 X134.566 Y165.282 E2.08964
M73 P4 R95
G1 X135.101 Y165.282 E0.01684
G1 X88.141 Y118.321 E2.08964
G1 X88.676 Y118.321 E0.01684
G1 X135.637 Y165.282 E2.08964
G1 X136.172 Y165.282 E0.01684
G1 X89.211 Y118.321 E2.08964
G1 X89.747 Y118.321 E0.01684
G1 X136.707 Y165.282 E2.08964
G1 X137.242 Y165.282 E0.01684
G1 X90.282 Y118.321 E2.08964
G1 X90.817 Y118.321 E0.01684
G1 X137.777 Y165.282 E2.08964
G1 X138.312 Y165.282 E0.01684
G1 X91.352 Y118.321 E2.08964
G1 X91.887 Y118.321 E0.01684
G1 X138.847 Y165.282 E2.08964
G1 X139.383 Y165.282 E0.01684
G1 X92.422 Y118.321 E2.08964
