; generated by PrusaSlicer 2.2.0+win64 on 2020-09-17 at 22:26:33 UTC

; 

; external perimeters extrusion width = 0.45mm
; perimeters extrusion width = 0.45mm
; infill extrusion width = 0.45mm
; solid infill extrusion width = 0.45mm
; top infill extrusion width = 0.40mm
; first layer extrusion width = 0.42mm

M73 P0 R398
M201 X9000 Y9000 Z500 E10000 ; sets maximum accelerations, mm/sec^2
M203 X500 Y500 Z12 E120 ; sets maximum feedrates, mm/sec
M204 P2000 R1500 T2000 ; sets acceleration (P, T) and retract acceleration (R), mm/sec^2
M205 X10.00 Y10.00 Z0.20 E2.50 ; sets the jerk limits, mm/sec
M205 S0 T0 ; sets the minimum extruding and travel feed rate, mm/sec
M107
M862.3 P "MK2S" ; printer model check
M862.1 P0.4 ; nozzle diameter check
M115 U3.2.3 ; tell printer latest fw version
G90 ; use absolute coordinates
M83 ; extruder relative mode
M204 S2000 T1500 ; MK2 firmware only supports the old M204 format
M104 S215 ; set extruder temp
M140 S60 ; set bed temp
M190 S60 ; wait for bed temp
M109 S215 ; wait for extruder temp
G28 W ; home all without mesh bed level
G80 ; mesh bed leveling
G1 Y-3.0 F1000.0 ; go outside print area
G92 E0.0
G1 X60.0 E9.0  F1000.0 ; intro line
M73 P0 R398
G1 X100.0 E12.5 F1000.0 ; intro line
G92 E0.0
G21 ; set units to millimeters
G90 ; use absolute coordinates
M83 ; use relative distances for extrusion
M900 K0.06 ; Filament gcode LA 1.5
M900 K30 ; Filament gcode LA 1.0
;BEFORE_LAYER_CHANGE
G92 E0.0
;0.2


G1 E-0.80000 F2100.00000
G1 Z0.600 F10800.000
;AFTER_LAYER_CHANGE
;0.2
G1 X187.838 Y71.417
G1 Z0.200
G1 E0.80000 F2100.00000
M204 S1000
G1 F1200.000
G1 X187.388 Y71.456 E0.01415
G1 X186.939 Y71.417 E0.01415
G1 X186.503 Y71.300 E0.01415
G1 X186.094 Y71.109 E0.01415
G1 X185.724 Y70.850 E0.01415
G1 X185.405 Y70.531 E0.01415
G1 X185.146 Y70.161 E0.01415
G1 X184.955 Y69.752 E0.01415
G1 X184.838 Y69.316 E0.01415
G1 X184.799 Y68.867 E0.01415
G1 X184.838 Y68.417 E0.01415
G1 X184.955 Y67.981 E0.01415
G1 X185.146 Y67.572 E0.01415
G1 X185.405 Y67.202 E0.01415
G1 X185.724 Y66.883 E0.01415
G1 X186.094 Y66.624 E0.01415
G1 X186.503 Y66.433 E0.01415
G1 X186.939 Y66.317 E0.01415
G1 X187.368 Y66.279 E0.01353
G1 X187.835 Y66.316 E0.01469
G1 X188.274 Y66.433 E0.01423
G1 X188.683 Y66.624 E0.01415
G1 X189.053 Y66.883 E0.01415
G1 X189.372 Y67.202 E0.01415
G1 X189.631 Y67.572 E0.01415
G1 X189.821 Y67.981 E0.01415
G1 X189.938 Y68.417 E0.01415
G1 X189.977 Y68.867 E0.01415
G1 X189.938 Y69.316 E0.01415
G1 X189.821 Y69.752 E0.01415
G1 X189.639 Y70.143 E0.01353
G1 X189.373 Y70.529 E0.01469
G1 X189.053 Y70.850 E0.01423
G1 X188.683 Y71.109 E0.01415
G1 X188.274 Y71.300 E0.01415
G1 X187.896 Y71.401 E0.01227
G1 X187.772 Y71.044 F10800.000
G1 F1200.000
G1 X187.388 Y71.077 E0.01208
G1 X187.004 Y71.044 E0.01208
G1 X186.632 Y70.944 E0.01208
G1 X186.283 Y70.781 E0.01208
G1 X185.967 Y70.560 E0.01208
G1 X185.695 Y70.288 E0.01208
G1 X185.474 Y69.972 E0.01208
G1 X185.311 Y69.623 E0.01208
G1 X185.211 Y69.250 E0.01208
G1 X185.177 Y68.867 E0.01208
G1 X185.211 Y68.483 E0.01208
G1 X185.311 Y68.110 E0.01208
G1 X185.474 Y67.761 E0.01208
G1 X185.695 Y67.445 E0.01208
G1 X185.967 Y67.173 E0.01208
G1 X186.283 Y66.952 E0.01208
G1 X186.632 Y66.789 E0.01208
G1 X187.004 Y66.689 E0.01208
G1 X187.370 Y66.657 E0.01151
G1 X187.771 Y66.689 E0.01262
G1 X188.144 Y66.789 E0.01211
G1 X188.494 Y66.952 E0.01208
G1 X188.809 Y67.173 E0.01208
G1 X189.082 Y67.445 E0.01208
G1 X189.303 Y67.761 E0.01208
G1 X189.466 Y68.110 E0.01208
G1 X189.565 Y68.483 E0.01208
G1 X189.599 Y68.867 E0.01208
G1 X189.565 Y69.250 E0.01208
G1 X189.466 Y69.623 E0.01208
G1 X189.311 Y69.955 E0.01151
G1 X189.082 Y70.287 E0.01262
G1 X188.809 Y70.560 E0.01211
G1 X188.494 Y70.781 E0.01208
G1 X188.144 Y70.944 E0.01208
G1 X187.830 Y71.028 E0.01020
G1 X187.640 Y71.406 F10800.000
G1 E-0.80000 F2100.00000
G1 Z0.800 F10800.000
G1 X203.225 Y27.243
G1 Z0.200
G1 E0.80000 F2100.00000
G1 F1200.000
G1 X197.551 Y27.243 E0.17791
G1 X197.551 Y23.569 E0.11520
G1 X203.225 Y23.569 E0.17791
G1 X203.225 Y27.183 E0.11332
G1 X202.848 Y26.866 F10800.000
G1 F1200.000
G1 X197.928 Y26.866 E0.15426
G1 X197.928 Y23.946 E0.09155
G1 X202.848 Y23.946 E0.15426
G1 X202.848 Y26.806 E0.08967
G1 X202.983 Y27.242 F10800.000
G1 E-0.80000 F2100.00000
G1 Z0.800 F10800.000
G1 X203.225 Y20.243
G1 Z0.200
G1 E0.80000 F2100.00000
G1 F1200.000
G1 X197.551 Y20.243 E0.17791
G1 X197.551 Y16.569 E0.11520
G1 X203.225 Y16.569 E0.17791
G1 X203.225 Y20.183 E0.11332
G1 X202.848 Y19.866 F10800.000
G1 F1200.000
G1 X197.928 Y19.866 E0.15426
G1 X197.928 Y16.946 E0.09155
G1 X202.848 Y16.946 E0.15426
G1 X202.848 Y19.806 E0.08967
G1 X202.983 Y20.242 F10800.000
G1 E-0.80000 F2100.00000
G1 Z0.800 F10800.000
G1 X226.918 Y93.962
G1 Z0.200
G1 E0.80000 F2100.00000
G1 F1200.000
G1 X226.918 Y90.288 E0.11520
G1 X232.592 Y90.288 E0.17791
G1 X232.592 Y93.962 E0.11520
G1 X226.978 Y93.962 E0.17603
G1 X227.295 Y93.585 F10800.000
G1 F1200.000
G1 X227.295 Y90.665 E0.09155
G1 X232.215 Y90.665 E0.15426
G1 X232.215 Y93.585 E0.09155
G1 X227.355 Y93.585 E0.15238
G1 X226.902 Y93.656 F10800.000
G1 E-0.80000 F2100.00000
G1 Z0.800 F10800.000
G1 X226.918 Y100.962
G1 Z0.200
G1 E0.80000 F2100.00000
G1 F1200.000
G1 X226.918 Y97.288 E0.11520
G1 X232.592 Y97.288 E0.17791
G1 X232.592 Y100.962 E0.11520
G1 X226.978 Y100.962 E0.17603
G1 X227.295 Y100.585 F10800.000
G1 F1200.000
G1 X227.295 Y97.665 E0.09155
G1 X232.215 Y97.665 E0.15426
G1 X232.215 Y100.585 E0.09155
G1 X227.355 Y100.585 E0.15238
G1 X226.902 Y100.656 F10800.000
G1 E-0.80000 F2100.00000
G1 Z0.800 F10800.000
G1 X210.263 Y104.819
G1 Z0.200
G1 E0.80000 F2100.00000
G1 F1200.000
G1 X191.225 Y104.819 E0.59692
G1 X191.225 Y86.028 E0.58918
G1 X184.220 Y78.280 E0.32749
G1 X183.358 Y77.172 E0.04402
G1 X182.677 Y75.969 E0.04334
G1 X182.181 Y74.679 E0.04334
G1 X181.878 Y73.330 E0.04334
G1 X181.775 Y71.930 E0.04402
G1 X181.775 Y65.804 E0.19208
G1 X181.878 Y64.403 E0.04402
G1 X182.181 Y63.054 E0.04334
G1 X182.677 Y61.764 E0.04334
G1 X183.358 Y60.561 E0.04334
G1 X184.220 Y59.453 E0.04402
G1 X191.225 Y51.705 E0.32749
G1 X191.225 Y12.293 E1.23576
G1 X238.751 Y12.293 E1.49014
G1 X238.751 Y104.819 E2.90108
G1 X210.323 Y104.819 E0.89134
G1 X210.263 Y105.196 F10800.000
G1 F1200.000
G1 X190.848 Y105.196 E0.60874
G1 X190.848 Y86.173 E0.59645
G1 X183.931 Y78.523 E0.32337
G1 X183.043 Y77.382 E0.04533
G1 X182.336 Y76.130 E0.04509
G1 X181.819 Y74.788 E0.04509
G1 X181.504 Y73.385 E0.04509
G1 X181.398 Y71.943 E0.04533
G1 X181.398 Y65.790 E0.19295
G1 X181.504 Y64.348 E0.04533
G1 X181.819 Y62.945 E0.04509
G1 X182.336 Y61.603 E0.04508
G1 X183.043 Y60.351 E0.04509
G1 X183.931 Y59.211 E0.04533
G1 X190.848 Y51.560 E0.32337
G1 X190.848 Y11.916 E1.24303
G1 X239.128 Y11.916 E1.51379
G1 X239.128 Y105.196 E2.92473
G1 X210.323 Y105.196 E0.90316
G1 X209.938 Y104.962 F10800.000
G1 E-0.80000 F2100.00000
G1 Z0.800 F10800.000
G1 X218.861 Y104.705
G1 Z0.200
G1 E0.80000 F2100.00000
G1 F1200.000
G1 X182.058 Y67.902 E1.63766
G1 X182.058 Y68.438 E0.01684
G1 X218.156 Y104.536 E1.60630
G1 X217.621 Y104.536 E0.01684
G1 X182.058 Y68.973 E1.58248
G1 X182.058 Y69.508 E0.01684
G1 X217.086 Y104.536 E1.55867
G1 X216.551 Y104.536 E0.01684
G1 X182.058 Y70.043 E1.53486
G1 X182.058 Y70.578 E0.01684
G1 X216.016 Y104.536 E1.51104
G1 X215.480 Y104.536 E0.01684
G1 X182.058 Y71.113 E1.48723
M73 P0 R397
G1 X182.058 Y71.648 E0.01684
G1 X214.945 Y104.536 E1.46342
G1 X214.410 Y104.536 E0.01684
G1 X182.079 Y72.205 E1.43867
G1 X182.122 Y72.782 E0.01823
G1 X213.875 Y104.536 E1.41296
G1 X213.340 Y104.536 E0.01684
G1 X182.178 Y73.374 E1.38664
G1 X182.333 Y74.064 E0.02224
G1 X212.805 Y104.536 E1.35594
G1 X212.270 Y104.536 E0.01684
G1 X182.528 Y74.795 E1.32342
G1 X182.863 Y75.665 E0.02934
G1 X211.734 Y104.536 E1.28470
G1 X211.199 Y104.536 E0.01684
G1 X183.484 Y76.820 E1.23329
G1 X183.594 Y77.015 E0.00703
G1 X184.437 Y78.098 E0.04320
G1 X186.425 Y80.297 E0.09326
G1 X210.664 Y104.536 E1.07859
G1 X210.129 Y104.536 E0.01684
G1 X191.471 Y85.878 E0.83022
G1 X191.508 Y85.919 E0.00172
G1 X191.508 Y86.450 E0.01672
G1 X209.594 Y104.536 E0.80478
G1 X209.059 Y104.536 E0.01684
G1 X191.508 Y86.985 E0.78097
G1 X191.508 Y87.520 E0.01684
G1 X208.524 Y104.536 E0.75715
G1 X207.988 Y104.536 E0.01684
G1 X191.508 Y88.055 E0.73334
G1 X191.508 Y88.591 E0.01684
G1 X207.453 Y104.536 E0.70953
G1 X206.918 Y104.536 E0.01684
G1 X191.508 Y89.126 E0.68571
G1 X191.508 Y89.661 E0.01684
G1 X206.383 Y104.536 E0.66190
G1 X205.848 Y104.536 E0.01684
G1 X191.508 Y90.196 E0.63809
G1 X191.508 Y90.731 E0.01684
G1 X205.313 Y104.536 E0.61428
G1 X204.777 Y104.536 E0.01684
G1 X191.508 Y91.266 E0.59046
G1 X191.508 Y91.801 E0.01684
G1 X204.242 Y104.536 E0.56665
G1 X203.707 Y104.536 E0.01684
G1 X191.508 Y92.337 E0.54284
G1 X191.508 Y92.872 E0.01684
G1 X203.172 Y104.536 E0.51902
G1 X202.637 Y104.536 E0.01684
G1 X191.508 Y93.407 E0.49521
G1 X191.508 Y93.942 E0.01684
G1 X202.102 Y104.536 E0.47140
G1 X201.567 Y104.536 E0.01684
G1 X191.508 Y94.477 E0.44758
G1 X191.508 Y95.012 E0.01684
G1 X201.031 Y104.536 E0.42377
G1 X200.496 Y104.536 E0.01684
G1 X191.508 Y95.548 E0.39996
G1 X191.508 Y96.083 E0.01684
G1 X199.961 Y104.536 E0.37614
G1 X199.426 Y104.536 E0.01684
G1 X191.508 Y96.618 E0.35233
G1 X191.508 Y97.153 E0.01684
G1 X198.891 Y104.536 E0.32852
G1 X198.356 Y104.536 E0.01684
G1 X191.508 Y97.688 E0.30470
G1 X191.508 Y98.223 E0.01684
G1 X197.820 Y104.536 E0.28089
G1 X197.285 Y104.536 E0.01684
G1 X191.508 Y98.758 E0.25708
G1 X191.508 Y99.294 E0.01684
G1 X196.750 Y104.536 E0.23326
G1 X196.215 Y104.536 E0.01684
G1 X191.508 Y99.829 E0.20945
G1 X191.508 Y100.364 E0.01684
G1 X195.680 Y104.536 E0.18564
G1 X195.145 Y104.536 E0.01684
G1 X191.508 Y100.899 E0.16183
G1 X191.508 Y101.434 E0.01684
G1 X194.610 Y104.536 E0.13801
G1 X194.074 Y104.536 E0.01684
G1 X191.508 Y101.969 E0.11420
G1 X191.508 Y102.505 E0.01684
G1 X193.539 Y104.536 E0.09039
G1 X193.004 Y104.536 E0.01684
G1 X191.508 Y103.040 E0.06657
G1 X191.508 Y103.575 E0.01684
G1 X192.469 Y104.536 E0.04276
G1 X191.934 Y104.536 E0.01684
G1 X191.338 Y103.940 E0.02650
G1 E-0.80000 F2100.00000
G1 Z0.800 F10800.000
G1 X226.888 Y104.705
G1 Z0.200
G1 E0.80000 F2100.00000
G1 F1200.000
G1 X190.096 Y67.913 E1.63719
G1 X190.218 Y68.368 E0.01481
G1 X190.237 Y68.589 E0.00700
G1 X226.184 Y104.536 E1.59954
G1 X225.648 Y104.536 E0.01684
G1 X190.239 Y69.126 E1.57566
G1 X190.218 Y69.365 E0.00756
G1 X190.160 Y69.582 E0.00706
G1 X225.113 Y104.536 E1.55536
G1 X224.578 Y104.536 E0.01684
G1 X190.026 Y69.983 E1.53752
G1 X189.847 Y70.340 E0.01255
G1 X224.043 Y104.536 E1.52165
M73 P0 R396
G1 X223.508 Y104.536 E0.01684
G1 X189.629 Y70.657 E1.50754
G1 X189.370 Y70.933 E0.01191
G1 X222.973 Y104.536 E1.49526
G1 X222.437 Y104.536 E0.01684
G1 X189.079 Y71.177 E1.48440
G1 X188.754 Y71.388 E0.01217
G1 X221.902 Y104.536 E1.47502
G1 X221.367 Y104.536 E0.01684
G1 X188.389 Y71.558 E1.46745
G1 X187.970 Y71.674 E0.01368
G1 X220.832 Y104.536 E1.46229
G1 X220.297 Y104.536 E0.01684
G1 X187.492 Y71.731 E1.45976
G1 X187.388 Y71.740 E0.00327
G1 X186.925 Y71.699 E0.01462
G1 X219.762 Y104.536 E1.46116
G1 X219.227 Y104.536 E0.01684
G1 X182.058 Y67.367 E1.65392
G1 X182.058 Y66.832 E0.01684
G1 X184.555 Y69.330 E0.11113
G1 X184.515 Y68.867 E0.01462
G1 X184.524 Y68.763 E0.00327
G1 X182.058 Y66.297 E0.10973
G1 X182.062 Y65.765 E0.01673
G1 X184.581 Y68.285 E0.11210
G1 X184.697 Y67.865 E0.01368
G1 X182.098 Y65.267 E0.11563
G1 X182.135 Y64.768 E0.01573
G1 X184.867 Y67.500 E0.12157
G1 X185.078 Y67.176 E0.01217
G1 X182.193 Y64.292 E0.12835
G1 X182.291 Y63.854 E0.01410
G1 X185.322 Y66.885 E0.13486
G1 X185.598 Y66.626 E0.01191
G1 X182.389 Y63.417 E0.14278
G1 X182.452 Y63.137 E0.00905
G1 X182.505 Y62.998 E0.00466
G1 X185.913 Y66.406 E0.15162
G1 X186.271 Y66.229 E0.01258
G1 X182.654 Y62.612 E0.16096
G1 X182.803 Y62.225 E0.01303
G1 X186.673 Y66.095 E0.17219
G1 X186.889 Y66.037 E0.00706
G1 X187.129 Y66.016 E0.00756
G1 X182.957 Y61.844 E0.18563
G1 X183.150 Y61.503 E0.01236
G1 X187.667 Y66.019 E0.20097
G1 X187.884 Y66.036 E0.00685
G1 X188.342 Y66.159 E0.01492
G1 X183.344 Y61.161 E0.22240
G1 X183.537 Y60.819 E0.01236
G1 X227.254 Y104.536 E1.94532
G1 X227.789 Y104.536 E0.01684
G1 X183.759 Y60.506 E1.95924
G1 X183.993 Y60.205 E0.01200
G1 X228.324 Y104.536 E1.97263
G1 X228.859 Y104.536 E0.01684
G1 X184.228 Y59.904 E1.98602
G1 X184.464 Y59.605 E0.01199
G1 X229.564 Y104.705 E2.00686
G1 E-0.80000 F2100.00000
G1 Z0.800 F10800.000
G1 X238.638 Y69.362
G1 Z0.200
G1 E0.80000 F2100.00000
G1 F1200.000
G1 X191.508 Y22.232 E2.09719
G1 X191.508 Y22.767 E0.01684
G1 X238.468 Y69.727 E2.08964
G1 X238.468 Y70.262 E0.01684
G1 X191.508 Y23.302 E2.08964
G1 X191.508 Y23.837 E0.01684
G1 X238.468 Y70.798 E2.08964
G1 X238.468 Y71.333 E0.01684
G1 X191.508 Y24.372 E2.08964
G1 X191.508 Y24.908 E0.01684
G1 X238.468 Y71.868 E2.08964
M73 P0 R395
G1 X238.468 Y72.403 E0.01684
G1 X191.508 Y25.443 E2.08964
G1 X191.508 Y25.978 E0.01684
G1 X238.468 Y72.938 E2.08964
G1 X238.468 Y73.473 E0.01684
G1 X191.508 Y26.513 E2.08964
G1 X191.508 Y27.048 E0.01684
G1 X238.468 Y74.008 E2.08964
G1 X238.468 Y74.544 E0.01684
G1 X191.508 Y27.583 E2.08964
G1 X191.508 Y28.118 E0.01684
G1 X238.468 Y75.079 E2.08964
G1 X238.468 Y75.614 E0.01684
G1 X191.508 Y28.654 E2.08964
G1 X191.508 Y29.189 E0.01684
G1 X238.468 Y76.149 E2.08964
G1 X238.468 Y76.684 E0.01684
G1 X191.508 Y29.724 E2.08964
G1 X191.508 Y30.259 E0.01684
G1 X238.468 Y77.219 E2.08964
G1 X238.468 Y77.754 E0.01684
G1 X191.508 Y30.794 E2.08964
G1 X191.508 Y31.329 E0.01684
G1 X238.468 Y78.290 E2.08964
G1 X238.468 Y78.825 E0.01684
G1 X191.508 Y31.865 E2.08964
G1 X191.508 Y32.400 E0.01684
G1 X238.468 Y79.360 E2.08964
G1 X238.468 Y79.895 E0.01684
G1 X191.508 Y32.935 E2.08964
G1 X191.508 Y33.470 E0.01684
G1 X238.468 Y80.430 E2.08964
G1 X238.468 Y80.965 E0.01684
G1 X191.508 Y34.005 E2.08964
G1 X191.508 Y34.540 E0.01684
G1 X238.468 Y81.501 E2.08964
M73 P1 R394
G1 X238.468 Y82.036 E0.01684
G1 X191.508 Y35.075 E2.08964
G1 X191.508 Y35.611 E0.01684
G1 X238.468 Y82.571 E2.08964
G1 X238.468 Y83.106 E0.01684
G1 X191.508 Y36.146 E2.08964
G1 X191.508 Y36.681 E0.01684
G1 X238.468 Y83.641 E2.08964
G1 X238.468 Y84.176 E0.01684
G1 X191.508 Y37.216 E2.08964
G1 X191.508 Y37.751 E0.01684
G1 X238.468 Y84.711 E2.08964
G1 X238.468 Y85.247 E0.01684
G1 X191.508 Y38.286 E2.08964
G1 X191.508 Y38.822 E0.01684
G1 X238.468 Y85.782 E2.08964
G1 X238.468 Y86.317 E0.01684
G1 X191.508 Y39.357 E2.08964
G1 X191.508 Y39.892 E0.01684
G1 X238.468 Y86.852 E2.08964
G1 X238.468 Y87.387 E0.01684
G1 X191.508 Y40.427 E2.08964
G1 X191.508 Y40.962 E0.01684
G1 X238.468 Y87.922 E2.08964
G1 X238.468 Y88.458 E0.01684
G1 X191.508 Y41.497 E2.08964
G1 X191.508 Y42.032 E0.01684
G1 X238.468 Y88.993 E2.08964
G1 X238.468 Y89.528 E0.01684
G1 X191.508 Y42.568 E2.08964
G1 X191.508 Y43.103 E0.01684
G1 X238.468 Y90.063 E2.08964
G1 X238.468 Y90.598 E0.01684
G1 X191.508 Y43.638 E2.08964
G1 X191.508 Y44.173 E0.01684
G1 X238.468 Y91.133 E2.08964
M73 P1 R393
G1 X238.468 Y91.668 E0.01684
G1 X191.508 Y44.708 E2.08964
G1 X191.508 Y45.243 E0.01684
G1 X238.468 Y92.204 E2.08964
G1 X238.468 Y92.739 E0.01684
G1 X191.508 Y45.778 E2.08964
G1 X191.508 Y46.314 E0.01684
G1 X238.468 Y93.274 E2.08964
G1 X238.468 Y93.809 E0.01684
G1 X191.508 Y46.849 E2.08964
G1 X191.508 Y47.384 E0.01684
G1 X238.468 Y94.344 E2.08964
G1 X238.468 Y94.879 E0.01684
G1 X191.508 Y47.919 E2.08964
G1 X191.508 Y48.454 E0.01684
G1 X238.468 Y95.414 E2.08964
G1 X238.468 Y95.950 E0.01684
G1 X232.875 Y90.357 E0.24888
G1 X232.875 Y90.892 E0.01684
G1 X238.468 Y96.485 E0.24888
G1 X238.468 Y97.020 E0.01684
G1 X232.875 Y91.427 E0.24888
G1 X232.875 Y91.962 E0.01684
G1 X238.468 Y97.555 E0.24888
G1 X238.468 Y98.090 E0.01684
G1 X232.875 Y92.497 E0.24888
G1 X232.875 Y93.032 E0.01684
G1 X238.468 Y98.625 E0.24888
G1 X238.468 Y99.161 E0.01684
G1 X232.875 Y93.568 E0.24888
G1 X232.875 Y94.103 E0.01684
G1 X238.468 Y99.696 E0.24888
G1 X238.468 Y100.231 E0.01684
G1 X232.483 Y94.245 E0.26635
G1 X231.948 Y94.245 E0.01684
G1 X238.468 Y100.766 E0.29016
G1 X238.468 Y101.301 E0.01684
G1 X231.412 Y94.245 E0.31397
G1 X230.877 Y94.245 E0.01684
G1 X238.468 Y101.836 E0.33779
G1 X238.468 Y102.371 E0.01684
