; generated by PrusaSlicer 2.2.0+win64 on 2020-10-30 at 18:19:13 UTC

; 

; external perimeters extrusion width = 0.60mm
; perimeters extrusion width = 0.43mm
; infill extrusion width = 0.45mm
; solid infill extrusion width = 0.70mm
; top infill extrusion width = 0.43mm
; first layer extrusion width = 0.42mm

M73 P0 R177
M201 X9000 Y9000 Z500 E10000 ; sets maximum accelerations, mm/sec^2
M203 X500 Y500 Z12 E120 ; sets maximum feedrates, mm/sec
M204 P2000 R1500 T2000 ; sets acceleration (P, T) and retract acceleration (R), mm/sec^2
M205 X10.00 Y10.00 Z0.20 E2.50 ; sets the jerk limits, mm/sec
M205 S0 T0 ; sets the minimum extruding and travel feed rate, mm/sec
M107
M862.3 P "MK2S" ; printer model check
M862.1 P0.4 ; nozzle diameter check
M115 U3.2.3 ; tell printer latest fw version
G90 ; use absolute coordinates
M83 ; extruder relative mode
M204 S2000 T1500 ; MK2 firmware only supports the old M204 format
M104 S215 ; set extruder temp
M140 S60 ; set bed temp
M190 S60 ; wait for bed temp
M109 S215 ; wait for extruder temp
G28 W ; home all without mesh bed level
G80 ; mesh bed leveling
G1 Y-3.0 F1000.0 ; go outside print area
G92 E0.0
G1 X60.0 E9.0  F1000.0 ; intro line
M73 P0 R177
G1 X100.0 E12.5 F1000.0 ; intro line
G92 E0.0
G21 ; set units to millimeters
G90 ; use absolute coordinates
M83 ; use relative distances for extrusion
M900 K0.05 ; Filament gcode LA 1.5
M900 K30 ; Filament gcode LA 1.0
;BEFORE_LAYER_CHANGE
G92 E0.0
;0.2


G1 E-0.80000 F2100.00000
G1 Z0.600 F10800.000
;AFTER_LAYER_CHANGE
;0.2
G1 X1.727 Y1.018
G1 Z0.200
G1 E0.80000 F2100.00000
M204 S1000
G1 F1200.000
G1 X2.537 Y0.874 E0.02579
G1 X247.462 Y0.874 E7.67948
G1 X248.364 Y1.053 E0.02884
G1 X249.134 Y1.564 E0.02896
G1 X249.650 Y2.330 E0.02896
G1 X249.836 Y3.235 E0.02896
G1 X249.836 Y206.761 E6.38142
G1 X249.778 Y207.271 E0.01609
G1 X249.612 Y207.756 E0.01609
G1 X249.345 Y208.195 E0.01609
G1 X248.988 Y208.569 E0.01621
G1 X248.273 Y208.982 E0.02590
G1 X247.463 Y209.126 E0.02579
G1 X2.538 Y209.126 E7.67948
G1 X2.024 Y209.069 E0.01621
G1 X1.534 Y208.902 E0.01621
G1 X1.096 Y208.636 E0.01609
G1 X0.722 Y208.279 E0.01621
G1 X0.308 Y207.564 E0.02590
G1 X0.164 Y206.754 E0.02579
G1 X0.164 Y3.247 E6.38082
G1 X0.221 Y2.733 E0.01621
G1 X0.388 Y2.244 E0.01621
G1 X0.655 Y1.805 E0.01609
G1 X1.012 Y1.431 E0.01621
G1 X1.675 Y1.048 E0.02402
G1 E-0.80000 F2100.00000
G1 Z0.800 F10800.000
G1 X146.710 Y4.038
G1 Z0.200
G1 E0.80000 F2100.00000
G1 F1200.000
G1 X174.981 Y4.038 E0.88642
G1 X174.981 Y15.509 E0.35967
G1 X146.710 Y15.509 E0.88642
G1 X146.710 Y4.098 E0.35779
G1 X146.333 Y3.661 F10800.000
G1 F1200.000
G1 X175.358 Y3.661 E0.91007
G1 X175.358 Y15.886 E0.38332
G1 X146.333 Y15.886 E0.91007
G1 X146.333 Y3.721 E0.38143
G1 X146.729 Y3.714 F10800.000
G1 E-0.80000 F2100.00000
G1 Z0.800 F10800.000
G1 X174.868 Y4.922
G1 Z0.200
G1 E0.80000 F2100.00000
G1 F1200.000
G1 X174.266 Y4.321 E0.02697
G1 X173.727 Y4.321 E0.01710
G1 X174.698 Y5.292 E0.04354
G1 X174.698 Y5.831 E0.01710
G1 X173.188 Y4.321 E0.06772
G1 X172.648 Y4.321 E0.01710
G1 X174.698 Y6.370 E0.09190
G1 X174.698 Y6.910 E0.01710
G1 X172.109 Y4.321 E0.11608
G1 X171.570 Y4.321 E0.01710
G1 X174.698 Y7.449 E0.14026
G1 X174.698 Y7.988 E0.01710
G1 X171.031 Y4.321 E0.16444
M73 P0 R176
G1 X170.491 Y4.321 E0.01710
G1 X174.698 Y8.527 E0.18862
G1 X174.698 Y9.067 E0.01710
G1 X169.952 Y4.321 E0.21280
G1 X169.413 Y4.321 E0.01710
G1 X174.698 Y9.606 E0.23698
G1 X174.698 Y10.145 E0.01710
G1 X168.874 Y4.321 E0.26116
G1 X168.334 Y4.321 E0.01710
G1 X174.698 Y10.684 E0.28534
G1 X174.698 Y11.224 E0.01710
G1 X167.795 Y4.321 E0.30952
G1 X167.256 Y4.321 E0.01710
G1 X174.698 Y11.763 E0.33370
G1 X174.698 Y12.302 E0.01710
G1 X166.717 Y4.321 E0.35787
G1 X166.177 Y4.321 E0.01710
G1 X174.698 Y12.841 E0.38205
G1 X174.698 Y13.381 E0.01710
G1 X165.638 Y4.321 E0.40623
G1 X165.099 Y4.321 E0.01710
G1 X174.698 Y13.920 E0.43041
G1 X174.698 Y14.459 E0.01710
G1 X164.560 Y4.321 E0.45459
G1 X164.020 Y4.321 E0.01710
G1 X174.698 Y14.998 E0.47877
G1 X174.698 Y15.226 E0.00723
G1 X174.387 Y15.226 E0.00987
G1 X163.481 Y4.321 E0.48899
G1 X162.942 Y4.321 E0.01710
G1 X173.848 Y15.226 E0.48899
G1 X173.308 Y15.226 E0.01710
G1 X162.403 Y4.321 E0.48899
G1 X161.863 Y4.321 E0.01710
G1 X172.769 Y15.226 E0.48899
G1 X172.230 Y15.226 E0.01710
G1 X161.324 Y4.321 E0.48899
G1 X160.785 Y4.321 E0.01710
G1 X171.691 Y15.226 E0.48899
G1 X171.151 Y15.226 E0.01710
G1 X160.246 Y4.321 E0.48899
G1 X159.706 Y4.321 E0.01710
G1 X170.612 Y15.226 E0.48899
G1 X170.073 Y15.226 E0.01710
G1 X159.167 Y4.321 E0.48899
G1 X158.628 Y4.321 E0.01710
G1 X169.534 Y15.226 E0.48899
G1 X168.994 Y15.226 E0.01710
G1 X158.089 Y4.321 E0.48899
G1 X157.549 Y4.321 E0.01710
G1 X168.455 Y15.226 E0.48899
G1 X167.916 Y15.226 E0.01710
G1 X157.010 Y4.321 E0.48899
G1 X156.471 Y4.321 E0.01710
G1 X167.377 Y15.226 E0.48899
G1 X166.837 Y15.226 E0.01710
G1 X155.932 Y4.321 E0.48899
G1 X155.392 Y4.321 E0.01710
G1 X166.298 Y15.226 E0.48899
G1 X165.759 Y15.226 E0.01710
G1 X154.853 Y4.321 E0.48899
G1 X154.314 Y4.321 E0.01710
G1 X165.220 Y15.226 E0.48899
G1 X164.680 Y15.226 E0.01710
G1 X153.775 Y4.321 E0.48899
G1 X153.235 Y4.321 E0.01710
G1 X164.141 Y15.226 E0.48899
G1 X163.602 Y15.226 E0.01710
G1 X152.696 Y4.321 E0.48899
G1 X152.157 Y4.321 E0.01710
G1 X163.063 Y15.226 E0.48899
G1 X162.523 Y15.226 E0.01710
G1 X151.618 Y4.321 E0.48899
G1 X151.078 Y4.321 E0.01710
G1 X161.984 Y15.226 E0.48899
G1 X161.445 Y15.226 E0.01710
G1 X150.539 Y4.321 E0.48899
G1 X150.000 Y4.321 E0.01710
G1 X160.906 Y15.226 E0.48899
G1 X160.366 Y15.226 E0.01710
G1 X149.461 Y4.321 E0.48899
G1 X148.921 Y4.321 E0.01710
G1 X159.827 Y15.226 E0.48899
G1 X159.288 Y15.226 E0.01710
G1 X148.382 Y4.321 E0.48899
G1 X147.843 Y4.321 E0.01710
G1 X158.749 Y15.226 E0.48899
G1 X158.209 Y15.226 E0.01710
G1 X147.304 Y4.321 E0.48899
G1 X146.993 Y4.321 E0.00987
G1 X146.993 Y4.549 E0.00723
G1 X157.670 Y15.226 E0.47877
G1 X157.131 Y15.226 E0.01710
G1 X146.993 Y5.088 E0.45459
G1 X146.993 Y5.627 E0.01710
G1 X156.592 Y15.226 E0.43041
G1 X156.052 Y15.226 E0.01710
G1 X146.993 Y6.167 E0.40623
G1 X146.993 Y6.706 E0.01710
G1 X155.513 Y15.226 E0.38205
G1 X154.974 Y15.226 E0.01710
G1 X146.993 Y7.245 E0.35787
G1 X146.993 Y7.784 E0.01710
G1 X154.435 Y15.226 E0.33369
G1 X153.895 Y15.226 E0.01710
G1 X146.993 Y8.324 E0.30951
G1 X146.993 Y8.863 E0.01710
G1 X153.356 Y15.226 E0.28533
G1 X152.817 Y15.226 E0.01710
G1 X146.993 Y9.402 E0.26115
G1 X146.993 Y9.941 E0.01710
G1 X152.278 Y15.226 E0.23697
G1 X151.738 Y15.226 E0.01710
G1 X146.993 Y10.481 E0.21279
G1 X146.993 Y11.020 E0.01710
G1 X151.199 Y15.226 E0.18861
G1 X150.660 Y15.226 E0.01710
G1 X146.993 Y11.559 E0.16444
G1 X146.993 Y12.098 E0.01710
G1 X150.121 Y15.226 E0.14026
G1 X149.581 Y15.226 E0.01710
G1 X146.993 Y12.638 E0.11608
G1 X146.993 Y13.177 E0.01710
G1 X149.042 Y15.226 E0.09190
G1 X148.503 Y15.226 E0.01710
G1 X146.993 Y13.716 E0.06772
G1 X146.993 Y14.255 E0.01710
G1 X147.964 Y15.226 E0.04354
G1 X147.424 Y15.226 E0.01710
G1 X146.823 Y14.625 E0.02697
G1 E-0.80000 F2100.00000
G1 Z0.800 F10800.000
G1 X146.823 Y23.083
G1 Z0.200
G1 E0.80000 F2100.00000
G1 F1200.000
G1 X174.981 Y23.083 E0.88288
G1 X174.981 Y34.554 E0.35967
G1 X146.710 Y34.554 E0.88642
G1 X146.710 Y23.083 E0.35967
G1 X146.763 Y23.083 E0.00167
G1 X146.333 Y22.706 F10800.000
G1 F1200.000
G1 X175.358 Y22.706 E0.91007
G1 X175.358 Y34.931 E0.38332
G1 X146.333 Y34.931 E0.91007
G1 X146.333 Y22.766 E0.38143
G1 X146.729 Y22.759 F10800.000
G1 E-0.80000 F2100.00000
G1 Z0.800 F10800.000
G1 X174.868 Y23.968
G1 Z0.200
G1 E0.80000 F2100.00000
G1 F1200.000
G1 X174.266 Y23.366 E0.02697
G1 X173.727 Y23.366 E0.01710
G1 X174.698 Y24.337 E0.04354
G1 X174.698 Y24.876 E0.01710
G1 X173.188 Y23.366 E0.06772
G1 X172.648 Y23.366 E0.01710
G1 X174.698 Y25.416 E0.09190
G1 X174.698 Y25.955 E0.01710
G1 X172.109 Y23.366 E0.11608
G1 X171.570 Y23.366 E0.01710
G1 X174.698 Y26.494 E0.14026
G1 X174.698 Y27.033 E0.01710
G1 X171.031 Y23.366 E0.16444
G1 X170.491 Y23.366 E0.01710
G1 X174.698 Y27.573 E0.18862
G1 X174.698 Y28.112 E0.01710
G1 X169.952 Y23.366 E0.21280
G1 X169.413 Y23.366 E0.01710
G1 X174.698 Y28.651 E0.23698
G1 X174.698 Y29.190 E0.01710
G1 X168.874 Y23.366 E0.26116
G1 X168.334 Y23.366 E0.01710
G1 X174.698 Y29.730 E0.28534
G1 X174.698 Y30.269 E0.01710
G1 X167.795 Y23.366 E0.30952
G1 X167.256 Y23.366 E0.01710
G1 X174.698 Y30.808 E0.33370
G1 X174.698 Y31.347 E0.01710
G1 X166.717 Y23.366 E0.35787
G1 X166.177 Y23.366 E0.01710
G1 X174.698 Y31.887 E0.38205
G1 X174.698 Y32.426 E0.01710
G1 X165.638 Y23.366 E0.40623
G1 X165.099 Y23.366 E0.01710
G1 X174.698 Y32.965 E0.43041
G1 X174.698 Y33.504 E0.01710
G1 X164.560 Y23.366 E0.45459
G1 X164.020 Y23.366 E0.01710
G1 X174.698 Y34.044 E0.47877
G1 X174.698 Y34.272 E0.00723
G1 X174.387 Y34.272 E0.00987
G1 X163.481 Y23.366 E0.48899
G1 X162.942 Y23.366 E0.01710
G1 X173.848 Y34.272 E0.48899
M73 P1 R175
G1 X173.308 Y34.272 E0.01710
G1 X162.403 Y23.366 E0.48899
G1 X161.863 Y23.366 E0.01710
G1 X172.769 Y34.272 E0.48899
G1 X172.230 Y34.272 E0.01710
G1 X161.324 Y23.366 E0.48899
G1 X160.785 Y23.366 E0.01710
G1 X171.691 Y34.272 E0.48899
G1 X171.151 Y34.272 E0.01710
G1 X160.246 Y23.366 E0.48899
G1 X159.706 Y23.366 E0.01710
G1 X170.612 Y34.272 E0.48899
G1 X170.073 Y34.272 E0.01710
G1 X159.167 Y23.366 E0.48899
G1 X158.628 Y23.366 E0.01710
G1 X169.534 Y34.272 E0.48899
G1 X168.994 Y34.272 E0.01710
G1 X158.089 Y23.366 E0.48899
G1 X157.549 Y23.366 E0.01710
G1 X168.455 Y34.272 E0.48899
G1 X167.916 Y34.272 E0.01710
G1 X157.010 Y23.366 E0.48899
G1 X156.471 Y23.366 E0.01710
G1 X167.377 Y34.272 E0.48899
G1 X166.837 Y34.272 E0.01710
G1 X155.932 Y23.366 E0.48899
G1 X155.392 Y23.366 E0.01710
G1 X166.298 Y34.272 E0.48899
G1 X165.759 Y34.272 E0.01710
G1 X154.853 Y23.366 E0.48899
G1 X154.314 Y23.366 E0.01710
G1 X165.220 Y34.272 E0.48899
G1 X164.680 Y34.272 E0.01710
G1 X153.775 Y23.366 E0.48899
G1 X153.235 Y23.366 E0.01710
G1 X164.141 Y34.272 E0.48899
G1 X163.602 Y34.272 E0.01710
G1 X152.696 Y23.366 E0.48899
G1 X152.157 Y23.366 E0.01710
G1 X163.063 Y34.272 E0.48899
G1 X162.523 Y34.272 E0.01710
G1 X151.618 Y23.366 E0.48899
G1 X151.078 Y23.366 E0.01710
G1 X161.984 Y34.272 E0.48899
G1 X161.445 Y34.272 E0.01710
G1 X150.539 Y23.366 E0.48899
G1 X150.000 Y23.366 E0.01710
G1 X160.906 Y34.272 E0.48899
G1 X160.366 Y34.272 E0.01710
G1 X149.461 Y23.366 E0.48899
G1 X148.921 Y23.366 E0.01710
G1 X159.827 Y34.272 E0.48899
G1 X159.288 Y34.272 E0.01710
G1 X148.382 Y23.366 E0.48899
G1 X147.843 Y23.366 E0.01710
G1 X158.749 Y34.272 E0.48899
G1 X158.209 Y34.272 E0.01710
G1 X147.304 Y23.366 E0.48899
G1 X146.993 Y23.366 E0.00987
G1 X146.993 Y23.594 E0.00723
G1 X157.670 Y34.272 E0.47877
G1 X157.131 Y34.272 E0.01710
G1 X146.993 Y24.133 E0.45459
G1 X146.993 Y24.673 E0.01710
G1 X156.592 Y34.272 E0.43041
G1 X156.052 Y34.272 E0.01710
G1 X146.993 Y25.212 E0.40623
G1 X146.993 Y25.751 E0.01710
G1 X155.513 Y34.272 E0.38205
G1 X154.974 Y34.272 E0.01710
G1 X146.993 Y26.290 E0.35787
G1 X146.993 Y26.830 E0.01710
G1 X154.435 Y34.272 E0.33369
G1 X153.895 Y34.272 E0.01710
G1 X146.993 Y27.369 E0.30951
G1 X146.993 Y27.908 E0.01710
G1 X153.356 Y34.272 E0.28533
G1 X152.817 Y34.272 E0.01710
G1 X146.993 Y28.447 E0.26115
G1 X146.993 Y28.987 E0.01710
G1 X152.278 Y34.272 E0.23697
G1 X151.738 Y34.272 E0.01710
G1 X146.993 Y29.526 E0.21279
G1 X146.993 Y30.065 E0.01710
G1 X151.199 Y34.272 E0.18861
G1 X150.660 Y34.272 E0.01710
G1 X146.993 Y30.604 E0.16444
G1 X146.993 Y31.144 E0.01710
G1 X150.121 Y34.272 E0.14026
G1 X149.581 Y34.272 E0.01710
G1 X146.993 Y31.683 E0.11608
G1 X146.993 Y32.222 E0.01710
G1 X149.042 Y34.272 E0.09190
G1 X148.503 Y34.272 E0.01710
G1 X146.993 Y32.761 E0.06772
G1 X146.993 Y33.301 E0.01710
G1 X147.964 Y34.272 E0.04354
G1 X147.424 Y34.272 E0.01710
G1 X146.823 Y33.670 E0.02697
G1 E-0.80000 F2100.00000
G1 Z0.800 F10800.000
G1 X146.823 Y42.129
G1 Z0.200
G1 E0.80000 F2100.00000
G1 F1200.000
G1 X174.981 Y42.129 E0.88288
G1 X174.981 Y53.600 E0.35967
G1 X146.710 Y53.600 E0.88642
G1 X146.710 Y42.129 E0.35967
G1 X146.763 Y42.129 E0.00167
G1 X146.333 Y41.751 F10800.000
G1 F1200.000
G1 X175.358 Y41.751 E0.91007
G1 X175.358 Y53.977 E0.38332
G1 X146.333 Y53.977 E0.91007
G1 X146.333 Y41.811 E0.38143
G1 X146.729 Y41.804 F10800.000
G1 E-0.80000 F2100.00000
G1 Z0.800 F10800.000
G1 X174.868 Y43.013
G1 Z0.200
G1 E0.80000 F2100.00000
G1 F1200.000
G1 X174.266 Y42.411 E0.02697
G1 X173.727 Y42.411 E0.01710
G1 X174.698 Y43.382 E0.04354
G1 X174.698 Y43.922 E0.01710
G1 X173.188 Y42.411 E0.06772
G1 X172.648 Y42.411 E0.01710
G1 X174.698 Y44.461 E0.09190
G1 X174.698 Y45.000 E0.01710
G1 X172.109 Y42.411 E0.11608
G1 X171.570 Y42.411 E0.01710
G1 X174.698 Y45.539 E0.14026
G1 X174.698 Y46.079 E0.01710
G1 X171.031 Y42.411 E0.16444
G1 X170.491 Y42.411 E0.01710
G1 X174.698 Y46.618 E0.18862
G1 X174.698 Y47.157 E0.01710
G1 X169.952 Y42.411 E0.21280
G1 X169.413 Y42.411 E0.01710
G1 X174.698 Y47.696 E0.23698
G1 X174.698 Y48.236 E0.01710
G1 X168.874 Y42.411 E0.26116
G1 X168.334 Y42.411 E0.01710
G1 X174.698 Y48.775 E0.28534
G1 X174.698 Y49.314 E0.01710
G1 X167.795 Y42.411 E0.30952
G1 X167.256 Y42.411 E0.01710
G1 X174.698 Y49.853 E0.33370
G1 X174.698 Y50.393 E0.01710
G1 X166.717 Y42.411 E0.35787
G1 X166.177 Y42.411 E0.01710
G1 X174.698 Y50.932 E0.38205
G1 X174.698 Y51.471 E0.01710
G1 X165.638 Y42.411 E0.40623
G1 X165.099 Y42.411 E0.01710
G1 X174.698 Y52.010 E0.43041
G1 X174.698 Y52.550 E0.01710
G1 X164.560 Y42.411 E0.45459
G1 X164.020 Y42.411 E0.01710
G1 X174.698 Y53.089 E0.47877
G1 X174.698 Y53.317 E0.00723
G1 X174.387 Y53.317 E0.00987
G1 X163.481 Y42.411 E0.48899
G1 X162.942 Y42.411 E0.01710
G1 X173.848 Y53.317 E0.48899
G1 X173.308 Y53.317 E0.01710
G1 X162.403 Y42.411 E0.48899
G1 X161.863 Y42.411 E0.01710
G1 X172.769 Y53.317 E0.48899
G1 X172.230 Y53.317 E0.01710
G1 X161.324 Y42.411 E0.48899
G1 X160.785 Y42.411 E0.01710
G1 X171.691 Y53.317 E0.48899
G1 X171.151 Y53.317 E0.01710
G1 X160.246 Y42.411 E0.48899
G1 X159.706 Y42.411 E0.01710
G1 X170.612 Y53.317 E0.48899
G1 X170.073 Y53.317 E0.01710
G1 X159.167 Y42.411 E0.48899
G1 X158.628 Y42.411 E0.01710
G1 X169.534 Y53.317 E0.48899
G1 X168.994 Y53.317 E0.01710
G1 X158.089 Y42.411 E0.48899
G1 X157.549 Y42.411 E0.01710
G1 X168.455 Y53.317 E0.48899
G1 X167.916 Y53.317 E0.01710
G1 X157.010 Y42.411 E0.48899
M73 P1 R174
G1 X156.471 Y42.411 E0.01710
G1 X167.377 Y53.317 E0.48899
G1 X166.837 Y53.317 E0.01710
G1 X155.932 Y42.411 E0.48899
G1 X155.392 Y42.411 E0.01710
G1 X166.298 Y53.317 E0.48899
G1 X165.759 Y53.317 E0.01710
G1 X154.853 Y42.411 E0.48899
G1 X154.314 Y42.411 E0.01710
G1 X165.220 Y53.317 E0.48899
G1 X164.680 Y53.317 E0.01710
G1 X153.775 Y42.411 E0.48899
G1 X153.235 Y42.411 E0.01710
G1 X164.141 Y53.317 E0.48899
G1 X163.602 Y53.317 E0.01710
G1 X152.696 Y42.411 E0.48899
G1 X152.157 Y42.411 E0.01710
G1 X163.063 Y53.317 E0.48899
G1 X162.523 Y53.317 E0.01710
G1 X151.618 Y42.411 E0.48899
G1 X151.078 Y42.411 E0.01710
G1 X161.984 Y53.317 E0.48899
G1 X161.445 Y53.317 E0.01710
G1 X150.539 Y42.411 E0.48899
G1 X150.000 Y42.411 E0.01710
G1 X160.906 Y53.317 E0.48899
G1 X160.366 Y53.317 E0.01710
G1 X149.461 Y42.411 E0.48899
G1 X148.921 Y42.411 E0.01710
G1 X159.827 Y53.317 E0.48899
G1 X159.288 Y53.317 E0.01710
G1 X148.382 Y42.411 E0.48899
G1 X147.843 Y42.411 E0.01710
G1 X158.749 Y53.317 E0.48899
G1 X158.209 Y53.317 E0.01710
G1 X147.304 Y42.411 E0.48899
G1 X146.993 Y42.411 E0.00987
G1 X146.993 Y42.639 E0.00723
G1 X157.670 Y53.317 E0.47877
G1 X157.131 Y53.317 E0.01710
G1 X146.993 Y43.179 E0.45459
G1 X146.993 Y43.718 E0.01710
G1 X156.592 Y53.317 E0.43041
G1 X156.052 Y53.317 E0.01710
G1 X146.993 Y44.257 E0.40623
G1 X146.993 Y44.796 E0.01710
G1 X155.513 Y53.317 E0.38205
G1 X154.974 Y53.317 E0.01710
G1 X146.993 Y45.336 E0.35787
G1 X146.993 Y45.875 E0.01710
G1 X154.435 Y53.317 E0.33369
G1 X153.895 Y53.317 E0.01710
G1 X146.993 Y46.414 E0.30951
G1 X146.993 Y46.953 E0.01710
G1 X153.356 Y53.317 E0.28533
G1 X152.817 Y53.317 E0.01710
G1 X146.993 Y47.493 E0.26115
G1 X146.993 Y48.032 E0.01710
G1 X152.278 Y53.317 E0.23697
G1 X151.738 Y53.317 E0.01710
G1 X146.993 Y48.571 E0.21279
G1 X146.993 Y49.110 E0.01710
G1 X151.199 Y53.317 E0.18861
