; generated by PrusaSlicer 2.2.0+win64 on 2020-10-30 at 18:18:16 UTC

; 

; external perimeters extrusion width = 0.60mm
; perimeters extrusion width = 0.43mm
; infill extrusion width = 0.45mm
; solid infill extrusion width = 0.70mm
; top infill extrusion width = 0.43mm
; first layer extrusion width = 0.42mm

M73 P0 R46
M201 X9000 Y9000 Z500 E10000 ; sets maximum accelerations, mm/sec^2
M203 X500 Y500 Z12 E120 ; sets maximum feedrates, mm/sec
M204 P2000 R1500 T2000 ; sets acceleration (P, T) and retract acceleration (R), mm/sec^2
M205 X10.00 Y10.00 Z0.20 E2.50 ; sets the jerk limits, mm/sec
M205 S0 T0 ; sets the minimum extruding and travel feed rate, mm/sec
M107
M862.3 P "MK2S" ; printer model check
M862.1 P0.4 ; nozzle diameter check
M115 U3.2.3 ; tell printer latest fw version
G90 ; use absolute coordinates
M83 ; extruder relative mode
M204 S2000 T1500 ; MK2 firmware only supports the old M204 format
M104 S215 ; set extruder temp
M140 S60 ; set bed temp
M190 S60 ; wait for bed temp
M109 S215 ; wait for extruder temp
G28 W ; home all without mesh bed level
G80 ; mesh bed leveling
G1 Y-3.0 F1000.0 ; go outside print area
G92 E0.0
G1 X60.0 E9.0  F1000.0 ; intro line
M73 P0 R46
G1 X100.0 E12.5 F1000.0 ; intro line
G92 E0.0
G21 ; set units to millimeters
G90 ; use absolute coordinates
M83 ; use relative distances for extrusion
M900 K0.05 ; Filament gcode LA 1.5
M900 K30 ; Filament gcode LA 1.0
;BEFORE_LAYER_CHANGE
G92 E0.0
;0.2


G1 E-0.80000 F2100.00000
G1 Z0.600 F10800.000
;AFTER_LAYER_CHANGE
;0.2
G1 X72.480 Y39.735
G1 Z0.200
G1 E0.80000 F2100.00000
M204 S1000
G1 F1200.000
G1 X73.266 Y39.170 E0.03036
G1 X73.728 Y39.018 E0.01526
G1 X74.216 Y38.964 E0.01538
G1 X175.772 Y38.964 E3.18422
G1 X176.674 Y39.144 E0.02884
G1 X177.438 Y39.649 E0.02872
G1 X177.955 Y40.410 E0.02884
G1 X178.145 Y41.310 E0.02884
G1 X178.145 Y168.670 E3.99329
G1 X177.981 Y169.526 E0.02731
G1 X177.520 Y170.265 E0.02731
G1 X176.738 Y170.829 E0.03024
G1 X175.792 Y171.036 E0.03036
G1 X109.657 Y170.998 E2.07362
G1 X108.965 Y170.759 E0.02296
G1 X73.113 Y151.711 E1.27291
G1 X72.624 Y151.364 E0.01882
G1 X72.299 Y150.996 E0.01538
G1 X72.056 Y150.570 E0.01538
G1 X71.906 Y150.103 E0.01538
G1 X71.855 Y149.619 E0.01526
G1 X71.855 Y41.330 E3.39532
G1 X72.019 Y40.474 E0.02731
G1 X72.448 Y39.786 E0.02543
G1 E-0.80000 F2100.00000
G1 Z0.800 F10800.000
G1 X146.710 Y42.129
G1 Z0.200
G1 E0.80000 F2100.00000
G1 F1200.000
G1 X174.981 Y42.129 E0.88642
G1 X174.981 Y53.600 E0.35967
G1 X146.710 Y53.600 E0.88642
G1 X146.710 Y42.189 E0.35779
G1 X146.333 Y41.751 F10800.000
G1 F1200.000
G1 X175.358 Y41.751 E0.91007
G1 X175.358 Y53.977 E0.38332
G1 X146.333 Y53.977 E0.91007
G1 X146.333 Y41.811 E0.38143
G1 X146.729 Y41.804 F10800.000
G1 E-0.80000 F2100.00000
G1 Z0.800 F10800.000
G1 X174.868 Y43.013
G1 Z0.200
G1 E0.80000 F2100.00000
G1 F1200.000
G1 X174.266 Y42.411 E0.02697
G1 X173.727 Y42.411 E0.01710
G1 X174.698 Y43.382 E0.04354
G1 X174.698 Y43.922 E0.01710
G1 X173.188 Y42.411 E0.06772
G1 X172.648 Y42.411 E0.01710
G1 X174.698 Y44.461 E0.09190
G1 X174.698 Y45.000 E0.01710
G1 X172.109 Y42.411 E0.11608
G1 X171.570 Y42.411 E0.01710
G1 X174.698 Y45.539 E0.14026
G1 X174.698 Y46.079 E0.01710
G1 X171.031 Y42.411 E0.16444
G1 X170.491 Y42.411 E0.01710
G1 X174.698 Y46.618 E0.18862
G1 X174.698 Y47.157 E0.01710
G1 X169.952 Y42.411 E0.21280
G1 X169.413 Y42.411 E0.01710
G1 X174.698 Y47.696 E0.23698
G1 X174.698 Y48.236 E0.01710
G1 X168.874 Y42.411 E0.26116
G1 X168.334 Y42.411 E0.01710
G1 X174.698 Y48.775 E0.28534
G1 X174.698 Y49.314 E0.01710
G1 X167.795 Y42.411 E0.30952
G1 X167.256 Y42.411 E0.01710
G1 X174.698 Y49.853 E0.33370
G1 X174.698 Y50.393 E0.01710
G1 X166.717 Y42.411 E0.35787
G1 X166.177 Y42.411 E0.01710
G1 X174.698 Y50.932 E0.38205
G1 X174.698 Y51.471 E0.01710
G1 X165.638 Y42.411 E0.40623
G1 X165.099 Y42.411 E0.01710
G1 X174.698 Y52.010 E0.43041
G1 X174.698 Y52.550 E0.01710
G1 X164.560 Y42.411 E0.45459
G1 X164.020 Y42.411 E0.01710
G1 X174.698 Y53.089 E0.47877
G1 X174.698 Y53.317 E0.00723
G1 X174.387 Y53.317 E0.00987
G1 X163.481 Y42.411 E0.48899
G1 X162.942 Y42.411 E0.01710
G1 X173.848 Y53.317 E0.48899
G1 X173.308 Y53.317 E0.01710
G1 X162.403 Y42.411 E0.48899
G1 X161.863 Y42.411 E0.01710
G1 X172.769 Y53.317 E0.48899
G1 X172.230 Y53.317 E0.01710
G1 X161.324 Y42.411 E0.48899
G1 X160.785 Y42.411 E0.01710
G1 X171.691 Y53.317 E0.48899
G1 X171.151 Y53.317 E0.01710
G1 X160.246 Y42.411 E0.48899
G1 X159.706 Y42.411 E0.01710
G1 X170.612 Y53.317 E0.48899
G1 X170.073 Y53.317 E0.01710
G1 X159.167 Y42.411 E0.48899
G1 X158.628 Y42.411 E0.01710
G1 X169.534 Y53.317 E0.48899
G1 X168.994 Y53.317 E0.01710
G1 X158.089 Y42.411 E0.48899
G1 X157.549 Y42.411 E0.01710
G1 X168.455 Y53.317 E0.48899
G1 X167.916 Y53.317 E0.01710
G1 X157.010 Y42.411 E0.48899
G1 X156.471 Y42.411 E0.01710
G1 X167.377 Y53.317 E0.48899
G1 X166.837 Y53.317 E0.01710
G1 X155.932 Y42.411 E0.48899
G1 X155.392 Y42.411 E0.01710
G1 X166.298 Y53.317 E0.48899
G1 X165.759 Y53.317 E0.01710
G1 X154.853 Y42.411 E0.48899
G1 X154.314 Y42.411 E0.01710
G1 X165.220 Y53.317 E0.48899
G1 X164.680 Y53.317 E0.01710
G1 X153.775 Y42.411 E0.48899
G1 X153.235 Y42.411 E0.01710
G1 X164.141 Y53.317 E0.48899
M73 P2 R45
G1 X163.602 Y53.317 E0.01710
G1 X152.696 Y42.411 E0.48899
G1 X152.157 Y42.411 E0.01710
G1 X163.063 Y53.317 E0.48899
G1 X162.523 Y53.317 E0.01710
G1 X151.618 Y42.411 E0.48899
G1 X151.078 Y42.411 E0.01710
G1 X161.984 Y53.317 E0.48899
G1 X161.445 Y53.317 E0.01710
G1 X150.539 Y42.411 E0.48899
G1 X150.000 Y42.411 E0.01710
G1 X160.906 Y53.317 E0.48899
G1 X160.366 Y53.317 E0.01710
G1 X149.461 Y42.411 E0.48899
G1 X148.921 Y42.411 E0.01710
G1 X159.827 Y53.317 E0.48899
G1 X159.288 Y53.317 E0.01710
G1 X148.382 Y42.411 E0.48899
G1 X147.843 Y42.411 E0.01710
G1 X158.749 Y53.317 E0.48899
G1 X158.209 Y53.317 E0.01710
G1 X147.304 Y42.411 E0.48899
G1 X146.993 Y42.411 E0.00987
G1 X146.993 Y42.639 E0.00723
G1 X157.670 Y53.317 E0.47877
G1 X157.131 Y53.317 E0.01710
G1 X146.993 Y43.179 E0.45459
G1 X146.993 Y43.718 E0.01710
G1 X156.592 Y53.317 E0.43041
G1 X156.052 Y53.317 E0.01710
G1 X146.993 Y44.257 E0.40623
G1 X146.993 Y44.796 E0.01710
G1 X155.513 Y53.317 E0.38205
G1 X154.974 Y53.317 E0.01710
G1 X146.993 Y45.336 E0.35787
G1 X146.993 Y45.875 E0.01710
G1 X154.435 Y53.317 E0.33369
G1 X153.895 Y53.317 E0.01710
G1 X146.993 Y46.414 E0.30951
G1 X146.993 Y46.953 E0.01710
G1 X153.356 Y53.317 E0.28533
G1 X152.817 Y53.317 E0.01710
G1 X146.993 Y47.493 E0.26115
G1 X146.993 Y48.032 E0.01710
G1 X152.278 Y53.317 E0.23697
G1 X151.738 Y53.317 E0.01710
G1 X146.993 Y48.571 E0.21279
G1 X146.993 Y49.110 E0.01710
G1 X151.199 Y53.317 E0.18861
G1 X150.660 Y53.317 E0.01710
G1 X146.993 Y49.650 E0.16444
G1 X146.993 Y50.189 E0.01710
G1 X150.121 Y53.317 E0.14026
G1 X149.581 Y53.317 E0.01710
G1 X146.993 Y50.728 E0.11608
G1 X146.993 Y51.267 E0.01710
G1 X149.042 Y53.317 E0.09190
G1 X148.503 Y53.317 E0.01710
G1 X146.993 Y51.807 E0.06772
G1 X146.993 Y52.346 E0.01710
G1 X147.964 Y53.317 E0.04354
G1 X147.424 Y53.317 E0.01710
G1 X146.823 Y52.715 E0.02697
G1 E-0.80000 F2100.00000
G1 Z0.800 F10800.000
G1 X146.823 Y61.174
G1 Z0.200
G1 E0.80000 F2100.00000
G1 F1200.000
G1 X174.981 Y61.174 E0.88288
G1 X174.981 Y72.645 E0.35967
G1 X146.710 Y72.645 E0.88642
G1 X146.710 Y61.174 E0.35967
G1 X146.763 Y61.174 E0.00167
G1 X146.333 Y60.797 F10800.000
G1 F1200.000
G1 X175.358 Y60.797 E0.91007
G1 X175.358 Y73.022 E0.38332
G1 X146.333 Y73.022 E0.91007
G1 X146.333 Y60.857 E0.38143
G1 X146.729 Y60.850 F10800.000
G1 E-0.80000 F2100.00000
G1 Z0.800 F10800.000
G1 X174.868 Y62.058
G1 Z0.200
G1 E0.80000 F2100.00000
G1 F1200.000
G1 X174.266 Y61.457 E0.02697
G1 X173.727 Y61.457 E0.01710
G1 X174.698 Y62.428 E0.04354
G1 X174.698 Y62.967 E0.01710
G1 X173.188 Y61.457 E0.06772
G1 X172.648 Y61.457 E0.01710
G1 X174.698 Y63.506 E0.09190
G1 X174.698 Y64.045 E0.01710
G1 X172.109 Y61.457 E0.11608
G1 X171.570 Y61.457 E0.01710
G1 X174.698 Y64.585 E0.14026
G1 X174.698 Y65.124 E0.01710
G1 X171.031 Y61.457 E0.16444
G1 X170.491 Y61.457 E0.01710
G1 X174.698 Y65.663 E0.18862
G1 X174.698 Y66.202 E0.01710
G1 X169.952 Y61.457 E0.21280
G1 X169.413 Y61.457 E0.01710
G1 X174.698 Y66.742 E0.23698
G1 X174.698 Y67.281 E0.01710
G1 X168.874 Y61.457 E0.26116
G1 X168.334 Y61.457 E0.01710
G1 X174.698 Y67.820 E0.28534
G1 X174.698 Y68.359 E0.01710
G1 X167.795 Y61.457 E0.30952
G1 X167.256 Y61.457 E0.01710
G1 X174.698 Y68.899 E0.33370
G1 X174.698 Y69.438 E0.01710
G1 X166.717 Y61.457 E0.35787
G1 X166.177 Y61.457 E0.01710
G1 X174.698 Y69.977 E0.38205
G1 X174.698 Y70.516 E0.01710
G1 X165.638 Y61.457 E0.40623
G1 X165.099 Y61.457 E0.01710
G1 X174.698 Y71.056 E0.43041
G1 X174.698 Y71.595 E0.01710
G1 X164.560 Y61.457 E0.45459
G1 X164.020 Y61.457 E0.01710
G1 X174.698 Y72.134 E0.47877
G1 X174.698 Y72.362 E0.00723
G1 X174.387 Y72.362 E0.00987
G1 X163.481 Y61.457 E0.48899
G1 X162.942 Y61.457 E0.01710
G1 X173.848 Y72.362 E0.48899
G1 X173.308 Y72.362 E0.01710
G1 X162.403 Y61.457 E0.48899
G1 X161.863 Y61.457 E0.01710
G1 X172.769 Y72.362 E0.48899
G1 X172.230 Y72.362 E0.01710
G1 X161.324 Y61.457 E0.48899
G1 X160.785 Y61.457 E0.01710
G1 X171.691 Y72.362 E0.48899
G1 X171.151 Y72.362 E0.01710
G1 X160.246 Y61.457 E0.48899
G1 X159.706 Y61.457 E0.01710
G1 X170.612 Y72.362 E0.48899
G1 X170.073 Y72.362 E0.01710
G1 X159.167 Y61.457 E0.48899
G1 X158.628 Y61.457 E0.01710
G1 X169.534 Y72.362 E0.48899
G1 X168.994 Y72.362 E0.01710
G1 X158.089 Y61.457 E0.48899
G1 X157.549 Y61.457 E0.01710
G1 X168.455 Y72.362 E0.48899
G1 X167.916 Y72.362 E0.01710
G1 X157.010 Y61.457 E0.48899
G1 X156.471 Y61.457 E0.01710
G1 X167.377 Y72.362 E0.48899
G1 X166.837 Y72.362 E0.01710
G1 X155.932 Y61.457 E0.48899
G1 X155.392 Y61.457 E0.01710
G1 X166.298 Y72.362 E0.48899
G1 X165.759 Y72.362 E0.01710
G1 X154.853 Y61.457 E0.48899
G1 X154.314 Y61.457 E0.01710
G1 X165.220 Y72.362 E0.48899
G1 X164.680 Y72.362 E0.01710
G1 X153.775 Y61.457 E0.48899
G1 X153.235 Y61.457 E0.01710
G1 X164.141 Y72.362 E0.48899
G1 X163.602 Y72.362 E0.01710
G1 X152.696 Y61.457 E0.48899
G1 X152.157 Y61.457 E0.01710
G1 X163.063 Y72.362 E0.48899
G1 X162.523 Y72.362 E0.01710
G1 X151.618 Y61.457 E0.48899
G1 X151.078 Y61.457 E0.01710
G1 X161.984 Y72.362 E0.48899
G1 X161.445 Y72.362 E0.01710
G1 X150.539 Y61.457 E0.48899
G1 X150.000 Y61.457 E0.01710
G1 X160.906 Y72.362 E0.48899
G1 X160.366 Y72.362 E0.01710
G1 X149.461 Y61.457 E0.48899
G1 X148.921 Y61.457 E0.01710
G1 X159.827 Y72.362 E0.48899
G1 X159.288 Y72.362 E0.01710
G1 X148.382 Y61.457 E0.48899
G1 X147.843 Y61.457 E0.01710
G1 X158.749 Y72.362 E0.48899
G1 X158.209 Y72.362 E0.01710
G1 X147.304 Y61.457 E0.48899
M73 P4 R44
G1 X146.993 Y61.457 E0.00987
G1 X146.993 Y61.685 E0.00723
G1 X157.670 Y72.362 E0.47877
G1 X157.131 Y72.362 E0.01710
G1 X146.993 Y62.224 E0.45459
G1 X146.993 Y62.763 E0.01710
G1 X156.592 Y72.362 E0.43041
G1 X156.052 Y72.362 E0.01710
G1 X146.993 Y63.302 E0.40623
G1 X146.993 Y63.842 E0.01710
G1 X155.513 Y72.362 E0.38205
G1 X154.974 Y72.362 E0.01710
G1 X146.993 Y64.381 E0.35787
G1 X146.993 Y64.920 E0.01710
G1 X154.435 Y72.362 E0.33369
G1 X153.895 Y72.362 E0.01710
G1 X146.993 Y65.459 E0.30951
G1 X146.993 Y65.999 E0.01710
G1 X153.356 Y72.362 E0.28533
G1 X152.817 Y72.362 E0.01710
G1 X146.993 Y66.538 E0.26115
G1 X146.993 Y67.077 E0.01710
G1 X152.278 Y72.362 E0.23697
G1 X151.738 Y72.362 E0.01710
G1 X146.993 Y67.616 E0.21279
G1 X146.993 Y68.156 E0.01710
G1 X151.199 Y72.362 E0.18861
G1 X150.660 Y72.362 E0.01710
G1 X146.993 Y68.695 E0.16444
G1 X146.993 Y69.234 E0.01710
G1 X150.121 Y72.362 E0.14026
G1 X149.581 Y72.362 E0.01710
G1 X146.993 Y69.773 E0.11608
G1 X146.993 Y70.313 E0.01710
G1 X149.042 Y72.362 E0.09190
G1 X148.503 Y72.362 E0.01710
G1 X146.993 Y70.852 E0.06772
G1 X146.993 Y71.391 E0.01710
G1 X147.964 Y72.362 E0.04354
G1 X147.424 Y72.362 E0.01710
G1 X146.823 Y71.761 E0.02697
G1 E-0.80000 F2100.00000
G1 Z0.800 F10800.000
G1 X146.823 Y80.219
G1 Z0.200
G1 E0.80000 F2100.00000
G1 F1200.000
G1 X174.981 Y80.219 E0.88288
G1 X174.981 Y91.690 E0.35967
G1 X146.710 Y91.690 E0.88642
G1 X146.710 Y80.219 E0.35967
G1 X146.763 Y80.219 E0.00167
G1 X146.333 Y79.842 F10800.000
G1 F1200.000
G1 X175.358 Y79.842 E0.91007
G1 X175.358 Y92.067 E0.38332
G1 X146.333 Y92.067 E0.91007
G1 X146.333 Y79.902 E0.38143
G1 X146.729 Y79.895 F10800.000
G1 E-0.80000 F2100.00000
G1 Z0.800 F10800.000
G1 X174.868 Y81.103
G1 Z0.200
G1 E0.80000 F2100.00000
G1 F1200.000
G1 X174.266 Y80.502 E0.02697
G1 X173.727 Y80.502 E0.01710
G1 X174.698 Y81.473 E0.04354
G1 X174.698 Y82.012 E0.01710
G1 X173.188 Y80.502 E0.06772
G1 X172.648 Y80.502 E0.01710
G1 X174.698 Y82.552 E0.09190
G1 X174.698 Y83.091 E0.01710
G1 X172.109 Y80.502 E0.11608
G1 X171.570 Y80.502 E0.01710
G1 X174.698 Y83.630 E0.14026
G1 X174.698 Y84.169 E0.01710
G1 X171.031 Y80.502 E0.16444
G1 X170.491 Y80.502 E0.01710
G1 X174.698 Y84.709 E0.18862
G1 X174.698 Y85.248 E0.01710
G1 X169.952 Y80.502 E0.21280
G1 X169.413 Y80.502 E0.01710
G1 X174.698 Y85.787 E0.23698
G1 X174.698 Y86.326 E0.01710
G1 X168.874 Y80.502 E0.26116
G1 X168.334 Y80.502 E0.01710
G1 X174.698 Y86.866 E0.28534
G1 X174.698 Y87.405 E0.01710
G1 X167.795 Y80.502 E0.30952
G1 X167.256 Y80.502 E0.01710
G1 X174.698 Y87.944 E0.33370
G1 X174.698 Y88.483 E0.01710
G1 X166.717 Y80.502 E0.35787
G1 X166.177 Y80.502 E0.01710
G1 X174.698 Y89.023 E0.38205
G1 X174.698 Y89.562 E0.01710
G1 X165.638 Y80.502 E0.40623
G1 X165.099 Y80.502 E0.01710
G1 X174.698 Y90.101 E0.43041
G1 X174.698 Y90.640 E0.01710
G1 X164.560 Y80.502 E0.45459
G1 X164.020 Y80.502 E0.01710
G1 X174.698 Y91.180 E0.47877
G1 X174.698 Y91.407 E0.00723
G1 X174.387 Y91.407 E0.00987
G1 X163.481 Y80.502 E0.48899
G1 X162.942 Y80.502 E0.01710
G1 X173.848 Y91.407 E0.48899
G1 X173.308 Y91.407 E0.01710
G1 X162.403 Y80.502 E0.48899
G1 X161.863 Y80.502 E0.01710
G1 X172.769 Y91.407 E0.48899
G1 X172.230 Y91.407 E0.01710
G1 X161.324 Y80.502 E0.48899
G1 X160.785 Y80.502 E0.01710
G1 X171.691 Y91.407 E0.48899
G1 X171.151 Y91.407 E0.01710
G1 X160.246 Y80.502 E0.48899
G1 X159.706 Y80.502 E0.01710
G1 X170.612 Y91.407 E0.48899
G1 X170.073 Y91.407 E0.01710
G1 X159.167 Y80.502 E0.48899
G1 X158.628 Y80.502 E0.01710
G1 X169.534 Y91.407 E0.48899
G1 X168.994 Y91.407 E0.01710
G1 X158.089 Y80.502 E0.48899
G1 X157.549 Y80.502 E0.01710
G1 X168.455 Y91.407 E0.48899
G1 X167.916 Y91.407 E0.01710
G1 X157.010 Y80.502 E0.48899
G1 X156.471 Y80.502 E0.01710
G1 X167.377 Y91.407 E0.48899
G1 X166.837 Y91.407 E0.01710
G1 X155.932 Y80.502 E0.48899
G1 X155.392 Y80.502 E0.01710
G1 X166.298 Y91.407 E0.48899
G1 X165.759 Y91.407 E0.01710
G1 X154.853 Y80.502 E0.48899
G1 X154.314 Y80.502 E0.01710
G1 X165.220 Y91.407 E0.48899
G1 X164.680 Y91.407 E0.01710
G1 X153.775 Y80.502 E0.48899
G1 X153.235 Y80.502 E0.01710
G1 X164.141 Y91.407 E0.48899
G1 X163.602 Y91.407 E0.01710
G1 X152.696 Y80.502 E0.48899
G1 X152.157 Y80.502 E0.01710
G1 X163.063 Y91.407 E0.48899
G1 X162.523 Y91.407 E0.01710
G1 X151.618 Y80.502 E0.48899
G1 X151.078 Y80.502 E0.01710
G1 X161.984 Y91.407 E0.48899
G1 X161.445 Y91.407 E0.01710
G1 X150.539 Y80.502 E0.48899
G1 X150.000 Y80.502 E0.01710
G1 X160.906 Y91.407 E0.48899
G1 X160.366 Y91.407 E0.01710
G1 X149.461 Y80.502 E0.48899
G1 X148.921 Y80.502 E0.01710
G1 X159.827 Y91.407 E0.48899
G1 X159.288 Y91.407 E0.01710
G1 X148.382 Y80.502 E0.48899
G1 X147.843 Y80.502 E0.01710
G1 X158.749 Y91.407 E0.48899
G1 X158.209 Y91.407 E0.01710
G1 X147.304 Y80.502 E0.48899
G1 X146.993 Y80.502 E0.00987
G1 X146.993 Y80.730 E0.00723
G1 X157.670 Y91.407 E0.47877
G1 X157.131 Y91.407 E0.01710
G1 X146.993 Y81.269 E0.45459
G1 X146.993 Y81.808 E0.01710
G1 X156.592 Y91.407 E0.43041
G1 X156.052 Y91.407 E0.01710
G1 X146.993 Y82.348 E0.40623
G1 X146.993 Y82.887 E0.01710
G1 X155.513 Y91.407 E0.38205
G1 X154.974 Y91.407 E0.01710
G1 X146.993 Y83.426 E0.35787
G1 X146.993 Y83.965 E0.01710
G1 X154.435 Y91.407 E0.33369
G1 X153.895 Y91.407 E0.01710
G1 X146.993 Y84.505 E0.30951
G1 X146.993 Y85.044 E0.01710
G1 X153.356 Y91.407 E0.28533
G1 X152.817 Y91.407 E0.01710
G1 X146.993 Y85.583 E0.26115
G1 X146.993 Y86.122 E0.01710
G1 X152.278 Y91.407 E0.23697
G1 X151.738 Y91.407 E0.01710
G1 X146.993 Y86.662 E0.21279
G1 X146.993 Y87.201 E0.01710
