; generated by PrusaSlicer 2.2.0+win64 on 2020-12-29 at 21:45:46 UTC

; 

; external perimeters extrusion width = 0.60mm
; perimeters extrusion width = 0.43mm
; infill extrusion width = 0.45mm
; solid infill extrusion width = 0.70mm
; top infill extrusion width = 0.43mm
; first layer extrusion width = 0.42mm

M73 P0 R27
M201 X9000 Y9000 Z500 E10000 ; sets maximum accelerations, mm/sec^2
M203 X500 Y500 Z12 E120 ; sets maximum feedrates, mm/sec
M204 P2000 R1500 T2000 ; sets acceleration (P, T) and retract acceleration (R), mm/sec^2
M205 X10.00 Y10.00 Z0.20 E2.50 ; sets the jerk limits, mm/sec
M205 S0 T0 ; sets the minimum extruding and travel feed rate, mm/sec
M107
M862.3 P "MK2S" ; printer model check
M862.1 P0.4 ; nozzle diameter check
M115 U3.2.3 ; tell printer latest fw version
G90 ; use absolute coordinates
M83 ; extruder relative mode
M204 S2000 T1500 ; MK2 firmware only supports the old M204 format
M104 S215 ; set extruder temp
M140 S60 ; set bed temp
M190 S60 ; wait for bed temp
M109 S215 ; wait for extruder temp
G28 W ; home all without mesh bed level
G80 ; mesh bed leveling
G1 Y-3.0 F1000.0 ; go outside print area
G92 E0.0
G1 X60.0 E9.0  F1000.0 ; intro line
M73 P0 R27
G1 X100.0 E12.5 F1000.0 ; intro line
G92 E0.0
G21 ; set units to millimeters
G90 ; use absolute coordinates
M83 ; use relative distances for extrusion
M900 K0.05 ; Filament gcode LA 1.5
M900 K30 ; Filament gcode LA 1.0
;BEFORE_LAYER_CHANGE
G92 E0.0
;0.2


G1 E-0.80000 F2100.00000
G1 Z0.600 F10800.000
;AFTER_LAYER_CHANGE
;0.2
G1 X80.066 Y82.970
G1 Z0.200
G1 E0.80000 F2100.00000
M204 S1000
G1 F1200.000
G1 X81.050 Y82.191 E0.03934
G1 X82.075 Y81.536 E0.03815
G1 X104.427 Y68.562 E0.81033
G1 X105.528 Y68.013 E0.03859
G1 X106.601 Y67.604 E0.03600
G1 X107.930 Y67.244 E0.04315
G1 X109.184 Y67.048 E0.03982
G1 X110.434 Y66.983 E0.03922
G1 X161.870 Y66.983 E1.61277
G1 X163.127 Y67.048 E0.03945
G1 X164.367 Y67.241 E0.03934
G1 X165.584 Y67.560 E0.03946
G1 X166.663 Y67.963 E0.03612
G1 X168.000 Y68.630 E0.04684
G1 X168.977 Y69.255 E0.03636
G1 X169.960 Y70.034 E0.03934
G1 X170.859 Y70.910 E0.03934
G1 X171.607 Y71.801 E0.03648
G1 X172.438 Y73.039 E0.04676
G1 X172.976 Y74.056 E0.03608
G1 X173.450 Y75.226 E0.03958
G1 X173.800 Y76.427 E0.03922
G1 X174.025 Y77.666 E0.03946
G1 X174.124 Y78.985 E0.04149
G1 X174.096 Y131.655 E1.65142
G1 X173.906 Y133.095 E0.04554
G1 X173.637 Y134.219 E0.03624
G1 X173.229 Y135.393 E0.03898
G1 X172.631 Y136.650 E0.04363
G1 X172.037 Y137.632 E0.03600
G1 X171.308 Y138.606 E0.03815
G1 X170.427 Y139.563 E0.04077
G1 X169.479 Y140.396 E0.03958
G1 X168.447 Y141.130 E0.03970
G1 X167.345 Y141.754 E0.03970
G1 X166.192 Y142.257 E0.03946
G1 X164.982 Y142.643 E0.03982
G1 X163.746 Y142.901 E0.03958
G1 X162.437 Y143.032 E0.04127
G1 X109.830 Y143.030 E1.64945
G1 X108.438 Y142.878 E0.04389
G1 X107.312 Y142.639 E0.03608
G1 X106.121 Y142.258 E0.03922
G1 X104.971 Y141.756 E0.03934
G1 X103.970 Y141.193 E0.03600
G1 X102.822 Y140.387 E0.04399
G1 X101.888 Y139.566 E0.03898
G1 X101.036 Y138.645 E0.03934
G1 X100.280 Y137.639 E0.03946
G1 X99.681 Y136.651 E0.03624
G1 X77.373 Y98.012 E1.39891
G1 X76.825 Y96.861 E0.03997
G1 X76.383 Y95.602 E0.04184
G1 X76.077 Y94.264 E0.04303
G1 X75.933 Y93.128 E0.03588
G1 X75.900 Y91.977 E0.03612
G1 X75.999 Y90.604 E0.04315
G1 X76.253 Y89.255 E0.04303
G1 X76.577 Y88.154 E0.03600
G1 X77.007 Y87.089 E0.03600
G1 X77.644 Y85.874 E0.04303
G1 X78.400 Y84.760 E0.04220
G1 X79.164 Y83.848 E0.03731
G1 X80.023 Y83.012 E0.03758
G1 E-0.80000 F2100.00000
G1 Z0.800 F10800.000
G1 X105.175 Y123.372
G1 Z0.200
G1 E0.80000 F2100.00000
G1 F1200.000
G1 X105.965 Y122.869 E0.02936
G1 X106.803 Y122.450 E0.02936
G1 X107.679 Y122.120 E0.02936
G1 X108.585 Y121.882 E0.02936
G1 X109.510 Y121.738 E0.02936
G1 X110.445 Y121.689 E0.02936
G1 X111.381 Y121.738 E0.02936
G1 X112.306 Y121.882 E0.02936
G1 X113.212 Y122.120 E0.02936
G1 X114.088 Y122.450 E0.02936
G1 X114.926 Y122.869 E0.02936
G1 X115.716 Y123.372 E0.02936
G1 X116.450 Y123.953 E0.02936
G1 X117.121 Y124.607 E0.02936
G1 X117.721 Y125.326 E0.02936
G1 X118.243 Y126.103 E0.02936
G1 X118.683 Y126.929 E0.02936
G1 X119.036 Y127.797 E0.02936
G1 X119.298 Y128.696 E0.02936
G1 X119.466 Y129.617 E0.02936
G1 X119.538 Y130.551 E0.02936
G1 X119.514 Y131.487 E0.02936
G1 X119.394 Y132.416 E0.02936
G1 X119.179 Y133.327 E0.02936
G1 X118.871 Y134.212 E0.02936
G1 X118.474 Y135.060 E0.02936
G1 X117.992 Y135.863 E0.02936
G1 X117.430 Y136.612 E0.02936
G1 X116.794 Y137.299 E0.02936
G1 X116.090 Y137.917 E0.02936
G1 X115.327 Y138.460 E0.02936
G1 X114.512 Y138.921 E0.02936
G1 X113.654 Y139.296 E0.02936
G1 X112.762 Y139.581 E0.02936
G1 X111.845 Y139.772 E0.02936
G1 X110.904 Y139.870 E0.02968
G1 X109.987 Y139.870 E0.02873
G1 X109.046 Y139.772 E0.02968
G1 X108.129 Y139.581 E0.02936
G1 X107.237 Y139.296 E0.02936
G1 X106.379 Y138.921 E0.02936
G1 X105.564 Y138.460 E0.02936
G1 X104.801 Y137.917 E0.02936
G1 X104.097 Y137.299 E0.02936
G1 X103.461 Y136.612 E0.02936
G1 X102.899 Y135.863 E0.02936
G1 X102.417 Y135.060 E0.02936
G1 X102.020 Y134.212 E0.02936
G1 X101.712 Y133.327 E0.02936
G1 X101.497 Y132.416 E0.02936
G1 X101.377 Y131.487 E0.02936
G1 X101.353 Y130.551 E0.02936
G1 X101.425 Y129.617 E0.02936
G1 X101.593 Y128.696 E0.02936
G1 X101.855 Y127.797 E0.02936
G1 X102.208 Y126.929 E0.02936
G1 X102.648 Y126.103 E0.02936
G1 X103.170 Y125.326 E0.02936
G1 X103.770 Y124.607 E0.02936
G1 X104.441 Y123.953 E0.02936
G1 X105.128 Y123.409 E0.02748
G1 X104.894 Y123.113 F10800.000
G1 F1200.000
G1 X105.779 Y122.541 E0.03306
G1 X106.652 Y122.105 E0.03058
G1 X107.565 Y121.760 E0.03058
G1 X108.508 Y121.512 E0.03058
G1 X109.471 Y121.362 E0.03058
G1 X110.445 Y121.312 E0.03058
G1 X111.420 Y121.362 E0.03058
G1 X112.383 Y121.512 E0.03058
G1 X113.326 Y121.760 E0.03058
G1 X114.239 Y122.105 E0.03058
G1 X115.111 Y122.541 E0.03058
G1 X115.934 Y123.064 E0.03058
G1 X116.699 Y123.669 E0.03058
G1 X117.398 Y124.350 E0.03058
G1 X118.023 Y125.099 E0.03058
G1 X118.567 Y125.908 E0.03058
G1 X119.025 Y126.769 E0.03058
G1 X119.393 Y127.673 E0.03058
G1 X119.665 Y128.609 E0.03058
G1 X119.840 Y129.569 E0.03058
G1 X119.916 Y130.541 E0.03058
G1 X119.890 Y131.516 E0.03058
G1 X119.765 Y132.483 E0.03058
G1 X119.541 Y133.433 E0.03058
G1 X119.221 Y134.354 E0.03058
G1 X118.807 Y135.237 E0.03058
G1 X118.305 Y136.073 E0.03058
G1 X117.720 Y136.853 E0.03058
G1 X117.057 Y137.569 E0.03058
G1 X116.325 Y138.213 E0.03058
G1 X115.530 Y138.778 E0.03058
G1 X114.681 Y139.259 E0.03058
G1 X113.787 Y139.649 E0.03058
G1 X112.858 Y139.946 E0.03058
G1 X111.903 Y140.145 E0.03058
G1 X110.928 Y140.246 E0.03075
G1 X109.963 Y140.246 E0.03025
G1 X108.988 Y140.145 E0.03075
G1 X108.033 Y139.946 E0.03058
G1 X107.104 Y139.649 E0.03058
G1 X106.210 Y139.259 E0.03058
G1 X105.361 Y138.778 E0.03058
G1 X104.566 Y138.213 E0.03058
G1 X103.834 Y137.569 E0.03058
G1 X103.171 Y136.853 E0.03058
G1 X102.586 Y136.073 E0.03058
G1 X102.084 Y135.237 E0.03058
G1 X101.670 Y134.354 E0.03058
G1 X101.350 Y133.433 E0.03058
G1 X101.126 Y132.483 E0.03058
G1 X101.000 Y131.516 E0.03058
G1 X100.975 Y130.541 E0.03058
G1 X101.051 Y129.569 E0.03058
G1 X101.225 Y128.609 E0.03058
G1 X101.498 Y127.673 E0.03058
G1 X101.866 Y126.769 E0.03058
G1 X102.324 Y125.908 E0.03058
G1 X102.868 Y125.099 E0.03058
G1 X103.493 Y124.350 E0.03058
G1 X104.192 Y123.669 E0.03058
G1 X104.847 Y123.151 E0.02621
G1 X105.259 Y123.278 F10800.000
G1 E-0.80000 F2100.00000
G1 Z0.800 F10800.000
G1 X117.890 Y125.780
G1 Z0.200
G1 E0.80000 F2100.00000
G1 F1200.000
G1 X116.263 Y124.166 E0.07297
G1 X115.552 Y123.603 E0.02889
G1 X114.786 Y123.116 E0.02889
G1 X114.582 Y123.014 E0.00726
G1 X118.210 Y126.641 E0.16333
G1 X118.427 Y127.049 E0.01471
G1 X118.667 Y127.640 E0.02032
G1 X113.593 Y122.566 E0.22845
G1 X113.125 Y122.390 E0.01591
G1 X112.786 Y122.301 E0.01118
G1 X118.930 Y128.445 E0.27664
G1 X119.022 Y128.761 E0.01048
G1 X119.093 Y129.149 E0.01256
G1 X112.076 Y122.132 E0.31593
G1 X111.435 Y122.032 E0.02066
G1 X119.196 Y129.793 E0.34943
G1 X119.241 Y130.380 E0.01874
G1 X110.855 Y121.994 E0.37759
G1 X110.300 Y121.980 E0.01768
G1 X119.246 Y130.926 E0.40277
G1 X119.232 Y131.454 E0.01681
G1 X109.785 Y122.007 E0.42534
G1 X109.539 Y122.019 E0.00782
G1 X109.294 Y122.057 E0.00790
G1 X119.171 Y131.934 E0.44468
G1 X119.105 Y132.409 E0.01527
G1 X108.826 Y122.130 E0.46279
G1 X108.381 Y122.228 E0.01448
G1 X119.001 Y132.848 E0.47814
G1 X118.895 Y133.282 E0.01426
G1 X107.953 Y122.341 E0.49264
G1 X107.544 Y122.473 E0.01368
G1 X118.755 Y133.684 E0.50475
G1 X118.615 Y134.086 E0.01354
G1 X107.151 Y122.622 E0.51616
G1 X106.771 Y122.783 E0.01315
G1 X118.444 Y134.456 E0.52558
G1 X118.272 Y134.825 E0.01296
G1 X106.410 Y122.963 E0.53406
G1 X106.053 Y123.148 E0.01278
G1 X118.077 Y135.172 E0.54133
G1 X117.874 Y135.510 E0.01256
G1 X105.722 Y123.359 E0.54709
G1 X105.391 Y123.569 E0.01249
G1 X117.658 Y135.836 E0.55229
G1 X117.426 Y136.145 E0.01231
G1 X105.085 Y123.804 E0.55565
G1 X104.782 Y124.043 E0.01227
G1 X117.192 Y136.453 E0.55870
G1 X116.931 Y136.734 E0.01220
G1 X104.494 Y124.296 E0.55998
G1 X104.220 Y124.563 E0.01219
G1 X116.671 Y137.015 E0.56060
G1 X116.391 Y137.276 E0.01220
G1 X103.949 Y124.834 E0.56019
G1 X103.703 Y125.129 E0.01224
G1 X116.103 Y137.530 E0.55830
G1 X115.805 Y137.773 E0.01225
G1 X103.456 Y125.424 E0.55597
G1 X103.232 Y125.741 E0.01236
G1 X115.488 Y137.998 E0.55184
G1 X115.175 Y138.221 E0.01224
G1 X103.014 Y126.065 E0.54741
G1 X102.809 Y126.401 E0.01254
G1 X114.826 Y138.418 E0.54104
G1 X114.480 Y138.614 E0.01265
G1 X102.621 Y126.755 E0.53394
G1 X102.438 Y127.113 E0.01282
G1 X114.112 Y138.787 E0.52559
G1 X113.735 Y138.952 E0.01309
G1 X102.281 Y127.498 E0.51568
G1 X102.125 Y127.883 E0.01323
G1 X113.341 Y139.099 E0.50497
G1 X112.930 Y139.230 E0.01372
G1 X102.002 Y128.302 E0.49202
G1 X101.880 Y128.721 E0.01391
G1 X112.504 Y139.346 E0.47833
G1 X112.056 Y139.439 E0.01457
G1 X101.793 Y129.176 E0.46209
G1 X101.710 Y129.634 E0.01482
G1 X111.590 Y139.514 E0.44485
G1 X111.099 Y139.565 E0.01571
G1 X101.669 Y130.134 E0.42459
G1 X101.638 Y130.645 E0.01629
G1 X110.580 Y139.587 E0.40257
G1 X110.038 Y139.587 E0.01724
G1 X101.652 Y131.201 E0.37755
G1 X101.659 Y131.465 E0.00840
G1 X101.702 Y131.792 E0.01049
G1 X109.438 Y139.529 E0.34834
G1 X109.089 Y139.492 E0.01117
G1 X108.800 Y139.432 E0.00939
G1 X101.789 Y132.421 E0.31568
G1 X101.956 Y133.129 E0.02318
G1 X108.102 Y139.275 E0.27671
G1 X107.301 Y139.015 E0.02683
G1 X102.225 Y133.939 E0.22853
G1 X102.282 Y134.105 E0.00558
G1 X102.664 Y134.920 E0.02864
G1 X106.289 Y138.545 E0.16323
G1 X105.716 Y138.221 E0.02097
G1 X104.976 Y137.695 E0.02889
G1 X104.325 Y137.123 E0.02759
G1 X102.980 Y135.777 E0.06059
G1 E-0.80000 F2100.00000
G1 Z0.800 F10800.000
G1 X127.208 Y132.416
G1 Z0.200
G1 E0.80000 F2100.00000
G1 F1200.000
G1 X127.088 Y131.487 E0.02936
G1 X127.063 Y130.551 E0.02936
G1 X127.136 Y129.617 E0.02936
G1 X127.304 Y128.696 E0.02936
G1 X127.565 Y127.797 E0.02936
G1 X127.918 Y126.929 E0.02936
G1 X128.358 Y126.103 E0.02936
G1 X128.881 Y125.326 E0.02936
G1 X129.481 Y124.607 E0.02936
G1 X130.152 Y123.953 E0.02936
G1 X130.886 Y123.372 E0.02936
G1 X131.676 Y122.869 E0.02936
G1 X132.514 Y122.450 E0.02936
G1 X133.390 Y122.120 E0.02936
M73 P3 R26
G1 X134.296 Y121.882 E0.02936
G1 X135.221 Y121.738 E0.02936
G1 X136.156 Y121.689 E0.02936
G1 X137.091 Y121.738 E0.02936
G1 X138.017 Y121.882 E0.02936
G1 X138.922 Y122.120 E0.02936
G1 X139.798 Y122.450 E0.02936
G1 X140.636 Y122.869 E0.02936
G1 X141.426 Y123.372 E0.02936
G1 X142.161 Y123.953 E0.02936
G1 X142.831 Y124.607 E0.02936
G1 X143.431 Y125.326 E0.02936
G1 X143.954 Y126.103 E0.02936
G1 X144.394 Y126.929 E0.02936
G1 X144.747 Y127.797 E0.02936
G1 X145.009 Y128.696 E0.02936
G1 X145.176 Y129.617 E0.02936
G1 X145.249 Y130.551 E0.02936
G1 X145.225 Y131.487 E0.02936
G1 X145.104 Y132.416 E0.02936
G1 X144.889 Y133.327 E0.02936
G1 X144.582 Y134.212 E0.02936
G1 X144.185 Y135.060 E0.02936
G1 X143.703 Y135.863 E0.02936
G1 X143.140 Y136.612 E0.02936
G1 X142.504 Y137.299 E0.02936
G1 X141.801 Y137.917 E0.02936
G1 X141.038 Y138.460 E0.02936
G1 X140.223 Y138.921 E0.02936
G1 X139.365 Y139.296 E0.02936
G1 X138.472 Y139.581 E0.02936
G1 X137.556 Y139.772 E0.02936
G1 X136.614 Y139.870 E0.02968
G1 X135.698 Y139.870 E0.02873
G1 X134.756 Y139.772 E0.02968
G1 X133.840 Y139.581 E0.02936
G1 X132.948 Y139.296 E0.02936
G1 X132.089 Y138.921 E0.02936
G1 X131.274 Y138.460 E0.02936
G1 X130.511 Y137.917 E0.02936
G1 X129.808 Y137.299 E0.02936
G1 X129.172 Y136.612 E0.02936
G1 X128.610 Y135.863 E0.02936
G1 X128.128 Y135.060 E0.02936
G1 X127.731 Y134.212 E0.02936
G1 X127.423 Y133.327 E0.02936
G1 X127.222 Y132.474 E0.02748
G1 X126.855 Y132.561 F10800.000
G1 F1200.000
G1 X126.711 Y131.516 E0.03306
G1 X126.686 Y130.541 E0.03058
G1 X126.761 Y129.569 E0.03058
G1 X126.936 Y128.609 E0.03058
G1 X127.209 Y127.673 E0.03058
G1 X127.576 Y126.769 E0.03058
G1 X128.035 Y125.908 E0.03058
G1 X128.579 Y125.099 E0.03058
G1 X129.204 Y124.350 E0.03058
G1 X129.902 Y123.669 E0.03058
G1 X130.667 Y123.064 E0.03058
G1 X131.490 Y122.541 E0.03058
G1 X132.362 Y122.105 E0.03058
G1 X133.275 Y121.760 E0.03058
G1 X134.218 Y121.512 E0.03058
G1 X135.182 Y121.362 E0.03058
G1 X136.156 Y121.312 E0.03058
G1 X137.130 Y121.362 E0.03058
G1 X138.094 Y121.512 E0.03058
G1 X139.037 Y121.760 E0.03058
G1 X139.950 Y122.105 E0.03058
G1 X140.822 Y122.541 E0.03058
G1 X141.645 Y123.064 E0.03058
G1 X142.410 Y123.669 E0.03058
G1 X143.108 Y124.350 E0.03058
G1 X143.733 Y125.099 E0.03058
G1 X144.278 Y125.908 E0.03058
G1 X144.736 Y126.769 E0.03058
G1 X145.103 Y127.673 E0.03058
G1 X145.376 Y128.609 E0.03058
G1 X145.551 Y129.569 E0.03058
G1 X145.626 Y130.541 E0.03058
G1 X145.601 Y131.516 E0.03058
G1 X145.476 Y132.483 E0.03058
G1 X145.252 Y133.433 E0.03058
G1 X144.931 Y134.354 E0.03058
G1 X144.518 Y135.237 E0.03058
G1 X144.016 Y136.073 E0.03058
G1 X143.430 Y136.853 E0.03058
G1 X142.768 Y137.569 E0.03058
G1 X142.035 Y138.213 E0.03058
G1 X141.240 Y138.778 E0.03058
G1 X140.391 Y139.259 E0.03058
G1 X139.498 Y139.649 E0.03058
G1 X138.569 Y139.946 E0.03058
G1 X137.614 Y140.145 E0.03058
G1 X136.638 Y140.246 E0.03075
G1 X135.674 Y140.246 E0.03025
G1 X134.698 Y140.145 E0.03075
G1 X133.743 Y139.946 E0.03058
G1 X132.814 Y139.649 E0.03058
G1 X131.921 Y139.259 E0.03058
G1 X131.072 Y138.778 E0.03058
G1 X130.277 Y138.213 E0.03058
G1 X129.544 Y137.569 E0.03058
G1 X128.882 Y136.853 E0.03058
G1 X128.296 Y136.073 E0.03058
G1 X127.794 Y135.237 E0.03058
G1 X127.381 Y134.354 E0.03058
G1 X127.060 Y133.433 E0.03058
G1 X126.868 Y132.619 E0.02621
G1 X127.158 Y132.300 F10800.000
G1 E-0.80000 F2100.00000
G1 Z0.800 F10800.000
G1 X143.601 Y125.780
G1 Z0.200
G1 E0.80000 F2100.00000
G1 F1200.000
G1 X141.974 Y124.166 E0.07297
G1 X141.262 Y123.603 E0.02889
G1 X140.497 Y123.116 E0.02889
G1 X140.293 Y123.014 E0.00726
G1 X143.920 Y126.641 E0.16333
G1 X144.138 Y127.049 E0.01471
G1 X144.378 Y127.640 E0.02032
G1 X139.304 Y122.566 E0.22845
G1 X138.836 Y122.390 E0.01591
G1 X138.497 Y122.301 E0.01118
G1 X144.641 Y128.445 E0.27664
G1 X144.733 Y128.761 E0.01048
G1 X144.804 Y129.149 E0.01256
G1 X137.787 Y122.132 E0.31593
G1 X137.145 Y122.032 E0.02066
G1 X144.906 Y129.793 E0.34943
G1 X144.952 Y130.380 E0.01874
G1 X136.565 Y121.994 E0.37759
G1 X136.010 Y121.980 E0.01768
G1 X144.956 Y130.926 E0.40277
G1 X144.943 Y131.454 E0.01681
G1 X135.495 Y122.007 E0.42534
G1 X135.250 Y122.019 E0.00782
G1 X135.005 Y122.057 E0.00790
G1 X144.882 Y131.934 E0.44468
G1 X144.815 Y132.409 E0.01527
G1 X134.536 Y122.130 E0.46279
G1 X134.092 Y122.228 E0.01448
G1 X144.712 Y132.848 E0.47814
G1 X144.605 Y133.282 E0.01426
G1 X133.663 Y122.341 E0.49264
G1 X133.255 Y122.473 E0.01368
G1 X144.466 Y133.684 E0.50475
G1 X144.326 Y134.086 E0.01354
G1 X132.862 Y122.622 E0.51616
G1 X132.481 Y122.783 E0.01315
G1 X144.155 Y134.456 E0.52558
G1 X143.982 Y134.825 E0.01296
G1 X132.120 Y122.963 E0.53406
G1 X131.764 Y123.148 E0.01278
G1 X143.787 Y135.172 E0.54133
G1 X143.584 Y135.510 E0.01256
G1 X131.433 Y123.359 E0.54709
G1 X131.102 Y123.569 E0.01249
G1 X143.369 Y135.836 E0.55229
G1 X143.137 Y136.145 E0.01231
G1 X130.795 Y123.804 E0.55565
G1 X130.493 Y124.043 E0.01227
G1 X142.902 Y136.453 E0.55870
