; generated by PrusaSlicer 2.2.0+win64 on 2020-10-30 at 18:20:55 UTC

; 

; external perimeters extrusion width = 0.45mm
; perimeters extrusion width = 0.45mm
; infill extrusion width = 0.45mm
; solid infill extrusion width = 0.45mm
; top infill extrusion width = 0.40mm
; first layer extrusion width = 0.42mm

M73 P0 R26
M201 X9000 Y9000 Z500 E10000 ; sets maximum accelerations, mm/sec^2
M203 X500 Y500 Z12 E120 ; sets maximum feedrates, mm/sec
M204 P2000 R1500 T2000 ; sets acceleration (P, T) and retract acceleration (R), mm/sec^2
M205 X10.00 Y10.00 Z0.20 E2.50 ; sets the jerk limits, mm/sec
M205 S0 T0 ; sets the minimum extruding and travel feed rate, mm/sec
M107
M862.3 P "MK2S" ; printer model check
M862.1 P0.4 ; nozzle diameter check
M115 U3.2.3 ; tell printer latest fw version
G90 ; use absolute coordinates
M83 ; extruder relative mode
M204 S2000 T1500 ; MK2 firmware only supports the old M204 format
M104 S215 ; set extruder temp
M140 S60 ; set bed temp
M190 S60 ; wait for bed temp
M109 S215 ; wait for extruder temp
G28 W ; home all without mesh bed level
G80 ; mesh bed leveling
G1 Y-3.0 F1000.0 ; go outside print area
G92 E0.0
G1 X60.0 E9.0  F1000.0 ; intro line
M73 P0 R26
G1 X100.0 E12.5 F1000.0 ; intro line
G92 E0.0
G21 ; set units to millimeters
G90 ; use absolute coordinates
M83 ; use relative distances for extrusion
M900 K0.05 ; Filament gcode LA 1.5
M900 K30 ; Filament gcode LA 1.0
;BEFORE_LAYER_CHANGE
G92 E0.0
;0.2


G1 E-0.80000 F2100.00000
G1 Z0.600 F10800.000
;AFTER_LAYER_CHANGE
;0.2
G1 X145.262 Y105.185
G1 Z0.200
G1 E0.80000 F2100.00000
M204 S1000
G1 F1200.000
G1 X144.292 Y104.991 E0.04978
G1 X143.755 Y104.890 E0.02519
G1 X143.637 Y104.762 E0.00740
G1 X143.519 Y104.634 E0.00697
G1 X144.700 Y100.654 F10800.000
G1 F1200.000
G1 X145.039 Y100.584 E0.01533
G1 X145.477 Y100.813 E0.02337
G1 X146.328 Y101.246 E0.04862
G1 E-0.80000 F2100.00000
G1 Z0.800 F10800.000
G1 X152.141 Y114.121
G1 Z0.200
G1 E0.80000 F2100.00000
G1 F1200.000
G1 X151.084 Y114.076 E0.03320
G1 X151.079 Y114.123 E0.00147
G1 X150.824 Y114.065 E0.00819
G1 X150.566 Y114.054 E0.00812
G1 X150.572 Y114.008 E0.00146
G1 X149.613 Y113.791 E0.03085
G1 X148.791 Y113.521 E0.02710
G1 X148.000 Y113.175 E0.02710
G1 X147.244 Y112.755 E0.02710
G1 X146.224 Y112.054 E0.03880
G1 X145.300 Y111.140 E0.04077
G1 X144.700 Y110.407 E0.02970
G1 X144.179 Y109.616 E0.02970
G1 X143.743 Y108.775 E0.02970
G1 X143.396 Y107.894 E0.02970
G1 X143.142 Y106.981 E0.02970
G1 X142.985 Y106.047 E0.02970
G1 X142.877 Y104.346 E0.05346
G1 X142.955 Y104.364 E0.00249
G1 X143.019 Y103.695 E0.02107
G1 X143.187 Y102.830 E0.02762
G1 X143.437 Y101.986 E0.02762
G1 X143.768 Y101.169 E0.02762
G1 X144.305 Y100.141 E0.03637
G1 X145.013 Y99.191 E0.03715
G1 X145.629 Y98.518 E0.02861
G1 X146.309 Y97.909 E0.02861
G1 X147.046 Y97.371 E0.02861
G1 X148.434 Y96.558 E0.05046
G1 X148.948 Y98.115 E0.05142
G1 X149.042 Y98.553 E0.01406
G1 X149.252 Y98.522 E0.00667
G1 X149.193 Y97.847 E0.02123
G1 X148.955 Y96.375 E0.04676
G1 X150.367 Y96.034 E0.04557
G1 X151.299 Y95.909 E0.02946
G1 X152.192 Y95.882 E0.02804
G1 X153.174 Y95.948 E0.03083
G1 X154.100 Y96.113 E0.02951
G1 X155.004 Y96.371 E0.02946
G1 X156.564 Y96.997 E0.05272
G1 X155.759 Y98.052 E0.04161
G1 X155.248 Y98.808 E0.02859
G1 X154.755 Y99.654 E0.03071
G1 X154.272 Y100.613 E0.03368
G1 X153.788 Y101.719 E0.03785
G1 X153.447 Y102.626 E0.03038
G1 X153.639 Y102.714 E0.00662
G1 X154.366 Y101.380 E0.04763
G1 X154.980 Y100.415 E0.03587
G1 X155.624 Y99.530 E0.03431
G1 X156.333 Y98.684 E0.03462
G1 X157.409 Y97.565 E0.04867
G1 X158.549 Y98.603 E0.04838
G1 X159.213 Y99.357 E0.03147
G1 X159.789 Y100.178 E0.03147
G1 X160.272 Y101.058 E0.03147
G1 X160.881 Y102.531 E0.04999
G1 X159.408 Y103.040 E0.04887
G1 X158.386 Y103.311 E0.03314
G1 X157.335 Y103.506 E0.03352
G1 X156.263 Y103.623 E0.03380
G1 X155.178 Y103.660 E0.03404
G1 X154.309 Y103.627 E0.02726
G1 X154.284 Y103.834 E0.00654
G1 X155.779 Y104.088 E0.04752
G1 X156.949 Y104.205 E0.03690
G1 X158.132 Y104.250 E0.03711
G1 X159.321 Y104.221 E0.03728
G1 X161.173 Y104.060 E0.05828
G1 X161.147 Y105.625 E0.04907
G1 X161.033 Y106.562 E0.02961
G1 X160.823 Y107.483 E0.02961
G1 X160.520 Y108.377 E0.02961
G1 X160.125 Y109.235 E0.02961
G1 X159.644 Y110.048 E0.02961
G1 X159.081 Y110.807 E0.02961
G1 X158.070 Y111.910 E0.04694
G1 X156.536 Y110.524 E0.06483
G1 X155.587 Y109.787 E0.03766
G1 X154.544 Y109.079 E0.03955
G1 X154.192 Y108.870 E0.01281
G1 X154.072 Y109.042 E0.00658
G1 X154.787 Y109.628 E0.02897
G1 X155.542 Y110.346 E0.03268
G1 X156.254 Y111.137 E0.03336
G1 X157.318 Y112.516 E0.05464
G1 X155.877 Y113.278 E0.05111
G1 X154.982 Y113.636 E0.03023
G1 X154.054 Y113.898 E0.03023
G1 X153.104 Y114.060 E0.03023
G1 X152.201 Y114.117 E0.02835
G1 E-0.80000 F2100.00000
G1 Z0.800 F10800.000
G1 X158.045 Y111.379
G1 Z0.200
G1 E0.80000 F2100.00000
G1 F1200.000
G1 X156.779 Y110.234 E0.05352
G1 X155.809 Y109.482 E0.03849
G1 X154.746 Y108.760 E0.04029
G1 X153.584 Y108.072 E0.04233
G1 X152.203 Y107.358 E0.04877
G1 X152.849 Y105.473 E0.06247
G1 X153.423 Y104.043 E0.04833
G1 X154.547 Y104.273 E0.03596
G1 X155.730 Y104.462 E0.03757
G1 X156.923 Y104.582 E0.03761
G1 X158.130 Y104.627 E0.03785
G1 X159.342 Y104.597 E0.03801
G1 X160.789 Y104.472 E0.04554
G1 X160.770 Y105.599 E0.03535
G1 X160.661 Y106.498 E0.02839
G1 X160.460 Y107.380 E0.02839
G1 X160.169 Y108.238 E0.02839
G1 X159.791 Y109.060 E0.02839
G1 X159.329 Y109.839 E0.02839
G1 X158.790 Y110.566 E0.02839
G1 X158.085 Y111.335 E0.03270
G1 X157.780 Y111.680 F10800.000
G1 E-0.80000 F2100.00000
G1 Z0.800 F10800.000
G1 X151.740 Y107.142
G1 Z0.200
G1 E0.80000 F2100.00000
G1 F1200.000
G1 X150.229 Y106.519 E0.05125
G1 X148.745 Y105.983 E0.04947
G1 X149.128 Y104.356 E0.05241
G1 X149.425 Y102.795 E0.04983
G1 X151.021 Y103.368 E0.05315
G1 X152.620 Y103.848 E0.05236
G1 X152.155 Y105.469 E0.05290
G1 X151.754 Y107.084 E0.05216
G1 X151.604 Y107.518 F10800.000
G1 E-0.80000 F2100.00000
G1 Z0.800 F10800.000
G1 X152.138 Y113.744
G1 Z0.200
G1 E0.80000 F2100.00000
G1 F1200.000
G1 X150.995 Y113.695 E0.03585
G1 X151.366 Y110.963 E0.08645
G1 X151.624 Y109.704 E0.04029
G1 X152.003 Y108.062 E0.05284
G1 X152.928 Y108.671 E0.03470
G1 X153.770 Y109.283 E0.03265
G1 X154.537 Y109.911 E0.03107
G1 X155.271 Y110.609 E0.03178
G1 X155.964 Y111.379 E0.03245
G1 X156.746 Y112.392 E0.04015
G1 X155.718 Y112.936 E0.03645
G1 X154.860 Y113.279 E0.02898
G1 X153.971 Y113.530 E0.02898
G1 X153.060 Y113.685 E0.02898
G1 X152.197 Y113.740 E0.02710
G1 X151.941 Y114.092 F10800.000
G1 E-0.80000 F2100.00000
G1 Z0.800 F10800.000
G1 X154.155 Y103.244
G1 Z0.200
G1 E0.80000 F2100.00000
G1 F1200.000
G1 X153.787 Y103.230 E0.01154
G1 X154.691 Y101.572 E0.05921
G1 X155.292 Y100.627 E0.03510
G1 X155.921 Y99.762 E0.03353
G1 X156.614 Y98.936 E0.03381
G1 X157.426 Y98.091 E0.03676
G1 X158.280 Y98.868 E0.03621
G1 X158.916 Y99.590 E0.03017
G1 X159.469 Y100.378 E0.03017
G1 X159.932 Y101.221 E0.03017
G1 X160.380 Y102.305 E0.03679
G1 X159.298 Y102.679 E0.03589
G1 X158.303 Y102.943 E0.03226
G1 X157.280 Y103.132 E0.03264
G1 X156.236 Y103.246 E0.03292
G1 X155.179 Y103.283 E0.03317
G1 X154.214 Y103.246 E0.03026
G1 X153.962 Y103.558 F10800.000
G1 X152.862 Y103.110
G1 F1200.000
G1 X150.979 Y102.740 E0.06017
G1 X149.489 Y102.343 E0.04833
G1 X149.634 Y100.858 E0.04677
G1 X149.675 Y99.774 E0.03401
G1 X149.652 Y98.757 E0.03191
G1 X149.567 Y97.800 E0.03012
G1 X149.383 Y96.660 E0.03623
G1 X150.437 Y96.405 E0.03400
G1 X151.330 Y96.285 E0.02824
G1 X152.185 Y96.259 E0.02685
G1 X153.128 Y96.323 E0.02961
G1 X154.015 Y96.480 E0.02826
G1 X154.881 Y96.728 E0.02824
G1 X155.963 Y97.163 E0.03656
G1 X155.452 Y97.832 E0.02641
G1 X154.929 Y98.607 E0.02932
G1 X154.424 Y99.474 E0.03146
G1 X153.931 Y100.453 E0.03436
G1 X153.439 Y101.577 E0.03848
G1 X152.883 Y103.054 E0.04947
G1 X152.760 Y103.497 F10800.000
G1 E-0.80000 F2100.00000
G1 Z0.800 F10800.000
G1 X150.744 Y113.661
G1 Z0.200
G1 E0.80000 F2100.00000
G1 F1200.000
G1 X149.713 Y113.427 E0.03315
G1 X148.926 Y113.168 E0.02598
G1 X148.167 Y112.836 E0.02598
G1 X147.443 Y112.434 E0.02598
G1 X146.465 Y111.763 E0.03718
G1 X145.579 Y110.885 E0.03910
G1 X145.004 Y110.183 E0.02847
G1 X144.505 Y109.425 E0.02847
G1 X144.086 Y108.619 E0.02847
G1 X143.754 Y107.774 E0.02847
G1 X143.511 Y106.899 E0.02847
G1 X143.360 Y106.004 E0.02847
G1 X143.286 Y104.827 E0.03697
G1 X143.392 Y103.749 E0.03399
G1 X143.553 Y102.920 E0.02647
G1 X143.794 Y102.110 E0.02647
G1 X144.111 Y101.328 E0.02647
G1 X144.626 Y100.343 E0.03486
G1 X145.304 Y99.432 E0.03562
G1 X145.895 Y98.786 E0.02742
G1 X146.546 Y98.203 E0.02742
G1 X147.253 Y97.687 E0.02742
G1 X148.222 Y97.119 E0.03524
G1 X148.584 Y98.214 E0.03615
G1 X148.739 Y98.940 E0.02328
G1 X148.839 Y99.740 E0.02530
G1 X148.884 Y100.639 E0.02822
G1 X148.859 Y102.145 E0.04721
G1 X147.584 Y101.671 E0.04265
G1 X146.564 Y101.237 E0.03475
G1 X146.471 Y101.434 E0.00684
G1 X147.225 Y101.823 E0.02657
G1 X148.824 Y102.545 E0.05503
G1 X148.620 Y104.209 E0.05255
G1 X148.321 Y105.848 E0.05223
G1 X147.525 Y105.614 E0.02601
G1 X146.180 Y105.270 E0.04353
G1 X145.491 Y105.132 E0.02204
G1 X145.439 Y105.342 E0.00679
G1 X146.630 Y105.692 E0.03891
G1 X148.230 Y106.251 E0.05314
G1 X147.679 Y108.273 E0.06572
G1 X147.194 Y109.755 E0.04889
G1 X146.481 Y111.655 E0.06362
G1 X146.683 Y111.739 E0.00686
G1 X146.948 Y111.155 E0.02011
G1 X147.554 Y109.681 E0.04995
G1 X148.085 Y108.184 E0.04981
G1 X148.631 Y106.406 E0.05832
G1 X150.423 Y107.210 E0.06159
G1 X151.594 Y107.823 E0.04141
G1 X151.137 Y110.345 E0.08037
G1 X150.900 Y112.030 E0.05333
G1 X150.750 Y113.601 E0.04949
G1 X150.670 Y114.054 F10800.000
G1 X152.046 Y114.946
G1 F1200.000
G1 X151.040 Y114.895 E0.03159
G1 X150.044 Y114.742 E0.03159
G1 X149.069 Y114.490 E0.03159
G1 X148.124 Y114.140 E0.03159
G1 X147.336 Y113.753 E0.02751
G1 X146.362 Y113.161 E0.03575
G1 X145.568 Y112.547 E0.03149
G1 X144.838 Y111.852 E0.03159
G1 X144.181 Y111.088 E0.03159
G1 X143.606 Y110.261 E0.03159
G1 X143.117 Y109.380 E0.03159
G1 X142.719 Y108.454 E0.03159
G1 X142.418 Y107.493 E0.03159
G1 X142.215 Y106.506 E0.03159
G1 X142.113 Y105.504 E0.03159
G1 X142.113 Y104.496 E0.03159
G1 X142.215 Y103.494 E0.03159
G1 X142.418 Y102.507 E0.03159
G1 X142.719 Y101.546 E0.03159
G1 X143.117 Y100.620 E0.03159
G1 X143.606 Y99.739 E0.03159
G1 X144.181 Y98.912 E0.03159
G1 X144.838 Y98.148 E0.03159
G1 X145.568 Y97.453 E0.03159
G1 X146.365 Y96.837 E0.03159
G1 X147.220 Y96.304 E0.03159
G1 X148.124 Y95.860 E0.03159
G1 X149.069 Y95.510 E0.03159
G1 X150.044 Y95.258 E0.03159
G1 X151.040 Y95.105 E0.03159
G1 X152.046 Y95.054 E0.03159
G1 X152.923 Y95.098 E0.02751
G1 X154.052 Y95.258 E0.03575
G1 X155.024 Y95.510 E0.03149
G1 X155.969 Y95.860 E0.03159
G1 X156.873 Y96.304 E0.03159
G1 X157.728 Y96.837 E0.03159
G1 X158.525 Y97.453 E0.03159
G1 X159.255 Y98.148 E0.03159
G1 X159.911 Y98.912 E0.03159
G1 X160.487 Y99.739 E0.03159
G1 X160.976 Y100.620 E0.03159
G1 X161.373 Y101.546 E0.03159
G1 X161.675 Y102.507 E0.03159
G1 X161.878 Y103.494 E0.03159
G1 X161.979 Y104.496 E0.03159
G1 X161.979 Y105.504 E0.03159
G1 X161.878 Y106.506 E0.03159
G1 X161.675 Y107.493 E0.03159
G1 X161.373 Y108.454 E0.03159
G1 X160.976 Y109.380 E0.03159
G1 X160.487 Y110.261 E0.03159
G1 X159.911 Y111.088 E0.03159
G1 X159.255 Y111.852 E0.03159
G1 X158.525 Y112.547 E0.03159
G1 X157.728 Y113.163 E0.03159
G1 X156.873 Y113.696 E0.03159
G1 X155.969 Y114.140 E0.03159
G1 X155.024 Y114.490 E0.03159
G1 X154.048 Y114.742 E0.03159
G1 X153.053 Y114.895 E0.03159
G1 X152.106 Y114.943 E0.02971
G1 X152.046 Y115.324 F10800.000
G1 F1200.000
G1 X151.002 Y115.271 E0.03279
G1 X149.968 Y115.112 E0.03279
G1 X148.956 Y114.850 E0.03279
G1 X147.975 Y114.487 E0.03279
G1 X147.155 Y114.085 E0.02864
G1 X146.148 Y113.472 E0.03695
G1 X145.322 Y112.833 E0.03275
G1 X144.564 Y112.113 E0.03279
G1 X143.883 Y111.319 E0.03279
G1 X143.285 Y110.461 E0.03279
G1 X142.778 Y109.546 E0.03279
G1 X142.365 Y108.585 E0.03279
G1 X142.052 Y107.588 E0.03279
G1 X141.842 Y106.563 E0.03279
G1 X141.736 Y105.523 E0.03279
G1 X141.736 Y104.477 E0.03279
G1 X141.842 Y103.437 E0.03279
G1 X142.052 Y102.412 E0.03279
G1 X142.365 Y101.415 E0.03279
G1 X142.778 Y100.454 E0.03279
G1 X143.285 Y99.539 E0.03279
G1 X143.883 Y98.681 E0.03279
G1 X144.564 Y97.887 E0.03279
G1 X145.322 Y97.167 E0.03279
G1 X146.149 Y96.527 E0.03279
G1 X147.036 Y95.974 E0.03279
G1 X147.975 Y95.513 E0.03279
G1 X148.956 Y95.150 E0.03279
G1 X149.968 Y94.888 E0.03279
G1 X151.002 Y94.729 E0.03279
G1 X152.046 Y94.676 E0.03279
G1 X152.959 Y94.723 E0.02864
G1 X154.126 Y94.888 E0.03695
G1 X155.137 Y95.150 E0.03275
G1 X156.117 Y95.513 E0.03279
G1 X157.056 Y95.974 E0.03279
G1 X157.944 Y96.527 E0.03279
G1 X158.771 Y97.167 E0.03279
G1 X159.529 Y97.887 E0.03279
G1 X160.210 Y98.681 E0.03279
G1 X160.807 Y99.539 E0.03279
G1 X161.315 Y100.454 E0.03279
G1 X161.727 Y101.415 E0.03279
G1 X162.040 Y102.412 E0.03279
G1 X162.251 Y103.437 E0.03279
G1 X162.357 Y104.477 E0.03279
G1 X162.357 Y105.523 E0.03279
G1 X162.251 Y106.563 E0.03279
G1 X162.040 Y107.588 E0.03279
G1 X161.727 Y108.585 E0.03279
G1 X161.315 Y109.546 E0.03279
G1 X160.807 Y110.461 E0.03279
G1 X160.210 Y111.319 E0.03279
G1 X159.529 Y112.113 E0.03279
G1 X158.771 Y112.833 E0.03279
G1 X157.944 Y113.473 E0.03279
G1 X157.056 Y114.026 E0.03279
G1 X156.117 Y114.487 E0.03279
G1 X155.137 Y114.850 E0.03279
G1 X154.124 Y115.112 E0.03279
G1 X153.091 Y115.271 E0.03279
G1 X152.106 Y115.320 E0.03091
G1 X151.846 Y114.977 F10800.000
G1 E-0.80000 F2100.00000
G1 Z0.800 F10800.000
G1 X157.712 Y112.718
G1 Z0.200
G1 E0.80000 F2100.00000
G1 F1200.000
G1 X156.670 Y113.331 E0.03708
G1 X156.058 Y113.643 E0.02107
G1 X155.124 Y114.018 E0.03090
G1 X154.133 Y114.299 E0.03161
G1 X153.011 Y114.482 E0.03488
G1 X152.134 Y114.531 E0.02693
G1 X151.413 Y114.502 E0.02213
G1 X151.206 Y114.532 E0.00642
G1 X150.772 Y114.456 E0.01352
G1 X150.343 Y114.415 E0.01322
G1 X150.150 Y114.338 E0.00638
G1 X149.194 Y114.092 E0.03029
G1 X148.656 Y113.904 E0.01747
G1 X148.289 Y113.756 E0.01215
G1 X147.535 Y113.390 E0.02570
G1 X147.041 Y113.103 E0.01755
G1 X146.598 Y112.817 E0.01615
G1 X145.986 Y112.371 E0.02324
G1 X145.139 Y111.566 E0.03585
G1 X144.365 Y110.639 E0.03704
G1 X143.833 Y109.832 E0.02966
G1 X143.491 Y109.196 E0.02214
G1 X143.111 Y108.309 E0.02961
G1 X143.007 Y108.012 E0.00966
G1 X142.748 Y107.081 E0.02966
G1 X142.628 Y106.443 E0.01991
G1 X142.531 Y105.483 E0.02961
G1 X142.500 Y104.516 E0.02967
G1 X142.508 Y104.115 E0.01229
G1 X142.534 Y104.044 E0.00234
G1 X142.560 Y103.972 E0.00258
G1 X142.586 Y103.900 E0.00266
G1 X142.624 Y103.557 E0.01207
G1 X142.792 Y102.722 E0.02969
G1 X143.109 Y101.690 E0.03768
G1 X143.490 Y100.803 E0.03369
G1 X143.949 Y99.953 E0.03371
G1 X144.511 Y99.167 E0.03371
G1 X145.140 Y98.435 E0.03368
G1 X145.839 Y97.770 E0.03368
G1 X146.061 Y97.586 E0.01005
G1 X146.832 Y97.025 E0.03326
G1 X147.422 Y96.668 E0.02406
G1 X148.274 Y96.210 E0.03377
G1 X148.451 Y96.126 E0.00487
G1 X148.604 Y96.092 E0.00389
G1 X148.629 Y96.206 E0.00291
G1 X148.699 Y96.493 E0.00505
G1 X148.878 Y97.225 E0.00559
G1 X148.604 Y96.092 F10800.000
G1 F1200.000
G1 X149.191 Y95.899 E0.01973
G1 X150.128 Y95.665 E0.03085
G1 X151.082 Y95.519 E0.03084
G1 X152.046 Y95.470 E0.03084
G1 X152.883 Y95.512 E0.02676
G1 X153.234 Y95.550 E0.01128
G1 X153.970 Y95.667 E0.02381
G1 X154.899 Y95.908 E0.03066
G1 X155.804 Y96.243 E0.03084
G1 X156.968 Y96.779 E0.04093
G1 E-0.80000 F2100.00000
G1 Z0.800 F10800.000
G1 X161.307 Y102.584
G1 Z0.200
G1 E0.80000 F2100.00000
G1 F1200.000
G1 X160.983 Y101.690 E0.03324
G1 X160.647 Y100.892 E0.03030
G1 X160.132 Y99.950 E0.03753
G1 X159.543 Y99.112 E0.03583
G1 X158.954 Y98.434 E0.03142
G1 X158.253 Y97.770 E0.03376
G1 X157.532 Y97.164 E0.03295
G1 X157.229 Y97.348 F10800.000
G1 F1200.000
G1 X157.075 Y97.194 E0.00742
G1 X157.000 Y97.340 E0.00557
G1 X156.747 Y97.224 E0.00945
G1 X156.652 Y97.348 E0.00530
G1 X157.064 Y97.760 E0.01976
G1 X156.624 Y97.699 F10800.000
G1 F1200.000
G1 X156.365 Y98.000 E0.01780
G1 X156.106 Y98.302 E0.01682
G1 X156.028 Y98.399 E0.00499
G1 X155.793 Y98.710 E0.01482
G1 X155.568 Y99.009 E0.01297
G1 X155.461 Y99.160 E0.00584
G1 X155.354 Y99.312 E0.00535
