; generated by PrusaSlicer 2.3.1+win64 on 2021-06-08 at 19:27:09 UTC

; 

; external perimeters extrusion width = 0.45mm
; perimeters extrusion width = 0.45mm
; infill extrusion width = 0.45mm
; solid infill extrusion width = 0.45mm
; top infill extrusion width = 0.40mm
; first layer extrusion width = 0.42mm

M73 P0 R77
M201 X9000 Y9000 Z500 E10000 ; sets maximum accelerations, mm/sec^2
M203 X500 Y500 Z12 E120 ; sets maximum feedrates, mm/sec
M204 P2000 R1500 T2000 ; sets acceleration (P, T) and retract acceleration (R), mm/sec^2
M205 X10.00 Y10.00 Z0.20 E2.50 ; sets the jerk limits, mm/sec
M205 S0 T0 ; sets the minimum extruding and travel feed rate, mm/sec
M107
;TYPE:Custom
M862.3 P "MK2S" ; printer model check
M862.1 P0.4 ; nozzle diameter check
M115 U3.2.3 ; tell printer latest fw version
G90 ; use absolute coordinates
M83 ; extruder relative mode
M204 S2000 T1500 ; MK2 firmware only supports the old M204 format
M104 S215 ; set extruder temp
M140 S60 ; set bed temp
M190 S60 ; wait for bed temp
M109 S215 ; wait for extruder temp
G28 W ; home all without mesh bed level
G80 ; mesh bed leveling
G1 Y-3.0 F1000.0 ; go outside print area
G92 E0.0
G1 X60.0 E9.0  F1000.0 ; intro line
G1 X100.0 E12.5 F1000.0 ; intro line
G92 E0.0
G21 ; set units to millimeters
G90 ; use absolute coordinates
M83 ; use relative distances for extrusion
M900 K0.05 ; Filament gcode LA 1.5
M900 K30 ; Filament gcode LA 1.0
;LAYER_CHANGE
;Z:0.2
;HEIGHT:0.2
;BEFORE_LAYER_CHANGE
G92 E0.0
;0.2


G1 E-0.80000 F2100.000
G1 Z0.600 F10800.000
;AFTER_LAYER_CHANGE
;0.2
G1 X64.176 Y34.032
G1 Z0.200
G1 E0.80000 F2100.000
M204 S1000
;TYPE:Skirt
;WIDTH:0.42
G1 F1200.000
G1 X64.546 Y33.676 E0.01609
G1 X64.983 Y33.408 E0.01609
G1 X65.472 Y33.239 E0.01621
G1 X65.982 Y33.180 E0.01609
G1 X184.004 Y33.180 E3.70050
G1 X184.592 Y33.254 E0.01858
G1 X185.143 Y33.472 E0.01858
G1 X185.623 Y33.820 E0.01858
G1 X186.000 Y34.272 E0.01846
G1 X204.039 Y63.712 E1.08255
G1 X204.287 Y64.287 E0.01965
G1 X204.377 Y64.903 E0.01953
G1 X204.345 Y145.457 E2.52569
G1 X204.031 Y146.301 E0.02825
G1 X185.825 Y175.967 E1.09133
M73 P0 R76
G1 X185.452 Y176.325 E0.01621
G1 X185.008 Y176.596 E0.01633
G1 X184.518 Y176.763 E0.01621
G1 X184.005 Y176.820 E0.01621
G1 X65.989 Y176.820 E3.70031
G1 X65.183 Y176.676 E0.02567
G1 X64.477 Y176.268 E0.02555
G1 X63.978 Y175.692 E0.02390
G1 X45.965 Y146.295 E1.08100
G1 X45.711 Y145.706 E0.02012
G1 X45.623 Y145.070 E0.02012
G1 X45.655 Y93.921 E1.60375
G1 X63.729 Y34.853 E1.93679
G1 X64.148 Y34.085 E0.02743
; printing object Bracket.STL id:0 copy 37
G1 E-0.80000 F2100.000
G1 Z0.800 F10800.000
G1 X71.349 Y156.005
G1 Z0.200
G1 E0.80000 F2100.000
;TYPE:Perimeter
G1 F1200.000
G1 X71.698 Y156.099 E0.01133
G1 X72.020 Y156.249 E0.01115
G1 X72.311 Y156.453 E0.01115
G1 X72.563 Y156.705 E0.01115
G1 X72.767 Y156.996 E0.01115
G1 X72.902 Y157.285 E0.01000
G1 X73.009 Y157.656 E0.01211
G1 X73.040 Y158.016 E0.01133
G1 X73.009 Y158.370 E0.01115
G1 X72.917 Y158.714 E0.01115
G1 X72.767 Y159.036 E0.01115
G1 X72.563 Y159.327 E0.01115
G1 X72.311 Y159.579 E0.01115
G1 X72.020 Y159.783 E0.01115
G1 X71.698 Y159.933 E0.01115
G1 X71.354 Y160.025 E0.01115
G1 X71.000 Y160.056 E0.01115
G1 X70.646 Y160.025 E0.01115
G1 X70.302 Y159.933 E0.01115
G1 X69.980 Y159.783 E0.01115
G1 X69.689 Y159.579 E0.01115
G1 X69.437 Y159.327 E0.01115
G1 X69.233 Y159.036 E0.01115
G1 X69.083 Y158.714 E0.01115
G1 X68.991 Y158.370 E0.01115
G1 X68.960 Y158.016 E0.01115
G1 X68.991 Y157.662 E0.01115
G1 X69.083 Y157.318 E0.01115
G1 X69.233 Y156.996 E0.01115
G1 X69.437 Y156.705 E0.01115
G1 X69.689 Y156.453 E0.01115
G1 X69.980 Y156.249 E0.01115
G1 X70.302 Y156.099 E0.01115
G1 X70.646 Y156.007 E0.01115
G1 X70.963 Y155.979 E0.01000
G1 X71.289 Y156.001 E0.01023
G1 X71.263 Y156.378 F10800.000
;TYPE:External perimeter
G1 F1200.000
G1 X71.568 Y156.455 E0.00987
G1 X71.831 Y156.577 E0.00908
G1 X72.068 Y156.743 E0.00908
G1 X72.273 Y156.948 E0.00908
G1 X72.439 Y157.185 E0.00908
G1 X72.547 Y157.418 E0.00804
G1 X72.636 Y157.725 E0.01004
G1 X72.662 Y158.016 E0.00914
G1 X72.636 Y158.305 E0.00908
G1 X72.561 Y158.584 E0.00908
G1 X72.439 Y158.847 E0.00908
G1 X72.273 Y159.084 E0.00908
G1 X72.068 Y159.289 E0.00908
G1 X71.831 Y159.455 E0.00908
G1 X71.568 Y159.577 E0.00908
G1 X71.289 Y159.652 E0.00908
G1 X71.000 Y159.678 E0.00908
G1 X70.711 Y159.652 E0.00908
G1 X70.432 Y159.577 E0.00908
G1 X70.169 Y159.455 E0.00908
G1 X69.932 Y159.289 E0.00908
G1 X69.727 Y159.084 E0.00908
G1 X69.561 Y158.847 E0.00908
G1 X69.439 Y158.584 E0.00908
G1 X69.364 Y158.305 E0.00908
G1 X69.338 Y158.016 E0.00908
G1 X69.364 Y157.727 E0.00908
G1 X69.439 Y157.448 E0.00908
G1 X69.561 Y157.185 E0.00908
G1 X69.727 Y156.948 E0.00908
G1 X69.932 Y156.743 E0.00908
G1 X70.169 Y156.577 E0.00908
G1 X70.432 Y156.455 E0.00908
G1 X70.711 Y156.380 E0.00908
G1 X70.967 Y156.357 E0.00804
G1 X71.203 Y156.373 E0.00743
G1 X71.463 Y156.134 F10800.000
G1 X75.213 Y153.853
;TYPE:Perimeter
G1 F1200.000
G1 X75.213 Y173.656 E0.62092
G1 X66.787 Y173.656 E0.26419
G1 X66.787 Y153.853 E0.62092
G1 X75.153 Y153.853 E0.26231
G1 X75.590 Y153.476 F10800.000
;TYPE:External perimeter
G1 F1200.000
G1 X75.590 Y174.033 E0.64456
G1 X66.410 Y174.033 E0.28783
G1 X66.410 Y153.476 E0.64456
G1 X75.530 Y153.476 E0.28595
G1 X75.534 Y153.872 F10800.000
G1 X74.334 Y153.966
;TYPE:Solid infill
;WIDTH:0.421657
G1 F1200.000
G1 X74.930 Y154.562 E0.02655
G1 X74.930 Y155.098 E0.01687
G1 X73.968 Y154.136 E0.04285
G1 X73.432 Y154.136 E0.01687
G1 X74.930 Y155.634 E0.06670
G1 X74.930 Y156.169 E0.01687
G1 X72.897 Y154.136 E0.09055
G1 X72.361 Y154.136 E0.01687
G1 X74.930 Y156.705 E0.11441
G1 X74.930 Y157.240 E0.01687
G1 X71.826 Y154.136 E0.13826
G1 X71.290 Y154.136 E0.01687
G1 X74.930 Y157.776 E0.16212
G1 X74.930 Y158.312 E0.01687
G1 X70.754 Y154.136 E0.18597
G1 X70.219 Y154.136 E0.01687
G1 X74.930 Y158.847 E0.20983
G1 X74.930 Y159.383 E0.01687
G1 X73.301 Y157.754 E0.07255
G1 X73.324 Y158.016 E0.00829
G1 X73.300 Y158.288 E0.00861
G1 X74.930 Y159.918 E0.07259
G1 X74.930 Y160.454 E0.01687
G1 X73.206 Y158.730 E0.07680
G1 X73.046 Y159.106 E0.01287
G1 X74.930 Y160.990 E0.08390
G1 X74.930 Y161.525 E0.01687
G1 X72.836 Y159.431 E0.09328
G1 X72.780 Y159.510 E0.00304
G1 X72.580 Y159.710 E0.00893
G1 X74.930 Y162.061 E0.10468
G1 X74.930 Y162.597 E0.01687
G1 X72.280 Y159.946 E0.11804
G1 X72.162 Y160.029 E0.00453
G1 X71.933 Y160.135 E0.00795
G1 X74.930 Y163.132 E0.13347
G1 X74.930 Y163.668 E0.01687
G1 X71.532 Y160.270 E0.15132
G1 X71.404 Y160.305 E0.00420
G1 X71.061 Y160.335 E0.01082
G1 X75.100 Y164.373 E0.17986
M73 P1 R76
G1 E-0.80000 F2100.000
G1 Z0.800 F10800.000
G1 X71.467 Y155.920
G1 Z0.200
G1 E0.80000 F2100.000
G1 F1200.000
G1 X69.683 Y154.136 E0.07946
G1 X69.148 Y154.136 E0.01687
G1 X70.728 Y155.716 E0.07037
G1 X70.596 Y155.727 E0.00414
G1 X70.286 Y155.810 E0.01011
G1 X68.612 Y154.136 E0.07458
G1 X68.076 Y154.136 E0.01687
G1 X69.910 Y155.970 E0.08167
G1 X69.585 Y156.180 E0.01220
G1 X67.541 Y154.136 E0.09106
G1 X67.070 Y154.136 E0.01483
G1 X67.070 Y154.201 E0.00204
G1 X69.306 Y156.436 E0.09957
G1 X69.220 Y156.522 E0.00382
G1 X69.070 Y156.736 E0.00823
G1 X67.070 Y154.736 E0.08907
G1 X67.070 Y155.272 E0.01687
G1 X68.881 Y157.083 E0.08065
G1 X68.816 Y157.221 E0.00481
G1 X68.746 Y157.484 E0.00855
G1 X67.070 Y155.808 E0.07464
G1 X67.070 Y156.343 E0.01687
G1 X68.856 Y158.130 E0.07956
G1 X66.900 Y156.709 F10800.000
G1 F1200.000
G1 X68.748 Y158.557 E0.08230
G1 X68.816 Y158.811 E0.00827
G1 X68.987 Y159.178 E0.01276
G1 X69.220 Y159.510 E0.01276
G1 X69.506 Y159.796 E0.01276
G1 X69.838 Y160.029 E0.01276
G1 X70.205 Y160.200 E0.01276
G1 X70.459 Y160.268 E0.00827
G1 X74.930 Y164.739 E0.19913
G1 X74.930 Y165.275 E0.01687
G1 X67.070 Y157.414 E0.35007
G1 X67.070 Y157.950 E0.01687
G1 X74.930 Y165.810 E0.35007
G1 X74.930 Y166.346 E0.01687
G1 X67.070 Y158.486 E0.35007
G1 X67.070 Y159.021 E0.01687
G1 X74.930 Y166.881 E0.35007
G1 X74.930 Y167.417 E0.01687
G1 X67.070 Y159.557 E0.35007
G1 X67.070 Y160.092 E0.01687
G1 X74.930 Y167.953 E0.35007
G1 X74.930 Y168.488 E0.01687
G1 X67.070 Y160.628 E0.35007
G1 X67.070 Y161.164 E0.01687
G1 X74.930 Y169.024 E0.35007
G1 X74.930 Y169.560 E0.01687
G1 X67.070 Y161.699 E0.35007
G1 X67.070 Y162.235 E0.01687
G1 X74.930 Y170.095 E0.35007
G1 X74.930 Y170.631 E0.01687
G1 X67.070 Y162.771 E0.35007
G1 X67.070 Y163.306 E0.01687
G1 X74.930 Y171.166 E0.35007
G1 X74.930 Y171.702 E0.01687
G1 X67.070 Y163.842 E0.35007
G1 X67.070 Y164.377 E0.01687
G1 X74.930 Y172.238 E0.35007
G1 X74.930 Y172.773 E0.01687
G1 X67.070 Y164.913 E0.35007
G1 X67.070 Y165.449 E0.01687
G1 X74.930 Y173.309 E0.35007
G1 X74.930 Y173.373 E0.00204
G1 X74.459 Y173.373 E0.01483
G1 X67.070 Y165.984 E0.32909
G1 X67.070 Y166.520 E0.01687
G1 X73.924 Y173.373 E0.30524
G1 X73.388 Y173.373 E0.01687
G1 X67.070 Y167.055 E0.28138
G1 X67.070 Y167.591 E0.01687
G1 X72.852 Y173.373 E0.25753
G1 X72.317 Y173.373 E0.01687
G1 X67.070 Y168.127 E0.23368
G1 X67.070 Y168.662 E0.01687
G1 X71.781 Y173.373 E0.20982
G1 X71.245 Y173.373 E0.01687
G1 X67.070 Y169.198 E0.18597
G1 X67.070 Y169.734 E0.01687
G1 X70.710 Y173.373 E0.16211
G1 X70.174 Y173.373 E0.01687
G1 X67.070 Y170.269 E0.13826
G1 X67.070 Y170.805 E0.01687
G1 X69.639 Y173.373 E0.11440
G1 X69.103 Y173.373 E0.01687
G1 X67.070 Y171.340 E0.09055
G1 X67.070 Y171.876 E0.01687
G1 X68.567 Y173.373 E0.06669
G1 X68.032 Y173.373 E0.01687
G1 X67.070 Y172.412 E0.04284
G1 X67.070 Y172.947 E0.01687
G1 X67.666 Y173.543 E0.02654
; stop printing object Bracket.STL id:0 copy 37
; printing object Bracket.STL id:0 copy 30
G1 E-0.80000 F2100.000
G1 Z0.800 F10800.000
G1 X87.437 Y159.327
G1 Z0.200
G1 E0.80000 F2100.000
;TYPE:Perimeter
;WIDTH:0.42
G1 F1200.000
G1 X87.233 Y159.036 E0.01115
G1 X87.083 Y158.714 E0.01115
G1 X86.991 Y158.370 E0.01115
G1 X86.960 Y158.016 E0.01115
G1 X86.991 Y157.662 E0.01115
G1 X87.083 Y157.318 E0.01115
G1 X87.233 Y156.996 E0.01115
G1 X87.437 Y156.705 E0.01115
G1 X87.689 Y156.453 E0.01115
G1 X87.980 Y156.249 E0.01115
G1 X88.302 Y156.099 E0.01115
G1 X88.646 Y156.007 E0.01115
G1 X88.963 Y155.979 E0.01000
G1 X89.349 Y156.005 E0.01211
G1 X89.698 Y156.099 E0.01133
G1 X90.020 Y156.249 E0.01115
G1 X90.311 Y156.453 E0.01115
G1 X90.563 Y156.705 E0.01115
G1 X90.767 Y156.996 E0.01115
G1 X90.902 Y157.285 E0.01000
G1 X91.009 Y157.656 E0.01211
G1 X91.040 Y158.016 E0.01133
G1 X91.009 Y158.370 E0.01115
G1 X90.917 Y158.714 E0.01115
G1 X90.767 Y159.036 E0.01115
G1 X90.563 Y159.327 E0.01115
G1 X90.311 Y159.579 E0.01115
G1 X90.020 Y159.783 E0.01115
G1 X89.698 Y159.933 E0.01115
G1 X89.354 Y160.025 E0.01115
G1 X89.000 Y160.056 E0.01115
G1 X88.646 Y160.025 E0.01115
G1 X88.302 Y159.933 E0.01115
G1 X87.980 Y159.783 E0.01115
G1 X87.689 Y159.579 E0.01115
G1 X87.480 Y159.370 E0.00927
G1 X87.746 Y159.103 F10800.000
;TYPE:External perimeter
G1 F1200.000
G1 X87.561 Y158.847 E0.00992
G1 X87.439 Y158.584 E0.00908
G1 X87.364 Y158.305 E0.00908
G1 X87.338 Y158.016 E0.00908
G1 X87.364 Y157.727 E0.00908
G1 X87.439 Y157.448 E0.00908
G1 X87.561 Y157.185 E0.00908
G1 X87.727 Y156.948 E0.00908
G1 X87.932 Y156.743 E0.00908
G1 X88.169 Y156.577 E0.00908
G1 X88.432 Y156.455 E0.00908
G1 X88.711 Y156.380 E0.00908
G1 X88.967 Y156.357 E0.00804
G1 X89.287 Y156.379 E0.01004
G1 X89.568 Y156.455 E0.00914
G1 X89.831 Y156.577 E0.00908
G1 X90.068 Y156.743 E0.00908
G1 X90.273 Y156.948 E0.00908
G1 X90.439 Y157.185 E0.00908
G1 X90.547 Y157.418 E0.00804
G1 X90.636 Y157.725 E0.01004
G1 X90.662 Y158.016 E0.00914
G1 X90.636 Y158.305 E0.00908
G1 X90.561 Y158.584 E0.00908
G1 X90.439 Y158.847 E0.00908
G1 X90.273 Y159.084 E0.00908
G1 X90.068 Y159.289 E0.00908
G1 X89.831 Y159.455 E0.00908
G1 X89.568 Y159.577 E0.00908
G1 X89.289 Y159.652 E0.00908
G1 X89.000 Y159.678 E0.00908
G1 X88.711 Y159.652 E0.00908
G1 X88.432 Y159.577 E0.00908
G1 X88.169 Y159.455 E0.00908
G1 X87.932 Y159.289 E0.00908
G1 X87.789 Y159.146 E0.00635
G1 X87.435 Y159.162 F10800.000
G1 E-0.80000 F2100.000
G1 Z0.800 F10800.000
G1 X84.787 Y153.853
G1 Z0.200
G1 E0.80000 F2100.000
;TYPE:Perimeter
G1 F1200.000
G1 X93.213 Y153.853 E0.26419
G1 X93.213 Y173.656 E0.62092
G1 X84.787 Y173.656 E0.26419
G1 X84.787 Y153.913 E0.61903
G1 X84.410 Y153.476 F10800.000
;TYPE:External perimeter
G1 F1200.000
G1 X93.590 Y153.476 E0.28783
G1 X93.590 Y174.033 E0.64456
G1 X84.410 Y174.033 E0.28783
G1 X84.410 Y153.536 E0.64268
G1 X84.781 Y153.626 F10800.000
G1 E-0.80000 F2100.000
G1 Z0.800 F10800.000
G1 X92.334 Y153.966
G1 Z0.200
G1 E0.80000 F2100.000
;TYPE:Solid infill
;WIDTH:0.421657
G1 F1200.000
G1 X92.930 Y154.562 E0.02655
G1 X92.930 Y155.098 E0.01687
G1 X91.968 Y154.136 E0.04285
G1 X91.432 Y154.136 E0.01687
G1 X92.930 Y155.634 E0.06670
G1 X92.930 Y156.169 E0.01687
G1 X90.897 Y154.136 E0.09055
G1 X90.361 Y154.136 E0.01687
G1 X92.930 Y156.705 E0.11441
G1 X92.930 Y157.240 E0.01687
G1 X89.826 Y154.136 E0.13826
G1 X89.290 Y154.136 E0.01687
G1 X92.930 Y157.776 E0.16212
G1 X92.930 Y158.312 E0.01687
G1 X88.754 Y154.136 E0.18597
G1 X88.219 Y154.136 E0.01687
G1 X92.930 Y158.847 E0.20983
G1 X92.930 Y159.383 E0.01687
G1 X91.301 Y157.754 E0.07255
G1 X91.324 Y158.016 E0.00829
G1 X91.300 Y158.288 E0.00861
G1 X92.930 Y159.918 E0.07259
G1 X92.930 Y160.454 E0.01687
G1 X91.206 Y158.730 E0.07680
G1 X91.046 Y159.106 E0.01287
G1 X92.930 Y160.990 E0.08390
G1 X92.930 Y161.525 E0.01687
G1 X90.836 Y159.431 E0.09328
G1 X90.780 Y159.510 E0.00304
G1 X90.580 Y159.710 E0.00893
G1 X92.930 Y162.061 E0.10468
G1 X92.930 Y162.597 E0.01687
G1 X90.280 Y159.946 E0.11804
G1 X90.162 Y160.029 E0.00453
G1 X89.933 Y160.135 E0.00795
G1 X92.930 Y163.132 E0.13347
G1 X92.930 Y163.668 E0.01687
G1 X89.532 Y160.270 E0.15132
G1 X89.404 Y160.305 E0.00420
G1 X89.061 Y160.335 E0.01082
G1 X93.100 Y164.373 E0.17986
G1 E-0.80000 F2100.000
G1 Z0.800 F10800.000
G1 X89.467 Y155.920
G1 Z0.200
G1 E0.80000 F2100.000
G1 F1200.000
G1 X87.683 Y154.136 E0.07946
G1 X87.148 Y154.136 E0.01687
G1 X88.728 Y155.716 E0.07037
G1 X88.596 Y155.727 E0.00414
G1 X88.286 Y155.810 E0.01011
G1 X86.612 Y154.136 E0.07458
G1 X86.076 Y154.136 E0.01687
G1 X87.910 Y155.970 E0.08167
G1 X87.585 Y156.180 E0.01220
G1 X85.541 Y154.136 E0.09106
G1 X85.070 Y154.136 E0.01483
G1 X85.070 Y154.201 E0.00204
G1 X87.306 Y156.436 E0.09957
G1 X87.220 Y156.522 E0.00382
G1 X87.070 Y156.736 E0.00823
G1 X85.070 Y154.736 E0.08907
G1 X85.070 Y155.272 E0.01687
G1 X86.881 Y157.083 E0.08065
G1 X86.816 Y157.221 E0.00481
G1 X86.746 Y157.484 E0.00855
G1 X85.070 Y155.808 E0.07464
G1 X85.070 Y156.343 E0.01687
G1 X86.856 Y158.130 E0.07956
G1 X84.900 Y156.709 F10800.000
G1 F1200.000
G1 X86.748 Y158.557 E0.08230
G1 X86.816 Y158.811 E0.00827
G1 X86.987 Y159.178 E0.01276
G1 X87.220 Y159.510 E0.01276
G1 X87.506 Y159.796 E0.01276
G1 X87.838 Y160.029 E0.01276
G1 X88.205 Y160.200 E0.01276
G1 X88.459 Y160.268 E0.00827
G1 X92.930 Y164.739 E0.19913
G1 X92.930 Y165.275 E0.01687
G1 X85.070 Y157.414 E0.35007
G1 X85.070 Y157.950 E0.01687
G1 X92.930 Y165.810 E0.35007
G1 X92.930 Y166.346 E0.01687
G1 X85.070 Y158.486 E0.35007
G1 X85.070 Y159.021 E0.01687
G1 X92.930 Y166.881 E0.35007
M73 P1 R75
G1 X92.930 Y167.417 E0.01687
G1 X85.070 Y159.557 E0.35007
G1 X85.070 Y160.092 E0.01687
G1 X92.930 Y167.953 E0.35007
G1 X92.930 Y168.488 E0.01687
G1 X85.070 Y160.628 E0.35007
G1 X85.070 Y161.164 E0.01687
G1 X92.930 Y169.024 E0.35007
G1 X92.930 Y169.560 E0.01687
G1 X85.070 Y161.699 E0.35007
G1 X85.070 Y162.235 E0.01687
G1 X92.930 Y170.095 E0.35007
G1 X92.930 Y170.631 E0.01687
G1 X85.070 Y162.771 E0.35007
G1 X85.070 Y163.306 E0.01687
G1 X92.930 Y171.166 E0.35007
G1 X92.930 Y171.702 E0.01687
G1 X85.070 Y163.842 E0.35007
G1 X85.070 Y164.377 E0.01687
G1 X92.930 Y172.238 E0.35007
G1 X92.930 Y172.773 E0.01687
G1 X85.070 Y164.913 E0.35007
G1 X85.070 Y165.449 E0.01687
G1 X92.930 Y173.309 E0.35007
G1 X92.930 Y173.373 E0.00204
G1 X92.459 Y173.373 E0.01483
G1 X85.070 Y165.984 E0.32909
G1 X85.070 Y166.520 E0.01687
G1 X91.924 Y173.373 E0.30524
G1 X91.388 Y173.373 E0.01687
G1 X85.070 Y167.055 E0.28138
G1 X85.070 Y167.591 E0.01687
G1 X90.852 Y173.373 E0.25753
G1 X90.317 Y173.373 E0.01687
G1 X85.070 Y168.127 E0.23368
G1 X85.070 Y168.662 E0.01687
G1 X89.781 Y173.373 E0.20982
G1 X89.245 Y173.373 E0.01687
