; generated by PrusaSlicer 2.3.1+win64 on 2021-06-08 at 19:26:30 UTC

; 

; external perimeters extrusion width = 0.45mm
; perimeters extrusion width = 0.45mm
; infill extrusion width = 0.45mm
; solid infill extrusion width = 0.45mm
; top infill extrusion width = 0.40mm
; first layer extrusion width = 0.42mm

M73 P0 R39
M201 X9000 Y9000 Z500 E10000 ; sets maximum accelerations, mm/sec^2
M203 X500 Y500 Z12 E120 ; sets maximum feedrates, mm/sec
M204 P2000 R1500 T2000 ; sets acceleration (P, T) and retract acceleration (R), mm/sec^2
M205 X10.00 Y10.00 Z0.20 E2.50 ; sets the jerk limits, mm/sec
M205 S0 T0 ; sets the minimum extruding and travel feed rate, mm/sec
M107
;TYPE:Custom
M862.3 P "MK2S" ; printer model check
M862.1 P0.4 ; nozzle diameter check
M115 U3.2.3 ; tell printer latest fw version
G90 ; use absolute coordinates
M83 ; extruder relative mode
M204 S2000 T1500 ; MK2 firmware only supports the old M204 format
M104 S215 ; set extruder temp
M140 S60 ; set bed temp
M190 S60 ; wait for bed temp
M109 S215 ; wait for extruder temp
G28 W ; home all without mesh bed level
G80 ; mesh bed leveling
G1 Y-3.0 F1000.0 ; go outside print area
G92 E0.0
G1 X60.0 E9.0  F1000.0 ; intro line
G1 X100.0 E12.5 F1000.0 ; intro line
G92 E0.0
G21 ; set units to millimeters
G90 ; use absolute coordinates
M83 ; use relative distances for extrusion
M900 K0.05 ; Filament gcode LA 1.5
M900 K30 ; Filament gcode LA 1.0
;LAYER_CHANGE
;Z:0.2
;HEIGHT:0.2
;BEFORE_LAYER_CHANGE
G92 E0.0
;0.2


G1 E-0.80000 F2100.000
G1 Z0.600 F10800.000
;AFTER_LAYER_CHANGE
;0.2
G1 X72.936 Y78.443
G1 Z0.200
G1 E0.80000 F2100.000
M204 S1000
;TYPE:Skirt
;WIDTH:0.42
G1 F1200.000
G1 X73.497 Y77.781 E0.02721
G1 X109.503 Y48.399 E1.45713
M73 P0 R38
G1 X110.186 Y48.012 E0.02461
G1 X110.992 Y47.868 E0.02567
G1 X157.004 Y47.868 E1.44267
G1 X157.588 Y47.942 E0.01846
G1 X158.136 Y48.157 E0.01846
G1 X158.615 Y48.501 E0.01846
G1 X158.994 Y48.951 E0.01846
G1 X177.033 Y78.391 E1.08255
G1 X177.340 Y79.206 E0.02731
G1 X177.377 Y159.762 E2.52580
G1 X177.296 Y160.369 E0.01917
G1 X177.064 Y160.934 E0.01917
G1 X176.692 Y161.424 E0.01929
G1 X176.203 Y161.805 E0.01941
G1 X175.633 Y162.046 E0.01941
G1 X175.024 Y162.132 E0.01929
G1 X92.992 Y162.132 E2.57204
G1 X92.386 Y162.051 E0.01917
G1 X91.821 Y161.819 E0.01917
G1 X91.349 Y161.465 E0.01846
G1 X90.980 Y161.007 E0.01846
G1 X72.969 Y131.613 E1.08088
M73 P1 R38
G1 X72.682 Y130.903 E0.02402
G1 X72.623 Y130.381 E0.01645
G1 X72.623 Y79.611 E1.59186
G1 X72.704 Y79.009 E0.01906
G1 X72.913 Y78.499 E0.01729
; printing object Bracket.STL id:0 copy 16
G1 E-0.80000 F2100.000
G1 Z0.800 F10800.000
G1 X150.083 Y55.893
G1 Z0.200
G1 E0.80000 F2100.000
;TYPE:Perimeter
G1 F1200.000
G1 X149.991 Y55.550 E0.01115
G1 X149.960 Y55.195 E0.01115
G1 X149.991 Y54.841 E0.01115
G1 X150.083 Y54.498 E0.01115
G1 X150.233 Y54.175 E0.01115
G1 X150.437 Y53.884 E0.01115
G1 X150.689 Y53.633 E0.01115
G1 X150.980 Y53.429 E0.01115
G1 X151.302 Y53.278 E0.01115
G1 X151.646 Y53.186 E0.01115
G1 X151.963 Y53.158 E0.01000
G1 X152.349 Y53.185 E0.01211
G1 X152.698 Y53.278 E0.01133
G1 X153.020 Y53.429 E0.01115
G1 X153.311 Y53.633 E0.01115
G1 X153.563 Y53.884 E0.01115
G1 X153.767 Y54.175 E0.01115
G1 X153.902 Y54.464 E0.01000
G1 X154.009 Y54.835 E0.01211
G1 X154.040 Y55.195 E0.01133
G1 X154.009 Y55.550 E0.01115
G1 X153.917 Y55.893 E0.01115
G1 X153.767 Y56.215 E0.01115
G1 X153.563 Y56.507 E0.01115
G1 X153.311 Y56.758 E0.01115
G1 X153.020 Y56.962 E0.01115
G1 X152.698 Y57.112 E0.01115
G1 X152.354 Y57.204 E0.01115
G1 X152.000 Y57.235 E0.01115
G1 X151.646 Y57.204 E0.01115
G1 X151.302 Y57.112 E0.01115
G1 X150.980 Y56.962 E0.01115
G1 X150.689 Y56.758 E0.01115
G1 X150.437 Y56.507 E0.01115
G1 X150.233 Y56.215 E0.01115
G1 X150.108 Y55.947 E0.00927
G1 X150.450 Y55.788 F10800.000
;TYPE:External perimeter
G1 F1200.000
G1 X150.364 Y55.484 E0.00992
G1 X150.338 Y55.195 E0.00908
G1 X150.364 Y54.907 E0.00908
G1 X150.439 Y54.627 E0.00908
G1 X150.561 Y54.365 E0.00908
G1 X150.727 Y54.127 E0.00908
G1 X150.932 Y53.922 E0.00908
G1 X151.169 Y53.756 E0.00908
G1 X151.432 Y53.634 E0.00908
G1 X151.711 Y53.559 E0.00908
G1 X151.967 Y53.537 E0.00804
G1 X152.287 Y53.558 E0.01004
G1 X152.568 Y53.634 E0.00914
G1 X152.831 Y53.756 E0.00908
G1 X153.068 Y53.922 E0.00908
G1 X153.273 Y54.127 E0.00908
G1 X153.439 Y54.365 E0.00908
G1 X153.547 Y54.597 E0.00804
G1 X153.636 Y54.905 E0.01004
G1 X153.662 Y55.195 E0.00914
G1 X153.636 Y55.484 E0.00908
G1 X153.561 Y55.764 E0.00908
G1 X153.439 Y56.026 E0.00908
G1 X153.273 Y56.263 E0.00908
G1 X153.068 Y56.468 E0.00908
G1 X152.831 Y56.634 E0.00908
G1 X152.568 Y56.757 E0.00908
G1 X152.289 Y56.832 E0.00908
G1 X152.000 Y56.857 E0.00908
G1 X151.711 Y56.832 E0.00908
G1 X151.432 Y56.757 E0.00908
G1 X151.169 Y56.634 E0.00908
G1 X150.932 Y56.468 E0.00908
G1 X150.727 Y56.263 E0.00908
G1 X150.561 Y56.026 E0.00908
G1 X150.475 Y55.842 E0.00635
G1 X150.138 Y55.737 F10800.000
G1 E-0.80000 F2100.000
G1 Z0.800 F10800.000
G1 X147.787 Y51.032
G1 Z0.200
G1 E0.80000 F2100.000
;TYPE:Perimeter
G1 F1200.000
G1 X156.213 Y51.032 E0.26419
G1 X156.213 Y70.836 E0.62092
G1 X147.787 Y70.836 E0.26419
G1 X147.787 Y51.092 E0.61903
G1 X147.410 Y50.655 F10800.000
;TYPE:External perimeter
G1 F1200.000
G1 X156.590 Y50.655 E0.28783
G1 X156.590 Y71.213 E0.64456
G1 X147.410 Y71.213 E0.28783
G1 X147.410 Y50.715 E0.64268
G1 X147.781 Y50.805 F10800.000
G1 E-0.80000 F2100.000
G1 Z0.800 F10800.000
G1 X155.334 Y51.145
G1 Z0.200
G1 E0.80000 F2100.000
;TYPE:Solid infill
;WIDTH:0.421657
G1 F1200.000
G1 X155.930 Y51.742 E0.02655
G1 X155.930 Y52.277 E0.01687
G1 X154.968 Y51.315 E0.04285
G1 X154.432 Y51.315 E0.01687
G1 X155.930 Y52.813 E0.06670
G1 X155.930 Y53.348 E0.01687
G1 X153.897 Y51.315 E0.09055
G1 X153.361 Y51.315 E0.01687
G1 X155.930 Y53.884 E0.11441
G1 X155.930 Y54.420 E0.01687
G1 X152.826 Y51.315 E0.13826
G1 X152.290 Y51.315 E0.01687
G1 X155.930 Y54.955 E0.16212
G1 X155.930 Y55.491 E0.01687
G1 X151.754 Y51.315 E0.18597
G1 X151.219 Y51.315 E0.01687
G1 X155.930 Y56.027 E0.20983
G1 X155.930 Y56.562 E0.01687
G1 X154.301 Y54.933 E0.07255
G1 X154.324 Y55.195 E0.00829
G1 X154.300 Y55.468 E0.00861
G1 X155.930 Y57.098 E0.07259
G1 X155.930 Y57.633 E0.01687
G1 X154.206 Y55.909 E0.07680
G1 X154.046 Y56.285 E0.01287
G1 X155.930 Y58.169 E0.08390
G1 X155.930 Y58.705 E0.01687
G1 X153.836 Y56.610 E0.09328
G1 X153.780 Y56.689 E0.00304
G1 X153.580 Y56.890 E0.00893
G1 X155.930 Y59.240 E0.10468
G1 X155.930 Y59.776 E0.01687
G1 X153.280 Y57.125 E0.11804
G1 X153.162 Y57.208 E0.00453
G1 X152.933 Y57.315 E0.00795
G1 X155.930 Y60.311 E0.13347
G1 X155.930 Y60.847 E0.01687
G1 X152.532 Y57.449 E0.15132
G1 X152.404 Y57.484 E0.00420
G1 X152.061 Y57.514 E0.01082
G1 X156.100 Y61.552 E0.17986
G1 E-0.80000 F2100.000
G1 Z0.800 F10800.000
G1 X152.467 Y53.099
G1 Z0.200
G1 E0.80000 F2100.000
G1 F1200.000
G1 X150.683 Y51.315 E0.07946
G1 X150.148 Y51.315 E0.01687
G1 X151.728 Y52.895 E0.07037
G1 X151.596 Y52.907 E0.00414
G1 X151.286 Y52.990 E0.01011
G1 X149.612 Y51.315 E0.07458
G1 X149.076 Y51.315 E0.01687
G1 X150.910 Y53.149 E0.08167
G1 X150.585 Y53.360 E0.01220
G1 X148.541 Y51.315 E0.09106
G1 X148.070 Y51.315 E0.01483
G1 X148.070 Y51.380 E0.00204
G1 X150.306 Y53.616 E0.09957
G1 X150.220 Y53.701 E0.00382
G1 X150.070 Y53.916 E0.00823
G1 X148.070 Y51.916 E0.08907
G1 X148.070 Y52.451 E0.01687
G1 X149.881 Y54.262 E0.08065
G1 X149.816 Y54.400 E0.00481
G1 X149.746 Y54.663 E0.00855
G1 X148.070 Y52.987 E0.07464
G1 X148.070 Y53.522 E0.01687
G1 X149.856 Y55.309 E0.07956
G1 X147.900 Y53.888 F10800.000
G1 F1200.000
G1 X149.748 Y55.736 E0.08230
G1 X149.816 Y55.990 E0.00827
G1 X149.987 Y56.357 E0.01276
G1 X150.220 Y56.689 E0.01276
G1 X150.506 Y56.976 E0.01276
G1 X150.838 Y57.208 E0.01276
G1 X151.205 Y57.379 E0.01276
G1 X151.459 Y57.447 E0.00827
G1 X155.930 Y61.918 E0.19913
G1 X155.930 Y62.454 E0.01687
G1 X148.070 Y54.594 E0.35007
G1 X148.070 Y55.129 E0.01687
G1 X155.930 Y62.990 E0.35007
G1 X155.930 Y63.525 E0.01687
G1 X148.070 Y55.665 E0.35007
G1 X148.070 Y56.200 E0.01687
G1 X155.930 Y64.061 E0.35007
G1 X155.930 Y64.596 E0.01687
G1 X148.070 Y56.736 E0.35007
G1 X148.070 Y57.272 E0.01687
G1 X155.930 Y65.132 E0.35007
G1 X155.930 Y65.668 E0.01687
G1 X148.070 Y57.807 E0.35007
G1 X148.070 Y58.343 E0.01687
G1 X155.930 Y66.203 E0.35007
M73 P2 R38
G1 X155.930 Y66.739 E0.01687
G1 X148.070 Y58.879 E0.35007
G1 X148.070 Y59.414 E0.01687
G1 X155.930 Y67.274 E0.35007
G1 X155.930 Y67.810 E0.01687
G1 X148.070 Y59.950 E0.35007
G1 X148.070 Y60.485 E0.01687
G1 X155.930 Y68.346 E0.35007
G1 X155.930 Y68.881 E0.01687
G1 X148.070 Y61.021 E0.35007
G1 X148.070 Y61.557 E0.01687
G1 X155.930 Y69.417 E0.35007
G1 X155.930 Y69.953 E0.01687
G1 X148.070 Y62.092 E0.35007
G1 X148.070 Y62.628 E0.01687
G1 X155.930 Y70.488 E0.35007
G1 X155.930 Y70.553 E0.00204
G1 X155.459 Y70.553 E0.01483
G1 X148.070 Y63.163 E0.32909
G1 X148.070 Y63.699 E0.01687
G1 X154.924 Y70.553 E0.30524
G1 X154.388 Y70.553 E0.01687
G1 X148.070 Y64.235 E0.28138
G1 X148.070 Y64.770 E0.01687
G1 X153.852 Y70.553 E0.25753
G1 X153.317 Y70.553 E0.01687
G1 X148.070 Y65.306 E0.23368
G1 X148.070 Y65.842 E0.01687
G1 X152.781 Y70.553 E0.20982
G1 X152.245 Y70.553 E0.01687
G1 X148.070 Y66.377 E0.18597
G1 X148.070 Y66.913 E0.01687
G1 X151.710 Y70.553 E0.16211
G1 X151.174 Y70.553 E0.01687
G1 X148.070 Y67.448 E0.13826
G1 X148.070 Y67.984 E0.01687
G1 X150.639 Y70.553 E0.11440
G1 X150.103 Y70.553 E0.01687
G1 X148.070 Y68.520 E0.09055
G1 X148.070 Y69.055 E0.01687
G1 X149.567 Y70.553 E0.06669
G1 X149.032 Y70.553 E0.01687
G1 X148.070 Y69.591 E0.04284
G1 X148.070 Y70.126 E0.01687
G1 X148.666 Y70.722 E0.02654
; stop printing object Bracket.STL id:0 copy 16
; printing object Bracket.STL id:0 copy 15
G1 E-0.80000 F2100.000
G1 Z0.800 F10800.000
G1 X135.311 Y56.758
G1 Z0.200
G1 E0.80000 F2100.000
;TYPE:Perimeter
;WIDTH:0.42
G1 F1200.000
G1 X135.020 Y56.962 E0.01115
G1 X134.698 Y57.112 E0.01115
G1 X134.354 Y57.204 E0.01115
G1 X134.000 Y57.235 E0.01115
G1 X133.646 Y57.204 E0.01115
G1 X133.302 Y57.112 E0.01115
G1 X132.980 Y56.962 E0.01115
G1 X132.689 Y56.758 E0.01115
G1 X132.437 Y56.507 E0.01115
G1 X132.233 Y56.215 E0.01115
G1 X132.083 Y55.893 E0.01115
G1 X131.991 Y55.550 E0.01115
G1 X131.960 Y55.195 E0.01115
G1 X131.991 Y54.841 E0.01115
G1 X132.083 Y54.498 E0.01115
G1 X132.233 Y54.175 E0.01115
G1 X132.437 Y53.884 E0.01115
G1 X132.689 Y53.633 E0.01115
G1 X132.980 Y53.429 E0.01115
G1 X133.302 Y53.278 E0.01115
G1 X133.646 Y53.186 E0.01115
G1 X133.963 Y53.158 E0.01000
G1 X134.349 Y53.185 E0.01211
G1 X134.698 Y53.278 E0.01133
G1 X135.020 Y53.429 E0.01115
G1 X135.311 Y53.633 E0.01115
G1 X135.563 Y53.884 E0.01115
G1 X135.767 Y54.175 E0.01115
G1 X135.902 Y54.464 E0.01000
G1 X136.009 Y54.835 E0.01211
G1 X136.040 Y55.195 E0.01133
G1 X136.009 Y55.550 E0.01115
G1 X135.917 Y55.893 E0.01115
G1 X135.767 Y56.215 E0.01115
G1 X135.563 Y56.507 E0.01115
G1 X135.354 Y56.716 E0.00927
G1 X135.087 Y56.449 F10800.000
;TYPE:External perimeter
G1 F1200.000
G1 X134.831 Y56.634 E0.00992
G1 X134.568 Y56.757 E0.00908
G1 X134.289 Y56.832 E0.00908
G1 X134.000 Y56.857 E0.00908
G1 X133.711 Y56.832 E0.00908
G1 X133.432 Y56.757 E0.00908
G1 X133.169 Y56.634 E0.00908
G1 X132.932 Y56.468 E0.00908
G1 X132.727 Y56.263 E0.00908
G1 X132.561 Y56.026 E0.00908
G1 X132.439 Y55.764 E0.00908
G1 X132.364 Y55.484 E0.00908
G1 X132.338 Y55.195 E0.00908
G1 X132.364 Y54.907 E0.00908
G1 X132.439 Y54.627 E0.00908
G1 X132.561 Y54.365 E0.00908
G1 X132.727 Y54.127 E0.00908
G1 X132.932 Y53.922 E0.00908
G1 X133.169 Y53.756 E0.00908
G1 X133.432 Y53.634 E0.00908
G1 X133.711 Y53.559 E0.00908
G1 X133.967 Y53.537 E0.00804
G1 X134.287 Y53.558 E0.01004
G1 X134.568 Y53.634 E0.00914
G1 X134.831 Y53.756 E0.00908
G1 X135.068 Y53.922 E0.00908
G1 X135.273 Y54.127 E0.00908
G1 X135.439 Y54.365 E0.00908
G1 X135.547 Y54.597 E0.00804
G1 X135.636 Y54.905 E0.01004
G1 X135.662 Y55.195 E0.00914
G1 X135.636 Y55.484 E0.00908
G1 X135.561 Y55.764 E0.00908
G1 X135.439 Y56.026 E0.00908
G1 X135.273 Y56.263 E0.00908
G1 X135.130 Y56.407 E0.00635
G1 X135.146 Y56.760 F10800.000
G1 E-0.80000 F2100.000
G1 Z0.800 F10800.000
G1 X138.213 Y51.032
G1 Z0.200
G1 E0.80000 F2100.000
;TYPE:Perimeter
G1 F1200.000
G1 X138.213 Y70.836 E0.62092
G1 X129.787 Y70.836 E0.26419
G1 X129.787 Y51.032 E0.62092
G1 X138.153 Y51.032 E0.26231
G1 X138.590 Y50.655 F10800.000
;TYPE:External perimeter
G1 F1200.000
G1 X138.590 Y71.213 E0.64456
G1 X129.410 Y71.213 E0.28783
G1 X129.410 Y50.655 E0.64456
G1 X138.530 Y50.655 E0.28595
G1 X138.534 Y51.051 F10800.000
G1 X137.334 Y51.145
;TYPE:Solid infill
;WIDTH:0.421657
G1 F1200.000
G1 X137.930 Y51.742 E0.02655
G1 X137.930 Y52.277 E0.01687
G1 X136.968 Y51.315 E0.04285
G1 X136.432 Y51.315 E0.01687
G1 X137.930 Y52.813 E0.06670
G1 X137.930 Y53.348 E0.01687
G1 X135.897 Y51.315 E0.09055
G1 X135.361 Y51.315 E0.01687
G1 X137.930 Y53.884 E0.11441
G1 X137.930 Y54.420 E0.01687
G1 X134.826 Y51.315 E0.13826
G1 X134.290 Y51.315 E0.01687
G1 X137.930 Y54.955 E0.16212
G1 X137.930 Y55.491 E0.01687
G1 X133.754 Y51.315 E0.18597
G1 X133.219 Y51.315 E0.01687
G1 X137.930 Y56.027 E0.20983
G1 X137.930 Y56.562 E0.01687
G1 X136.301 Y54.933 E0.07255
G1 X136.324 Y55.195 E0.00829
G1 X136.300 Y55.468 E0.00861
G1 X137.930 Y57.098 E0.07259
G1 X137.930 Y57.633 E0.01687
G1 X136.206 Y55.909 E0.07680
G1 X136.046 Y56.285 E0.01287
G1 X137.930 Y58.169 E0.08390
G1 X137.930 Y58.705 E0.01687
G1 X135.836 Y56.610 E0.09328
G1 X135.780 Y56.689 E0.00304
G1 X135.580 Y56.890 E0.00893
G1 X137.930 Y59.240 E0.10468
G1 X137.930 Y59.776 E0.01687
G1 X135.280 Y57.125 E0.11804
G1 X135.162 Y57.208 E0.00453
G1 X134.933 Y57.315 E0.00795
G1 X137.930 Y60.311 E0.13347
G1 X137.930 Y60.847 E0.01687
G1 X134.532 Y57.449 E0.15132
G1 X134.404 Y57.484 E0.00420
G1 X134.061 Y57.514 E0.01082
M73 P2 R37
G1 X138.100 Y61.552 E0.17986
G1 E-0.80000 F2100.000
G1 Z0.800 F10800.000
G1 X134.467 Y53.099
G1 Z0.200
G1 E0.80000 F2100.000
G1 F1200.000
G1 X132.683 Y51.315 E0.07946
G1 X132.148 Y51.315 E0.01687
G1 X133.728 Y52.895 E0.07037
G1 X133.596 Y52.907 E0.00414
G1 X133.286 Y52.990 E0.01011
G1 X131.612 Y51.315 E0.07458
G1 X131.076 Y51.315 E0.01687
G1 X132.910 Y53.149 E0.08167
G1 X132.585 Y53.360 E0.01220
G1 X130.541 Y51.315 E0.09106
G1 X130.070 Y51.315 E0.01483
G1 X130.070 Y51.380 E0.00204
G1 X132.306 Y53.616 E0.09957
G1 X132.220 Y53.701 E0.00382
G1 X132.070 Y53.916 E0.00823
G1 X130.070 Y51.916 E0.08907
G1 X130.070 Y52.451 E0.01687
G1 X131.881 Y54.262 E0.08065
G1 X131.816 Y54.400 E0.00481
G1 X131.746 Y54.663 E0.00855
G1 X130.070 Y52.987 E0.07464
G1 X130.070 Y53.522 E0.01687
G1 X131.856 Y55.309 E0.07956
M73 P3 R37
G1 X129.900 Y53.888 F10800.000
G1 F1200.000
G1 X131.748 Y55.736 E0.08230
G1 X131.816 Y55.990 E0.00827
G1 X131.987 Y56.357 E0.01276
G1 X132.220 Y56.689 E0.01276
G1 X132.506 Y56.976 E0.01276
G1 X132.838 Y57.208 E0.01276
G1 X133.205 Y57.379 E0.01276
G1 X133.459 Y57.447 E0.00827
G1 X137.930 Y61.918 E0.19913
G1 X137.930 Y62.454 E0.01687
G1 X130.070 Y54.594 E0.35007
G1 X130.070 Y55.129 E0.01687
G1 X137.930 Y62.990 E0.35007
G1 X137.930 Y63.525 E0.01687
G1 X130.070 Y55.665 E0.35007
G1 X130.070 Y56.200 E0.01687
G1 X137.930 Y64.061 E0.35007
G1 X137.930 Y64.596 E0.01687
G1 X130.070 Y56.736 E0.35007
G1 X130.070 Y57.272 E0.01687
G1 X137.930 Y65.132 E0.35007
G1 X137.930 Y65.668 E0.01687
G1 X130.070 Y57.807 E0.35007
G1 X130.070 Y58.343 E0.01687
G1 X137.930 Y66.203 E0.35007
G1 X137.930 Y66.739 E0.01687
G1 X130.070 Y58.879 E0.35007
G1 X130.070 Y59.414 E0.01687
G1 X137.930 Y67.274 E0.35007
G1 X137.930 Y67.810 E0.01687
G1 X130.070 Y59.950 E0.35007
G1 X130.070 Y60.485 E0.01687
G1 X137.930 Y68.346 E0.35007
G1 X137.930 Y68.881 E0.01687
G1 X130.070 Y61.021 E0.35007
G1 X130.070 Y61.557 E0.01687
G1 X137.930 Y69.417 E0.35007
G1 X137.930 Y69.953 E0.01687
G1 X130.070 Y62.092 E0.35007
G1 X130.070 Y62.628 E0.01687
G1 X137.930 Y70.488 E0.35007
G1 X137.930 Y70.553 E0.00204
G1 X137.459 Y70.553 E0.01483
G1 X130.070 Y63.163 E0.32909
G1 X130.070 Y63.699 E0.01687
G1 X136.924 Y70.553 E0.30524
G1 X136.388 Y70.553 E0.01687
G1 X130.070 Y64.235 E0.28138
G1 X130.070 Y64.770 E0.01687
G1 X135.852 Y70.553 E0.25753
G1 X135.317 Y70.553 E0.01687
