; generated by PrusaSlicer 2.2.0+win64 on 2020-10-30 at 18:16:59 UTC

; 

; external perimeters extrusion width = 0.45mm
; perimeters extrusion width = 0.45mm
; infill extrusion width = 0.45mm
; solid infill extrusion width = 0.45mm
; top infill extrusion width = 0.40mm
; first layer extrusion width = 0.42mm

M73 P0 R267
M201 X9000 Y9000 Z500 E10000 ; sets maximum accelerations, mm/sec^2
M203 X500 Y500 Z12 E120 ; sets maximum feedrates, mm/sec
M204 P2000 R1500 T2000 ; sets acceleration (P, T) and retract acceleration (R), mm/sec^2
M205 X10.00 Y10.00 Z0.20 E2.50 ; sets the jerk limits, mm/sec
M205 S0 T0 ; sets the minimum extruding and travel feed rate, mm/sec
M107
M862.3 P "MK2S" ; printer model check
M862.1 P0.4 ; nozzle diameter check
M115 U3.2.3 ; tell printer latest fw version
G90 ; use absolute coordinates
M83 ; extruder relative mode
M204 S2000 T1500 ; MK2 firmware only supports the old M204 format
M104 S215 ; set extruder temp
M140 S60 ; set bed temp
M190 S60 ; wait for bed temp
M109 S215 ; wait for extruder temp
G28 W ; home all without mesh bed level
G80 ; mesh bed leveling
G1 Y-3.0 F1000.0 ; go outside print area
G92 E0.0
G1 X60.0 E9.0  F1000.0 ; intro line
M73 P0 R266
G1 X100.0 E12.5 F1000.0 ; intro line
G92 E0.0
G21 ; set units to millimeters
G90 ; use absolute coordinates
M83 ; use relative distances for extrusion
M900 K0.05 ; Filament gcode LA 1.5
M900 K30 ; Filament gcode LA 1.0
;BEFORE_LAYER_CHANGE
G92 E0.0
;0.2


G1 E-0.80000 F2100.00000
G1 Z0.600 F10800.000
;AFTER_LAYER_CHANGE
;0.2
G1 X134.979 Y171.782
G1 Z0.200
G1 E0.80000 F2100.00000
M204 S1000
G1 F1200.000
G1 X138.572 Y171.782 E0.11264
G1 X138.572 Y177.875 E0.19103
G1 X134.979 Y177.875 E0.11264
G1 X134.979 Y171.842 E0.18915
G1 X134.908 Y171.389 F10800.000
G1 E-0.80000 F2100.00000
G1 Z0.800 F10800.000
G1 X139.152 Y177.875
G1 Z0.200
G1 E0.80000 F2100.00000
G1 F1200.000
G1 X139.152 Y171.782 E0.19103
G1 X142.744 Y171.782 E0.11265
G1 X142.744 Y177.875 E0.19103
G1 X139.212 Y177.875 E0.11076
G1 X138.775 Y178.011 F10800.000
G1 E-0.80000 F2100.00000
G1 Z0.800 F10800.000
G1 X139.152 Y171.202
G1 Z0.200
G1 E0.80000 F2100.00000
G1 F1200.000
G1 X139.152 Y165.110 E0.19103
G1 X142.744 Y165.110 E0.11265
G1 X142.744 Y171.202 E0.19103
G1 X139.212 Y171.202 E0.11076
G1 X138.775 Y171.338 F10800.000
G1 X134.979 Y171.202
G1 F1200.000
G1 X134.979 Y165.110 E0.19103
G1 X138.572 Y165.110 E0.11264
G1 X138.572 Y171.202 E0.19103
G1 X135.039 Y171.202 E0.11076
G1 X134.603 Y171.338 F10800.000
G1 E-0.80000 F2100.00000
G1 Z0.800 F10800.000
G1 X128.462 Y177.928
G1 Z0.200
G1 E0.80000 F2100.00000
G1 F1200.000
G1 X122.321 Y177.928 E0.19252
G1 X122.321 Y165.057 E0.40357
G1 X134.602 Y165.057 E0.38505
G1 X134.602 Y177.928 E0.40357
G1 X128.522 Y177.928 E0.19064
G1 E-0.80000 F2100.00000
G1 Z0.800 F10800.000
G1 X121.944 Y177.875
G1 Z0.200
G1 E0.80000 F2100.00000
G1 F1200.000
G1 X118.352 Y177.875 E0.11265
G1 X118.352 Y171.782 E0.19103
G1 X121.944 Y171.782 E0.11265
G1 X121.944 Y177.815 E0.18915
G1 X122.015 Y178.269 F10800.000
G1 X117.772 Y177.875
G1 F1200.000
G1 X114.179 Y177.875 E0.11264
G1 X114.179 Y171.782 E0.19103
G1 X117.772 Y171.782 E0.11264
G1 X117.772 Y177.815 E0.18915
G1 X117.842 Y178.269 F10800.000
G1 E-0.80000 F2100.00000
G1 Z0.800 F10800.000
G1 X117.772 Y171.202
G1 Z0.200
G1 E0.80000 F2100.00000
G1 F1200.000
G1 X114.179 Y171.202 E0.11264
G1 X114.179 Y165.110 E0.19103
G1 X117.772 Y165.110 E0.11264
G1 X117.772 Y171.142 E0.18915
G1 X117.842 Y171.596 F10800.000
G1 X121.944 Y171.202
G1 F1200.000
G1 X118.352 Y171.202 E0.11265
G1 X118.352 Y165.110 E0.19103
G1 X121.944 Y165.110 E0.11265
G1 X121.944 Y171.142 E0.18915
G1 X122.015 Y171.596 F10800.000
G1 E-0.80000 F2100.00000
G1 Z0.800 F10800.000
G1 X128.462 Y178.305
G1 Z0.200
G1 E0.80000 F2100.00000
G1 F1200.000
G1 X113.749 Y178.305 E0.46130
G1 X113.749 Y164.680 E0.42721
G1 X143.174 Y164.680 E0.92261
G1 X143.174 Y178.305 E0.42721
G1 X128.522 Y178.305 E0.45942
G1 X128.182 Y178.019 F10800.000
G1 E-0.80000 F2100.00000
G1 Z0.800 F10800.000
G1 X123.205 Y177.815
G1 Z0.200
G1 E0.80000 F2100.00000
G1 F1200.000
G1 X122.604 Y177.214 E0.02689
G1 X122.604 Y176.676 E0.01705
G1 X123.573 Y177.645 E0.04341
G1 X124.112 Y177.645 E0.01705
G1 X122.604 Y176.137 E0.06753
G1 X122.604 Y175.599 E0.01705
G1 X124.651 Y177.645 E0.09165
G1 X125.189 Y177.645 E0.01705
G1 X122.604 Y175.060 E0.11577
G1 X122.604 Y174.522 E0.01705
G1 X125.728 Y177.645 E0.13989
G1 X126.266 Y177.645 E0.01705
G1 X122.604 Y173.983 E0.16401
G1 X122.604 Y173.444 E0.01705
G1 X126.805 Y177.645 E0.18812
G1 X127.343 Y177.645 E0.01705
G1 X122.604 Y172.906 E0.21224
G1 X122.604 Y172.367 E0.01705
G1 X127.882 Y177.645 E0.23636
G1 X128.421 Y177.645 E0.01705
G1 X122.604 Y171.829 E0.26048
G1 X122.604 Y171.290 E0.01705
G1 X128.959 Y177.645 E0.28460
G1 X129.498 Y177.645 E0.01705
G1 X122.604 Y170.752 E0.30872
G1 X122.604 Y170.213 E0.01705
G1 X130.036 Y177.645 E0.33284
G1 X130.575 Y177.645 E0.01705
G1 X122.604 Y169.674 E0.35696
G1 X122.604 Y169.136 E0.01705
G1 X131.114 Y177.645 E0.38108
G1 X131.652 Y177.645 E0.01705
G1 X122.604 Y168.597 E0.40520
G1 X122.604 Y168.059 E0.01705
G1 X132.191 Y177.645 E0.42932
G1 X132.729 Y177.645 E0.01705
G1 X122.604 Y167.520 E0.45343
G1 X122.604 Y166.981 E0.01705
G1 X133.268 Y177.645 E0.47755
G1 X133.806 Y177.645 E0.01705
G1 X122.604 Y166.443 E0.50167
G1 X122.604 Y165.904 E0.01705
G1 X134.319 Y177.619 E0.52463
G1 X134.319 Y177.081 E0.01705
G1 X122.604 Y165.366 E0.52463
G1 X122.604 Y165.340 E0.00082
G1 X123.117 Y165.340 E0.01623
G1 X134.319 Y176.542 E0.50168
G1 X134.319 Y176.004 E0.01705
G1 X123.655 Y165.340 E0.47756
G1 X124.194 Y165.340 E0.01705
G1 X134.319 Y175.465 E0.45344
G1 X134.319 Y174.926 E0.01705
G1 X124.732 Y165.340 E0.42932
G1 X125.271 Y165.340 E0.01705
G1 X134.319 Y174.388 E0.40520
G1 X134.319 Y173.849 E0.01705
G1 X125.810 Y165.340 E0.38108
G1 X126.348 Y165.340 E0.01705
G1 X134.319 Y173.311 E0.35696
G1 X134.319 Y172.772 E0.01705
G1 X126.887 Y165.340 E0.33284
G1 X127.425 Y165.340 E0.01705
G1 X134.319 Y172.234 E0.30872
G1 X134.319 Y171.695 E0.01705
G1 X127.964 Y165.340 E0.28461
G1 X128.502 Y165.340 E0.01705
G1 X134.319 Y171.156 E0.26049
G1 X134.319 Y170.618 E0.01705
G1 X129.041 Y165.340 E0.23637
G1 X129.580 Y165.340 E0.01705
G1 X134.319 Y170.079 E0.21225
G1 X134.319 Y169.541 E0.01705
G1 X130.118 Y165.340 E0.18813
G1 X130.657 Y165.340 E0.01705
G1 X134.319 Y169.002 E0.16401
G1 X134.319 Y168.463 E0.01705
G1 X131.195 Y165.340 E0.13989
G1 X131.734 Y165.340 E0.01705
G1 X134.319 Y167.925 E0.11577
G1 X134.319 Y167.386 E0.01705
G1 X132.272 Y165.340 E0.09165
G1 X132.811 Y165.340 E0.01705
G1 X134.319 Y166.848 E0.06753
G1 X134.319 Y166.309 E0.01705
G1 X133.350 Y165.340 E0.04341
G1 X133.888 Y165.340 E0.01705
G1 X134.489 Y165.940 E0.02689
G1 X134.790 Y164.895 F10800.000
G1 F1200.000
G1 X138.760 Y164.895 E0.01747
G1 X138.787 Y164.908 E0.00020
G1 X138.813 Y164.921 E0.00026
G1 X138.862 Y164.868 F10800.000
G1 F1200.000
G1 X138.862 Y171.391 E0.11006
G1 X138.862 Y171.442 E0.00103
G1 X138.862 Y171.492 E0.00121
G1 X138.811 Y171.492 E0.00121
G1 X138.760 Y171.492 E0.00103
G1 X134.790 Y171.492 E0.06698
G1 E-0.80000 F2100.00000
G1 Z0.800 F10800.000
G1 X134.790 Y178.090
G1 Z0.200
G1 E0.80000 F2100.00000
G1 F1200.000
G1 X138.760 Y178.090 E0.01747
G1 X138.787 Y178.077 E0.00020
G1 X138.813 Y178.064 E0.00026
G1 X138.862 Y178.117 F10800.000
G1 F1200.000
G1 X138.862 Y171.594 E0.11006
G1 X138.862 Y171.543 E0.00103
G1 X138.862 Y171.492 E0.00121
G1 X142.986 Y171.492 E0.06959
G1 X142.933 Y171.541 F10800.000
G1 F1200.000
G1 X142.946 Y171.567 E0.00026
G1 X142.959 Y171.594 E0.00020
G1 X142.955 Y178.086 E0.02857
G1 X138.963 Y178.090 E0.01756
G1 X138.760 Y177.989 E0.00100
G1 E-0.80000 F2100.00000
G1 Z0.800 F10800.000
G1 X142.933 Y171.444
G1 Z0.200
G1 E0.80000 F2100.00000
G1 F1200.000
G1 X142.946 Y171.417 E0.00026
G1 X142.959 Y171.391 E0.00020
G1 X142.955 Y164.899 E0.02857
G1 X138.963 Y164.895 E0.01756
G1 X138.760 Y164.996 E0.00100
G1 E-0.80000 F2100.00000
G1 Z0.800 F10800.000
G1 X122.133 Y171.492
G1 Z0.200
G1 E0.80000 F2100.00000
G1 F1200.000
G1 X118.062 Y171.492 E0.06869
G1 X118.011 Y171.492 E0.00121
G1 X117.960 Y171.492 E0.00103
G1 X113.937 Y171.492 E0.06787
G1 X113.990 Y171.541 F10800.000
G1 F1200.000
G1 X113.977 Y171.567 E0.00026
G1 X113.964 Y171.594 E0.00020
G1 X113.968 Y178.086 E0.02857
G1 X117.960 Y178.090 E0.01756
G1 X118.163 Y177.989 E0.00100
G1 X122.133 Y178.090 F10800.000
G1 F1200.000
G1 X118.163 Y178.090 E0.01747
G1 X118.110 Y178.064 E0.00026
G1 X118.062 Y178.117 F10800.000
G1 F1200.000
G1 X118.062 Y171.594 E0.11006
G1 X118.062 Y171.543 E0.00103
G1 X118.062 Y171.492 E0.00121
G1 X118.062 Y171.442 E0.00121
G1 X118.062 Y171.391 E0.00103
G1 X118.062 Y164.868 E0.11006
G1 X118.110 Y164.921 F10800.000
G1 F1200.000
G1 X118.163 Y164.895 E0.00026
G1 X122.133 Y164.895 E0.01747
G1 X118.163 Y164.996 F10800.000
G1 F1200.000
G1 X118.062 Y164.946 E0.00100
G1 X117.960 Y164.895 E0.00075
G1 X113.968 Y164.899 E0.01757
G1 X113.964 Y171.391 E0.02857
G1 X113.990 Y171.444 E0.00026
G1 E-0.80000 F2100.00000
G1 Z0.800 F10800.000
G1 X134.979 Y157.830
G1 Z0.200
G1 E0.80000 F2100.00000
G1 F1200.000
G1 X134.979 Y151.737 E0.19103
G1 X138.572 Y151.737 E0.11264
G1 X138.572 Y157.830 E0.19103
G1 X135.039 Y157.830 E0.11076
G1 X134.603 Y157.965 F10800.000
G1 X139.152 Y157.830
G1 F1200.000
G1 X139.152 Y151.737 E0.19103
G1 X142.744 Y151.737 E0.11265
G1 X142.744 Y157.830 E0.19103
G1 X139.212 Y157.830 E0.11076
G1 X138.775 Y157.965 F10800.000
G1 E-0.80000 F2100.00000
G1 Z0.800 F10800.000
G1 X139.152 Y151.157
G1 Z0.200
G1 E0.80000 F2100.00000
G1 F1200.000
G1 X139.152 Y145.065 E0.19103
G1 X142.744 Y145.065 E0.11265
G1 X142.744 Y151.157 E0.19103
G1 X139.212 Y151.157 E0.11076
G1 X138.775 Y151.293 F10800.000
G1 X134.979 Y151.157
G1 F1200.000
G1 X134.979 Y145.065 E0.19103
G1 X138.572 Y145.065 E0.11264
G1 X138.572 Y151.157 E0.19103
G1 X135.039 Y151.157 E0.11076
G1 X134.603 Y151.293 F10800.000
G1 E-0.80000 F2100.00000
G1 Z0.800 F10800.000
G1 X128.462 Y157.883
G1 Z0.200
G1 E0.80000 F2100.00000
G1 F1200.000
G1 X122.321 Y157.883 E0.19252
G1 X122.321 Y145.012 E0.40357
G1 X134.602 Y145.012 E0.38505
G1 X134.602 Y157.883 E0.40357
G1 X128.522 Y157.883 E0.19064
G1 E-0.80000 F2100.00000
G1 Z0.800 F10800.000
G1 X121.944 Y157.830
G1 Z0.200
G1 E0.80000 F2100.00000
G1 F1200.000
G1 X118.352 Y157.830 E0.11265
G1 X118.352 Y151.737 E0.19103
G1 X121.944 Y151.737 E0.11265
G1 X121.944 Y157.770 E0.18915
G1 X122.015 Y158.224 F10800.000
G1 X117.772 Y157.830
G1 F1200.000
G1 X114.179 Y157.830 E0.11264
G1 X114.179 Y151.737 E0.19103
G1 X117.772 Y151.737 E0.11264
G1 X117.772 Y157.770 E0.18915
G1 X117.842 Y158.224 F10800.000
G1 E-0.80000 F2100.00000
G1 Z0.800 F10800.000
G1 X117.772 Y151.157
G1 Z0.200
G1 E0.80000 F2100.00000
M73 P0 R265
G1 F1200.000
G1 X114.179 Y151.157 E0.11264
G1 X114.179 Y145.065 E0.19103
G1 X117.772 Y145.065 E0.11264
G1 X117.772 Y151.097 E0.18915
G1 X117.842 Y151.551 F10800.000
G1 X121.944 Y151.157
G1 F1200.000
G1 X118.352 Y151.157 E0.11265
G1 X118.352 Y145.065 E0.19103
G1 X121.944 Y145.065 E0.11265
G1 X121.944 Y151.097 E0.18915
G1 X122.015 Y151.551 F10800.000
G1 E-0.80000 F2100.00000
G1 Z0.800 F10800.000
G1 X128.462 Y158.260
G1 Z0.200
G1 E0.80000 F2100.00000
G1 F1200.000
G1 X113.749 Y158.260 E0.46130
G1 X113.749 Y144.635 E0.42721
G1 X143.174 Y144.635 E0.92261
G1 X143.174 Y158.260 E0.42721
G1 X128.522 Y158.260 E0.45942
G1 X128.182 Y157.973 F10800.000
G1 E-0.80000 F2100.00000
G1 Z0.800 F10800.000
G1 X123.205 Y157.770
G1 Z0.200
G1 E0.80000 F2100.00000
G1 F1200.000
G1 X122.604 Y157.169 E0.02689
G1 X122.604 Y156.631 E0.01705
G1 X123.573 Y157.600 E0.04341
G1 X124.112 Y157.600 E0.01705
G1 X122.604 Y156.092 E0.06753
G1 X122.604 Y155.553 E0.01705
G1 X124.651 Y157.600 E0.09165
G1 X125.189 Y157.600 E0.01705
G1 X122.604 Y155.015 E0.11577
G1 X122.604 Y154.476 E0.01705
G1 X125.728 Y157.600 E0.13989
G1 X126.266 Y157.600 E0.01705
G1 X122.604 Y153.938 E0.16401
G1 X122.604 Y153.399 E0.01705
G1 X126.805 Y157.600 E0.18812
G1 X127.343 Y157.600 E0.01705
G1 X122.604 Y152.861 E0.21224
G1 X122.604 Y152.322 E0.01705
G1 X127.882 Y157.600 E0.23636
G1 X128.421 Y157.600 E0.01705
G1 X122.604 Y151.783 E0.26048
G1 X122.604 Y151.245 E0.01705
G1 X128.959 Y157.600 E0.28460
G1 X129.498 Y157.600 E0.01705
G1 X122.604 Y150.706 E0.30872
G1 X122.604 Y150.168 E0.01705
G1 X130.036 Y157.600 E0.33284
G1 X130.575 Y157.600 E0.01705
G1 X122.604 Y149.629 E0.35696
G1 X122.604 Y149.091 E0.01705
G1 X131.114 Y157.600 E0.38108
G1 X131.652 Y157.600 E0.01705
G1 X122.604 Y148.552 E0.40520
G1 X122.604 Y148.013 E0.01705
G1 X132.191 Y157.600 E0.42932
G1 X132.729 Y157.600 E0.01705
G1 X122.604 Y147.475 E0.45343
G1 X122.604 Y146.936 E0.01705
G1 X133.268 Y157.600 E0.47755
G1 X133.806 Y157.600 E0.01705
G1 X122.604 Y146.398 E0.50167
G1 X122.604 Y145.859 E0.01705
G1 X134.319 Y157.574 E0.52463
G1 X134.319 Y157.035 E0.01705
G1 X122.604 Y145.320 E0.52463
G1 X122.604 Y145.294 E0.00082
G1 X123.117 Y145.294 E0.01623
G1 X134.319 Y156.497 E0.50168
G1 X134.319 Y155.958 E0.01705
G1 X123.655 Y145.294 E0.47756
G1 X124.194 Y145.294 E0.01705
G1 X134.319 Y155.420 E0.45344
G1 X134.319 Y154.881 E0.01705
G1 X124.732 Y145.294 E0.42932
G1 X125.271 Y145.294 E0.01705
G1 X134.319 Y154.343 E0.40520
G1 X134.319 Y153.804 E0.01705
G1 X125.810 Y145.294 E0.38108
G1 X126.348 Y145.294 E0.01705
G1 X134.319 Y153.265 E0.35696
G1 X134.319 Y152.727 E0.01705
G1 X126.887 Y145.294 E0.33284
G1 X127.425 Y145.294 E0.01705
G1 X134.319 Y152.188 E0.30872
G1 X134.319 Y151.650 E0.01705
G1 X127.964 Y145.294 E0.28461
G1 X128.502 Y145.294 E0.01705
G1 X134.319 Y151.111 E0.26049
G1 X134.319 Y150.572 E0.01705
G1 X129.041 Y145.294 E0.23637
G1 X129.580 Y145.294 E0.01705
G1 X134.319 Y150.034 E0.21225
G1 X134.319 Y149.495 E0.01705
G1 X130.118 Y145.294 E0.18813
G1 X130.657 Y145.294 E0.01705
G1 X134.319 Y148.957 E0.16401
G1 X134.319 Y148.418 E0.01705
G1 X131.195 Y145.294 E0.13989
G1 X131.734 Y145.294 E0.01705
G1 X134.319 Y147.880 E0.11577
G1 X134.319 Y147.341 E0.01705
G1 X132.272 Y145.294 E0.09165
G1 X132.811 Y145.294 E0.01705
G1 X134.319 Y146.802 E0.06753
G1 X134.319 Y146.264 E0.01705
G1 X133.350 Y145.294 E0.04341
G1 X133.888 Y145.294 E0.01705
G1 X134.489 Y145.895 E0.02689
G1 X134.790 Y144.850 F10800.000
G1 F1200.000
G1 X138.760 Y144.850 E0.01747
G1 X138.787 Y144.863 E0.00020
G1 X138.813 Y144.876 E0.00026
G1 X138.862 Y144.823 F10800.000
G1 F1200.000
G1 X138.862 Y151.346 E0.11006
G1 X138.862 Y151.396 E0.00103
G1 X138.862 Y151.447 E0.00121
G1 X138.811 Y151.447 E0.00121
G1 X138.760 Y151.447 E0.00103
G1 X134.790 Y151.447 E0.06698
G1 E-0.80000 F2100.00000
G1 Z0.800 F10800.000
G1 X134.790 Y158.045
G1 Z0.200
G1 E0.80000 F2100.00000
G1 F1200.000
G1 X138.760 Y158.045 E0.01747
G1 X138.787 Y158.032 E0.00020
G1 X138.813 Y158.018 E0.00026
G1 X138.862 Y158.071 F10800.000
G1 F1200.000
G1 X138.862 Y151.549 E0.11006
G1 X138.862 Y151.498 E0.00103
G1 X138.862 Y151.447 E0.00121
G1 X142.986 Y151.447 E0.06959
G1 X142.933 Y151.496 F10800.000
G1 F1200.000
G1 X142.946 Y151.522 E0.00026
G1 X142.959 Y151.549 E0.00020
G1 X142.955 Y158.040 E0.02857
G1 X138.963 Y158.045 E0.01756
G1 X138.760 Y157.943 E0.00100
G1 E-0.80000 F2100.00000
G1 Z0.800 F10800.000
G1 X142.933 Y151.399
G1 Z0.200
G1 E0.80000 F2100.00000
G1 F1200.000
G1 X142.946 Y151.372 E0.00026
G1 X142.959 Y151.346 E0.00020
G1 X142.955 Y144.854 E0.02857
G1 X138.963 Y144.850 E0.01756
G1 X138.760 Y144.951 E0.00100
G1 E-0.80000 F2100.00000
G1 Z0.800 F10800.000
G1 X122.133 Y151.447
G1 Z0.200
G1 E0.80000 F2100.00000
G1 F1200.000
G1 X118.062 Y151.447 E0.06869
G1 X118.011 Y151.447 E0.00121
G1 X117.960 Y151.447 E0.00103
G1 X113.937 Y151.447 E0.06787
G1 X113.990 Y151.496 F10800.000
G1 F1200.000
G1 X113.977 Y151.522 E0.00026
G1 X113.964 Y151.549 E0.00020
G1 X113.968 Y158.040 E0.02857
G1 X117.960 Y158.045 E0.01756
G1 X118.163 Y157.943 E0.00100
G1 X122.133 Y158.045 F10800.000
G1 F1200.000
G1 X118.163 Y158.045 E0.01747
G1 X118.110 Y158.018 E0.00026
G1 X118.062 Y158.071 F10800.000
G1 F1200.000
G1 X118.062 Y151.549 E0.11006
G1 X118.062 Y151.498 E0.00103
G1 X118.062 Y151.447 E0.00121
G1 X118.062 Y151.396 E0.00121
G1 X118.062 Y151.346 E0.00103
