; generated by PrusaSlicer 2.1.0+win64 on 2019-12-10 at 21:54:20 UTC

; 

; external perimeters extrusion width = 0.45mm
; perimeters extrusion width = 0.45mm
; infill extrusion width = 0.45mm
; solid infill extrusion width = 0.45mm
; top infill extrusion width = 0.40mm
; first layer extrusion width = 0.42mm

M73 P0 R14
M201 X9000 Y9000 Z500 E10000 ; sets maximum accelerations, mm/sec^2
M203 X500 Y500 Z12 E120 ; sets maximum feedrates, mm/sec
M204 P2000 R1500 T2000 ; sets acceleration (P, T) and retract acceleration (R), mm/sec^2
M205 X10.00 Y10.00 Z0.20 E2.50 ; sets the jerk limits, mm/sec
M205 S0 T0 ; sets the minimum extruding and travel feed rate, mm/sec
M107
M862.3 P "MK2S" ; printer model check
M862.1 P0.4 ; nozzle diameter check
M115 U3.2.3 ; tell printer latest fw version
G90 ; use absolute coordinates
M83 ; extruder relative mode
M204 S2000 T1500 ; MK2 firmware only supports the old M204 format
M104 S215 ; set extruder temp
M140 S60 ; set bed temp
M190 S60 ; wait for bed temp
M109 S215 ; wait for extruder temp
G28 W ; home all without mesh bed level
G80 ; mesh bed leveling
G1 Y-3.0 F1000.0 ; go outside print area
G92 E0.0
G1 X60.0 E9.0  F1000.0 ; intro line
M73 P0 R14
G1 X100.0 E12.5 F1000.0 ; intro line
G92 E0.0
G21 ; set units to millimeters
G90 ; use absolute coordinates
M83 ; use relative distances for extrusion
M900 K30 ; Filament gcode
;BEFORE_LAYER_CHANGE
G92 E0.0
;0.2


G1 E-0.80000 F2100.00000
G1 Z0.600 F10800.000
;AFTER_LAYER_CHANGE
;0.2
G1 X84.334 Y102.081
G1 Z0.200
G1 E0.80000 F2100.00000
M204 S1000
G1 F1200
G1 X84.121 Y101.229 E0.02754
G1 X84.139 Y99.708 E0.04768
G1 X84.441 Y98.857 E0.02833
G1 X84.772 Y98.440 E0.01669
G1 X85.198 Y98.114 E0.01680
G1 X85.686 Y97.902 E0.01669
G1 X86.214 Y97.813 E0.01680
G1 X163.696 Y97.811 E2.42938
G1 X164.344 Y97.911 E0.02055
G1 X164.933 Y98.197 E0.02055
G1 X165.413 Y98.648 E0.02066
G1 X165.737 Y99.219 E0.02055
G1 X165.876 Y99.859 E0.02055
G1 X165.873 Y101.322 E0.04587
G1 X165.742 Y101.901 E0.01862
G1 X165.461 Y102.424 E0.01862
G1 X165.106 Y102.806 E0.01635
G1 X154.493 Y111.711 E0.43440
G1 X153.894 Y112.050 E0.02157
G1 X153.223 Y112.186 E0.02146
G1 X96.530 Y112.162 E1.77759
G1 X95.984 Y112.001 E0.01783
G1 X95.499 Y111.704 E0.01783
G1 X84.862 Y102.779 E0.43537
G1 X84.370 Y102.129 E0.02555
G1 E-0.80000 F2100.00000
G1 Z0.800 F10800.000
G1 X107.005 Y107.265
G1 Z0.200
G1 E0.80000 F2100.00000
G1 F1200
G1 X106.500 Y107.315 E0.01592
G1 X105.995 Y107.265 E0.01592
G1 X105.509 Y107.118 E0.01592
G1 X105.061 Y106.879 E0.01592
G1 X104.669 Y106.556 E0.01592
G1 X104.347 Y106.164 E0.01592
G1 X104.107 Y105.716 E0.01592
G1 X103.960 Y105.230 E0.01592
G1 X103.910 Y104.725 E0.01592
G1 X103.960 Y104.220 E0.01592
G1 X104.107 Y103.734 E0.01592
G1 X104.347 Y103.286 E0.01592
G1 X104.669 Y102.894 E0.01592
G1 X105.061 Y102.572 E0.01592
G1 X105.511 Y102.331 E0.01601
G1 X106.017 Y102.183 E0.01652
G1 X106.500 Y102.135 E0.01522
G1 X107.005 Y102.185 E0.01592
G1 X107.491 Y102.332 E0.01592
G1 X107.939 Y102.572 E0.01592
G1 X108.331 Y102.894 E0.01592
G1 X108.653 Y103.286 E0.01592
G1 X108.893 Y103.734 E0.01592
G1 X109.040 Y104.220 E0.01592
G1 X109.090 Y104.725 E0.01592
G1 X109.040 Y105.230 E0.01592
G1 X108.893 Y105.716 E0.01592
G1 X108.653 Y106.164 E0.01592
G1 X108.331 Y106.556 E0.01592
G1 X107.939 Y106.879 E0.01592
G1 X107.491 Y107.118 E0.01592
G1 X107.063 Y107.248 E0.01404
G1 X106.931 Y106.894 F10800.000
G1 F1200
G1 X106.500 Y106.936 E0.01359
G1 X106.069 Y106.894 E0.01359
G1 X105.654 Y106.768 E0.01359
G1 X105.272 Y106.563 E0.01359
G1 X104.937 Y106.289 E0.01359
G1 X104.662 Y105.953 E0.01359
G1 X104.457 Y105.571 E0.01359
G1 X104.331 Y105.156 E0.01359
G1 X104.289 Y104.725 E0.01359
G1 X104.331 Y104.294 E0.01359
G1 X104.457 Y103.879 E0.01359
G1 X104.662 Y103.497 E0.01359
G1 X104.937 Y103.162 E0.01359
G1 X105.272 Y102.887 E0.01359
G1 X105.655 Y102.682 E0.01362
G1 X106.089 Y102.555 E0.01419
G1 X106.500 Y102.514 E0.01294
G1 X106.931 Y102.557 E0.01359
G1 X107.346 Y102.682 E0.01359
G1 X107.728 Y102.887 E0.01359
G1 X108.063 Y103.162 E0.01359
G1 X108.338 Y103.497 E0.01359
G1 X108.543 Y103.879 E0.01359
G1 X108.669 Y104.294 E0.01359
G1 X108.711 Y104.725 E0.01359
G1 X108.669 Y105.156 E0.01359
G1 X108.543 Y105.571 E0.01359
G1 X108.338 Y105.953 E0.01359
G1 X108.063 Y106.289 E0.01359
G1 X107.728 Y106.563 E0.01359
G1 X107.346 Y106.768 E0.01359
G1 X106.989 Y106.876 E0.01171
G1 X106.803 Y107.272 F10800.000
G1 E-0.80000 F2100.00000
G1 Z0.800 F10800.000
G1 X142.995 Y107.265
G1 Z0.200
G1 E0.80000 F2100.00000
G1 F1200
G1 X142.509 Y107.118 E0.01592
G1 X142.061 Y106.879 E0.01592
G1 X141.669 Y106.556 E0.01592
G1 X141.347 Y106.164 E0.01592
G1 X141.107 Y105.716 E0.01592
G1 X140.960 Y105.230 E0.01592
G1 X140.910 Y104.725 E0.01592
G1 X140.960 Y104.220 E0.01592
G1 X141.107 Y103.734 E0.01592
G1 X141.347 Y103.286 E0.01592
G1 X141.669 Y102.894 E0.01592
G1 X142.061 Y102.572 E0.01592
G1 X142.511 Y102.331 E0.01601
G1 X143.017 Y102.183 E0.01652
G1 X143.500 Y102.135 E0.01522
G1 X144.005 Y102.185 E0.01592
G1 X144.491 Y102.332 E0.01592
G1 X144.939 Y102.572 E0.01592
G1 X145.331 Y102.894 E0.01592
G1 X145.653 Y103.286 E0.01592
G1 X145.893 Y103.734 E0.01592
G1 X146.040 Y104.220 E0.01592
G1 X146.090 Y104.725 E0.01592
G1 X146.040 Y105.230 E0.01592
G1 X145.893 Y105.716 E0.01592
G1 X145.653 Y106.164 E0.01592
G1 X145.331 Y106.556 E0.01592
G1 X144.939 Y106.879 E0.01592
G1 X144.491 Y107.118 E0.01592
G1 X144.005 Y107.265 E0.01592
G1 X143.500 Y107.315 E0.01592
G1 X143.054 Y107.271 E0.01404
G1 X143.069 Y106.894 F10800.000
G1 F1200
G1 X142.654 Y106.768 E0.01359
G1 X142.272 Y106.563 E0.01359
G1 X141.937 Y106.289 E0.01359
G1 X141.662 Y105.953 E0.01359
G1 X141.457 Y105.571 E0.01359
G1 X141.331 Y105.156 E0.01359
G1 X141.289 Y104.725 E0.01359
G1 X141.331 Y104.294 E0.01359
G1 X141.457 Y103.879 E0.01359
G1 X141.662 Y103.497 E0.01359
G1 X141.937 Y103.162 E0.01359
G1 X142.272 Y102.887 E0.01359
G1 X142.655 Y102.682 E0.01362
G1 X143.089 Y102.555 E0.01419
G1 X143.500 Y102.514 E0.01294
G1 X143.931 Y102.557 E0.01359
G1 X144.346 Y102.682 E0.01359
G1 X144.728 Y102.887 E0.01359
G1 X145.063 Y103.162 E0.01359
G1 X145.338 Y103.497 E0.01359
G1 X145.543 Y103.879 E0.01359
G1 X145.669 Y104.294 E0.01359
G1 X145.711 Y104.725 E0.01359
G1 X145.669 Y105.156 E0.01359
G1 X145.543 Y105.571 E0.01359
G1 X145.338 Y105.953 E0.01359
G1 X145.063 Y106.289 E0.01359
G1 X144.728 Y106.563 E0.01359
G1 X144.346 Y106.768 E0.01359
G1 X143.931 Y106.894 E0.01359
G1 X143.500 Y106.936 E0.01359
G1 X143.128 Y106.900 E0.01171
G1 X142.805 Y107.194 F10800.000
G1 E-0.80000 F2100.00000
G1 Z0.800 F10800.000
G1 X125.000 Y109.413
G1 Z0.200
G1 E0.80000 F2100.00000
G1 F1200
G1 X97.086 Y109.413 E0.87524
G1 X86.895 Y100.862 E0.41710
G1 X86.895 Y100.587 E0.00862
G1 X163.105 Y100.587 E2.38952
G1 X163.105 Y100.862 E0.00862
G1 X152.914 Y109.413 E0.41710
G1 X125.060 Y109.413 E0.87336
G1 X125.000 Y109.790 F10800.000
G1 F1200
G1 X96.948 Y109.790 E0.87954
G1 X86.518 Y101.038 E0.42692
G1 X86.518 Y100.210 E0.02596
G1 X163.482 Y100.210 E2.41316
G1 X163.482 Y101.038 E0.02596
G1 X153.052 Y109.790 E0.42692
G1 X125.060 Y109.790 E0.87766
G1 X124.775 Y109.459 F10800.000
G1 E-0.80000 F2100.00000
G1 Z0.800 F10800.000
G1 X114.398 Y109.300
G1 Z0.200
G1 E0.80000 F2100.00000
G1 F1200
G1 X109.325 Y104.227 E0.22522
G1 X109.374 Y104.725 E0.01572
G1 X109.366 Y104.802 E0.00243
G1 X113.695 Y109.130 E0.19214
G1 X113.161 Y109.130 E0.01676
G1 X109.318 Y105.288 E0.17058
G1 X109.194 Y105.697 E0.01344
G1 X112.627 Y109.130 E0.15239
G1 X112.093 Y109.130 E0.01676
G1 X109.027 Y106.065 E0.13609
G1 X108.890 Y106.322 E0.00916
G1 X108.827 Y106.398 E0.00310
G1 X111.559 Y109.130 E0.12128
G1 X111.025 Y109.130 E0.01676
G1 X108.586 Y106.691 E0.10826
G1 X108.532 Y106.757 E0.00268
G1 X108.305 Y106.944 E0.00923
G1 X110.491 Y109.130 E0.09705
G1 X109.957 Y109.130 E0.01676
G1 X107.996 Y107.169 E0.08707
G1 X107.648 Y107.355 E0.01238
G1 X109.423 Y109.130 E0.07882
G1 X108.889 Y109.130 E0.01676
G1 X107.247 Y107.487 E0.07292
G1 X107.061 Y107.544 E0.00610
G1 X106.795 Y107.570 E0.00837
G1 X108.356 Y109.130 E0.06926
G1 X107.822 Y109.130 E0.01676
G1 X106.268 Y107.576 E0.06898
G1 X105.939 Y107.544 E0.01036
G1 X105.598 Y107.440 E0.01119
G1 X107.288 Y109.130 E0.07501
G1 X106.754 Y109.130 E0.01676
G1 X98.494 Y100.870 E0.36670
G1 X99.028 Y100.870 E0.01676
G1 X103.785 Y105.627 E0.21119
G1 X103.681 Y105.286 E0.01119
G1 X103.649 Y104.957 E0.01036
G1 X99.561 Y100.870 E0.18145
G1 X100.095 Y100.870 E0.01676
G1 X103.655 Y104.430 E0.15803
G1 X103.681 Y104.164 E0.00837
G1 X103.738 Y103.978 E0.00610
G1 X100.629 Y100.870 E0.13799
G1 X101.163 Y100.870 E0.01676
G1 X103.870 Y103.577 E0.12019
G1 X104.056 Y103.229 E0.01238
G1 X101.697 Y100.870 E0.10474
G1 X102.231 Y100.870 E0.01676
G1 X104.281 Y102.920 E0.09102
G1 X104.468 Y102.693 E0.00923
G1 X104.534 Y102.639 E0.00268
G1 X102.765 Y100.870 E0.07853
G1 X103.299 Y100.870 E0.01676
G1 X104.827 Y102.398 E0.06784
G1 X104.903 Y102.335 E0.00310
G1 X105.161 Y102.198 E0.00916
G1 X103.833 Y100.870 E0.05895
G1 X104.366 Y100.870 E0.01676
G1 X105.528 Y102.031 E0.05156
G1 X105.941 Y101.910 E0.01351
G1 X104.900 Y100.870 E0.04619
G1 X105.434 Y100.870 E0.01676
G1 X106.423 Y101.859 E0.04389
G1 X106.500 Y101.851 E0.00243
G1 X106.998 Y101.900 E0.01572
G1 X105.968 Y100.870 E0.04574
G1 X106.502 Y100.870 E0.01676
G1 X114.762 Y109.130 E0.36670
G1 X115.296 Y109.130 E0.01676
G1 X107.036 Y100.870 E0.36670
G1 X107.570 Y100.870 E0.01676
G1 X115.830 Y109.130 E0.36670
G1 X116.364 Y109.130 E0.01676
G1 X108.104 Y100.870 E0.36670
G1 X108.638 Y100.870 E0.01676
G1 X116.898 Y109.130 E0.36670
G1 X117.432 Y109.130 E0.01676
G1 X109.172 Y100.870 E0.36670
G1 X109.705 Y100.870 E0.01676
G1 X117.966 Y109.130 E0.36670
G1 X118.500 Y109.130 E0.01676
G1 X110.239 Y100.870 E0.36670
G1 X110.773 Y100.870 E0.01676
G1 X119.034 Y109.130 E0.36670
G1 X119.567 Y109.130 E0.01676
G1 X111.307 Y100.870 E0.36670
G1 X111.841 Y100.870 E0.01676
G1 X120.101 Y109.130 E0.36670
G1 X120.635 Y109.130 E0.01676
G1 X112.375 Y100.870 E0.36670
G1 X112.909 Y100.870 E0.01676
G1 X121.169 Y109.130 E0.36670
G1 X121.703 Y109.130 E0.01676
G1 X113.443 Y100.870 E0.36670
G1 X113.977 Y100.870 E0.01676
G1 X122.237 Y109.130 E0.36670
G1 X122.771 Y109.130 E0.01676
G1 X114.511 Y100.870 E0.36670
G1 X115.044 Y100.870 E0.01676
G1 X123.305 Y109.130 E0.36670
G1 X123.839 Y109.130 E0.01676
G1 X115.578 Y100.870 E0.36670
G1 X116.112 Y100.870 E0.01676
G1 X124.372 Y109.130 E0.36670
G1 X124.906 Y109.130 E0.01676
G1 X116.646 Y100.870 E0.36670
G1 X117.180 Y100.870 E0.01676
G1 X125.440 Y109.130 E0.36670
G1 X125.974 Y109.130 E0.01676
G1 X117.714 Y100.870 E0.36670
G1 X118.248 Y100.870 E0.01676
G1 X126.508 Y109.130 E0.36670
G1 X127.042 Y109.130 E0.01676
G1 X118.782 Y100.870 E0.36670
G1 X119.316 Y100.870 E0.01676
G1 X127.576 Y109.130 E0.36670
G1 X128.110 Y109.130 E0.01676
G1 X119.850 Y100.870 E0.36670
G1 X120.383 Y100.870 E0.01676
G1 X128.644 Y109.130 E0.36670
G1 X129.178 Y109.130 E0.01676
G1 X120.917 Y100.870 E0.36670
G1 X121.451 Y100.870 E0.01676
G1 X129.711 Y109.130 E0.36670
G1 X130.245 Y109.130 E0.01676
G1 X121.985 Y100.870 E0.36670
G1 X122.519 Y100.870 E0.01676
G1 X130.779 Y109.130 E0.36670
G1 X131.313 Y109.130 E0.01676
G1 X123.053 Y100.870 E0.36670
G1 X123.587 Y100.870 E0.01676
G1 X131.847 Y109.130 E0.36670
M73 P7 R13
G1 X132.381 Y109.130 E0.01676
G1 X124.121 Y100.870 E0.36670
G1 X124.655 Y100.870 E0.01676
G1 X132.915 Y109.130 E0.36670
G1 X133.449 Y109.130 E0.01676
G1 X125.189 Y100.870 E0.36670
G1 X125.722 Y100.870 E0.01676
G1 X133.983 Y109.130 E0.36670
G1 X134.517 Y109.130 E0.01676
G1 X126.256 Y100.870 E0.36670
G1 X126.790 Y100.870 E0.01676
G1 X135.050 Y109.130 E0.36670
G1 X135.584 Y109.130 E0.01676
G1 X127.324 Y100.870 E0.36670
G1 X127.858 Y100.870 E0.01676
G1 X136.118 Y109.130 E0.36670
G1 X136.652 Y109.130 E0.01676
G1 X128.392 Y100.870 E0.36670
G1 X128.926 Y100.870 E0.01676
G1 X137.186 Y109.130 E0.36670
G1 X137.720 Y109.130 E0.01676
G1 X129.460 Y100.870 E0.36670
G1 X129.994 Y100.870 E0.01676
G1 X138.254 Y109.130 E0.36670
G1 X138.788 Y109.130 E0.01676
G1 X130.527 Y100.870 E0.36670
G1 X131.061 Y100.870 E0.01676
G1 X139.322 Y109.130 E0.36670
G1 X139.856 Y109.130 E0.01676
G1 X131.595 Y100.870 E0.36670
G1 X132.129 Y100.870 E0.01676
G1 X140.389 Y109.130 E0.36670
G1 X140.923 Y109.130 E0.01676
G1 X132.663 Y100.870 E0.36670
G1 X133.197 Y100.870 E0.01676
G1 X141.457 Y109.130 E0.36670
G1 X141.991 Y109.130 E0.01676
G1 X133.731 Y100.870 E0.36670
G1 X134.265 Y100.870 E0.01676
G1 X142.525 Y109.130 E0.36670
G1 X143.059 Y109.130 E0.01676
G1 X134.799 Y100.870 E0.36670
G1 X135.333 Y100.870 E0.01676
G1 X143.763 Y109.300 E0.37424
G1 X142.350 Y107.354 F10800.000
G1 F1200
G1 X144.127 Y109.130 E0.07886
G1 X144.661 Y109.130 E0.01676
G1 X143.089 Y107.559 E0.06976
G1 X143.500 Y107.599 E0.01296
G1 X143.649 Y107.585 E0.00470
G1 X145.195 Y109.130 E0.06862
G1 X145.728 Y109.130 E0.01676
G1 X144.123 Y107.525 E0.07126
G1 X144.533 Y107.401 E0.01344
G1 X146.262 Y109.130 E0.07678
G1 X146.796 Y109.130 E0.01676
G1 X144.891 Y107.225 E0.08458
G1 X145.097 Y107.115 E0.00733
G1 X145.217 Y107.017 E0.00486
G1 X147.330 Y109.130 E0.09383
G1 X147.864 Y109.130 E0.01676
G1 X145.510 Y106.776 E0.10451
G1 X145.754 Y106.487 E0.01189
G1 X148.398 Y109.130 E0.11735
G1 X148.932 Y109.130 E0.01676
G1 X145.971 Y106.169 E0.13143
G1 X146.157 Y105.821 E0.01239
G1 X149.466 Y109.130 E0.14691
G1 X150.000 Y109.130 E0.01676
G1 X146.281 Y105.411 E0.16509
G1 X146.319 Y105.286 E0.00412
G1 X146.352 Y104.949 E0.01063
G1 X150.533 Y109.130 E0.18563
G1 X151.067 Y109.130 E0.01676
G1 X146.343 Y104.405 E0.20975
G1 X146.319 Y104.164 E0.00760
G1 X146.181 Y103.710 E0.01491
G1 X151.601 Y109.130 E0.24063
G1 X152.135 Y109.130 E0.01676
G1 X143.875 Y100.870 E0.36670
G1 X144.409 Y100.870 E0.01676
G1 X152.669 Y109.130 E0.36670
G1 X152.812 Y109.130 E0.00447
G1 X153.024 Y108.952 E0.00872
G1 X144.943 Y100.870 E0.35878
G1 X145.477 Y100.870 E0.01676
G1 X153.315 Y108.708 E0.34796
G1 X153.605 Y108.464 E0.01190
G1 X146.011 Y100.870 E0.33715
G1 X146.544 Y100.870 E0.01676
G1 X153.895 Y108.221 E0.32633
G1 X154.186 Y107.977 E0.01190
G1 X147.078 Y100.870 E0.31552
G1 X147.612 Y100.870 E0.01676
G1 X154.476 Y107.734 E0.30471
G1 X154.766 Y107.490 E0.01190
G1 X148.146 Y100.870 E0.29389
G1 X148.680 Y100.870 E0.01676
G1 X155.057 Y107.246 E0.28308
G1 X155.347 Y107.003 E0.01190
G1 X149.214 Y100.870 E0.27226
G1 X149.748 Y100.870 E0.01676
G1 X155.637 Y106.759 E0.26145
G1 X155.927 Y106.516 E0.01190
G1 X150.282 Y100.870 E0.25063
G1 X150.816 Y100.870 E0.01676
G1 X156.218 Y106.272 E0.23982
G1 X156.508 Y106.028 E0.01190
G1 X151.350 Y100.870 E0.22901
G1 X151.883 Y100.870 E0.01676
G1 X156.798 Y105.785 E0.21819
G1 X157.089 Y105.541 E0.01190
G1 X152.417 Y100.870 E0.20738
G1 X152.951 Y100.870 E0.01676
G1 X157.379 Y105.298 E0.19656
G1 X157.669 Y105.054 E0.01190
G1 X153.485 Y100.870 E0.18575
G1 X154.019 Y100.870 E0.01676
G1 X157.960 Y104.810 E0.17494
G1 X158.250 Y104.567 E0.01190
G1 X154.553 Y100.870 E0.16412
G1 X155.087 Y100.870 E0.01676
G1 X158.540 Y104.323 E0.15331
G1 X158.830 Y104.080 E0.01190
G1 X155.621 Y100.870 E0.14249
G1 X156.155 Y100.870 E0.01676
G1 X159.121 Y103.836 E0.13168
G1 X159.411 Y103.592 E0.01190
G1 X156.689 Y100.870 E0.12087
G1 X157.222 Y100.870 E0.01676
G1 X159.701 Y103.349 E0.11005
G1 X159.992 Y103.105 E0.01190
G1 X157.756 Y100.870 E0.09924
G1 X158.290 Y100.870 E0.01676
G1 X160.282 Y102.862 E0.08842
G1 X160.572 Y102.618 E0.01190
G1 X158.824 Y100.870 E0.07761
G1 X159.358 Y100.870 E0.01676
G1 X160.863 Y102.375 E0.06680
G1 X161.153 Y102.131 E0.01190
G1 X159.892 Y100.870 E0.05598
G1 X160.426 Y100.870 E0.01676
G1 X161.443 Y101.887 E0.04517
G1 X161.734 Y101.644 E0.01190
G1 X160.960 Y100.870 E0.03435
G1 X161.494 Y100.870 E0.01676
G1 X162.024 Y101.400 E0.02354
G1 X162.314 Y101.157 E0.01190
G1 X162.027 Y100.870 E0.01273
G1 X162.561 Y100.870 E0.01676
G1 X162.725 Y101.033 E0.00726
G1 E-0.80000 F2100.00000
G1 Z0.800 F10800.000
G1 X143.171 Y100.700
G1 Z0.200
G1 E0.80000 F2100.00000
G1 F1200
G1 X144.515 Y102.044 E0.05966
G1 X144.061 Y101.906 E0.01491
G1 X143.820 Y101.883 E0.00760
G1 X142.807 Y100.870 E0.04495
G1 X142.273 Y100.870 E0.01676
