; generated by PrusaSlicer 2.2.0+win64 on 2022-02-08 at 18:00:56 UTC

; 

; external perimeters extrusion width = 0.45mm
; perimeters extrusion width = 0.45mm
; infill extrusion width = 0.45mm
; solid infill extrusion width = 0.45mm
; top infill extrusion width = 0.40mm
; first layer extrusion width = 0.42mm

M73 P0 R51
M201 X9000 Y9000 Z500 E10000 ; sets maximum accelerations, mm/sec^2
M203 X500 Y500 Z12 E120 ; sets maximum feedrates, mm/sec
M204 P2000 R1500 T2000 ; sets acceleration (P, T) and retract acceleration (R), mm/sec^2
M205 X10.00 Y10.00 Z0.20 E2.50 ; sets the jerk limits, mm/sec
M205 S0 T0 ; sets the minimum extruding and travel feed rate, mm/sec
M107
M862.3 P "MK2S" ; printer model check
M862.1 P0.4 ; nozzle diameter check
G90 ; use absolute coordinates
M83 ; extruder relative mode
M204 S2000 T1500 ; MK2 firmware only supports the old M204 format
M104 S225 ; set extruder temp
M140 S60 ; set bed temp
M190 S60 ; wait for bed temp
M109 S225 ; wait for extruder temp
G28 W ; home all without mesh bed level
G80 ; mesh bed leveling
G1 Y-3.0 F1000.0 ; go outside print area
G92 E0.0
G1 X60.0 E9.0  F1000.0 ; intro line
M73 P0 R51
G1 X100.0 E12.5 F1000.0 ; intro line
G92 E0.0
G21 ; set units to millimeters
G90 ; use absolute coordinates
M83 ; use relative distances for extrusion
M900 K0.05 ; Filament gcode LA 1.5
M900 K30 ; Filament gcode LA 1.0
;BEFORE_LAYER_CHANGE
G92 E0.0
;0.2


G1 E-0.80000 F2100.00000
G1 Z0.400 F10800.000
;AFTER_LAYER_CHANGE
;0.2
G1 X104.503 Y65.420
G1 Z0.200
G1 E0.80000 F2100.00000
M204 S1000
G1 F1200.000
G1 X104.978 Y65.046 E0.01894
G1 X105.531 Y64.803 E0.01894
G1 X106.127 Y64.708 E0.01894
G1 X143.803 Y64.707 E1.18131
G1 X144.649 Y64.864 E0.02696
G1 X145.380 Y65.309 E0.02684
G1 X145.907 Y65.984 E0.02684
G1 X146.160 Y66.806 E0.02696
G1 X153.433 Y142.111 E2.37213
G1 X153.474 Y143.219 E0.03477
G1 X153.177 Y144.101 E0.02919
G1 X152.806 Y144.588 E0.01917
G1 X152.323 Y144.963 E0.01917
G1 X151.757 Y145.205 E0.01929
G1 X151.152 Y145.293 E0.01917
G1 X98.869 Y145.293 E1.63931
G1 X98.263 Y145.210 E0.01917
G1 X97.701 Y144.978 E0.01906
G1 X97.171 Y144.564 E0.02107
G1 X96.780 Y144.023 E0.02095
G1 X96.555 Y143.390 E0.02107
G1 X96.515 Y142.723 E0.02095
G1 X103.835 Y66.848 E2.39004
G1 X103.936 Y66.360 E0.01562
G1 X104.139 Y65.901 E0.01574
G1 X104.467 Y65.468 E0.01706
; printing object Diffuser.stl id:0 copy 0
G1 F8640.000
G1 X104.978 Y65.046 E-0.15291
G1 X105.531 Y64.803 E-0.13946
G1 X106.127 Y64.708 E-0.13946
G1 X107.548 Y64.708 E-0.32816
G1 E-0.04000 F2100.00000
G1 Z0.600 F10800.000
G1 X106.915 Y67.871
G1 Z0.200
G1 E0.80000 F2100.00000
G1 F1200.000
G1 X143.085 Y67.871 E1.13408
G1 X150.251 Y142.129 E2.33911
G1 X99.749 Y142.129 E1.58343
G1 X106.909 Y67.931 E2.33722
G1 X106.573 Y67.494 F10800.000
G1 F1200.000
G1 X143.427 Y67.494 E1.15555
G1 X150.666 Y142.506 E2.36286
G1 X99.334 Y142.506 E1.60947
G1 X106.567 Y67.554 E2.36098
G1 X106.949 Y67.630 F10800.000
G1 F8640.000
G1 X109.858 Y67.549 E-0.76000
G1 E-0.04000 F2100.00000
G1 Z0.600 F10800.000
G1 X99.941 Y141.319
G1 Z0.200
G1 E0.80000 F2100.00000
G1 F1200.000
G1 X100.468 Y141.846 E0.02343
G1 X101.003 Y141.846 E0.01684
G1 X100.144 Y140.987 E0.03824
G1 X100.191 Y140.499 E0.01543
G1 X101.538 Y141.846 E0.05996
G1 X102.073 Y141.846 E0.01684
G1 X100.238 Y140.011 E0.08168
G1 X100.285 Y139.522 E0.01543
G1 X102.608 Y141.846 E0.10341
G1 X103.144 Y141.846 E0.01684
G1 X100.332 Y139.034 E0.12513
G1 X100.379 Y138.546 E0.01543
G1 X103.679 Y141.846 E0.14685
G1 X104.214 Y141.846 E0.01684
G1 X100.426 Y138.058 E0.16858
G1 X100.473 Y137.570 E0.01543
G1 X104.749 Y141.846 E0.19030
G1 X105.285 Y141.846 E0.01684
G1 X100.520 Y137.082 E0.21203
G1 X100.568 Y136.594 E0.01543
G1 X105.820 Y141.846 E0.23375
G1 X106.355 Y141.846 E0.01684
G1 X100.615 Y136.106 E0.25547
G1 X100.662 Y135.617 E0.01543
G1 X106.890 Y141.846 E0.27720
G1 X107.426 Y141.846 E0.01684
G1 X100.709 Y135.129 E0.29892
G1 X100.756 Y134.641 E0.01543
G1 X107.961 Y141.846 E0.32064
G1 X108.496 Y141.846 E0.01684
G1 X100.803 Y134.153 E0.34237
G1 X100.850 Y133.665 E0.01543
G1 X109.031 Y141.846 E0.36409
G1 X109.566 Y141.846 E0.01684
G1 X100.897 Y133.177 E0.38581
G1 X100.944 Y132.689 E0.01543
G1 X110.102 Y141.846 E0.40754
G1 X110.637 Y141.846 E0.01684
G1 X100.992 Y132.201 E0.42926
G1 X101.039 Y131.712 E0.01543
G1 X111.172 Y141.846 E0.45099
G1 X111.707 Y141.846 E0.01684
G1 X101.086 Y131.224 E0.47271
G1 X101.133 Y130.736 E0.01543
G1 X112.243 Y141.846 E0.49443
G1 X112.778 Y141.846 E0.01684
G1 X101.180 Y130.248 E0.51616
G1 X101.227 Y129.760 E0.01543
G1 X113.313 Y141.846 E0.53788
G1 X113.848 Y141.846 E0.01684
G1 X101.274 Y129.272 E0.55960
G1 X101.321 Y128.784 E0.01543
G1 X114.384 Y141.846 E0.58133
G1 X114.919 Y141.846 E0.01684
G1 X101.368 Y128.296 E0.60305
G1 X101.415 Y127.807 E0.01543
G1 X115.454 Y141.846 E0.62477
G1 X115.989 Y141.846 E0.01684
G1 X101.463 Y127.319 E0.64650
G1 X101.510 Y126.831 E0.01543
G1 X116.524 Y141.846 E0.66822
G1 X117.060 Y141.846 E0.01684
G1 X101.557 Y126.343 E0.68995
G1 X101.604 Y125.855 E0.01543
G1 X117.595 Y141.846 E0.71167
M73 P2 R50
G1 X118.130 Y141.846 E0.01684
G1 X101.651 Y125.367 E0.73339
G1 X101.698 Y124.879 E0.01543
G1 X118.665 Y141.846 E0.75512
G1 X119.201 Y141.846 E0.01684
G1 X101.745 Y124.391 E0.77684
G1 X101.792 Y123.902 E0.01543
G1 X119.736 Y141.846 E0.79856
G1 X120.271 Y141.846 E0.01684
G1 X101.839 Y123.414 E0.82029
G1 X101.886 Y122.926 E0.01543
G1 X120.806 Y141.846 E0.84201
G1 X121.341 Y141.846 E0.01684
G1 X101.934 Y122.438 E0.86373
G1 X101.981 Y121.950 E0.01543
G1 X121.877 Y141.846 E0.88546
G1 X122.412 Y141.846 E0.01684
G1 X102.028 Y121.462 E0.90718
G1 X102.075 Y120.974 E0.01543
G1 X122.947 Y141.846 E0.92891
G1 X123.482 Y141.846 E0.01684
G1 X102.122 Y120.486 E0.95063
G1 X102.169 Y119.997 E0.01543
G1 X124.018 Y141.846 E0.97235
G1 X124.553 Y141.846 E0.01684
G1 X102.216 Y119.509 E0.99408
G1 X102.263 Y119.021 E0.01543
G1 X125.088 Y141.846 E1.01580
G1 X125.623 Y141.846 E0.01684
G1 X102.310 Y118.533 E1.03752
G1 X102.358 Y118.045 E0.01543
G1 X126.159 Y141.846 E1.05925
G1 X126.694 Y141.846 E0.01684
G1 X102.405 Y117.557 E1.08097
G1 X102.452 Y117.069 E0.01543
G1 X127.229 Y141.846 E1.10269
G1 X127.764 Y141.846 E0.01684
G1 X102.499 Y116.581 E1.12442
G1 X102.546 Y116.092 E0.01543
G1 X128.299 Y141.846 E1.14614
G1 X128.835 Y141.846 E0.01684
G1 X102.593 Y115.604 E1.16787
G1 X102.640 Y115.116 E0.01543
G1 X129.370 Y141.846 E1.18959
G1 X129.905 Y141.846 E0.01684
G1 X102.687 Y114.628 E1.21131
G1 X102.734 Y114.140 E0.01543
G1 X130.440 Y141.846 E1.23304
G1 X130.976 Y141.846 E0.01684
G1 X102.781 Y113.652 E1.25476
G1 X102.829 Y113.164 E0.01543
G1 X131.511 Y141.846 E1.27648
G1 X132.046 Y141.846 E0.01684
G1 X102.876 Y112.676 E1.29821
G1 X102.923 Y112.187 E0.01543
G1 X132.581 Y141.846 E1.31993
G1 X133.116 Y141.846 E0.01684
G1 X102.970 Y111.699 E1.34165
G1 X103.017 Y111.211 E0.01543
G1 X133.652 Y141.846 E1.36338
G1 X134.187 Y141.846 E0.01684
G1 X103.064 Y110.723 E1.38510
G1 X103.111 Y110.235 E0.01543
G1 X134.722 Y141.846 E1.40683
G1 X135.257 Y141.846 E0.01684
G1 X103.158 Y109.747 E1.42855
G1 X103.205 Y109.259 E0.01543
G1 X135.793 Y141.846 E1.45027
M73 P4 R49
G1 X136.328 Y141.846 E0.01684
G1 X103.252 Y108.771 E1.47200
G1 X103.300 Y108.282 E0.01543
G1 X136.863 Y141.846 E1.49372
G1 X137.398 Y141.846 E0.01684
G1 X103.347 Y107.794 E1.51544
G1 X103.394 Y107.306 E0.01543
G1 X137.934 Y141.846 E1.53717
G1 X138.469 Y141.846 E0.01684
G1 X103.441 Y106.818 E1.55889
G1 X103.488 Y106.330 E0.01543
G1 X139.004 Y141.846 E1.58061
G1 X139.539 Y141.846 E0.01684
G1 X103.535 Y105.842 E1.60234
G1 X103.582 Y105.354 E0.01543
G1 X140.074 Y141.846 E1.62406
G1 X140.610 Y141.846 E0.01684
G1 X103.629 Y104.866 E1.64579
G1 X103.676 Y104.377 E0.01543
G1 X141.145 Y141.846 E1.66751
G1 X141.680 Y141.846 E0.01684
G1 X103.724 Y103.889 E1.68923
G1 X103.771 Y103.401 E0.01543
G1 X142.215 Y141.846 E1.71096
G1 X142.751 Y141.846 E0.01684
G1 X103.818 Y102.913 E1.73268
G1 X103.865 Y102.425 E0.01543
G1 X143.286 Y141.846 E1.75440
G1 X143.821 Y141.846 E0.01684
G1 X103.912 Y101.937 E1.77613
G1 X103.959 Y101.449 E0.01543
G1 X144.356 Y141.846 E1.79785
G1 X144.891 Y141.846 E0.01684
G1 X104.006 Y100.961 E1.81957
G1 X104.053 Y100.472 E0.01543
G1 X145.427 Y141.846 E1.84130
G1 X145.962 Y141.846 E0.01684
G1 X104.100 Y99.984 E1.86302
G1 X104.147 Y99.496 E0.01543
G1 X146.497 Y141.846 E1.88475
G1 X147.032 Y141.846 E0.01684
G1 X104.195 Y99.008 E1.90647
G1 X104.242 Y98.520 E0.01543
G1 X147.568 Y141.846 E1.92819
M73 P6 R48
G1 X148.103 Y141.846 E0.01684
G1 X104.289 Y98.032 E1.94992
G1 X104.336 Y97.544 E0.01543
G1 X148.638 Y141.846 E1.97164
G1 X149.173 Y141.846 E0.01684
G1 X104.383 Y97.056 E1.99336
G1 X104.430 Y96.567 E0.01543
G1 X149.709 Y141.846 E2.01509
G1 X149.939 Y141.846 E0.00726
G1 X149.907 Y141.509 E0.01065
G1 X104.477 Y96.079 E2.02181
G1 X104.524 Y95.591 E0.01543
G1 X149.850 Y140.917 E2.01717
G1 X149.792 Y140.324 E0.01873
G1 X104.571 Y95.103 E2.01253
G1 X104.618 Y94.615 E0.01543
G1 X149.735 Y139.732 E2.00789
G1 X149.678 Y139.139 E0.01873
G1 X104.666 Y94.127 E2.00325
G1 X104.713 Y93.639 E0.01543
G1 X149.621 Y138.547 E1.99861
G1 X149.564 Y137.955 E0.01873
G1 X104.760 Y93.151 E1.99397
G1 X104.807 Y92.662 E0.01543
G1 X149.507 Y137.362 E1.98933
G1 X149.449 Y136.770 E0.01873
G1 X104.854 Y92.174 E1.98469
G1 X104.901 Y91.686 E0.01543
G1 X149.392 Y136.177 E1.98005
G1 X149.335 Y135.585 E0.01873
G1 X104.948 Y91.198 E1.97541
G1 X104.995 Y90.710 E0.01543
G1 X149.278 Y134.993 E1.97077
G1 X149.221 Y134.400 E0.01873
G1 X105.042 Y90.222 E1.96613
G1 X105.090 Y89.734 E0.01543
G1 X149.164 Y133.808 E1.96149
G1 X149.106 Y133.215 E0.01873
G1 X105.137 Y89.246 E1.95685
M73 P7 R47
G1 X105.184 Y88.757 E0.01543
G1 X149.049 Y132.623 E1.95221
G1 X148.992 Y132.031 E0.01873
G1 X105.231 Y88.269 E1.94757
G1 X105.278 Y87.781 E0.01543
G1 X148.935 Y131.438 E1.94293
G1 X148.878 Y130.846 E0.01873
G1 X105.325 Y87.293 E1.93828
G1 X105.372 Y86.805 E0.01543
G1 X148.821 Y130.253 E1.93364
G1 X148.763 Y129.661 E0.01873
G1 X105.419 Y86.317 E1.92900
G1 X105.466 Y85.829 E0.01543
G1 X148.706 Y129.069 E1.92436
G1 X148.649 Y128.476 E0.01873
G1 X105.513 Y85.341 E1.91972
G1 X105.561 Y84.853 E0.01543
G1 X148.592 Y127.884 E1.91508
G1 X148.535 Y127.291 E0.01873
G1 X105.608 Y84.364 E1.91044
G1 X105.655 Y83.876 E0.01543
G1 X148.478 Y126.699 E1.90580
G1 X148.420 Y126.107 E0.01873
G1 X105.702 Y83.388 E1.90116
G1 X105.749 Y82.900 E0.01543
G1 X148.363 Y125.514 E1.89652
G1 X148.306 Y124.922 E0.01873
G1 X105.796 Y82.412 E1.89188
G1 X105.843 Y81.924 E0.01543
G1 X148.249 Y124.330 E1.88724
G1 X148.192 Y123.737 E0.01873
G1 X105.890 Y81.436 E1.88260
G1 X105.937 Y80.948 E0.01543
G1 X148.135 Y123.145 E1.87796
G1 X148.077 Y122.552 E0.01873
G1 X105.984 Y80.459 E1.87332
G1 X106.032 Y79.971 E0.01543
G1 X148.020 Y121.960 E1.86868
G1 X147.963 Y121.368 E0.01873
G1 X106.079 Y79.483 E1.86404
M73 P9 R46
G1 X106.126 Y78.995 E0.01543
G1 X147.906 Y120.775 E1.85940
G1 X147.849 Y120.183 E0.01873
G1 X106.173 Y78.507 E1.85476
G1 X106.220 Y78.019 E0.01543
G1 X147.792 Y119.590 E1.85012
G1 X147.734 Y118.998 E0.01873
G1 X106.267 Y77.531 E1.84548
G1 X106.314 Y77.043 E0.01543
G1 X147.677 Y118.406 E1.84084
G1 X147.620 Y117.813 E0.01873
G1 X106.361 Y76.554 E1.83620
G1 X106.408 Y76.066 E0.01543
G1 X147.563 Y117.221 E1.83155
G1 X147.506 Y116.628 E0.01873
G1 X106.456 Y75.578 E1.82691
G1 X106.503 Y75.090 E0.01543
G1 X147.449 Y116.036 E1.82227
G1 X147.391 Y115.444 E0.01873
G1 X106.550 Y74.602 E1.81763
G1 X106.597 Y74.114 E0.01543
G1 X147.334 Y114.851 E1.81299
G1 X147.277 Y114.259 E0.01873
G1 X106.644 Y73.626 E1.80835
G1 X106.691 Y73.138 E0.01543
G1 X147.220 Y113.666 E1.80371
G1 X147.163 Y113.074 E0.01873
G1 X106.738 Y72.649 E1.79907
G1 X106.785 Y72.161 E0.01543
G1 X147.106 Y112.482 E1.79443
G1 X147.048 Y111.889 E0.01873
G1 X106.832 Y71.673 E1.78979
G1 X106.879 Y71.185 E0.01543
G1 X146.991 Y111.297 E1.78515
G1 X146.934 Y110.704 E0.01873
G1 X106.927 Y70.697 E1.78051
G1 X106.974 Y70.209 E0.01543
G1 X146.877 Y110.112 E1.77587
G1 X146.820 Y109.520 E0.01873
G1 X107.021 Y69.721 E1.77123
G1 X107.068 Y69.233 E0.01543
G1 X146.763 Y108.927 E1.76659
M73 P11 R45
G1 X146.705 Y108.335 E0.01873
G1 X107.115 Y68.744 E1.76195
G1 X107.162 Y68.256 E0.01543
G1 X146.648 Y107.743 E1.75731
G1 X146.591 Y107.150 E0.01873
G1 X107.595 Y68.154 E1.73549
G1 X108.130 Y68.154 E0.01684
G1 X146.534 Y106.558 E1.70913
G1 X146.477 Y105.965 E0.01873
G1 X108.666 Y68.154 E1.68276
G1 X109.201 Y68.154 E0.01684
G1 X146.420 Y105.373 E1.65640
G1 X146.362 Y104.781 E0.01873
G1 X109.736 Y68.154 E1.63004
G1 X110.271 Y68.154 E0.01684
G1 X146.305 Y104.188 E1.60367
G1 X146.248 Y103.596 E0.01873
G1 X110.806 Y68.154 E1.57731
G1 X111.342 Y68.154 E0.01684
G1 X146.191 Y103.003 E1.55094
G1 X146.134 Y102.411 E0.01873
G1 X111.877 Y68.154 E1.52458
G1 X112.412 Y68.154 E0.01684
G1 X146.077 Y101.819 E1.49822
G1 X146.019 Y101.226 E0.01873
G1 X112.947 Y68.154 E1.47185
G1 X113.483 Y68.154 E0.01684
G1 X145.962 Y100.634 E1.44549
G1 X145.905 Y100.041 E0.01873
G1 X114.018 Y68.154 E1.41912
G1 X114.553 Y68.154 E0.01684
G1 X145.848 Y99.449 E1.39276
G1 X145.791 Y98.857 E0.01873
G1 X115.088 Y68.154 E1.36640
G1 X115.624 Y68.154 E0.01684
G1 X145.734 Y98.264 E1.34003
G1 X145.676 Y97.672 E0.01873
G1 X116.159 Y68.154 E1.31367
G1 X116.694 Y68.154 E0.01684
G1 X145.619 Y97.079 E1.28730
G1 X145.562 Y96.487 E0.01873
G1 X117.229 Y68.154 E1.26094
G1 X117.764 Y68.154 E0.01684
G1 X145.505 Y95.895 E1.23458
G1 X145.448 Y95.302 E0.01873
G1 X118.300 Y68.154 E1.20821
G1 X118.835 Y68.154 E0.01684
G1 X145.391 Y94.710 E1.18185
G1 X145.333 Y94.117 E0.01873
G1 X119.370 Y68.154 E1.15548
G1 X119.905 Y68.154 E0.01684
G1 X145.276 Y93.525 E1.12912
M73 P13 R44
G1 X145.219 Y92.933 E0.01873
G1 X120.441 Y68.154 E1.10276
G1 X120.976 Y68.154 E0.01684
G1 X145.162 Y92.340 E1.07639
G1 X145.105 Y91.748 E0.01873
G1 X121.511 Y68.154 E1.05003
G1 X122.046 Y68.154 E0.01684
G1 X145.048 Y91.155 E1.02366
G1 X144.990 Y90.563 E0.01873
G1 X122.581 Y68.154 E0.99730
G1 X123.117 Y68.154 E0.01684
G1 X144.933 Y89.971 E0.97093
G1 X144.876 Y89.378 E0.01873
G1 X123.652 Y68.154 E0.94457
G1 X124.187 Y68.154 E0.01684
G1 X144.819 Y88.786 E0.91821
G1 X144.762 Y88.194 E0.01873
G1 X124.722 Y68.154 E0.89184
G1 X125.258 Y68.154 E0.01684
G1 X144.705 Y87.601 E0.86548
G1 X144.648 Y87.009 E0.01873
G1 X125.793 Y68.154 E0.83911
G1 X126.328 Y68.154 E0.01684
G1 X144.590 Y86.416 E0.81275
G1 X144.533 Y85.824 E0.01873
G1 X126.863 Y68.154 E0.78639
G1 X127.399 Y68.154 E0.01684
G1 X144.476 Y85.232 E0.76002
G1 X144.419 Y84.639 E0.01873
G1 X127.934 Y68.154 E0.73366
G1 X128.469 Y68.154 E0.01684
G1 X144.362 Y84.047 E0.70729
G1 X144.305 Y83.454 E0.01873
G1 X129.004 Y68.154 E0.68093
G1 X129.539 Y68.154 E0.01684
G1 X144.247 Y82.862 E0.65457
G1 X144.190 Y82.270 E0.01873
G1 X130.075 Y68.154 E0.62820
G1 X130.610 Y68.154 E0.01684
G1 X144.133 Y81.677 E0.60184
G1 X144.076 Y81.085 E0.01873
G1 X131.145 Y68.154 E0.57547
G1 X131.680 Y68.154 E0.01684
G1 X144.019 Y80.492 E0.54911
G1 X143.962 Y79.900 E0.01873
G1 X132.216 Y68.154 E0.52275
G1 X132.751 Y68.154 E0.01684
G1 X143.904 Y79.308 E0.49638
G1 X143.847 Y78.715 E0.01873
G1 X133.286 Y68.154 E0.47002
G1 X133.821 Y68.154 E0.01684
G1 X143.790 Y78.123 E0.44365
G1 X143.733 Y77.530 E0.01873
G1 X134.356 Y68.154 E0.41729
G1 X134.892 Y68.154 E0.01684
G1 X143.676 Y76.938 E0.39093
G1 X143.619 Y76.346 E0.01873
G1 X135.427 Y68.154 E0.36456
G1 X135.962 Y68.154 E0.01684
G1 X143.561 Y75.753 E0.33820
G1 X143.504 Y75.161 E0.01873
G1 X136.497 Y68.154 E0.31183
G1 X137.033 Y68.154 E0.01684
G1 X143.447 Y74.568 E0.28547
G1 X143.390 Y73.976 E0.01873
G1 X137.568 Y68.154 E0.25911
G1 X138.103 Y68.154 E0.01684
G1 X143.333 Y73.384 E0.23274
G1 X143.276 Y72.791 E0.01873
G1 X138.638 Y68.154 E0.20638
G1 X139.174 Y68.154 E0.01684
G1 X143.218 Y72.199 E0.18001
G1 X143.161 Y71.607 E0.01873
G1 X139.709 Y68.154 E0.15365
G1 X140.244 Y68.154 E0.01684
G1 X143.104 Y71.014 E0.12728
G1 X143.047 Y70.422 E0.01873
G1 X140.779 Y68.154 E0.10092
G1 X141.314 Y68.154 E0.01684
G1 X142.990 Y69.829 E0.07456
G1 X142.933 Y69.237 E0.01873
G1 X141.850 Y68.154 E0.04819
G1 X142.385 Y68.154 E0.01684
G1 X143.064 Y68.833 E0.03023
