; generated by PrusaSlicer 2.2.0+win64 on 2022-02-08 at 18:04:54 UTC

; 

; external perimeters extrusion width = 0.45mm
; perimeters extrusion width = 0.45mm
; infill extrusion width = 0.45mm
; solid infill extrusion width = 0.45mm
; top infill extrusion width = 0.40mm
; first layer extrusion width = 0.42mm

M73 P0 R273
M201 X9000 Y9000 Z500 E10000 ; sets maximum accelerations, mm/sec^2
M203 X500 Y500 Z12 E120 ; sets maximum feedrates, mm/sec
M204 P2000 R1500 T2000 ; sets acceleration (P, T) and retract acceleration (R), mm/sec^2
M205 X10.00 Y10.00 Z0.20 E2.50 ; sets the jerk limits, mm/sec
M205 S0 T0 ; sets the minimum extruding and travel feed rate, mm/sec
M107
M862.3 P "MK2S" ; printer model check
M862.1 P0.4 ; nozzle diameter check
G90 ; use absolute coordinates
M83 ; extruder relative mode
M204 S2000 T1500 ; MK2 firmware only supports the old M204 format
M104 S225 ; set extruder temp
M140 S60 ; set bed temp
M190 S60 ; wait for bed temp
M109 S225 ; wait for extruder temp
G28 W ; home all without mesh bed level
G80 ; mesh bed leveling
G1 Y-3.0 F1000.0 ; go outside print area
G92 E0.0
G1 X60.0 E9.0  F1000.0 ; intro line
M73 P0 R273
G1 X100.0 E12.5 F1000.0 ; intro line
G92 E0.0
G21 ; set units to millimeters
G90 ; use absolute coordinates
M83 ; use relative distances for extrusion
M900 K0.05 ; Filament gcode LA 1.5
M900 K30 ; Filament gcode LA 1.0
;BEFORE_LAYER_CHANGE
G92 E0.0
;0.2


G1 E-0.80000 F2100.00000
G1 Z0.400 F10800.000
;AFTER_LAYER_CHANGE
;0.2
G1 X46.455 Y23.971
G1 Z0.200
G1 E0.80000 F2100.00000
M204 S1000
G1 F1200.000
G1 X47.349 Y23.791 E0.02860
G1 X202.642 Y23.791 E4.86911
G1 X203.481 Y23.946 E0.02673
G1 X204.214 Y24.388 E0.02684
G1 X204.742 Y25.062 E0.02684
G1 X204.997 Y25.875 E0.02673
G1 X212.328 Y101.870 E2.39383
G1 X212.332 Y183.851 E2.57045
G1 X212.144 Y184.759 E0.02907
G1 X211.623 Y185.525 E0.02907
G1 X210.862 Y186.029 E0.02860
G1 X209.964 Y186.209 E0.02872
G1 X40.045 Y186.209 E5.32768
G1 X39.125 Y186.023 E0.02942
G1 X38.351 Y185.499 E0.02931
G1 X37.849 Y184.742 E0.02849
G1 X37.668 Y183.852 E0.02849
G1 X37.670 Y101.893 E2.56975
G1 X44.997 Y25.925 E2.39299
G1 X45.218 Y25.140 E0.02555
G1 X45.694 Y24.474 E0.02567
G1 X46.405 Y24.004 E0.02672
; printing object Diffuser.stl id:0 copy 3
G1 F8640.000
G1 X47.349 Y23.791 E-0.22354
G1 X49.673 Y23.791 E-0.53646
G1 E-0.04000 F2100.00000
G1 Z0.600 F10800.000
G1 X48.076 Y108.787
G1 Z0.200
G1 E0.80000 F2100.00000
G1 F1200.000
G1 X84.246 Y108.787 E1.13408
G1 X91.412 Y183.045 E2.33911
G1 X40.910 Y183.045 E1.58343
G1 X48.070 Y108.847 E2.33722
G1 X47.734 Y108.410 F10800.000
G1 F1200.000
G1 X84.588 Y108.410 E1.15555
G1 X91.827 Y183.422 E2.36286
G1 X40.495 Y183.422 E1.60947
G1 X47.728 Y108.470 E2.36098
M73 P0 R272
G1 X48.110 Y108.546 F10800.000
G1 F8640.000
G1 X51.019 Y108.464 E-0.76000
G1 E-0.04000 F2100.00000
G1 Z0.600 F10800.000
G1 X41.102 Y182.235
G1 Z0.200
G1 E0.80000 F2100.00000
G1 F1200.000
G1 X41.629 Y182.762 E0.02343
G1 X42.164 Y182.762 E0.01684
G1 X41.305 Y181.903 E0.03824
G1 X41.352 Y181.414 E0.01543
G1 X42.699 Y182.762 E0.05996
G1 X43.234 Y182.762 E0.01684
G1 X41.399 Y180.926 E0.08168
G1 X41.446 Y180.438 E0.01543
G1 X43.770 Y182.762 E0.10341
G1 X44.305 Y182.762 E0.01684
G1 X41.493 Y179.950 E0.12513
G1 X41.540 Y179.462 E0.01543
G1 X44.840 Y182.762 E0.14685
G1 X45.375 Y182.762 E0.01684
G1 X41.587 Y178.974 E0.16858
G1 X41.635 Y178.486 E0.01543
G1 X45.911 Y182.762 E0.19030
G1 X46.446 Y182.762 E0.01684
G1 X41.682 Y177.998 E0.21203
G1 X41.729 Y177.509 E0.01543
G1 X46.981 Y182.762 E0.23375
G1 X47.516 Y182.762 E0.01684
G1 X41.776 Y177.021 E0.25547
G1 X41.823 Y176.533 E0.01543
G1 X48.051 Y182.762 E0.27720
G1 X48.587 Y182.762 E0.01684
G1 X41.870 Y176.045 E0.29892
G1 X41.917 Y175.557 E0.01543
G1 X49.122 Y182.762 E0.32064
G1 X49.657 Y182.762 E0.01684
G1 X41.964 Y175.069 E0.34237
G1 X42.011 Y174.581 E0.01543
G1 X50.192 Y182.762 E0.36409
G1 X50.728 Y182.762 E0.01684
G1 X42.058 Y174.093 E0.38581
G1 X42.106 Y173.604 E0.01543
G1 X51.263 Y182.762 E0.40754
G1 X51.798 Y182.762 E0.01684
G1 X42.153 Y173.116 E0.42926
G1 X42.200 Y172.628 E0.01543
G1 X52.333 Y182.762 E0.45099
G1 X52.868 Y182.762 E0.01684
G1 X42.247 Y172.140 E0.47271
G1 X42.294 Y171.652 E0.01543
G1 X53.404 Y182.762 E0.49443
G1 X53.939 Y182.762 E0.01684
G1 X42.341 Y171.164 E0.51616
G1 X42.388 Y170.676 E0.01543
G1 X54.474 Y182.762 E0.53788
G1 X55.009 Y182.762 E0.01684
G1 X42.435 Y170.188 E0.55960
G1 X42.482 Y169.699 E0.01543
G1 X55.545 Y182.762 E0.58133
G1 X56.080 Y182.762 E0.01684
G1 X42.529 Y169.211 E0.60305
G1 X42.577 Y168.723 E0.01543
G1 X56.615 Y182.762 E0.62477
G1 X57.150 Y182.762 E0.01684
G1 X42.624 Y168.235 E0.64650
G1 X42.671 Y167.747 E0.01543
G1 X57.686 Y182.762 E0.66822
G1 X58.221 Y182.762 E0.01684
G1 X42.718 Y167.259 E0.68995
G1 X42.765 Y166.771 E0.01543
G1 X58.756 Y182.762 E0.71167
G1 X59.291 Y182.762 E0.01684
G1 X42.812 Y166.283 E0.73339
G1 X42.859 Y165.794 E0.01543
G1 X59.826 Y182.762 E0.75512
G1 X60.362 Y182.762 E0.01684
G1 X42.906 Y165.306 E0.77684
G1 X42.953 Y164.818 E0.01543
G1 X60.897 Y182.762 E0.79856
G1 X61.432 Y182.762 E0.01684
G1 X43.001 Y164.330 E0.82029
G1 X43.048 Y163.842 E0.01543
G1 X61.967 Y182.762 E0.84201
G1 X62.503 Y182.762 E0.01684
G1 X43.095 Y163.354 E0.86373
G1 X43.142 Y162.866 E0.01543
G1 X63.038 Y182.762 E0.88546
G1 X63.573 Y182.762 E0.01684
G1 X43.189 Y162.378 E0.90718
G1 X43.236 Y161.889 E0.01543
G1 X64.108 Y182.762 E0.92891
G1 X64.643 Y182.762 E0.01684
G1 X43.283 Y161.401 E0.95063
G1 X43.330 Y160.913 E0.01543
G1 X65.179 Y182.762 E0.97235
G1 X65.714 Y182.762 E0.01684
G1 X43.377 Y160.425 E0.99408
G1 X43.424 Y159.937 E0.01543
G1 X66.249 Y182.762 E1.01580
G1 X66.784 Y182.762 E0.01684
G1 X43.472 Y159.449 E1.03752
G1 X43.519 Y158.961 E0.01543
G1 X67.320 Y182.762 E1.05925
G1 X67.855 Y182.762 E0.01684
G1 X43.566 Y158.473 E1.08097
G1 X43.613 Y157.984 E0.01543
G1 X68.390 Y182.762 E1.10269
G1 X68.925 Y182.762 E0.01684
G1 X43.660 Y157.496 E1.12442
G1 X43.707 Y157.008 E0.01543
G1 X69.461 Y182.762 E1.14614
G1 X69.996 Y182.762 E0.01684
G1 X43.754 Y156.520 E1.16787
G1 X43.801 Y156.032 E0.01543
G1 X70.531 Y182.762 E1.18959
G1 X71.066 Y182.762 E0.01684
G1 X43.848 Y155.544 E1.21131
G1 X43.895 Y155.056 E0.01543
G1 X71.601 Y182.762 E1.23304
G1 X72.137 Y182.762 E0.01684
G1 X43.943 Y154.568 E1.25476
M73 P0 R271
G1 X43.990 Y154.079 E0.01543
G1 X72.672 Y182.762 E1.27648
G1 X73.207 Y182.762 E0.01684
G1 X44.037 Y153.591 E1.29821
G1 X44.084 Y153.103 E0.01543
G1 X73.742 Y182.762 E1.31993
G1 X74.278 Y182.762 E0.01684
G1 X44.131 Y152.615 E1.34165
G1 X44.178 Y152.127 E0.01543
G1 X74.813 Y182.762 E1.36338
G1 X75.348 Y182.762 E0.01684
G1 X44.225 Y151.639 E1.38510
G1 X44.272 Y151.151 E0.01543
G1 X75.883 Y182.762 E1.40683
G1 X76.419 Y182.762 E0.01684
G1 X44.319 Y150.663 E1.42855
G1 X44.367 Y150.174 E0.01543
G1 X76.954 Y182.762 E1.45027
G1 X77.489 Y182.762 E0.01684
G1 X44.414 Y149.686 E1.47200
G1 X44.461 Y149.198 E0.01543
G1 X78.024 Y182.762 E1.49372
G1 X78.559 Y182.762 E0.01684
G1 X44.508 Y148.710 E1.51544
G1 X44.555 Y148.222 E0.01543
G1 X79.095 Y182.762 E1.53717
G1 X79.630 Y182.762 E0.01684
G1 X44.602 Y147.734 E1.55889
G1 X44.649 Y147.246 E0.01543
G1 X80.165 Y182.762 E1.58061
G1 X80.700 Y182.762 E0.01684
G1 X44.696 Y146.758 E1.60234
G1 X44.743 Y146.270 E0.01543
G1 X81.236 Y182.762 E1.62406
G1 X81.771 Y182.762 E0.01684
G1 X44.790 Y145.781 E1.64579
G1 X44.838 Y145.293 E0.01543
G1 X82.306 Y182.762 E1.66751
G1 X82.841 Y182.762 E0.01684
G1 X44.885 Y144.805 E1.68923
G1 X44.932 Y144.317 E0.01543
G1 X83.376 Y182.762 E1.71096
G1 X83.912 Y182.762 E0.01684
G1 X44.979 Y143.829 E1.73268
G1 X45.026 Y143.341 E0.01543
G1 X84.447 Y182.762 E1.75440
G1 X84.982 Y182.762 E0.01684
G1 X45.073 Y142.853 E1.77613
G1 X45.120 Y142.365 E0.01543
G1 X85.517 Y182.762 E1.79785
M73 P1 R270
G1 X86.053 Y182.762 E0.01684
G1 X45.167 Y141.876 E1.81957
G1 X45.214 Y141.388 E0.01543
G1 X86.588 Y182.762 E1.84130
G1 X87.123 Y182.762 E0.01684
G1 X45.261 Y140.900 E1.86302
G1 X45.309 Y140.412 E0.01543
G1 X87.658 Y182.762 E1.88475
G1 X88.194 Y182.762 E0.01684
G1 X45.356 Y139.924 E1.90647
G1 X45.403 Y139.436 E0.01543
G1 X88.729 Y182.762 E1.92819
G1 X89.264 Y182.762 E0.01684
G1 X45.450 Y138.948 E1.94992
G1 X45.497 Y138.460 E0.01543
G1 X89.799 Y182.762 E1.97164
G1 X90.334 Y182.762 E0.01684
G1 X45.544 Y137.971 E1.99336
G1 X45.591 Y137.483 E0.01543
G1 X90.870 Y182.762 E2.01509
G1 X91.100 Y182.762 E0.00726
G1 X91.068 Y182.425 E0.01065
G1 X45.638 Y136.995 E2.02181
G1 X45.685 Y136.507 E0.01543
G1 X91.011 Y181.832 E2.01717
G1 X90.954 Y181.240 E0.01873
G1 X45.733 Y136.019 E2.01253
G1 X45.780 Y135.531 E0.01543
G1 X90.896 Y180.648 E2.00789
G1 X90.839 Y180.055 E0.01873
G1 X45.827 Y135.043 E2.00325
G1 X45.874 Y134.555 E0.01543
G1 X90.782 Y179.463 E1.99861
G1 X90.725 Y178.870 E0.01873
G1 X45.921 Y134.066 E1.99397
G1 X45.968 Y133.578 E0.01543
G1 X90.668 Y178.278 E1.98933
G1 X90.611 Y177.686 E0.01873
G1 X46.015 Y133.090 E1.98469
G1 X46.062 Y132.602 E0.01543
G1 X90.553 Y177.093 E1.98005
M73 P1 R268
G1 X90.496 Y176.501 E0.01873
G1 X46.109 Y132.114 E1.97541
G1 X46.156 Y131.626 E0.01543
G1 X90.439 Y175.908 E1.97077
G1 X90.382 Y175.316 E0.01873
G1 X46.204 Y131.138 E1.96613
G1 X46.251 Y130.650 E0.01543
G1 X90.325 Y174.724 E1.96149
G1 X90.268 Y174.131 E0.01873
G1 X46.298 Y130.161 E1.95685
G1 X46.345 Y129.673 E0.01543
G1 X90.210 Y173.539 E1.95221
G1 X90.153 Y172.946 E0.01873
G1 X46.392 Y129.185 E1.94757
G1 X46.439 Y128.697 E0.01543
G1 X90.096 Y172.354 E1.94293
G1 X90.039 Y171.762 E0.01873
G1 X46.486 Y128.209 E1.93828
G1 X46.533 Y127.721 E0.01543
G1 X89.982 Y171.169 E1.93364
G1 X89.925 Y170.577 E0.01873
G1 X46.580 Y127.233 E1.92900
G1 X46.627 Y126.745 E0.01543
G1 X89.867 Y169.984 E1.92436
G1 X89.810 Y169.392 E0.01873
G1 X46.675 Y126.256 E1.91972
G1 X46.722 Y125.768 E0.01543
G1 X89.753 Y168.800 E1.91508
G1 X89.696 Y168.207 E0.01873
G1 X46.769 Y125.280 E1.91044
G1 X46.816 Y124.792 E0.01543
G1 X89.639 Y167.615 E1.90580
G1 X89.582 Y167.022 E0.01873
G1 X46.863 Y124.304 E1.90116
G1 X46.910 Y123.816 E0.01543
G1 X89.524 Y166.430 E1.89652
G1 X89.467 Y165.838 E0.01873
G1 X46.957 Y123.328 E1.89188
G1 X47.004 Y122.840 E0.01543
G1 X89.410 Y165.245 E1.88724
M73 P1 R267
G1 X89.353 Y164.653 E0.01873
G1 X47.051 Y122.351 E1.88260
G1 X47.099 Y121.863 E0.01543
G1 X89.296 Y164.061 E1.87796
G1 X89.239 Y163.468 E0.01873
G1 X47.146 Y121.375 E1.87332
G1 X47.193 Y120.887 E0.01543
G1 X89.181 Y162.876 E1.86868
G1 X89.124 Y162.283 E0.01873
G1 X47.240 Y120.399 E1.86404
G1 X47.287 Y119.911 E0.01543
G1 X89.067 Y161.691 E1.85940
G1 X89.010 Y161.099 E0.01873
G1 X47.334 Y119.423 E1.85476
G1 X47.381 Y118.935 E0.01543
G1 X88.953 Y160.506 E1.85012
G1 X88.896 Y159.914 E0.01873
G1 X47.428 Y118.446 E1.84548
G1 X47.475 Y117.958 E0.01543
G1 X88.838 Y159.321 E1.84084
G1 X88.781 Y158.729 E0.01873
G1 X47.522 Y117.470 E1.83620
G1 X47.570 Y116.982 E0.01543
G1 X88.724 Y158.137 E1.83155
G1 X88.667 Y157.544 E0.01873
G1 X47.617 Y116.494 E1.82691
G1 X47.664 Y116.006 E0.01543
G1 X88.610 Y156.952 E1.82227
G1 X88.553 Y156.359 E0.01873
G1 X47.711 Y115.518 E1.81763
G1 X47.758 Y115.030 E0.01543
G1 X88.495 Y155.767 E1.81299
G1 X88.438 Y155.175 E0.01873
G1 X47.805 Y114.541 E1.80835
G1 X47.852 Y114.053 E0.01543
G1 X88.381 Y154.582 E1.80371
G1 X88.324 Y153.990 E0.01873
G1 X47.899 Y113.565 E1.79907
G1 X47.946 Y113.077 E0.01543
G1 X88.267 Y153.397 E1.79443
G1 X88.210 Y152.805 E0.01873
G1 X47.993 Y112.589 E1.78979
M73 P2 R266
G1 X48.041 Y112.101 E0.01543
G1 X88.152 Y152.213 E1.78515
G1 X88.095 Y151.620 E0.01873
G1 X48.088 Y111.613 E1.78051
G1 X48.135 Y111.125 E0.01543
G1 X88.038 Y151.028 E1.77587
G1 X87.981 Y150.435 E0.01873
G1 X48.182 Y110.636 E1.77123
G1 X48.229 Y110.148 E0.01543
G1 X87.924 Y149.843 E1.76659
G1 X87.867 Y149.251 E0.01873
G1 X48.276 Y109.660 E1.76195
G1 X48.323 Y109.172 E0.01543
G1 X87.809 Y148.658 E1.75731
G1 X87.752 Y148.066 E0.01873
G1 X48.756 Y109.070 E1.73549
G1 X49.291 Y109.070 E0.01684
G1 X87.695 Y147.474 E1.70913
G1 X87.638 Y146.881 E0.01873
G1 X49.827 Y109.070 E1.68276
G1 X50.362 Y109.070 E0.01684
G1 X87.581 Y146.289 E1.65640
G1 X87.524 Y145.696 E0.01873
G1 X50.897 Y109.070 E1.63004
G1 X51.432 Y109.070 E0.01684
G1 X87.466 Y145.104 E1.60367
G1 X87.409 Y144.512 E0.01873
G1 X51.968 Y109.070 E1.57731
G1 X52.503 Y109.070 E0.01684
G1 X87.352 Y143.919 E1.55094
G1 X87.295 Y143.327 E0.01873
G1 X53.038 Y109.070 E1.52458
G1 X53.573 Y109.070 E0.01684
G1 X87.238 Y142.734 E1.49822
G1 X87.181 Y142.142 E0.01873
G1 X54.109 Y109.070 E1.47185
G1 X54.644 Y109.070 E0.01684
G1 X87.123 Y141.550 E1.44549
G1 X87.066 Y140.957 E0.01873
G1 X55.179 Y109.070 E1.41912
G1 X55.714 Y109.070 E0.01684
G1 X87.009 Y140.365 E1.39276
G1 X86.952 Y139.772 E0.01873
G1 X56.249 Y109.070 E1.36640
G1 X56.785 Y109.070 E0.01684
G1 X86.895 Y139.180 E1.34003
G1 X86.838 Y138.588 E0.01873
G1 X57.320 Y109.070 E1.31367
M73 P2 R265
G1 X57.855 Y109.070 E0.01684
G1 X86.780 Y137.995 E1.28730
G1 X86.723 Y137.403 E0.01873
G1 X58.390 Y109.070 E1.26094
G1 X58.926 Y109.070 E0.01684
G1 X86.666 Y136.810 E1.23458
G1 X86.609 Y136.218 E0.01873
G1 X59.461 Y109.070 E1.20821
G1 X59.996 Y109.070 E0.01684
G1 X86.552 Y135.626 E1.18185
G1 X86.495 Y135.033 E0.01873
G1 X60.531 Y109.070 E1.15548
G1 X61.066 Y109.070 E0.01684
G1 X86.437 Y134.441 E1.12912
G1 X86.380 Y133.848 E0.01873
G1 X61.602 Y109.070 E1.10276
G1 X62.137 Y109.070 E0.01684
G1 X86.323 Y133.256 E1.07639
G1 X86.266 Y132.664 E0.01873
G1 X62.672 Y109.070 E1.05003
G1 X63.207 Y109.070 E0.01684
G1 X86.209 Y132.071 E1.02366
G1 X86.152 Y131.479 E0.01873
G1 X63.743 Y109.070 E0.99730
G1 X64.278 Y109.070 E0.01684
G1 X86.094 Y130.887 E0.97093
G1 X86.037 Y130.294 E0.01873
G1 X64.813 Y109.070 E0.94457
G1 X65.348 Y109.070 E0.01684
G1 X85.980 Y129.702 E0.91821
G1 X85.923 Y129.109 E0.01873
G1 X65.884 Y109.070 E0.89184
G1 X66.419 Y109.070 E0.01684
G1 X85.866 Y128.517 E0.86548
G1 X85.809 Y127.925 E0.01873
G1 X66.954 Y109.070 E0.83911
G1 X67.489 Y109.070 E0.01684
G1 X85.751 Y127.332 E0.81275
G1 X85.694 Y126.740 E0.01873
G1 X68.024 Y109.070 E0.78639
G1 X68.560 Y109.070 E0.01684
G1 X85.637 Y126.147 E0.76002
G1 X85.580 Y125.555 E0.01873
G1 X69.095 Y109.070 E0.73366
G1 X69.630 Y109.070 E0.01684
G1 X85.523 Y124.963 E0.70729
G1 X85.466 Y124.370 E0.01873
G1 X70.165 Y109.070 E0.68093
G1 X70.701 Y109.070 E0.01684
G1 X85.408 Y123.778 E0.65457
G1 X85.351 Y123.185 E0.01873
G1 X71.236 Y109.070 E0.62820
G1 X71.771 Y109.070 E0.01684
G1 X85.294 Y122.593 E0.60184
G1 X85.237 Y122.001 E0.01873
G1 X72.306 Y109.070 E0.57547
G1 X72.841 Y109.070 E0.01684
G1 X85.180 Y121.408 E0.54911
G1 X85.123 Y120.816 E0.01873
G1 X73.377 Y109.070 E0.52275
G1 X73.912 Y109.070 E0.01684
G1 X85.065 Y120.223 E0.49638
G1 X85.008 Y119.631 E0.01873
G1 X74.447 Y109.070 E0.47002
G1 X74.982 Y109.070 E0.01684
G1 X84.951 Y119.039 E0.44365
G1 X84.894 Y118.446 E0.01873
G1 X75.518 Y109.070 E0.41729
G1 X76.053 Y109.070 E0.01684
G1 X84.837 Y117.854 E0.39093
G1 X84.780 Y117.261 E0.01873
G1 X76.588 Y109.070 E0.36456
G1 X77.123 Y109.070 E0.01684
G1 X84.722 Y116.669 E0.33820
G1 X84.665 Y116.077 E0.01873
G1 X77.659 Y109.070 E0.31183
G1 X78.194 Y109.070 E0.01684
G1 X84.608 Y115.484 E0.28547
G1 X84.551 Y114.892 E0.01873
G1 X78.729 Y109.070 E0.25911
G1 X79.264 Y109.070 E0.01684
G1 X84.494 Y114.299 E0.23274
G1 X84.437 Y113.707 E0.01873
G1 X79.799 Y109.070 E0.20638
G1 X80.335 Y109.070 E0.01684
G1 X84.379 Y113.115 E0.18001
G1 X84.322 Y112.522 E0.01873
G1 X80.870 Y109.070 E0.15365
G1 X81.405 Y109.070 E0.01684
G1 X84.265 Y111.930 E0.12728
G1 X84.208 Y111.338 E0.01873
G1 X81.940 Y109.070 E0.10092
G1 X82.476 Y109.070 E0.01684
G1 X84.151 Y110.745 E0.07456
G1 X84.094 Y110.153 E0.01873
G1 X83.011 Y109.070 E0.04819
G1 X83.546 Y109.070 E0.01684
G1 X84.225 Y109.749 E0.03023
; stop printing object Diffuser.stl id:0 copy 3
; printing object Diffuser.stl id:0 copy 2
G1 F8640.000
G1 X83.546 Y109.070 E-0.22178
G1 X83.011 Y109.070 E-0.12359
G1 X84.094 Y110.153 E-0.35361
G1 X84.119 Y110.416 E-0.06103
G1 E-0.04000 F2100.00000
G1 Z0.600 F10800.000
G1 X106.915 Y108.787
G1 Z0.200
G1 E0.80000 F2100.00000
G1 F1200.000
G1 X143.085 Y108.787 E1.13408
G1 X150.251 Y183.045 E2.33911
G1 X99.749 Y183.045 E1.58343
M73 P3 R264
