; generated by PrusaSlicer 2.2.0+win64 on 2022-02-08 at 18:03:48 UTC

; 

; external perimeters extrusion width = 0.45mm
; perimeters extrusion width = 0.45mm
; infill extrusion width = 0.45mm
; solid infill extrusion width = 0.45mm
; top infill extrusion width = 0.40mm
; first layer extrusion width = 0.42mm

M73 P0 R138
M201 X9000 Y9000 Z500 E10000 ; sets maximum accelerations, mm/sec^2
M203 X500 Y500 Z12 E120 ; sets maximum feedrates, mm/sec
M204 P2000 R1500 T2000 ; sets acceleration (P, T) and retract acceleration (R), mm/sec^2
M205 X10.00 Y10.00 Z0.20 E2.50 ; sets the jerk limits, mm/sec
M205 S0 T0 ; sets the minimum extruding and travel feed rate, mm/sec
M107
M862.3 P "MK2S" ; printer model check
M862.1 P0.4 ; nozzle diameter check
G90 ; use absolute coordinates
M83 ; extruder relative mode
M204 S2000 T1500 ; MK2 firmware only supports the old M204 format
M104 S225 ; set extruder temp
M140 S60 ; set bed temp
M190 S60 ; wait for bed temp
M109 S225 ; wait for extruder temp
G28 W ; home all without mesh bed level
G80 ; mesh bed leveling
G1 Y-3.0 F1000.0 ; go outside print area
G92 E0.0
G1 X60.0 E9.0  F1000.0 ; intro line
M73 P0 R138
G1 X100.0 E12.5 F1000.0 ; intro line
G92 E0.0
G21 ; set units to millimeters
G90 ; use absolute coordinates
M83 ; use relative distances for extrusion
M900 K0.05 ; Filament gcode LA 1.5
M900 K30 ; Filament gcode LA 1.0
;BEFORE_LAYER_CHANGE
G92 E0.0
;0.2


G1 E-0.80000 F2100.00000
G1 Z0.400 F10800.000
;AFTER_LAYER_CHANGE
;0.2
G1 X74.625 Y25.168
G1 Z0.200
G1 E0.80000 F2100.00000
M204 S1000
G1 F1200.000
G1 X74.986 Y24.610 E0.02083
G1 X75.487 Y24.174 E0.02083
G1 X76.089 Y23.894 E0.02083
G1 X76.746 Y23.792 E0.02083
G1 X173.223 Y23.791 E3.02497
G1 X174.061 Y23.946 E0.02673
G1 X174.794 Y24.388 E0.02684
G1 X175.323 Y25.062 E0.02684
G1 X175.578 Y25.879 E0.02684
G1 X182.851 Y101.184 E2.37213
G1 X182.895 Y102.292 E0.03477
G1 X182.772 Y102.804 E0.01652
G1 X153.272 Y184.833 E2.73323
G1 X152.913 Y185.388 E0.02071
G1 X152.415 Y185.822 E0.02071
G1 X151.817 Y186.103 E0.02071
G1 X151.165 Y186.208 E0.02071
G1 X98.873 Y186.209 E1.63960
G1 X98.366 Y186.152 E0.01597
G1 X97.884 Y185.988 E0.01597
G1 X97.137 Y185.444 E0.02896
G1 X96.653 Y184.653 E0.02907
G1 X67.112 Y102.339 E2.74208
G1 X67.149 Y101.183 E0.03627
G1 X74.415 Y25.936 E2.37029
G1 X74.609 Y25.226 E0.02308
; printing object Diffuser.stl id:0 copy 2
G1 F8640.000
G1 X74.986 Y24.610 E-0.16666
G1 X75.487 Y24.174 E-0.15341
G1 X76.089 Y23.894 E-0.15341
G1 X76.746 Y23.792 E-0.15341
G1 X77.322 Y23.792 E-0.13310
G1 E-0.04000 F2100.00000
G1 Z0.600 F10800.000
G1 X106.915 Y108.787
G1 Z0.200
G1 E0.80000 F2100.00000
G1 F1200.000
G1 X143.085 Y108.787 E1.13408
G1 X150.251 Y183.045 E2.33911
G1 X99.749 Y183.045 E1.58343
G1 X106.909 Y108.847 E2.33722
G1 X106.573 Y108.410 F10800.000
G1 F1200.000
G1 X143.427 Y108.410 E1.15555
G1 X150.666 Y183.422 E2.36286
G1 X99.334 Y183.422 E1.60947
G1 X106.567 Y108.470 E2.36098
G1 X106.949 Y108.546 F10800.000
G1 F8640.000
G1 X109.858 Y108.464 E-0.76000
G1 E-0.04000 F2100.00000
G1 Z0.600 F10800.000
G1 X99.941 Y182.235
G1 Z0.200
G1 E0.80000 F2100.00000
G1 F1200.000
G1 X100.468 Y182.762 E0.02343
G1 X101.003 Y182.762 E0.01684
G1 X100.144 Y181.903 E0.03824
G1 X100.191 Y181.414 E0.01543
G1 X101.538 Y182.762 E0.05996
G1 X102.073 Y182.762 E0.01684
G1 X100.238 Y180.926 E0.08168
G1 X100.285 Y180.438 E0.01543
G1 X102.608 Y182.762 E0.10341
G1 X103.144 Y182.762 E0.01684
G1 X100.332 Y179.950 E0.12513
G1 X100.379 Y179.462 E0.01543
G1 X103.679 Y182.762 E0.14685
G1 X104.214 Y182.762 E0.01684
G1 X100.426 Y178.974 E0.16858
G1 X100.473 Y178.486 E0.01543
G1 X104.749 Y182.762 E0.19030
G1 X105.285 Y182.762 E0.01684
G1 X100.520 Y177.998 E0.21203
G1 X100.568 Y177.509 E0.01543
G1 X105.820 Y182.762 E0.23375
G1 X106.355 Y182.762 E0.01684
G1 X100.615 Y177.021 E0.25547
G1 X100.662 Y176.533 E0.01543
G1 X106.890 Y182.762 E0.27720
G1 X107.426 Y182.762 E0.01684
G1 X100.709 Y176.045 E0.29892
G1 X100.756 Y175.557 E0.01543
G1 X107.961 Y182.762 E0.32064
G1 X108.496 Y182.762 E0.01684
G1 X100.803 Y175.069 E0.34237
G1 X100.850 Y174.581 E0.01543
G1 X109.031 Y182.762 E0.36409
G1 X109.566 Y182.762 E0.01684
G1 X100.897 Y174.093 E0.38581
G1 X100.944 Y173.604 E0.01543
G1 X110.102 Y182.762 E0.40754
M73 P0 R137
G1 X110.637 Y182.762 E0.01684
G1 X100.992 Y173.116 E0.42926
G1 X101.039 Y172.628 E0.01543
G1 X111.172 Y182.762 E0.45099
G1 X111.707 Y182.762 E0.01684
G1 X101.086 Y172.140 E0.47271
G1 X101.133 Y171.652 E0.01543
G1 X112.243 Y182.762 E0.49443
G1 X112.778 Y182.762 E0.01684
G1 X101.180 Y171.164 E0.51616
G1 X101.227 Y170.676 E0.01543
G1 X113.313 Y182.762 E0.53788
G1 X113.848 Y182.762 E0.01684
G1 X101.274 Y170.188 E0.55960
G1 X101.321 Y169.699 E0.01543
G1 X114.384 Y182.762 E0.58133
G1 X114.919 Y182.762 E0.01684
G1 X101.368 Y169.211 E0.60305
G1 X101.415 Y168.723 E0.01543
G1 X115.454 Y182.762 E0.62477
G1 X115.989 Y182.762 E0.01684
G1 X101.463 Y168.235 E0.64650
G1 X101.510 Y167.747 E0.01543
G1 X116.524 Y182.762 E0.66822
G1 X117.060 Y182.762 E0.01684
G1 X101.557 Y167.259 E0.68995
G1 X101.604 Y166.771 E0.01543
G1 X117.595 Y182.762 E0.71167
G1 X118.130 Y182.762 E0.01684
G1 X101.651 Y166.283 E0.73339
G1 X101.698 Y165.794 E0.01543
G1 X118.665 Y182.762 E0.75512
G1 X119.201 Y182.762 E0.01684
G1 X101.745 Y165.306 E0.77684
G1 X101.792 Y164.818 E0.01543
G1 X119.736 Y182.762 E0.79856
G1 X120.271 Y182.762 E0.01684
G1 X101.839 Y164.330 E0.82029
G1 X101.886 Y163.842 E0.01543
G1 X120.806 Y182.762 E0.84201
G1 X121.341 Y182.762 E0.01684
G1 X101.934 Y163.354 E0.86373
G1 X101.981 Y162.866 E0.01543
G1 X121.877 Y182.762 E0.88546
G1 X122.412 Y182.762 E0.01684
G1 X102.028 Y162.378 E0.90718
G1 X102.075 Y161.889 E0.01543
G1 X122.947 Y182.762 E0.92891
G1 X123.482 Y182.762 E0.01684
G1 X102.122 Y161.401 E0.95063
G1 X102.169 Y160.913 E0.01543
G1 X124.018 Y182.762 E0.97235
G1 X124.553 Y182.762 E0.01684
G1 X102.216 Y160.425 E0.99408
G1 X102.263 Y159.937 E0.01543
G1 X125.088 Y182.762 E1.01580
G1 X125.623 Y182.762 E0.01684
G1 X102.310 Y159.449 E1.03752
G1 X102.358 Y158.961 E0.01543
G1 X126.159 Y182.762 E1.05925
G1 X126.694 Y182.762 E0.01684
G1 X102.405 Y158.473 E1.08097
G1 X102.452 Y157.984 E0.01543
G1 X127.229 Y182.762 E1.10269
G1 X127.764 Y182.762 E0.01684
G1 X102.499 Y157.496 E1.12442
G1 X102.546 Y157.008 E0.01543
G1 X128.299 Y182.762 E1.14614
G1 X128.835 Y182.762 E0.01684
G1 X102.593 Y156.520 E1.16787
G1 X102.640 Y156.032 E0.01543
G1 X129.370 Y182.762 E1.18959
G1 X129.905 Y182.762 E0.01684
G1 X102.687 Y155.544 E1.21131
G1 X102.734 Y155.056 E0.01543
G1 X130.440 Y182.762 E1.23304
G1 X130.976 Y182.762 E0.01684
G1 X102.781 Y154.568 E1.25476
G1 X102.829 Y154.079 E0.01543
G1 X131.511 Y182.762 E1.27648
G1 X132.046 Y182.762 E0.01684
G1 X102.876 Y153.591 E1.29821
G1 X102.923 Y153.103 E0.01543
G1 X132.581 Y182.762 E1.31993
G1 X133.116 Y182.762 E0.01684
G1 X102.970 Y152.615 E1.34165
M73 P1 R136
G1 X103.017 Y152.127 E0.01543
G1 X133.652 Y182.762 E1.36338
G1 X134.187 Y182.762 E0.01684
G1 X103.064 Y151.639 E1.38510
G1 X103.111 Y151.151 E0.01543
G1 X134.722 Y182.762 E1.40683
G1 X135.257 Y182.762 E0.01684
G1 X103.158 Y150.663 E1.42855
G1 X103.205 Y150.174 E0.01543
G1 X135.793 Y182.762 E1.45027
G1 X136.328 Y182.762 E0.01684
G1 X103.252 Y149.686 E1.47200
G1 X103.300 Y149.198 E0.01543
G1 X136.863 Y182.762 E1.49372
G1 X137.398 Y182.762 E0.01684
G1 X103.347 Y148.710 E1.51544
G1 X103.394 Y148.222 E0.01543
G1 X137.934 Y182.762 E1.53717
G1 X138.469 Y182.762 E0.01684
G1 X103.441 Y147.734 E1.55889
G1 X103.488 Y147.246 E0.01543
G1 X139.004 Y182.762 E1.58061
G1 X139.539 Y182.762 E0.01684
G1 X103.535 Y146.758 E1.60234
G1 X103.582 Y146.270 E0.01543
G1 X140.074 Y182.762 E1.62406
G1 X140.610 Y182.762 E0.01684
G1 X103.629 Y145.781 E1.64579
G1 X103.676 Y145.293 E0.01543
G1 X141.145 Y182.762 E1.66751
G1 X141.680 Y182.762 E0.01684
G1 X103.724 Y144.805 E1.68923
G1 X103.771 Y144.317 E0.01543
G1 X142.215 Y182.762 E1.71096
G1 X142.751 Y182.762 E0.01684
G1 X103.818 Y143.829 E1.73268
G1 X103.865 Y143.341 E0.01543
G1 X143.286 Y182.762 E1.75440
G1 X143.821 Y182.762 E0.01684
G1 X103.912 Y142.853 E1.77613
G1 X103.959 Y142.365 E0.01543
G1 X144.356 Y182.762 E1.79785
G1 X144.891 Y182.762 E0.01684
G1 X104.006 Y141.876 E1.81957
G1 X104.053 Y141.388 E0.01543
G1 X145.427 Y182.762 E1.84130
G1 X145.962 Y182.762 E0.01684
G1 X104.100 Y140.900 E1.86302
M73 P2 R135
G1 X104.147 Y140.412 E0.01543
G1 X146.497 Y182.762 E1.88475
G1 X147.032 Y182.762 E0.01684
G1 X104.195 Y139.924 E1.90647
G1 X104.242 Y139.436 E0.01543
G1 X147.568 Y182.762 E1.92819
G1 X148.103 Y182.762 E0.01684
G1 X104.289 Y138.948 E1.94992
G1 X104.336 Y138.460 E0.01543
G1 X148.638 Y182.762 E1.97164
G1 X149.173 Y182.762 E0.01684
G1 X104.383 Y137.971 E1.99336
G1 X104.430 Y137.483 E0.01543
G1 X149.709 Y182.762 E2.01509
G1 X149.939 Y182.762 E0.00726
G1 X149.907 Y182.425 E0.01065
G1 X104.477 Y136.995 E2.02181
G1 X104.524 Y136.507 E0.01543
G1 X149.850 Y181.832 E2.01717
G1 X149.792 Y181.240 E0.01873
G1 X104.571 Y136.019 E2.01253
G1 X104.618 Y135.531 E0.01543
G1 X149.735 Y180.648 E2.00789
G1 X149.678 Y180.055 E0.01873
G1 X104.666 Y135.043 E2.00325
G1 X104.713 Y134.555 E0.01543
G1 X149.621 Y179.463 E1.99861
G1 X149.564 Y178.870 E0.01873
G1 X104.760 Y134.066 E1.99397
G1 X104.807 Y133.578 E0.01543
G1 X149.507 Y178.278 E1.98933
G1 X149.449 Y177.686 E0.01873
G1 X104.854 Y133.090 E1.98469
G1 X104.901 Y132.602 E0.01543
G1 X149.392 Y177.093 E1.98005
G1 X149.335 Y176.501 E0.01873
G1 X104.948 Y132.114 E1.97541
G1 X104.995 Y131.626 E0.01543
G1 X149.278 Y175.908 E1.97077
M73 P3 R134
G1 X149.221 Y175.316 E0.01873
G1 X105.042 Y131.138 E1.96613
G1 X105.090 Y130.650 E0.01543
G1 X149.164 Y174.724 E1.96149
G1 X149.106 Y174.131 E0.01873
G1 X105.137 Y130.161 E1.95685
G1 X105.184 Y129.673 E0.01543
G1 X149.049 Y173.539 E1.95221
G1 X148.992 Y172.946 E0.01873
G1 X105.231 Y129.185 E1.94757
G1 X105.278 Y128.697 E0.01543
G1 X148.935 Y172.354 E1.94293
G1 X148.878 Y171.762 E0.01873
G1 X105.325 Y128.209 E1.93828
G1 X105.372 Y127.721 E0.01543
G1 X148.821 Y171.169 E1.93364
G1 X148.763 Y170.577 E0.01873
G1 X105.419 Y127.233 E1.92900
G1 X105.466 Y126.745 E0.01543
G1 X148.706 Y169.984 E1.92436
G1 X148.649 Y169.392 E0.01873
G1 X105.513 Y126.256 E1.91972
G1 X105.561 Y125.768 E0.01543
G1 X148.592 Y168.800 E1.91508
G1 X148.535 Y168.207 E0.01873
G1 X105.608 Y125.280 E1.91044
G1 X105.655 Y124.792 E0.01543
G1 X148.478 Y167.615 E1.90580
G1 X148.420 Y167.022 E0.01873
G1 X105.702 Y124.304 E1.90116
G1 X105.749 Y123.816 E0.01543
G1 X148.363 Y166.430 E1.89652
G1 X148.306 Y165.838 E0.01873
G1 X105.796 Y123.328 E1.89188
G1 X105.843 Y122.840 E0.01543
G1 X148.249 Y165.245 E1.88724
G1 X148.192 Y164.653 E0.01873
G1 X105.890 Y122.351 E1.88260
G1 X105.937 Y121.863 E0.01543
G1 X148.135 Y164.061 E1.87796
M73 P3 R132
G1 X148.077 Y163.468 E0.01873
G1 X105.984 Y121.375 E1.87332
G1 X106.032 Y120.887 E0.01543
G1 X148.020 Y162.876 E1.86868
G1 X147.963 Y162.283 E0.01873
G1 X106.079 Y120.399 E1.86404
G1 X106.126 Y119.911 E0.01543
G1 X147.906 Y161.691 E1.85940
G1 X147.849 Y161.099 E0.01873
G1 X106.173 Y119.423 E1.85476
G1 X106.220 Y118.935 E0.01543
G1 X147.792 Y160.506 E1.85012
G1 X147.734 Y159.914 E0.01873
G1 X106.267 Y118.446 E1.84548
G1 X106.314 Y117.958 E0.01543
G1 X147.677 Y159.321 E1.84084
G1 X147.620 Y158.729 E0.01873
G1 X106.361 Y117.470 E1.83620
G1 X106.408 Y116.982 E0.01543
G1 X147.563 Y158.137 E1.83155
G1 X147.506 Y157.544 E0.01873
G1 X106.456 Y116.494 E1.82691
G1 X106.503 Y116.006 E0.01543
G1 X147.449 Y156.952 E1.82227
G1 X147.391 Y156.359 E0.01873
G1 X106.550 Y115.518 E1.81763
G1 X106.597 Y115.030 E0.01543
G1 X147.334 Y155.767 E1.81299
G1 X147.277 Y155.175 E0.01873
G1 X106.644 Y114.541 E1.80835
G1 X106.691 Y114.053 E0.01543
G1 X147.220 Y154.582 E1.80371
G1 X147.163 Y153.990 E0.01873
G1 X106.738 Y113.565 E1.79907
G1 X106.785 Y113.077 E0.01543
G1 X147.106 Y153.397 E1.79443
G1 X147.048 Y152.805 E0.01873
G1 X106.832 Y112.589 E1.78979
G1 X106.879 Y112.101 E0.01543
G1 X146.991 Y152.213 E1.78515
G1 X146.934 Y151.620 E0.01873
G1 X106.927 Y111.613 E1.78051
M73 P4 R131
G1 X106.974 Y111.125 E0.01543
G1 X146.877 Y151.028 E1.77587
G1 X146.820 Y150.435 E0.01873
G1 X107.021 Y110.636 E1.77123
G1 X107.068 Y110.148 E0.01543
G1 X146.763 Y149.843 E1.76659
G1 X146.705 Y149.251 E0.01873
G1 X107.115 Y109.660 E1.76195
G1 X107.162 Y109.172 E0.01543
G1 X146.648 Y148.658 E1.75731
G1 X146.591 Y148.066 E0.01873
G1 X107.595 Y109.070 E1.73549
G1 X108.130 Y109.070 E0.01684
G1 X146.534 Y147.474 E1.70913
G1 X146.477 Y146.881 E0.01873
G1 X108.666 Y109.070 E1.68276
G1 X109.201 Y109.070 E0.01684
G1 X146.420 Y146.289 E1.65640
G1 X146.362 Y145.696 E0.01873
G1 X109.736 Y109.070 E1.63004
G1 X110.271 Y109.070 E0.01684
G1 X146.305 Y145.104 E1.60367
G1 X146.248 Y144.512 E0.01873
G1 X110.806 Y109.070 E1.57731
G1 X111.342 Y109.070 E0.01684
G1 X146.191 Y143.919 E1.55094
G1 X146.134 Y143.327 E0.01873
G1 X111.877 Y109.070 E1.52458
G1 X112.412 Y109.070 E0.01684
G1 X146.077 Y142.734 E1.49822
G1 X146.019 Y142.142 E0.01873
G1 X112.947 Y109.070 E1.47185
G1 X113.483 Y109.070 E0.01684
G1 X145.962 Y141.550 E1.44549
G1 X145.905 Y140.957 E0.01873
G1 X114.018 Y109.070 E1.41912
G1 X114.553 Y109.070 E0.01684
G1 X145.848 Y140.365 E1.39276
G1 X145.791 Y139.772 E0.01873
G1 X115.088 Y109.070 E1.36640
G1 X115.624 Y109.070 E0.01684
G1 X145.734 Y139.180 E1.34003
G1 X145.676 Y138.588 E0.01873
G1 X116.159 Y109.070 E1.31367
G1 X116.694 Y109.070 E0.01684
G1 X145.619 Y137.995 E1.28730
G1 X145.562 Y137.403 E0.01873
G1 X117.229 Y109.070 E1.26094
M73 P5 R130
G1 X117.764 Y109.070 E0.01684
G1 X145.505 Y136.810 E1.23458
G1 X145.448 Y136.218 E0.01873
G1 X118.300 Y109.070 E1.20821
G1 X118.835 Y109.070 E0.01684
G1 X145.391 Y135.626 E1.18185
G1 X145.333 Y135.033 E0.01873
G1 X119.370 Y109.070 E1.15548
G1 X119.905 Y109.070 E0.01684
G1 X145.276 Y134.441 E1.12912
G1 X145.219 Y133.848 E0.01873
G1 X120.441 Y109.070 E1.10276
G1 X120.976 Y109.070 E0.01684
G1 X145.162 Y133.256 E1.07639
G1 X145.105 Y132.664 E0.01873
G1 X121.511 Y109.070 E1.05003
G1 X122.046 Y109.070 E0.01684
G1 X145.048 Y132.071 E1.02366
G1 X144.990 Y131.479 E0.01873
G1 X122.581 Y109.070 E0.99730
G1 X123.117 Y109.070 E0.01684
G1 X144.933 Y130.887 E0.97093
G1 X144.876 Y130.294 E0.01873
G1 X123.652 Y109.070 E0.94457
G1 X124.187 Y109.070 E0.01684
G1 X144.819 Y129.702 E0.91821
G1 X144.762 Y129.109 E0.01873
G1 X124.722 Y109.070 E0.89184
G1 X125.258 Y109.070 E0.01684
G1 X144.705 Y128.517 E0.86548
G1 X144.648 Y127.925 E0.01873
G1 X125.793 Y109.070 E0.83911
G1 X126.328 Y109.070 E0.01684
G1 X144.590 Y127.332 E0.81275
G1 X144.533 Y126.740 E0.01873
G1 X126.863 Y109.070 E0.78639
G1 X127.399 Y109.070 E0.01684
G1 X144.476 Y126.147 E0.76002
G1 X144.419 Y125.555 E0.01873
G1 X127.934 Y109.070 E0.73366
G1 X128.469 Y109.070 E0.01684
G1 X144.362 Y124.963 E0.70729
G1 X144.305 Y124.370 E0.01873
G1 X129.004 Y109.070 E0.68093
G1 X129.539 Y109.070 E0.01684
G1 X144.247 Y123.778 E0.65457
G1 X144.190 Y123.185 E0.01873
G1 X130.075 Y109.070 E0.62820
G1 X130.610 Y109.070 E0.01684
G1 X144.133 Y122.593 E0.60184
G1 X144.076 Y122.001 E0.01873
G1 X131.145 Y109.070 E0.57547
G1 X131.680 Y109.070 E0.01684
G1 X144.019 Y121.408 E0.54911
G1 X143.962 Y120.816 E0.01873
G1 X132.216 Y109.070 E0.52275
G1 X132.751 Y109.070 E0.01684
G1 X143.904 Y120.223 E0.49638
G1 X143.847 Y119.631 E0.01873
G1 X133.286 Y109.070 E0.47002
G1 X133.821 Y109.070 E0.01684
G1 X143.790 Y119.039 E0.44365
G1 X143.733 Y118.446 E0.01873
G1 X134.356 Y109.070 E0.41729
G1 X134.892 Y109.070 E0.01684
G1 X143.676 Y117.854 E0.39093
G1 X143.619 Y117.261 E0.01873
G1 X135.427 Y109.070 E0.36456
G1 X135.962 Y109.070 E0.01684
G1 X143.561 Y116.669 E0.33820
G1 X143.504 Y116.077 E0.01873
G1 X136.497 Y109.070 E0.31183
G1 X137.033 Y109.070 E0.01684
G1 X143.447 Y115.484 E0.28547
G1 X143.390 Y114.892 E0.01873
G1 X137.568 Y109.070 E0.25911
G1 X138.103 Y109.070 E0.01684
G1 X143.333 Y114.299 E0.23274
G1 X143.276 Y113.707 E0.01873
G1 X138.638 Y109.070 E0.20638
G1 X139.174 Y109.070 E0.01684
G1 X143.218 Y113.115 E0.18001
G1 X143.161 Y112.522 E0.01873
G1 X139.709 Y109.070 E0.15365
G1 X140.244 Y109.070 E0.01684
G1 X143.104 Y111.930 E0.12728
G1 X143.047 Y111.338 E0.01873
