; generated by PrusaSlicer 2.1.1+win64 on 2019-12-19 at 20:25:43 UTC

; 

; external perimeters extrusion width = 0.45mm
; perimeters extrusion width = 0.45mm
; infill extrusion width = 0.45mm
; solid infill extrusion width = 0.45mm
; top infill extrusion width = 0.40mm
; first layer extrusion width = 0.42mm

M73 P0 R24
M201 X9000 Y9000 Z500 E10000 ; sets maximum accelerations, mm/sec^2
M203 X500 Y500 Z12 E120 ; sets maximum feedrates, mm/sec
M204 P2000 R1500 T2000 ; sets acceleration (P, T) and retract acceleration (R), mm/sec^2
M205 X10.00 Y10.00 Z0.20 E2.50 ; sets the jerk limits, mm/sec
M205 S0 T0 ; sets the minimum extruding and travel feed rate, mm/sec
M107
M862.3 P "MK2S" ; printer model check
M862.1 P0.4 ; nozzle diameter check
M115 U3.2.3 ; tell printer latest fw version
G90 ; use absolute coordinates
M83 ; extruder relative mode
M204 S2000 T1500 ; MK2 firmware only supports the old M204 format
M104 S215 ; set extruder temp
M140 S60 ; set bed temp
M190 S60 ; wait for bed temp
M109 S215 ; wait for extruder temp
G28 W ; home all without mesh bed level
G80 ; mesh bed leveling
G1 Y-3.0 F1000.0 ; go outside print area
G92 E0.0
G1 X60.0 E9.0  F1000.0 ; intro line
M73 P0 R24
G1 X100.0 E12.5 F1000.0 ; intro line
G92 E0.0
G21 ; set units to millimeters
G90 ; use absolute coordinates
M83 ; use relative distances for extrusion
M900 K30 ; Filament gcode
;BEFORE_LAYER_CHANGE
G92 E0.0
;0.2


G1 E-0.80000 F2100.00000
G1 Z0.600 F10800.000
;AFTER_LAYER_CHANGE
;0.2
G1 X102.139 Y86.951
G1 Z0.200
G1 E0.80000 F2100.00000
M204 S1000
G1 F1200
G1 X102.716 Y86.331 E0.02653
G1 X124.755 Y70.469 E0.85138
G1 X125.239 Y70.208 E0.01726
G1 X126.011 Y70.062 E0.02462
G1 X146.004 Y70.061 E0.62686
G1 X146.827 Y70.224 E0.02631
G1 X147.529 Y70.684 E0.02631
G1 X148.006 Y71.374 E0.02631
G1 X148.188 Y72.193 E0.02631
G1 X148.189 Y137.761 E2.05584
G1 X148.103 Y138.356 E0.01885
G1 X147.859 Y138.905 E0.01885
G1 X147.517 Y139.327 E0.01703
G1 X147.079 Y139.654 E0.01714
G1 X146.576 Y139.861 E0.01703
G1 X146.035 Y139.938 E0.01714
G1 X103.985 Y139.938 E1.31844
G1 X103.394 Y139.853 E0.01873
G1 X102.845 Y139.609 E0.01885
G1 X102.420 Y139.264 E0.01714
G1 X102.094 Y138.825 E0.01714
G1 X101.887 Y138.319 E0.01714
G1 X101.812 Y137.778 E0.01714
G1 X101.812 Y88.088 E1.55798
G1 X101.897 Y87.497 E0.01873
G1 X102.115 Y87.005 E0.01685
G1 E-0.80000 F2100.00000
G1 Z0.800 F10800.000
G1 X125.000 Y137.163
G1 Z0.200
G1 E0.80000 F2100.00000
G1 F1200
G1 X104.587 Y137.163 E0.64003
G1 X104.587 Y88.692 E1.51978
G1 X126.614 Y88.766 E0.69066
G1 X126.614 Y72.837 E0.49945
G1 X145.413 Y72.837 E0.58941
G1 X145.413 Y106.786 E1.06444
G1 X140.797 Y111.437 E0.20545
G1 X137.947 Y111.437 E0.08937
G1 X137.769 Y123.087 E0.36532
G1 X145.413 Y123.087 E0.23966
G1 X145.413 Y137.163 E0.44134
G1 X125.060 Y137.163 E0.63815
G1 X125.000 Y137.540 F10800.000
G1 F1200
G1 X104.210 Y137.540 E0.65185
G1 X104.210 Y88.313 E1.54346
G1 X126.237 Y88.388 E0.69066
G1 X126.237 Y72.460 E0.49941
G1 X145.790 Y72.460 E0.61306
G1 X145.790 Y106.941 E1.08114
G1 X140.954 Y111.814 E0.21524
G1 X138.318 Y111.814 E0.08265
G1 X138.152 Y122.710 E0.34167
G1 X145.790 Y122.710 E0.23948
G1 X145.790 Y137.540 E0.46499
G1 X125.060 Y137.540 E0.64998
G1 X124.733 Y137.242 F10800.000
G1 E-0.80000 F2100.00000
G1 Z0.800 F10800.000
G1 X105.464 Y137.050
G1 Z0.200
G1 E0.80000 F2100.00000
G1 F1200
G1 X104.870 Y136.455 E0.02642
G1 X104.870 Y135.921 E0.01680
G1 X105.829 Y136.880 E0.04264
G1 X106.364 Y136.880 E0.01680
G1 X104.870 Y135.386 E0.06640
G1 X104.870 Y134.852 E0.01680
G1 X106.898 Y136.880 E0.09016
G1 X107.433 Y136.880 E0.01680
G1 X104.870 Y134.317 E0.11392
G1 X104.870 Y133.783 E0.01680
G1 X107.967 Y136.880 E0.13768
G1 X108.502 Y136.880 E0.01680
G1 X104.870 Y133.248 E0.16145
G1 X104.870 Y132.713 E0.01680
G1 X109.037 Y136.880 E0.18521
G1 X109.571 Y136.880 E0.01680
G1 X104.870 Y132.179 E0.20897
G1 X104.870 Y131.644 E0.01680
G1 X110.106 Y136.880 E0.23273
G1 X110.640 Y136.880 E0.01680
G1 X104.870 Y131.110 E0.25649
G1 X104.870 Y130.575 E0.01680
G1 X111.175 Y136.880 E0.28025
G1 X111.709 Y136.880 E0.01680
G1 X104.870 Y130.041 E0.30401
G1 X104.870 Y129.506 E0.01680
G1 X112.244 Y136.880 E0.32777
G1 X112.779 Y136.880 E0.01680
G1 X104.870 Y128.971 E0.35153
G1 X104.870 Y128.437 E0.01680
G1 X113.313 Y136.880 E0.37529
G1 X113.848 Y136.880 E0.01680
G1 X104.870 Y127.902 E0.39906
G1 X104.870 Y127.368 E0.01680
G1 X114.382 Y136.880 E0.42282
G1 X114.917 Y136.880 E0.01680
G1 X104.870 Y126.833 E0.44658
G1 X104.870 Y126.299 E0.01680
G1 X115.451 Y136.880 E0.47034
G1 X115.986 Y136.880 E0.01680
G1 X104.870 Y125.764 E0.49410
G1 X104.870 Y125.230 E0.01680
G1 X116.520 Y136.880 E0.51786
G1 X117.055 Y136.880 E0.01680
G1 X104.870 Y124.695 E0.54162
G1 X104.870 Y124.160 E0.01680
G1 X117.590 Y136.880 E0.56538
G1 X118.124 Y136.880 E0.01680
G1 X104.870 Y123.626 E0.58914
G1 X104.870 Y123.091 E0.01680
G1 X118.659 Y136.880 E0.61290
G1 X119.193 Y136.880 E0.01680
G1 X104.870 Y122.557 E0.63666
G1 X104.870 Y122.022 E0.01680
G1 X119.728 Y136.880 E0.66043
G1 X120.262 Y136.880 E0.01680
G1 X104.870 Y121.488 E0.68419
G1 X104.870 Y120.953 E0.01680
G1 X120.797 Y136.880 E0.70795
G1 X121.332 Y136.880 E0.01680
G1 X104.870 Y120.418 E0.73171
G1 X104.870 Y119.884 E0.01680
G1 X121.866 Y136.880 E0.75547
G1 X122.401 Y136.880 E0.01680
G1 X104.870 Y119.349 E0.77923
G1 X104.870 Y118.815 E0.01680
G1 X122.935 Y136.880 E0.80299
M73 P4 R23
G1 X123.470 Y136.880 E0.01680
G1 X104.870 Y118.280 E0.82675
G1 X104.870 Y117.746 E0.01680
G1 X124.004 Y136.880 E0.85051
G1 X124.539 Y136.880 E0.01680
G1 X104.870 Y117.211 E0.87427
G1 X104.870 Y116.677 E0.01680
G1 X125.073 Y136.880 E0.89803
G1 X125.608 Y136.880 E0.01680
G1 X104.870 Y116.142 E0.92180
G1 X104.870 Y115.607 E0.01680
G1 X126.143 Y136.880 E0.94556
G1 X126.677 Y136.880 E0.01680
G1 X104.870 Y115.073 E0.96932
G1 X104.870 Y114.538 E0.01680
G1 X127.212 Y136.880 E0.99308
G1 X127.746 Y136.880 E0.01680
G1 X104.870 Y114.004 E1.01684
G1 X104.870 Y113.469 E0.01680
G1 X128.281 Y136.880 E1.04060
G1 X128.815 Y136.880 E0.01680
G1 X104.870 Y112.935 E1.06436
G1 X104.870 Y112.400 E0.01680
G1 X129.350 Y136.880 E1.08812
G1 X129.885 Y136.880 E0.01680
G1 X104.870 Y111.865 E1.11188
G1 X104.870 Y111.331 E0.01680
G1 X130.419 Y136.880 E1.13564
G1 X130.954 Y136.880 E0.01680
G1 X104.870 Y110.796 E1.15941
G1 X104.870 Y110.262 E0.01680
G1 X131.488 Y136.880 E1.18317
G1 X132.023 Y136.880 E0.01680
G1 X104.870 Y109.727 E1.20693
G1 X104.870 Y109.193 E0.01680
G1 X132.557 Y136.880 E1.23069
G1 X133.092 Y136.880 E0.01680
G1 X104.870 Y108.658 E1.25445
G1 X104.870 Y108.123 E0.01680
G1 X133.627 Y136.880 E1.27821
G1 X134.161 Y136.880 E0.01680
G1 X104.870 Y107.589 E1.30197
G1 X104.870 Y107.054 E0.01680
G1 X134.696 Y136.880 E1.32573
G1 X135.230 Y136.880 E0.01680
G1 X104.870 Y106.520 E1.34949
G1 X104.870 Y105.985 E0.01680
G1 X135.765 Y136.880 E1.37325
G1 X136.299 Y136.880 E0.01680
G1 X104.870 Y105.451 E1.39701
G1 X104.870 Y104.916 E0.01680
G1 X136.834 Y136.880 E1.42078
G1 X137.368 Y136.880 E0.01680
G1 X104.870 Y104.382 E1.44454
G1 X104.870 Y103.847 E0.01680
G1 X137.903 Y136.880 E1.46830
G1 X138.438 Y136.880 E0.01680
G1 X104.870 Y103.312 E1.49206
G1 X104.870 Y102.778 E0.01680
G1 X138.972 Y136.880 E1.51582
G1 X139.507 Y136.880 E0.01680
G1 X104.870 Y102.243 E1.53958
G1 X104.870 Y101.709 E0.01680
G1 X140.041 Y136.880 E1.56334
M73 P8 R22
G1 X140.576 Y136.880 E0.01680
G1 X104.870 Y101.174 E1.58710
G1 X104.870 Y100.640 E0.01680
G1 X141.110 Y136.880 E1.61086
G1 X141.645 Y136.880 E0.01680
G1 X104.870 Y100.105 E1.63462
G1 X104.870 Y99.570 E0.01680
G1 X142.180 Y136.880 E1.65838
G1 X142.714 Y136.880 E0.01680
G1 X104.870 Y99.036 E1.68215
G1 X104.870 Y98.501 E0.01680
G1 X143.249 Y136.880 E1.70591
G1 X143.783 Y136.880 E0.01680
G1 X104.870 Y97.967 E1.72967
G1 X104.870 Y97.432 E0.01680
G1 X144.318 Y136.880 E1.75343
G1 X144.852 Y136.880 E0.01680
G1 X104.870 Y96.898 E1.77719
G1 X104.870 Y96.363 E0.01680
G1 X145.130 Y136.623 E1.78954
G1 X145.130 Y136.089 E0.01680
G1 X104.870 Y95.828 E1.78954
G1 X104.870 Y95.294 E0.01680
G1 X145.130 Y135.554 E1.78954
G1 X145.130 Y135.020 E0.01680
G1 X104.870 Y94.759 E1.78954
G1 X104.870 Y94.225 E0.01680
G1 X145.130 Y134.485 E1.78954
G1 X145.130 Y133.950 E0.01680
G1 X104.870 Y93.690 E1.78954
G1 X104.870 Y93.156 E0.01680
G1 X145.130 Y133.416 E1.78954
G1 X145.130 Y132.881 E0.01680
G1 X104.870 Y92.621 E1.78954
G1 X104.870 Y92.087 E0.01680
G1 X145.130 Y132.347 E1.78954
G1 X145.130 Y131.812 E0.01680
G1 X104.870 Y91.552 E1.78954
G1 X104.870 Y91.017 E0.01680
G1 X145.300 Y131.447 E1.79708
G1 E-0.80000 F2100.00000
G1 Z0.800 F10800.000
G1 X144.536 Y123.200
G1 Z0.200
G1 E0.80000 F2100.00000
G1 F1200
G1 X145.130 Y123.794 E0.02639
G1 X145.130 Y124.328 E0.01680
G1 X144.172 Y123.370 E0.04261
G1 X143.637 Y123.370 E0.01680
G1 X145.130 Y124.863 E0.06637
G1 X145.130 Y125.397 E0.01680
G1 X143.102 Y123.370 E0.09013
G1 X142.568 Y123.370 E0.01680
G1 X145.130 Y125.932 E0.11389
G1 X145.130 Y126.467 E0.01680
G1 X142.033 Y123.370 E0.13765
G1 X141.499 Y123.370 E0.01680
G1 X145.130 Y127.001 E0.16141
G1 X145.130 Y127.536 E0.01680
G1 X140.964 Y123.370 E0.18517
G1 X140.430 Y123.370 E0.01680
G1 X145.130 Y128.070 E0.20893
G1 X145.130 Y128.605 E0.01680
G1 X139.895 Y123.370 E0.23269
G1 X139.361 Y123.370 E0.01680
G1 X145.130 Y129.139 E0.25645
G1 X145.130 Y129.674 E0.01680
G1 X138.826 Y123.370 E0.28021
G1 X138.291 Y123.370 E0.01680
G1 X145.130 Y130.209 E0.30398
M73 P13 R21
G1 X145.130 Y130.743 E0.01680
G1 X104.870 Y90.483 E1.78954
G1 X104.870 Y89.948 E0.01680
G1 X137.494 Y122.573 E1.45013
G1 X137.502 Y122.046 E0.01655
G1 X104.870 Y89.414 E1.45049
G1 X104.870 Y88.976 E0.01377
G1 X104.967 Y88.976 E0.00304
G1 X137.510 Y121.520 E1.44655
G1 X137.518 Y120.993 E0.01655
G1 X105.503 Y88.978 E1.42306
G1 X106.039 Y88.980 E0.01686
G1 X137.527 Y120.467 E1.39958
G1 X137.535 Y119.940 E0.01655
G1 X106.576 Y88.981 E1.37610
G1 X107.112 Y88.983 E0.01686
G1 X137.543 Y119.414 E1.35261
G1 X137.551 Y118.887 E0.01655
G1 X107.648 Y88.985 E1.32913
G1 X108.185 Y88.987 E0.01686
G1 X137.559 Y118.361 E1.30564
G1 X137.567 Y117.834 E0.01655
G1 X108.721 Y88.989 E1.28216
G1 X109.258 Y88.990 E0.01686
G1 X137.575 Y117.307 E1.25867
G1 X137.583 Y116.781 E0.01655
G1 X109.794 Y88.992 E1.23519
G1 X110.330 Y88.994 E0.01686
G1 X137.591 Y116.254 E1.21170
G1 X137.599 Y115.728 E0.01655
G1 X110.867 Y88.996 E1.18822
G1 X111.403 Y88.998 E0.01686
G1 X137.607 Y115.201 E1.16473
G1 X137.615 Y114.675 E0.01655
G1 X111.939 Y88.999 E1.14125
G1 X112.476 Y89.001 E0.01686
G1 X137.623 Y114.148 E1.11776
G1 X137.631 Y113.622 E0.01655
G1 X113.012 Y89.003 E1.09428
G1 X113.549 Y89.005 E0.01686
G1 X137.639 Y113.095 E1.07080
G1 X137.647 Y112.569 E0.01655
G1 X114.085 Y89.007 E1.04731
G1 X114.621 Y89.008 E0.01686
G1 X137.655 Y112.042 E1.02383
G1 X137.663 Y111.516 E0.01655
G1 X115.158 Y89.010 E1.00034
G1 X115.694 Y89.012 E0.01686
G1 X137.836 Y111.154 E0.98420
G1 X138.371 Y111.154 E0.01680
G1 X116.230 Y89.014 E0.98412
G1 X116.767 Y89.016 E0.01686
G1 X138.905 Y111.154 E0.98404
G1 X139.440 Y111.154 E0.01680
G1 X117.303 Y89.018 E0.98396
G1 X117.840 Y89.019 E0.01686
G1 X139.975 Y111.154 E0.98388
G1 X140.509 Y111.154 E0.01680
G1 X118.376 Y89.021 E0.98380
G1 X118.912 Y89.023 E0.01686
G1 X140.861 Y110.972 E0.97560
G1 X141.127 Y110.703 E0.01188
G1 X119.449 Y89.025 E0.96359
G1 X119.985 Y89.027 E0.01686
G1 X141.393 Y110.435 E0.95158
M73 P17 R20
G1 X141.660 Y110.167 E0.01188
G1 X120.522 Y89.028 E0.93958
G1 X121.058 Y89.030 E0.01686
G1 X141.926 Y109.898 E0.92757
G1 X142.192 Y109.630 E0.01188
G1 X121.594 Y89.032 E0.91556
G1 X122.131 Y89.034 E0.01686
G1 X142.458 Y109.362 E0.90356
G1 X142.725 Y109.093 E0.01188
G1 X122.667 Y89.036 E0.89155
G1 X123.203 Y89.037 E0.01686
G1 X142.991 Y108.825 E0.87954
G1 X143.257 Y108.557 E0.01188
G1 X123.740 Y89.039 E0.86754
G1 X124.276 Y89.041 E0.01686
G1 X143.524 Y108.288 E0.85553
G1 X143.790 Y108.020 E0.01188
G1 X124.813 Y89.043 E0.84352
G1 X125.349 Y89.045 E0.01686
G1 X144.056 Y107.752 E0.83152
G1 X144.322 Y107.484 E0.01188
G1 X125.885 Y89.047 E0.81951
G1 X126.422 Y89.048 E0.01686
G1 X144.589 Y107.215 E0.80750
G1 X144.855 Y106.947 E0.01188
G1 X126.897 Y88.989 E0.79820
G1 X126.897 Y88.455 E0.01680
G1 X145.121 Y106.679 E0.81004
G1 X145.130 Y106.153 E0.01652
G1 X126.897 Y87.920 E0.81044
G1 X126.897 Y87.386 E0.01680
G1 X145.130 Y105.619 E0.81044
G1 X145.130 Y105.084 E0.01680
G1 X126.897 Y86.851 E0.81044
G1 X126.897 Y86.317 E0.01680
G1 X145.130 Y104.549 E0.81044
G1 X145.130 Y104.015 E0.01680
G1 X126.897 Y85.782 E0.81044
G1 X126.897 Y85.247 E0.01680
G1 X145.130 Y103.480 E0.81044
G1 X145.130 Y102.946 E0.01680
G1 X126.897 Y84.713 E0.81044
G1 X126.897 Y84.178 E0.01680
G1 X145.130 Y102.411 E0.81044
G1 X145.130 Y101.877 E0.01680
G1 X126.897 Y83.644 E0.81044
G1 X126.897 Y83.109 E0.01680
G1 X145.130 Y101.342 E0.81044
G1 X145.130 Y100.807 E0.01680
G1 X126.897 Y82.575 E0.81044
G1 X126.897 Y82.040 E0.01680
G1 X145.130 Y100.273 E0.81044
G1 X145.130 Y99.738 E0.01680
G1 X126.897 Y81.505 E0.81044
G1 X126.897 Y80.971 E0.01680
G1 X145.130 Y99.204 E0.81044
G1 X145.130 Y98.669 E0.01680
G1 X126.897 Y80.436 E0.81044
G1 X126.897 Y79.902 E0.01680
G1 X145.130 Y98.135 E0.81044
G1 X145.130 Y97.600 E0.01680
G1 X126.897 Y79.367 E0.81044
G1 X126.897 Y78.833 E0.01680
G1 X145.130 Y97.066 E0.81044
G1 X145.130 Y96.531 E0.01680
G1 X126.897 Y78.298 E0.81044
G1 X126.897 Y77.764 E0.01680
G1 X145.130 Y95.996 E0.81044
G1 X145.130 Y95.462 E0.01680
G1 X126.897 Y77.229 E0.81044
G1 X126.897 Y76.694 E0.01680
G1 X145.130 Y94.927 E0.81044
G1 X145.130 Y94.393 E0.01680
G1 X126.897 Y76.160 E0.81044
G1 X126.897 Y75.625 E0.01680
G1 X145.130 Y93.858 E0.81044
G1 X145.130 Y93.324 E0.01680
G1 X126.897 Y75.091 E0.81044
G1 X126.897 Y74.556 E0.01680
G1 X145.130 Y92.789 E0.81044
G1 X145.130 Y92.254 E0.01680
G1 X126.897 Y74.022 E0.81044
G1 X126.897 Y73.487 E0.01680
G1 X145.130 Y91.720 E0.81044
G1 X145.130 Y91.185 E0.01680
G1 X127.065 Y73.120 E0.80299
G1 X127.599 Y73.120 E0.01680
G1 X145.130 Y90.651 E0.77923
G1 X145.130 Y90.116 E0.01680
G1 X128.134 Y73.120 E0.75547
M73 P21 R19
G1 X128.668 Y73.120 E0.01680
G1 X145.130 Y89.582 E0.73171
G1 X145.130 Y89.047 E0.01680
G1 X129.203 Y73.120 E0.70795
G1 X129.737 Y73.120 E0.01680
G1 X145.130 Y88.513 E0.68419
G1 X145.130 Y87.978 E0.01680
G1 X130.272 Y73.120 E0.66043
G1 X130.807 Y73.120 E0.01680
G1 X145.130 Y87.443 E0.63667
G1 X145.130 Y86.909 E0.01680
G1 X131.341 Y73.120 E0.61291
G1 X131.876 Y73.120 E0.01680
G1 X145.130 Y86.374 E0.58915
G1 X145.130 Y85.840 E0.01680
G1 X132.410 Y73.120 E0.56539
G1 X132.945 Y73.120 E0.01680
G1 X145.130 Y85.305 E0.54162
G1 X145.130 Y84.771 E0.01680
G1 X133.479 Y73.120 E0.51786
G1 X134.014 Y73.120 E0.01680
G1 X145.130 Y84.236 E0.49410
G1 X145.130 Y83.701 E0.01680
G1 X134.549 Y73.120 E0.47034
G1 X135.083 Y73.120 E0.01680
G1 X145.130 Y83.167 E0.44658
G1 X145.130 Y82.632 E0.01680
G1 X135.618 Y73.120 E0.42282
G1 X136.152 Y73.120 E0.01680
G1 X145.130 Y82.098 E0.39906
G1 X145.130 Y81.563 E0.01680
G1 X136.687 Y73.120 E0.37530
G1 X137.221 Y73.120 E0.01680
G1 X145.130 Y81.029 E0.35154
G1 X145.130 Y80.494 E0.01680
G1 X137.756 Y73.120 E0.32778
G1 X138.291 Y73.120 E0.01680
G1 X145.130 Y79.959 E0.30402
G1 X145.130 Y79.425 E0.01680
G1 X138.825 Y73.120 E0.28025
G1 X139.360 Y73.120 E0.01680
G1 X145.130 Y78.890 E0.25649
G1 X145.130 Y78.356 E0.01680
G1 X139.894 Y73.120 E0.23273
G1 X140.429 Y73.120 E0.01680
G1 X145.130 Y77.821 E0.20897
G1 X145.130 Y77.287 E0.01680
G1 X140.963 Y73.120 E0.18521
G1 X141.498 Y73.120 E0.01680
G1 X145.130 Y76.752 E0.16145
G1 X145.130 Y76.218 E0.01680
G1 X142.032 Y73.120 E0.13769
G1 X142.567 Y73.120 E0.01680
G1 X145.130 Y75.683 E0.11393
G1 X145.130 Y75.148 E0.01680
G1 X143.102 Y73.120 E0.09017
G1 X143.636 Y73.120 E0.01680
G1 X145.130 Y74.614 E0.06641
G1 X145.130 Y74.079 E0.01680
G1 X144.171 Y73.120 E0.04264
G1 X144.705 Y73.120 E0.01680
G1 X145.300 Y73.714 E0.02643
M106 S255
;BEFORE_LAYER_CHANGE
G92 E0.0
;0.4


G1 E-0.80000 F2100.00000
G1 Z0.800 F10800.000
;AFTER_LAYER_CHANGE
;0.4
M104 S210 ; set temperature
G1 X148.006 Y71.374
G1 Z0.400
G1 E0.80000 F2100.00000
G1 F3000
G1 X148.188 Y72.193 E0.02631
G1 X148.189 Y137.761 E2.05584
