; generated by PrusaSlicer 2.1.1+win64 on 2019-12-19 at 20:25:09 UTC

; 

; external perimeters extrusion width = 0.45mm
; perimeters extrusion width = 0.45mm
; infill extrusion width = 0.45mm
; solid infill extrusion width = 0.45mm
; top infill extrusion width = 0.40mm
; first layer extrusion width = 0.42mm

M73 P0 R76
M201 X9000 Y9000 Z500 E10000 ; sets maximum accelerations, mm/sec^2
M203 X500 Y500 Z12 E120 ; sets maximum feedrates, mm/sec
M204 P2000 R1500 T2000 ; sets acceleration (P, T) and retract acceleration (R), mm/sec^2
M205 X10.00 Y10.00 Z0.20 E2.50 ; sets the jerk limits, mm/sec
M205 S0 T0 ; sets the minimum extruding and travel feed rate, mm/sec
M107
M862.3 P "MK2S" ; printer model check
M862.1 P0.4 ; nozzle diameter check
M115 U3.2.3 ; tell printer latest fw version
G90 ; use absolute coordinates
M83 ; extruder relative mode
M204 S2000 T1500 ; MK2 firmware only supports the old M204 format
M104 S215 ; set extruder temp
M140 S60 ; set bed temp
M190 S60 ; wait for bed temp
M109 S215 ; wait for extruder temp
G28 W ; home all without mesh bed level
G80 ; mesh bed leveling
G1 Y-3.0 F1000.0 ; go outside print area
G92 E0.0
G1 X60.0 E9.0  F1000.0 ; intro line
M73 P0 R76
G1 X100.0 E12.5 F1000.0 ; intro line
G92 E0.0
G21 ; set units to millimeters
G90 ; use absolute coordinates
M83 ; use relative distances for extrusion
M900 K30 ; Filament gcode
;BEFORE_LAYER_CHANGE
G92 E0.0
;0.2


G1 E-0.80000 F2100.00000
G1 Z0.600 F10800.000
;AFTER_LAYER_CHANGE
;0.2
G1 X94.571 Y65.519
G1 Z0.200
G1 E0.80000 F2100.00000
M204 S1000
G1 F1200
G1 X95.472 Y65.312 E0.02900
G1 X153.804 Y65.312 E1.82896
G1 X154.957 Y65.360 E0.03618
G1 X155.795 Y65.735 E0.02878
G1 X156.159 Y66.072 E0.01555
G1 X156.436 Y66.479 E0.01544
G1 X156.615 Y66.938 E0.01544
G1 X156.687 Y67.425 E0.01544
G1 X156.688 Y133.438 E2.06981
G1 X156.549 Y134.189 E0.02394
G1 X156.162 Y134.843 E0.02383
G1 X155.820 Y135.166 E0.01475
G1 X155.419 Y135.406 E0.01464
G1 X154.977 Y135.556 E0.01464
G1 X154.509 Y135.609 E0.01475
G1 X95.482 Y135.609 E1.85077
G1 X94.734 Y135.470 E0.02383
G1 X94.077 Y135.083 E0.02394
G1 X93.754 Y134.740 E0.01475
G1 X93.512 Y134.336 E0.01475
G1 X93.362 Y133.890 E0.01475
G1 X93.311 Y133.426 E0.01464
G1 X93.312 Y67.482 E2.06764
G1 X93.450 Y66.734 E0.02383
G1 X93.838 Y66.077 E0.02394
G1 X94.523 Y65.555 E0.02701
G1 E-0.80000 F2100.00000
G1 Z0.800 F10800.000
G1 X125.000 Y132.611
G1 Z0.200
G1 E0.80000 F2100.00000
G1 F1200
G1 X96.087 Y132.611 E0.90655
G1 X96.087 Y68.087 E2.02311
G1 X153.913 Y68.087 E1.81309
G1 X153.913 Y132.611 E2.02311
G1 X125.060 Y132.611 E0.90466
G1 X125.000 Y132.988 F10800.000
G1 F1200
G1 X95.710 Y132.988 E0.91837
G1 X95.710 Y67.710 E2.04676
G1 X154.290 Y67.710 E1.83673
G1 X154.290 Y132.988 E2.04676
G1 X125.060 Y132.988 E0.91648
G1 X124.685 Y132.742 F10800.000
G1 E-0.80000 F2100.00000
G1 Z0.800 F10800.000
G1 X96.965 Y132.498
G1 Z0.200
G1 E0.80000 F2100.00000
G1 F1200
G1 X96.370 Y131.903 E0.02647
G1 X96.370 Y131.368 E0.01683
G1 X97.330 Y132.328 E0.04272
G1 X97.865 Y132.328 E0.01683
G1 X96.370 Y130.833 E0.06652
G1 X96.370 Y130.298 E0.01683
G1 X98.400 Y132.328 E0.09032
G1 X98.935 Y132.328 E0.01683
G1 X96.370 Y129.763 E0.11411
G1 X96.370 Y129.228 E0.01683
G1 X99.470 Y132.328 E0.13791
G1 X100.005 Y132.328 E0.01683
G1 X96.370 Y128.693 E0.16171
G1 X96.370 Y128.158 E0.01683
G1 X100.540 Y132.328 E0.18551
G1 X101.075 Y132.328 E0.01683
G1 X96.370 Y127.623 E0.20930
G1 X96.370 Y127.088 E0.01683
G1 X101.610 Y132.328 E0.23310
G1 X102.145 Y132.328 E0.01683
G1 X96.370 Y126.553 E0.25690
G1 X96.370 Y126.018 E0.01683
G1 X102.680 Y132.328 E0.28069
G1 X103.215 Y132.328 E0.01683
G1 X96.370 Y125.483 E0.30449
G1 X96.370 Y124.948 E0.01683
G1 X103.750 Y132.328 E0.32829
G1 X104.285 Y132.328 E0.01683
G1 X96.370 Y124.413 E0.35208
G1 X96.370 Y123.878 E0.01683
G1 X104.820 Y132.328 E0.37588
G1 X105.355 Y132.328 E0.01683
G1 X96.370 Y123.343 E0.39968
G1 X96.370 Y122.809 E0.01683
G1 X105.890 Y132.328 E0.42347
G1 X106.425 Y132.328 E0.01683
G1 X96.370 Y122.274 E0.44727
G1 X96.370 Y121.739 E0.01683
G1 X106.960 Y132.328 E0.47107
G1 X107.495 Y132.328 E0.01683
G1 X96.370 Y121.204 E0.49487
G1 X96.370 Y120.669 E0.01683
G1 X108.030 Y132.328 E0.51866
G1 X108.565 Y132.328 E0.01683
G1 X96.370 Y120.134 E0.54246
G1 X96.370 Y119.599 E0.01683
G1 X109.100 Y132.328 E0.56626
G1 X109.635 Y132.328 E0.01683
G1 X96.370 Y119.064 E0.59005
G1 X96.370 Y118.529 E0.01683
G1 X110.170 Y132.328 E0.61385
G1 X110.705 Y132.328 E0.01683
G1 X96.370 Y117.994 E0.63765
G1 X96.370 Y117.459 E0.01683
G1 X111.239 Y132.328 E0.66144
G1 X111.774 Y132.328 E0.01683
G1 X96.370 Y116.924 E0.68524
G1 X96.370 Y116.389 E0.01683
G1 X112.309 Y132.328 E0.70904
M73 P1 R75
G1 X112.844 Y132.328 E0.01683
G1 X96.370 Y115.854 E0.73283
G1 X96.370 Y115.319 E0.01683
G1 X113.379 Y132.328 E0.75663
G1 X113.914 Y132.328 E0.01683
G1 X96.370 Y114.784 E0.78043
G1 X96.370 Y114.249 E0.01683
G1 X114.449 Y132.328 E0.80422
G1 X114.984 Y132.328 E0.01683
G1 X96.370 Y113.714 E0.82802
G1 X96.370 Y113.179 E0.01683
G1 X115.519 Y132.328 E0.85182
G1 X116.054 Y132.328 E0.01683
G1 X96.370 Y112.644 E0.87562
G1 X96.370 Y112.109 E0.01683
G1 X116.589 Y132.328 E0.89941
G1 X117.124 Y132.328 E0.01683
G1 X96.370 Y111.574 E0.92321
G1 X96.370 Y111.039 E0.01683
G1 X117.659 Y132.328 E0.94701
G1 X118.194 Y132.328 E0.01683
G1 X96.370 Y110.504 E0.97080
G1 X96.370 Y109.969 E0.01683
G1 X118.729 Y132.328 E0.99460
G1 X119.264 Y132.328 E0.01683
G1 X96.370 Y109.434 E1.01840
G1 X96.370 Y108.899 E0.01683
G1 X119.799 Y132.328 E1.04219
G1 X120.334 Y132.328 E0.01683
G1 X96.370 Y108.364 E1.06599
G1 X96.370 Y107.829 E0.01683
G1 X120.869 Y132.328 E1.08979
G1 X121.404 Y132.328 E0.01683
G1 X96.370 Y107.294 E1.11358
G1 X96.370 Y106.759 E0.01683
G1 X121.939 Y132.328 E1.13738
G1 X122.474 Y132.328 E0.01683
G1 X96.370 Y106.225 E1.16118
G1 X96.370 Y105.690 E0.01683
G1 X123.009 Y132.328 E1.18498
G1 X123.544 Y132.328 E0.01683
G1 X96.370 Y105.155 E1.20877
G1 X96.370 Y104.620 E0.01683
G1 X124.079 Y132.328 E1.23257
G1 X124.614 Y132.328 E0.01683
G1 X96.370 Y104.085 E1.25637
G1 X96.370 Y103.550 E0.01683
G1 X125.149 Y132.328 E1.28016
G1 X125.684 Y132.329 E0.01683
G1 X96.370 Y103.015 E1.30396
G1 X96.370 Y102.480 E0.01683
G1 X126.219 Y132.329 E1.32776
G1 X126.754 Y132.329 E0.01683
G1 X96.370 Y101.945 E1.35155
G1 X96.370 Y101.410 E0.01683
G1 X127.289 Y132.329 E1.37535
G1 X127.824 Y132.329 E0.01683
G1 X96.370 Y100.875 E1.39915
G1 X96.370 Y100.340 E0.01683
G1 X128.359 Y132.329 E1.42294
G1 X128.893 Y132.329 E0.01683
G1 X96.370 Y99.805 E1.44674
G1 X96.370 Y99.270 E0.01683
G1 X129.428 Y132.329 E1.47054
G1 X129.963 Y132.329 E0.01683
G1 X96.370 Y98.735 E1.49434
G1 X96.370 Y98.200 E0.01683
G1 X130.498 Y132.329 E1.51813
M73 P2 R74
G1 X131.033 Y132.329 E0.01683
G1 X96.370 Y97.665 E1.54193
G1 X96.370 Y97.130 E0.01683
G1 X131.568 Y132.329 E1.56573
G1 X132.103 Y132.329 E0.01683
G1 X96.370 Y96.595 E1.58952
G1 X96.370 Y96.060 E0.01683
G1 X132.638 Y132.329 E1.61332
G1 X133.173 Y132.329 E0.01683
G1 X96.370 Y95.525 E1.63712
G1 X96.370 Y94.990 E0.01683
G1 X133.708 Y132.329 E1.66091
G1 X134.243 Y132.329 E0.01683
G1 X96.370 Y94.455 E1.68471
G1 X96.370 Y93.920 E0.01683
G1 X134.778 Y132.329 E1.70851
G1 X135.313 Y132.329 E0.01683
G1 X96.370 Y93.385 E1.73230
G1 X96.370 Y92.850 E0.01683
G1 X135.848 Y132.329 E1.75610
G1 X136.383 Y132.329 E0.01683
G1 X96.370 Y92.315 E1.77990
G1 X96.370 Y91.780 E0.01683
G1 X136.918 Y132.329 E1.80369
G1 X137.453 Y132.329 E0.01683
G1 X96.370 Y91.245 E1.82749
G1 X96.370 Y90.710 E0.01683
G1 X137.988 Y132.329 E1.85129
G1 X138.523 Y132.329 E0.01683
G1 X96.370 Y90.175 E1.87509
G1 X96.370 Y89.641 E0.01683
G1 X139.058 Y132.329 E1.89888
G1 X139.593 Y132.329 E0.01683
G1 X96.370 Y89.106 E1.92268
G1 X96.370 Y88.571 E0.01683
G1 X140.128 Y132.329 E1.94648
G1 X140.663 Y132.329 E0.01683
G1 X96.370 Y88.036 E1.97027
G1 X96.370 Y87.501 E0.01683
G1 X141.198 Y132.329 E1.99407
G1 X141.733 Y132.329 E0.01683
G1 X96.370 Y86.966 E2.01787
M73 P4 R73
G1 X96.370 Y86.431 E0.01683
G1 X142.268 Y132.329 E2.04166
G1 X142.803 Y132.329 E0.01683
G1 X96.370 Y85.896 E2.06546
G1 X96.370 Y85.361 E0.01683
G1 X143.338 Y132.329 E2.08926
G1 X143.873 Y132.329 E0.01683
G1 X96.370 Y84.826 E2.11305
G1 X96.370 Y84.291 E0.01683
G1 X144.408 Y132.329 E2.13685
G1 X144.943 Y132.329 E0.01683
G1 X96.370 Y83.756 E2.16065
G1 X96.370 Y83.221 E0.01683
G1 X145.478 Y132.329 E2.18445
G1 X146.012 Y132.329 E0.01683
G1 X96.370 Y82.686 E2.20824
G1 X96.370 Y82.151 E0.01683
G1 X146.547 Y132.329 E2.23204
G1 X147.082 Y132.329 E0.01683
G1 X96.370 Y81.616 E2.25584
G1 X96.370 Y81.081 E0.01683
G1 X147.617 Y132.329 E2.27963
G1 X148.152 Y132.329 E0.01683
G1 X96.370 Y80.546 E2.30343
G1 X96.370 Y80.011 E0.01683
G1 X148.687 Y132.329 E2.32723
G1 X149.222 Y132.329 E0.01683
G1 X96.370 Y79.476 E2.35102
G1 X96.370 Y78.941 E0.01683
G1 X149.757 Y132.329 E2.37482
G1 X150.292 Y132.329 E0.01683
G1 X96.370 Y78.406 E2.39862
G1 X96.370 Y77.871 E0.01683
G1 X150.827 Y132.329 E2.42241
M73 P5 R72
G1 X151.362 Y132.329 E0.01683
G1 X96.370 Y77.336 E2.44621
G1 X96.370 Y76.801 E0.01683
G1 X151.897 Y132.329 E2.47001
G1 X152.432 Y132.329 E0.01683
G1 X96.370 Y76.266 E2.49381
G1 X96.370 Y75.731 E0.01683
G1 X152.967 Y132.329 E2.51760
G1 X153.502 Y132.329 E0.01683
G1 X96.370 Y75.196 E2.54140
G1 X96.370 Y74.661 E0.01683
G1 X153.630 Y131.922 E2.54709
G1 X153.630 Y131.387 E0.01683
G1 X96.370 Y74.126 E2.54709
G1 X96.370 Y73.591 E0.01683
G1 X153.630 Y130.852 E2.54709
G1 X153.630 Y130.317 E0.01683
G1 X96.370 Y73.057 E2.54709
G1 X96.370 Y72.522 E0.01683
G1 X153.630 Y129.782 E2.54709
G1 X153.630 Y129.247 E0.01683
G1 X96.370 Y71.987 E2.54709
G1 X96.370 Y71.452 E0.01683
G1 X153.630 Y128.712 E2.54709
G1 X153.630 Y128.177 E0.01683
G1 X96.370 Y70.917 E2.54709
G1 X96.370 Y70.382 E0.01683
G1 X153.630 Y127.642 E2.54709
G1 X153.630 Y127.107 E0.01683
G1 X96.370 Y69.847 E2.54709
M73 P6 R71
G1 X96.370 Y69.312 E0.01683
G1 X153.630 Y126.572 E2.54709
G1 X153.630 Y126.037 E0.01683
G1 X96.370 Y68.777 E2.54709
G1 X96.370 Y68.370 E0.01280
G1 X96.498 Y68.370 E0.00403
G1 X153.630 Y125.502 E2.54140
G1 X153.630 Y124.967 E0.01683
G1 X97.033 Y68.370 E2.51760
G1 X97.568 Y68.370 E0.01683
G1 X153.630 Y124.432 E2.49381
G1 X153.630 Y123.897 E0.01683
G1 X98.103 Y68.370 E2.47001
G1 X98.638 Y68.370 E0.01683
G1 X153.630 Y123.362 E2.44621
G1 X153.630 Y122.827 E0.01683
G1 X99.173 Y68.370 E2.42242
G1 X99.708 Y68.370 E0.01683
G1 X153.630 Y122.292 E2.39862
G1 X153.630 Y121.757 E0.01683
G1 X100.243 Y68.370 E2.37482
G1 X100.778 Y68.370 E0.01683
G1 X153.630 Y121.222 E2.35102
G1 X153.630 Y120.687 E0.01683
G1 X101.313 Y68.370 E2.32723
G1 X101.848 Y68.370 E0.01683
G1 X153.630 Y120.152 E2.30343
G1 X153.630 Y119.617 E0.01683
G1 X102.383 Y68.370 E2.27963
G1 X102.918 Y68.370 E0.01683
G1 X153.630 Y119.082 E2.25584
G1 X153.630 Y118.547 E0.01683
G1 X103.453 Y68.370 E2.23204
M73 P8 R70
G1 X103.988 Y68.370 E0.01683
G1 X153.630 Y118.012 E2.20824
G1 X153.630 Y117.477 E0.01683
G1 X104.522 Y68.370 E2.18445
G1 X105.057 Y68.370 E0.01683
G1 X153.630 Y116.942 E2.16065
G1 X153.630 Y116.408 E0.01683
G1 X105.592 Y68.370 E2.13685
G1 X106.127 Y68.370 E0.01683
G1 X153.630 Y115.873 E2.11306
G1 X153.630 Y115.338 E0.01683
G1 X106.662 Y68.370 E2.08926
G1 X107.197 Y68.370 E0.01683
G1 X153.630 Y114.803 E2.06546
G1 X153.630 Y114.268 E0.01683
G1 X107.732 Y68.370 E2.04166
G1 X108.267 Y68.370 E0.01683
G1 X153.630 Y113.733 E2.01787
G1 X153.630 Y113.198 E0.01683
G1 X108.802 Y68.370 E1.99407
G1 X109.337 Y68.370 E0.01683
G1 X153.630 Y112.663 E1.97027
G1 X153.630 Y112.128 E0.01683
G1 X109.872 Y68.370 E1.94648
G1 X110.407 Y68.370 E0.01683
G1 X153.630 Y111.593 E1.92268
G1 X153.630 Y111.058 E0.01683
G1 X110.942 Y68.370 E1.89888
G1 X111.477 Y68.370 E0.01683
G1 X153.630 Y110.523 E1.87509
G1 X153.630 Y109.988 E0.01683
G1 X112.012 Y68.370 E1.85129
G1 X112.547 Y68.370 E0.01683
G1 X153.630 Y109.453 E1.82749
G1 X153.630 Y108.918 E0.01683
G1 X113.082 Y68.370 E1.80370
G1 X113.617 Y68.370 E0.01683
G1 X153.630 Y108.383 E1.77990
M73 P9 R69
G1 X153.630 Y107.848 E0.01683
G1 X114.152 Y68.370 E1.75610
G1 X114.687 Y68.370 E0.01683
G1 X153.630 Y107.313 E1.73230
G1 X153.630 Y106.778 E0.01683
G1 X115.222 Y68.370 E1.70851
G1 X115.757 Y68.370 E0.01683
G1 X153.630 Y106.243 E1.68471
G1 X153.630 Y105.708 E0.01683
G1 X116.292 Y68.370 E1.66091
G1 X116.827 Y68.370 E0.01683
G1 X153.630 Y105.173 E1.63712
G1 X153.630 Y104.638 E0.01683
G1 X117.362 Y68.370 E1.61332
G1 X117.897 Y68.370 E0.01683
G1 X153.630 Y104.103 E1.58952
G1 X153.630 Y103.568 E0.01683
G1 X118.432 Y68.370 E1.56573
G1 X118.967 Y68.370 E0.01683
G1 X153.630 Y103.033 E1.54193
G1 X153.630 Y102.498 E0.01683
G1 X119.502 Y68.370 E1.51813
G1 X120.037 Y68.370 E0.01683
G1 X153.630 Y101.963 E1.49434
G1 X153.630 Y101.428 E0.01683
G1 X120.572 Y68.370 E1.47054
G1 X121.107 Y68.370 E0.01683
G1 X153.630 Y100.893 E1.44674
G1 X153.630 Y100.358 E0.01683
G1 X121.642 Y68.370 E1.42294
G1 X122.176 Y68.370 E0.01683
G1 X153.630 Y99.824 E1.39915
G1 X153.630 Y99.289 E0.01683
G1 X122.711 Y68.370 E1.37535
G1 X123.246 Y68.370 E0.01683
G1 X153.630 Y98.754 E1.35155
G1 X153.630 Y98.219 E0.01683
G1 X123.781 Y68.370 E1.32776
G1 X124.316 Y68.370 E0.01683
G1 X153.630 Y97.684 E1.30396
G1 X153.630 Y97.149 E0.01683
G1 X124.851 Y68.370 E1.28016
G1 X125.386 Y68.370 E0.01683
G1 X153.630 Y96.614 E1.25637
G1 X153.630 Y96.079 E0.01683
G1 X125.921 Y68.370 E1.23257
G1 X126.456 Y68.370 E0.01683
G1 X153.630 Y95.544 E1.20877
G1 X153.630 Y95.009 E0.01683
G1 X126.991 Y68.370 E1.18497
G1 X127.526 Y68.370 E0.01683
G1 X153.630 Y94.474 E1.16118
M73 P10 R68
G1 X153.630 Y93.939 E0.01683
G1 X128.061 Y68.370 E1.13738
G1 X128.596 Y68.370 E0.01683
G1 X153.630 Y93.404 E1.11358
G1 X153.630 Y92.869 E0.01683
G1 X129.131 Y68.370 E1.08979
G1 X129.666 Y68.370 E0.01683
G1 X153.630 Y92.334 E1.06599
G1 X153.630 Y91.799 E0.01683
G1 X130.201 Y68.370 E1.04219
G1 X130.736 Y68.370 E0.01683
G1 X153.630 Y91.264 E1.01840
G1 X153.630 Y90.729 E0.01683
G1 X131.271 Y68.370 E0.99460
G1 X131.806 Y68.370 E0.01683
G1 X153.630 Y90.194 E0.97080
G1 X153.630 Y89.659 E0.01683
G1 X132.341 Y68.370 E0.94701
G1 X132.876 Y68.370 E0.01683
G1 X153.630 Y89.124 E0.92321
G1 X153.630 Y88.589 E0.01683
G1 X133.411 Y68.370 E0.89941
G1 X133.946 Y68.370 E0.01683
G1 X153.630 Y88.054 E0.87561
G1 X153.630 Y87.519 E0.01683
G1 X134.481 Y68.370 E0.85182
G1 X135.016 Y68.370 E0.01683
G1 X153.630 Y86.984 E0.82802
G1 X153.630 Y86.449 E0.01683
G1 X135.551 Y68.370 E0.80422
G1 X136.086 Y68.370 E0.01683
G1 X153.630 Y85.914 E0.78043
G1 X153.630 Y85.379 E0.01683
G1 X136.621 Y68.370 E0.75663
G1 X137.156 Y68.370 E0.01683
G1 X153.630 Y84.844 E0.73283
G1 X153.630 Y84.309 E0.01683
G1 X137.691 Y68.370 E0.70904
G1 X138.226 Y68.370 E0.01683
G1 X153.630 Y83.774 E0.68524
G1 X153.630 Y83.240 E0.01683
G1 X138.761 Y68.370 E0.66144
G1 X139.296 Y68.370 E0.01683
G1 X153.630 Y82.705 E0.63765
G1 X153.630 Y82.170 E0.01683
G1 X139.830 Y68.370 E0.61385
G1 X140.365 Y68.370 E0.01683
G1 X153.630 Y81.635 E0.59005
G1 X153.630 Y81.100 E0.01683
G1 X140.900 Y68.370 E0.56625
G1 X141.435 Y68.370 E0.01683
G1 X153.630 Y80.565 E0.54246
G1 X153.630 Y80.030 E0.01683
G1 X141.970 Y68.370 E0.51866
G1 X142.505 Y68.370 E0.01683
G1 X153.630 Y79.495 E0.49486
G1 X153.630 Y78.960 E0.01683
G1 X143.040 Y68.370 E0.47107
G1 X143.575 Y68.370 E0.01683
G1 X153.630 Y78.425 E0.44727
G1 X153.630 Y77.890 E0.01683
G1 X144.110 Y68.370 E0.42347
G1 X144.645 Y68.370 E0.01683
G1 X153.630 Y77.355 E0.39968
G1 X153.630 Y76.820 E0.01683
G1 X145.180 Y68.370 E0.37588
G1 X145.715 Y68.370 E0.01683
G1 X153.630 Y76.285 E0.35208
G1 X153.630 Y75.750 E0.01683
G1 X146.250 Y68.370 E0.32829
G1 X146.785 Y68.370 E0.01683
G1 X153.630 Y75.215 E0.30449
G1 X153.630 Y74.680 E0.01683
G1 X147.320 Y68.370 E0.28069
G1 X147.855 Y68.370 E0.01683
G1 X153.630 Y74.145 E0.25689
G1 X153.630 Y73.610 E0.01683
G1 X148.390 Y68.370 E0.23310
G1 X148.925 Y68.370 E0.01683
G1 X153.630 Y73.075 E0.20930
G1 X153.630 Y72.540 E0.01683
G1 X149.460 Y68.370 E0.18550
G1 X149.995 Y68.370 E0.01683
G1 X153.630 Y72.005 E0.16171
G1 X153.630 Y71.470 E0.01683
G1 X150.530 Y68.370 E0.13791
G1 X151.065 Y68.370 E0.01683
G1 X153.630 Y70.935 E0.11411
G1 X153.630 Y70.400 E0.01683
