; generated by PrusaSlicer 2.2.0+win64 on 2021-01-20 at 22:49:22 UTC

; 

; external perimeters extrusion width = 0.45mm
; perimeters extrusion width = 0.45mm
; infill extrusion width = 0.45mm
; solid infill extrusion width = 0.45mm
; top infill extrusion width = 0.40mm
; first layer extrusion width = 0.42mm

M73 P0 R133
M201 X9000 Y9000 Z500 E10000 ; sets maximum accelerations, mm/sec^2
M203 X500 Y500 Z12 E120 ; sets maximum feedrates, mm/sec
M204 P2000 R1500 T2000 ; sets acceleration (P, T) and retract acceleration (R), mm/sec^2
M205 X10.00 Y10.00 Z0.20 E2.50 ; sets the jerk limits, mm/sec
M205 S0 T0 ; sets the minimum extruding and travel feed rate, mm/sec
M107
M862.3 P "MK2S" ; printer model check
M862.1 P0.4 ; nozzle diameter check
M115 U3.2.3 ; tell printer latest fw version
G90 ; use absolute coordinates
M83 ; extruder relative mode
M204 S2000 T1500 ; MK2 firmware only supports the old M204 format
M104 S215 ; set extruder temp
M140 S60 ; set bed temp
M190 S60 ; wait for bed temp
M109 S215 ; wait for extruder temp
G28 W ; home all without mesh bed level
G80 ; mesh bed leveling
G1 Y-3.0 F1000.0 ; go outside print area
G92 E0.0
G1 X60.0 E9.0  F1000.0 ; intro line
M73 P0 R133
G1 X100.0 E12.5 F1000.0 ; intro line
G92 E0.0
G21 ; set units to millimeters
G90 ; use absolute coordinates
M83 ; use relative distances for extrusion
M900 K0.05 ; Filament gcode LA 1.5
M900 K30 ; Filament gcode LA 1.0
;BEFORE_LAYER_CHANGE
G92 E0.0
;0.2


G1 E-0.80000 F2100.00000
G1 Z0.600 F10800.000
;AFTER_LAYER_CHANGE
;0.2
G1 X60.258 Y106.951
G1 Z0.200
G1 E0.80000 F2100.00000
M204 S1000
G1 F1200.000
G1 X58.700 Y106.951 E0.04887
G1 X58.997 Y105.842 E0.03598
G1 X60.213 Y106.911 E0.05077
G1 X61.259 Y107.328 F10800.000
G1 F1200.000
G1 X58.208 Y107.328 E0.09565
G1 X58.790 Y105.159 E0.07042
G1 X61.214 Y107.288 E0.10117
G1 X61.459 Y106.981 F10800.000
G1 X64.619 Y104.693
G1 F1200.000
G1 X60.320 Y100.917 E0.17941
G1 X62.259 Y93.759 E0.23251
G1 X77.065 Y93.759 E0.46423
G1 X64.664 Y104.654 E0.51756
G1 X64.619 Y105.195 F10800.000
G1 F1200.000
G1 X59.895 Y101.045 E0.19716
G1 X61.970 Y93.382 E0.24893
G1 X78.065 Y93.382 E0.50465
G1 X64.664 Y105.156 E0.55932
G1 X64.380 Y104.875 F10800.000
G1 E-0.80000 F2100.00000
G1 Z0.800 F10800.000
G1 X76.367 Y94.222
G1 Z0.200
G1 E0.80000 F2100.00000
G1 F1200.000
G1 X76.186 Y94.042 E0.00816
G1 X75.642 Y94.042 E0.01744
G1 X75.956 Y94.356 E0.01425
G1 X75.666 Y94.611 E0.01236
G1 X75.097 Y94.042 E0.02579
G1 X74.552 Y94.042 E0.01744
G1 X75.377 Y94.866 E0.03732
G1 X75.087 Y95.121 E0.01236
G1 X74.008 Y94.042 E0.04886
G1 X73.463 Y94.042 E0.01744
G1 X74.797 Y95.375 E0.06039
G1 X74.507 Y95.630 E0.01236
G1 X72.919 Y94.042 E0.07193
G1 X72.374 Y94.042 E0.01744
G1 X74.217 Y95.885 E0.08346
G1 X73.927 Y96.139 E0.01236
G1 X71.829 Y94.042 E0.09500
G1 X71.285 Y94.042 E0.01744
G1 X73.637 Y96.394 E0.10654
G1 X73.347 Y96.649 E0.01236
G1 X70.740 Y94.042 E0.11807
G1 X70.195 Y94.042 E0.01744
G1 X73.057 Y96.904 E0.12961
G1 X72.767 Y97.158 E0.01236
G1 X69.651 Y94.042 E0.14114
G1 X69.106 Y94.042 E0.01744
G1 X72.477 Y97.413 E0.15268
G1 X72.187 Y97.668 E0.01236
G1 X68.561 Y94.042 E0.16421
G1 X68.017 Y94.042 E0.01744
G1 X71.897 Y97.922 E0.17575
G1 X71.608 Y98.177 E0.01236
G1 X67.472 Y94.042 E0.18728
G1 X66.927 Y94.042 E0.01744
G1 X71.318 Y98.432 E0.19882
G1 X71.028 Y98.687 E0.01236
G1 X66.383 Y94.042 E0.21035
G1 X65.838 Y94.042 E0.01744
G1 X70.738 Y98.941 E0.22189
G1 X70.448 Y99.196 E0.01236
G1 X65.294 Y94.042 E0.23343
G1 X64.749 Y94.042 E0.01744
G1 X70.158 Y99.451 E0.24496
G1 X69.868 Y99.705 E0.01236
G1 X64.204 Y94.042 E0.25650
G1 X63.660 Y94.042 E0.01744
G1 X69.578 Y99.960 E0.26803
G1 X69.288 Y100.215 E0.01236
G1 X63.115 Y94.042 E0.27957
G1 X62.570 Y94.042 E0.01744
G1 X68.998 Y100.470 E0.29110
G1 X68.708 Y100.724 E0.01236
G1 X62.380 Y94.396 E0.28661
G1 X62.263 Y94.824 E0.01422
G1 X68.418 Y100.979 E0.27874
G1 X68.128 Y101.234 E0.01236
G1 X62.147 Y95.253 E0.27087
G1 X62.031 Y95.681 E0.01422
G1 X67.839 Y101.488 E0.26299
G1 X67.549 Y101.743 E0.01236
G1 X61.915 Y96.110 E0.25512
G1 X61.799 Y96.538 E0.01422
G1 X67.259 Y101.998 E0.24725
G1 X66.969 Y102.253 E0.01236
G1 X61.683 Y96.967 E0.23937
G1 X61.567 Y97.396 E0.01422
G1 X66.679 Y102.507 E0.23150
G1 X66.389 Y102.762 E0.01236
G1 X61.451 Y97.824 E0.22363
G1 X61.335 Y98.253 E0.01422
G1 X66.099 Y103.017 E0.21575
G1 X65.809 Y103.271 E0.01236
G1 X61.219 Y98.681 E0.20788
G1 X61.103 Y99.110 E0.01422
G1 X65.519 Y103.526 E0.20000
G1 X65.229 Y103.781 E0.01236
G1 X60.987 Y99.538 E0.19213
G1 X60.871 Y99.967 E0.01422
G1 X64.939 Y104.036 E0.18426
G1 X64.649 Y104.290 E0.01236
G1 X60.616 Y100.257 E0.18265
G1 E-0.80000 F2100.00000
G1 Z0.800 F10800.000
G1 X81.426 Y89.185
G1 Z0.200
G1 E0.80000 F2100.00000
G1 F1200.000
G1 X63.472 Y89.185 E0.56293
G1 X63.941 Y87.462 E0.05599
G1 X80.516 Y87.462 E0.51967
G1 X98.392 Y87.487 E0.56051
G1 X98.922 Y87.507 E0.01663
G1 X99.380 Y89.185 E0.05451
G1 X81.486 Y89.185 E0.56104
G1 X81.426 Y89.562 F10800.000
G1 F1200.000
G1 X62.979 Y89.562 E0.57840
G1 X63.653 Y87.085 E0.08050
G1 X98.400 Y87.110 E1.08945
G1 X99.213 Y87.141 E0.02553
G1 X99.873 Y89.562 E0.07867
G1 X81.486 Y89.562 E0.57652
G1 X81.211 Y89.225 F10800.000
G1 E-0.80000 F2100.00000
G1 Z0.800 F10800.000
G1 X99.126 Y88.686
G1 Z0.200
G1 E0.80000 F2100.00000
G1 F1200.000
G1 X98.210 Y87.770 E0.04119
G1 X97.669 Y87.769 E0.01719
G1 X98.802 Y88.902 E0.05090
G1 X98.261 Y88.902 E0.01717
G1 X97.128 Y87.768 E0.05094
G1 X96.586 Y87.768 E0.01719
G1 X97.721 Y88.902 E0.05097
G1 X97.180 Y88.902 E0.01717
G1 X96.045 Y87.767 E0.05100
G1 X95.504 Y87.766 E0.01719
G1 X96.640 Y88.902 E0.05104
G1 X96.100 Y88.902 E0.01717
G1 X94.963 Y87.765 E0.05107
G1 X94.422 Y87.765 E0.01719
G1 X95.559 Y88.902 E0.05111
G1 X95.019 Y88.902 E0.01717
G1 X93.881 Y87.764 E0.05114
G1 X93.340 Y87.763 E0.01719
G1 X94.479 Y88.902 E0.05117
G1 X93.938 Y88.902 E0.01717
G1 X92.799 Y87.762 E0.05121
G1 X92.257 Y87.762 E0.01719
G1 X93.398 Y88.902 E0.05124
G1 X92.857 Y88.902 E0.01717
G1 X91.716 Y87.761 E0.05128
G1 X91.175 Y87.760 E0.01719
G1 X92.317 Y88.902 E0.05131
G1 X91.777 Y88.902 E0.01717
G1 X90.634 Y87.759 E0.05134
G1 X90.093 Y87.758 E0.01719
G1 X91.236 Y88.902 E0.05138
G1 X90.696 Y88.902 E0.01717
G1 X89.552 Y87.758 E0.05141
G1 X89.011 Y87.757 E0.01719
G1 X90.156 Y88.902 E0.05145
G1 X89.615 Y88.902 E0.01717
G1 X88.469 Y87.756 E0.05148
G1 X87.928 Y87.755 E0.01719
G1 X89.075 Y88.902 E0.05151
G1 X88.534 Y88.902 E0.01717
G1 X87.387 Y87.755 E0.05155
G1 X86.846 Y87.754 E0.01719
G1 X87.994 Y88.902 E0.05158
G1 X87.454 Y88.902 E0.01717
G1 X86.305 Y87.753 E0.05162
G1 X85.764 Y87.752 E0.01719
G1 X86.913 Y88.902 E0.05165
G1 X86.373 Y88.902 E0.01717
G1 X85.223 Y87.752 E0.05168
G1 X84.682 Y87.751 E0.01719
G1 X85.833 Y88.902 E0.05172
G1 X85.292 Y88.902 E0.01717
G1 X84.140 Y87.750 E0.05175
G1 X83.599 Y87.749 E0.01719
G1 X84.752 Y88.902 E0.05179
G1 X84.211 Y88.902 E0.01717
G1 X83.058 Y87.749 E0.05182
G1 X82.517 Y87.748 E0.01719
G1 X83.671 Y88.902 E0.05185
G1 X83.131 Y88.902 E0.01717
G1 X81.976 Y87.747 E0.05189
G1 X81.435 Y87.746 E0.01719
G1 X82.590 Y88.902 E0.05192
G1 X82.050 Y88.902 E0.01717
G1 X80.894 Y87.746 E0.05195
G1 X80.353 Y87.745 E0.01719
G1 X81.510 Y88.902 E0.05198
G1 X80.969 Y88.902 E0.01717
G1 X79.812 Y87.745 E0.05198
G1 X79.272 Y87.745 E0.01717
G1 X80.429 Y88.902 E0.05198
G1 X79.888 Y88.902 E0.01717
G1 X78.732 Y87.745 E0.05198
G1 X78.191 Y87.745 E0.01717
G1 X79.348 Y88.902 E0.05198
G1 X78.808 Y88.902 E0.01717
G1 X77.651 Y87.745 E0.05198
G1 X77.110 Y87.745 E0.01717
G1 X78.267 Y88.902 E0.05198
G1 X77.727 Y88.902 E0.01717
G1 X76.570 Y87.745 E0.05198
G1 X76.030 Y87.745 E0.01717
G1 X77.187 Y88.902 E0.05199
G1 X76.646 Y88.902 E0.01717
G1 X75.489 Y87.745 E0.05199
G1 X74.949 Y87.745 E0.01717
G1 X76.106 Y88.902 E0.05199
G1 X75.565 Y88.902 E0.01717
G1 X74.408 Y87.745 E0.05199
G1 X73.868 Y87.745 E0.01717
G1 X75.025 Y88.902 E0.05199
G1 X74.485 Y88.902 E0.01717
G1 X73.328 Y87.745 E0.05199
G1 X72.787 Y87.745 E0.01717
G1 X73.944 Y88.902 E0.05199
G1 X73.404 Y88.902 E0.01717
G1 X72.247 Y87.745 E0.05199
G1 X71.706 Y87.745 E0.01717
G1 X72.864 Y88.902 E0.05199
G1 X72.323 Y88.902 E0.01717
G1 X71.166 Y87.745 E0.05199
G1 X70.626 Y87.745 E0.01717
G1 X71.783 Y88.902 E0.05199
G1 X71.242 Y88.902 E0.01717
G1 X70.085 Y87.745 E0.05199
G1 X69.545 Y87.745 E0.01717
G1 X70.702 Y88.902 E0.05200
G1 X70.162 Y88.902 E0.01717
G1 X69.004 Y87.745 E0.05200
G1 X68.464 Y87.745 E0.01717
G1 X69.621 Y88.902 E0.05200
G1 X69.081 Y88.902 E0.01717
G1 X67.924 Y87.745 E0.05200
G1 X67.383 Y87.745 E0.01717
G1 X68.540 Y88.902 E0.05200
G1 X68.000 Y88.902 E0.01717
G1 X66.843 Y87.745 E0.05200
G1 X66.302 Y87.745 E0.01717
G1 X67.460 Y88.902 E0.05200
G1 X66.919 Y88.902 E0.01717
G1 X65.762 Y87.745 E0.05200
G1 X65.222 Y87.745 E0.01717
G1 X66.379 Y88.902 E0.05200
G1 X65.839 Y88.902 E0.01717
G1 X64.681 Y87.745 E0.05200
G1 X64.157 Y87.745 E0.01665
G1 X65.298 Y88.902 E0.05163
G1 X64.758 Y88.902 E0.01717
G1 X64.038 Y88.182 E0.03234
G1 X63.923 Y88.607 E0.01399
G1 X64.387 Y89.072 E0.02088
G1 E-0.80000 F2100.00000
G1 Z0.800 F10800.000
G1 X98.233 Y104.693
G1 Z0.200
G1 E0.80000 F2100.00000
G1 F1200.000
G1 X85.787 Y93.759 E0.51944
G1 X100.609 Y93.759 E0.46472
G1 X102.532 Y100.916 E0.23237
G1 X98.278 Y104.654 E0.17756
G1 X98.233 Y105.195 F10800.000
G1 F1200.000
G1 X84.786 Y93.382 E0.56120
G1 X100.898 Y93.382 E0.50515
G1 X102.957 Y101.045 E0.24879
G1 X98.278 Y105.156 E0.19530
G1 X98.044 Y104.843 F10800.000
G1 E-0.80000 F2100.00000
G1 Z0.800 F10800.000
G1 X86.861 Y93.872
G1 Z0.200
G1 E0.80000 F2100.00000
G1 F1200.000
G1 X90.603 Y97.614 E0.16708
G1 X95.026 Y101.499 E0.18586
G1 X87.568 Y94.042 E0.33299
G1 X88.105 Y94.042 E0.01696
G1 X98.311 Y104.248 E0.45573
G1 X98.597 Y103.997 E0.01201
G1 X88.642 Y94.042 E0.44452
G1 X89.179 Y94.042 E0.01696
G1 X98.883 Y103.746 E0.43330
G1 X99.169 Y103.495 E0.01201
G1 X89.716 Y94.042 E0.42209
G1 X90.253 Y94.042 E0.01696
G1 X99.455 Y103.243 E0.41088
G1 X99.741 Y102.992 E0.01201
G1 X90.790 Y94.042 E0.39966
G1 X91.327 Y94.042 E0.01696
G1 X100.027 Y102.741 E0.38845
G1 X100.312 Y102.490 E0.01201
G1 X91.864 Y94.042 E0.37723
G1 X92.401 Y94.042 E0.01696
G1 X100.598 Y102.239 E0.36602
G1 X100.884 Y101.988 E0.01201
G1 X92.938 Y94.042 E0.35481
G1 X93.475 Y94.042 E0.01696
G1 X101.170 Y101.737 E0.34359
G1 X101.456 Y101.485 E0.01201
G1 X94.012 Y94.042 E0.33238
G1 X94.549 Y94.042 E0.01696
G1 X101.742 Y101.234 E0.32116
G1 X102.028 Y100.983 E0.01201
G1 X95.086 Y94.042 E0.30995
G1 X95.623 Y94.042 E0.01696
G1 X102.145 Y100.563 E0.29119
G1 X101.947 Y99.829 E0.02401
G1 X96.160 Y94.042 E0.25840
G1 X96.697 Y94.042 E0.01696
G1 X101.750 Y99.094 E0.22561
G1 X101.552 Y98.360 E0.02401
G1 X97.234 Y94.042 E0.19282
G1 X97.771 Y94.042 E0.01696
G1 X101.355 Y97.625 E0.16002
G1 X101.158 Y96.891 E0.02401
G1 X98.308 Y94.042 E0.12723
G1 X98.845 Y94.042 E0.01696
G1 X100.960 Y96.157 E0.09444
G1 X100.763 Y95.422 E0.02401
G1 X99.382 Y94.042 E0.06165
G1 X99.919 Y94.042 E0.01696
G1 X100.806 Y94.928 E0.03958
G1 E-0.80000 F2100.00000
G1 Z0.800 F10800.000
G1 X81.426 Y106.951
G1 Z0.200
G1 E0.80000 F2100.00000
G1 F1200.000
G1 X68.980 Y106.951 E0.39023
G1 X81.426 Y96.016 E0.51944
G1 X93.872 Y106.951 E0.51944
G1 X81.486 Y106.951 E0.38835
G1 X81.426 Y107.328 F10800.000
G1 F1200.000
G1 X67.980 Y107.328 E0.42160
M73 P0 R132
G1 X81.426 Y95.514 E0.56120
G1 X94.872 Y107.328 E0.56120
G1 X81.486 Y107.328 E0.41972
G1 X81.080 Y107.128 F10800.000
G1 E-0.80000 F2100.00000
G1 Z0.800 F10800.000
G1 X69.676 Y106.490
G1 Z0.200
G1 E0.80000 F2100.00000
G1 F1200.000
G1 X69.855 Y106.668 E0.00804
G1 X70.397 Y106.668 E0.01727
G1 X70.085 Y106.356 E0.01404
G1 X70.374 Y106.103 E0.01224
G1 X70.939 Y106.668 E0.02547
G1 X71.481 Y106.668 E0.01727
G1 X70.662 Y105.849 E0.03689
G1 X70.951 Y105.596 E0.01224
G1 X72.023 Y106.668 E0.04832
G1 X72.565 Y106.668 E0.01727
G1 X71.239 Y105.342 E0.05974
G1 X71.528 Y105.089 E0.01224
G1 X73.107 Y106.668 E0.07117
G1 X73.649 Y106.668 E0.01727
G1 X71.816 Y104.835 E0.08259
G1 X72.105 Y104.582 E0.01224
G1 X74.191 Y106.668 E0.09402
G1 X74.733 Y106.668 E0.01727
G1 X72.393 Y104.328 E0.10545
G1 X72.682 Y104.075 E0.01224
G1 X75.275 Y106.668 E0.11687
G1 X75.817 Y106.668 E0.01727
G1 X72.971 Y103.821 E0.12830
G1 X73.259 Y103.568 E0.01224
G1 X76.359 Y106.668 E0.13972
G1 X76.901 Y106.668 E0.01727
G1 X73.548 Y103.314 E0.15115
G1 X73.836 Y103.061 E0.01224
G1 X77.443 Y106.668 E0.16257
G1 X77.985 Y106.668 E0.01727
G1 X74.125 Y102.807 E0.17400
G1 X74.413 Y102.554 E0.01224
G1 X78.527 Y106.668 E0.18542
G1 X79.069 Y106.668 E0.01727
G1 X74.702 Y102.300 E0.19685
G1 X74.990 Y102.047 E0.01224
G1 X79.611 Y106.668 E0.20827
G1 X80.153 Y106.668 E0.01727
G1 X75.279 Y101.793 E0.21970
G1 X75.567 Y101.540 E0.01224
G1 X80.695 Y106.668 E0.23112
G1 X81.237 Y106.668 E0.01727
G1 X75.856 Y101.286 E0.24255
G1 X76.144 Y101.033 E0.01224
G1 X81.779 Y106.668 E0.25397
G1 X82.321 Y106.668 E0.01727
G1 X76.433 Y100.779 E0.26540
G1 X76.721 Y100.526 E0.01224
G1 X82.863 Y106.668 E0.27682
G1 X83.406 Y106.668 E0.01727
G1 X77.010 Y100.272 E0.28825
G1 X77.299 Y100.019 E0.01224
G1 X83.948 Y106.668 E0.29967
G1 X84.490 Y106.668 E0.01727
G1 X77.587 Y99.765 E0.31110
G1 X77.876 Y99.512 E0.01224
G1 X85.032 Y106.668 E0.32252
G1 X85.574 Y106.668 E0.01727
G1 X78.164 Y99.258 E0.33395
G1 X78.453 Y99.005 E0.01224
G1 X86.116 Y106.668 E0.34537
G1 X86.658 Y106.668 E0.01727
G1 X78.741 Y98.751 E0.35680
G1 X79.030 Y98.498 E0.01224
G1 X87.200 Y106.668 E0.36822
G1 X87.742 Y106.668 E0.01727
G1 X79.318 Y98.244 E0.37965
G1 X79.607 Y97.991 E0.01224
G1 X88.284 Y106.668 E0.39107
G1 X88.826 Y106.668 E0.01727
G1 X79.895 Y97.737 E0.40250
G1 X80.184 Y97.484 E0.01224
G1 X89.368 Y106.668 E0.41393
G1 X89.910 Y106.668 E0.01727
G1 X80.472 Y97.230 E0.42535
G1 X80.761 Y96.977 E0.01224
G1 X90.452 Y106.668 E0.43678
G1 X90.994 Y106.668 E0.01727
G1 X81.049 Y96.723 E0.44820
G1 X81.338 Y96.470 E0.01224
G1 X91.536 Y106.668 E0.45963
G1 X92.078 Y106.668 E0.01727
G1 X84.529 Y99.119 E0.34025
G1 X88.992 Y103.040 E0.18936
G1 X92.790 Y106.838 E0.17115
G1 E-0.80000 F2100.00000
G1 Z0.800 F10800.000
G1 X102.594 Y106.951
G1 Z0.200
G1 E0.80000 F2100.00000
G1 F1200.000
G1 X103.854 Y105.843 E0.05261
G1 X104.152 Y106.951 E0.03596
G1 X102.654 Y106.951 E0.04699
G1 X101.593 Y107.328 F10800.000
G1 F1200.000
G1 X104.061 Y105.160 E0.10299
G1 X104.644 Y107.328 E0.07039
G1 X101.653 Y107.328 E0.09378
G1 X101.672 Y107.720 F10800.000
G1 E-0.80000 F2100.00000
G1 Z0.800 F10800.000
G1 X81.108 Y126.669
G1 Z0.200
G1 E0.80000 F2100.00000
G1 F1200.000
G1 X79.674 Y126.675 E0.04495
G1 X77.768 Y126.622 E0.05980
G1 X74.570 Y126.268 E0.10088
G1 X71.283 Y125.718 E0.10449
G1 X68.047 Y124.992 E0.10399
G1 X64.889 Y124.100 E0.10287
G1 X61.810 Y123.045 E0.10207
G1 X60.481 Y122.523 E0.04477
G1 X57.952 Y121.396 E0.08679
G1 X55.894 Y120.318 E0.07286
G1 X54.384 Y119.382 E0.05571
G1 X53.264 Y118.534 E0.04405
G1 X53.125 Y115.618 E0.09153
G1 X54.433 Y116.251 E0.04555
G1 X54.985 Y116.477 E0.01870
G1 X55.355 Y116.541 E0.01178
G1 X55.648 Y116.487 E0.00935
G1 X55.906 Y116.342 E0.00928
G1 X56.188 Y116.030 E0.01319
G1 X56.447 Y115.280 E0.02486
G1 X57.469 Y111.525 E0.12203
G1 X105.382 Y111.525 E1.50227
G1 X105.992 Y113.794 E0.07368
G1 X106.562 Y115.772 E0.06453
G1 X106.740 Y116.148 E0.01305
G1 X107.023 Y116.395 E0.01178
G1 X107.277 Y116.510 E0.00875
G1 X107.580 Y116.537 E0.00954
G1 X107.986 Y116.438 E0.01310
G1 X109.727 Y115.610 E0.06046
G1 X109.589 Y118.527 E0.09157
G1 X109.214 Y118.841 E0.01531
G1 X107.988 Y119.697 E0.04691
G1 X106.135 Y120.770 E0.06712
G1 X103.710 Y121.950 E0.08458
G1 X101.037 Y123.046 E0.09057
G1 X98.062 Y124.069 E0.09864
G1 X94.868 Y124.976 E0.10412
G1 X91.630 Y125.706 E0.10405
G1 X88.386 Y126.254 E0.10317
G1 X85.145 Y126.619 E0.10225
G1 X84.194 Y126.658 E0.02986
G1 X81.168 Y126.669 E0.09488
G1 X81.038 Y127.047 F10800.000
G1 F1200.000
G1 X79.670 Y127.052 E0.04290
G1 X77.742 Y126.998 E0.06048
G1 X74.518 Y126.642 E0.10169
G1 X71.211 Y126.088 E0.10515
G1 X67.954 Y125.358 E0.10463
G1 X64.777 Y124.460 E0.10352
G1 X61.680 Y123.399 E0.10265
G1 X60.335 Y122.871 E0.04530
G1 X57.788 Y121.736 E0.08744
G1 X55.707 Y120.645 E0.07366
G1 X54.170 Y119.694 E0.05669
G1 X52.895 Y118.712 E0.05047
