; generated by PrusaSlicer 2.2.0+win64 on 2021-01-20 at 20:18:05 UTC

; 

; external perimeters extrusion width = 0.45mm
; perimeters extrusion width = 0.45mm
; infill extrusion width = 0.45mm
; solid infill extrusion width = 0.45mm
; top infill extrusion width = 0.40mm
; first layer extrusion width = 0.42mm

M73 P0 R214
M201 X9000 Y9000 Z500 E10000 ; sets maximum accelerations, mm/sec^2
M203 X500 Y500 Z12 E120 ; sets maximum feedrates, mm/sec
M204 P2000 R1500 T2000 ; sets acceleration (P, T) and retract acceleration (R), mm/sec^2
M205 X10.00 Y10.00 Z0.20 E2.50 ; sets the jerk limits, mm/sec
M205 S0 T0 ; sets the minimum extruding and travel feed rate, mm/sec
M107
M862.3 P "MK2S" ; printer model check
M862.1 P0.4 ; nozzle diameter check
M115 U3.2.3 ; tell printer latest fw version
G90 ; use absolute coordinates
M83 ; extruder relative mode
M204 S2000 T1500 ; MK2 firmware only supports the old M204 format
M104 S215 ; set extruder temp
M140 S60 ; set bed temp
M190 S60 ; wait for bed temp
M109 S215 ; wait for extruder temp
G28 W ; home all without mesh bed level
G80 ; mesh bed leveling
G1 Y-3.0 F1000.0 ; go outside print area
G92 E0.0
G1 X60.0 E9.0  F1000.0 ; intro line
M73 P0 R214
G1 X100.0 E12.5 F1000.0 ; intro line
G92 E0.0
G21 ; set units to millimeters
G90 ; use absolute coordinates
M83 ; use relative distances for extrusion
M900 K0.05 ; Filament gcode LA 1.5
M900 K30 ; Filament gcode LA 1.0
;BEFORE_LAYER_CHANGE
G92 E0.0
;0.2


G1 E-0.80000 F2100.00000
G1 Z0.600 F10800.000
;AFTER_LAYER_CHANGE
;0.2
G1 X95.007 Y108.587
G1 Z0.200
G1 E0.80000 F2100.00000
M204 S1000
G1 F1200.000
G1 X119.734 Y108.587 E0.77531
G1 X119.734 Y135.465 E0.84274
G1 X101.723 Y135.465 E0.56473
G1 X101.723 Y140.068 E0.14433
G1 X101.247 Y140.068 E0.01494
G1 X101.247 Y135.465 E0.14433
G1 X88.690 Y135.465 E0.39372
G1 X88.690 Y140.068 E0.14433
G1 X88.347 Y140.068 E0.01074
G1 X88.347 Y135.465 E0.14433
G1 X70.279 Y135.465 E0.56650
G1 X70.279 Y108.587 E0.84274
G1 X94.947 Y108.587 E0.77343
G1 E-0.80000 F2100.00000
G1 Z0.800 F10800.000
G1 X92.201 Y140.562
G1 Z0.200
G1 E0.80000 F2100.00000
G1 F1200.000
G1 X89.281 Y140.445 E0.09164
G1 X87.970 Y140.445 E0.04110
G1 X87.970 Y135.842 E0.14433
G1 X69.902 Y135.842 E0.56650
G1 X69.902 Y108.210 E0.86638
G1 X120.111 Y108.210 E1.57427
G1 X120.111 Y135.842 E0.86638
G1 X102.100 Y135.842 E0.56473
G1 X102.100 Y140.445 E0.14433
G1 X97.872 Y140.445 E0.13258
G1 X97.872 Y139.721 E0.02270
G1 X100.870 Y139.721 E0.09400
G1 X100.870 Y135.842 E0.12164
G1 X89.067 Y135.842 E0.37007
G1 X89.067 Y139.721 E0.12164
G1 X92.201 Y139.721 E0.09828
G1 X92.201 Y140.502 E0.02447
G1 X91.804 Y140.516 F10800.000
G1 X92.013 Y140.138
G1 F1200.000
G1 X90.652 Y140.111 E0.05052
G1 X89.292 Y140.083 E0.04489
G1 X88.878 Y140.083 E0.01192
G1 E-0.80000 F2100.00000
G1 Z0.800 F10800.000
G1 X71.157 Y135.352
G1 Z0.200
G1 E0.80000 F2100.00000
G1 F1200.000
G1 X70.562 Y134.757 E0.02646
G1 X70.562 Y134.222 E0.01682
G1 X71.522 Y135.182 E0.04271
G1 X72.057 Y135.182 E0.01682
G1 X70.562 Y133.687 E0.06650
G1 X70.562 Y133.152 E0.01682
G1 X72.592 Y135.182 E0.09029
G1 X73.127 Y135.182 E0.01682
G1 X70.562 Y132.617 E0.11408
G1 X70.562 Y132.082 E0.01682
G1 X73.662 Y135.182 E0.13787
G1 X74.197 Y135.182 E0.01682
G1 X70.562 Y131.547 E0.16166
G1 X70.562 Y131.013 E0.01682
G1 X74.732 Y135.182 E0.18545
G1 X75.267 Y135.182 E0.01682
G1 X70.562 Y130.478 E0.20924
G1 X70.562 Y129.943 E0.01682
G1 X75.802 Y135.182 E0.23303
G1 X76.336 Y135.182 E0.01682
G1 X70.562 Y129.408 E0.25682
G1 X70.562 Y128.873 E0.01682
G1 X76.871 Y135.182 E0.28061
G1 X77.406 Y135.182 E0.01682
G1 X70.562 Y128.338 E0.30440
G1 X70.562 Y127.803 E0.01682
G1 X77.941 Y135.182 E0.32820
G1 X78.476 Y135.182 E0.01682
G1 X70.562 Y127.268 E0.35199
G1 X70.562 Y126.733 E0.01682
G1 X79.011 Y135.182 E0.37578
G1 X79.546 Y135.182 E0.01682
G1 X70.562 Y126.198 E0.39957
G1 X70.562 Y125.664 E0.01682
G1 X80.081 Y135.182 E0.42336
G1 X80.616 Y135.182 E0.01682
G1 X70.562 Y125.129 E0.44715
G1 X70.562 Y124.594 E0.01682
G1 X81.151 Y135.182 E0.47094
G1 X81.685 Y135.182 E0.01682
G1 X70.562 Y124.059 E0.49473
G1 X70.562 Y123.524 E0.01682
G1 X82.220 Y135.182 E0.51852
G1 X82.755 Y135.182 E0.01682
G1 X70.562 Y122.989 E0.54231
G1 X70.562 Y122.454 E0.01682
G1 X83.290 Y135.182 E0.56610
G1 X83.825 Y135.182 E0.01682
G1 X70.562 Y121.919 E0.58989
G1 X70.562 Y121.384 E0.01682
G1 X84.360 Y135.182 E0.61368
G1 X84.895 Y135.182 E0.01682
G1 X70.562 Y120.849 E0.63747
G1 X70.562 Y120.315 E0.01682
G1 X85.430 Y135.182 E0.66126
G1 X85.965 Y135.182 E0.01682
G1 X70.562 Y119.780 E0.68506
G1 X70.562 Y119.245 E0.01682
G1 X86.499 Y135.182 E0.70885
G1 X87.034 Y135.182 E0.01682
G1 X70.562 Y118.710 E0.73264
G1 X70.562 Y118.175 E0.01682
G1 X87.569 Y135.182 E0.75643
G1 X88.104 Y135.182 E0.01682
G1 X70.562 Y117.640 E0.78022
G1 X70.562 Y117.105 E0.01682
G1 X88.639 Y135.182 E0.80401
G1 X89.174 Y135.182 E0.01682
G1 X70.562 Y116.570 E0.82780
G1 X70.562 Y116.035 E0.01682
G1 X89.709 Y135.182 E0.85159
G1 X90.244 Y135.182 E0.01682
G1 X70.562 Y115.500 E0.87538
G1 X70.562 Y114.966 E0.01682
G1 X90.779 Y135.182 E0.89917
G1 X91.314 Y135.182 E0.01682
G1 X70.562 Y114.431 E0.92296
G1 X70.562 Y113.896 E0.01682
G1 X91.848 Y135.182 E0.94675
G1 X92.383 Y135.182 E0.01682
G1 X70.562 Y113.361 E0.97054
G1 X70.562 Y112.826 E0.01682
G1 X92.918 Y135.182 E0.99433
G1 X93.453 Y135.182 E0.01682
G1 X70.562 Y112.291 E1.01812
G1 X70.562 Y111.756 E0.01682
G1 X93.988 Y135.182 E1.04191
M73 P0 R213
G1 X94.523 Y135.182 E0.01682
G1 X70.562 Y111.221 E1.06571
G1 X70.562 Y110.686 E0.01682
G1 X95.058 Y135.182 E1.08950
G1 X95.593 Y135.182 E0.01682
G1 X70.562 Y110.151 E1.11329
G1 X70.562 Y109.617 E0.01682
G1 X96.128 Y135.182 E1.13708
G1 X96.663 Y135.182 E0.01682
G1 X70.562 Y109.082 E1.16087
G1 X70.562 Y108.870 E0.00666
G1 X70.885 Y108.870 E0.01016
G1 X97.197 Y135.182 E1.17029
G1 X97.732 Y135.182 E0.01682
G1 X71.420 Y108.870 E1.17029
G1 X71.955 Y108.870 E0.01682
G1 X98.267 Y135.182 E1.17029
G1 X98.802 Y135.182 E0.01682
G1 X72.490 Y108.870 E1.17029
G1 X73.025 Y108.870 E0.01682
G1 X99.337 Y135.182 E1.17029
G1 X99.872 Y135.182 E0.01682
G1 X73.560 Y108.870 E1.17029
G1 X74.095 Y108.870 E0.01682
G1 X100.407 Y135.182 E1.17029
G1 X100.942 Y135.182 E0.01682
G1 X74.629 Y108.870 E1.17029
G1 X75.164 Y108.870 E0.01682
G1 X101.458 Y135.163 E1.16945
G1 X101.485 Y135.276 F10800.000
G1 F1200.000
G1 X101.485 Y139.880 E0.03802
G1 X101.058 Y140.083 F10800.000
G1 F1200.000
G1 X98.060 Y140.083 E0.08644
G1 E-0.80000 F2100.00000
G1 Z0.800 F10800.000
G1 X102.181 Y135.352
G1 Z0.200
G1 E0.80000 F2100.00000
G1 F1200.000
G1 X75.699 Y108.870 E1.17784
G1 X76.234 Y108.870 E0.01682
G1 X102.546 Y135.182 E1.17029
G1 X103.081 Y135.182 E0.01682
G1 X76.769 Y108.870 E1.17029
G1 X77.304 Y108.870 E0.01682
G1 X103.616 Y135.182 E1.17029
G1 X104.151 Y135.182 E0.01682
G1 X77.839 Y108.870 E1.17029
G1 X78.374 Y108.870 E0.01682
G1 X104.686 Y135.182 E1.17029
G1 X105.221 Y135.182 E0.01682
G1 X78.909 Y108.870 E1.17029
G1 X79.444 Y108.870 E0.01682
G1 X105.756 Y135.182 E1.17029
G1 X106.291 Y135.182 E0.01682
G1 X79.978 Y108.870 E1.17029
G1 X80.513 Y108.870 E0.01682
G1 X106.826 Y135.182 E1.17029
G1 X107.361 Y135.182 E0.01682
G1 X81.048 Y108.870 E1.17029
G1 X81.583 Y108.870 E0.01682
G1 X107.895 Y135.182 E1.17029
G1 X108.430 Y135.182 E0.01682
G1 X82.118 Y108.870 E1.17029
G1 X82.653 Y108.870 E0.01682
G1 X108.965 Y135.182 E1.17029
G1 X109.500 Y135.182 E0.01682
G1 X83.188 Y108.870 E1.17029
G1 X83.723 Y108.870 E0.01682
G1 X110.035 Y135.182 E1.17029
G1 X110.570 Y135.182 E0.01682
G1 X84.258 Y108.870 E1.17029
G1 X84.793 Y108.870 E0.01682
G1 X111.105 Y135.182 E1.17029
M73 P0 R212
G1 X111.640 Y135.182 E0.01682
G1 X85.327 Y108.870 E1.17029
G1 X85.862 Y108.870 E0.01682
G1 X112.175 Y135.182 E1.17029
G1 X112.709 Y135.182 E0.01682
G1 X86.397 Y108.870 E1.17029
G1 X86.932 Y108.870 E0.01682
G1 X113.244 Y135.182 E1.17029
G1 X113.779 Y135.182 E0.01682
G1 X87.467 Y108.870 E1.17029
G1 X88.002 Y108.870 E0.01682
G1 X114.314 Y135.182 E1.17029
G1 X114.849 Y135.182 E0.01682
G1 X88.537 Y108.870 E1.17029
G1 X89.072 Y108.870 E0.01682
G1 X115.384 Y135.182 E1.17029
G1 X115.919 Y135.182 E0.01682
G1 X89.607 Y108.870 E1.17029
G1 X90.142 Y108.870 E0.01682
G1 X116.454 Y135.182 E1.17029
G1 X116.989 Y135.182 E0.01682
G1 X90.676 Y108.870 E1.17029
G1 X91.211 Y108.870 E0.01682
G1 X117.524 Y135.182 E1.17029
G1 X118.058 Y135.182 E0.01682
G1 X91.746 Y108.870 E1.17029
G1 X92.281 Y108.870 E0.01682
G1 X118.593 Y135.182 E1.17029
G1 X119.128 Y135.182 E0.01682
G1 X92.816 Y108.870 E1.17029
G1 X93.351 Y108.870 E0.01682
G1 X119.451 Y134.970 E1.16087
G1 X119.451 Y134.435 E0.01682
G1 X93.886 Y108.870 E1.13708
G1 X94.421 Y108.870 E0.01682
G1 X119.451 Y133.901 E1.11329
G1 X119.451 Y133.366 E0.01682
G1 X94.956 Y108.870 E1.08950
G1 X95.491 Y108.870 E0.01682
G1 X119.451 Y132.831 E1.06571
G1 X119.451 Y132.296 E0.01682
G1 X96.025 Y108.870 E1.04192
G1 X96.560 Y108.870 E0.01682
G1 X119.451 Y131.761 E1.01812
G1 X119.451 Y131.226 E0.01682
G1 X97.095 Y108.870 E0.99433
G1 X97.630 Y108.870 E0.01682
G1 X119.451 Y130.691 E0.97054
G1 X119.451 Y130.156 E0.01682
G1 X98.165 Y108.870 E0.94675
G1 X98.700 Y108.870 E0.01682
G1 X119.451 Y129.621 E0.92296
G1 X119.451 Y129.086 E0.01682
G1 X99.235 Y108.870 E0.89917
G1 X99.770 Y108.870 E0.01682
G1 X119.451 Y128.552 E0.87538
G1 X119.451 Y128.017 E0.01682
G1 X100.305 Y108.870 E0.85159
G1 X100.840 Y108.870 E0.01682
G1 X119.451 Y127.482 E0.82780
G1 X119.451 Y126.947 E0.01682
G1 X101.374 Y108.870 E0.80401
G1 X101.909 Y108.870 E0.01682
G1 X119.451 Y126.412 E0.78022
G1 X119.451 Y125.877 E0.01682
G1 X102.444 Y108.870 E0.75643
G1 X102.979 Y108.870 E0.01682
G1 X119.451 Y125.342 E0.73264
G1 X119.451 Y124.807 E0.01682
G1 X103.514 Y108.870 E0.70885
G1 X104.049 Y108.870 E0.01682
G1 X119.451 Y124.272 E0.68506
G1 X119.451 Y123.737 E0.01682
G1 X104.584 Y108.870 E0.66126
M73 P1 R211
G1 X105.119 Y108.870 E0.01682
G1 X119.451 Y123.203 E0.63747
G1 X119.451 Y122.668 E0.01682
G1 X105.654 Y108.870 E0.61368
G1 X106.188 Y108.870 E0.01682
G1 X119.451 Y122.133 E0.58989
G1 X119.451 Y121.598 E0.01682
G1 X106.723 Y108.870 E0.56610
G1 X107.258 Y108.870 E0.01682
G1 X119.451 Y121.063 E0.54231
G1 X119.451 Y120.528 E0.01682
G1 X107.793 Y108.870 E0.51852
G1 X108.328 Y108.870 E0.01682
G1 X119.451 Y119.993 E0.49473
G1 X119.451 Y119.458 E0.01682
G1 X108.863 Y108.870 E0.47094
G1 X109.398 Y108.870 E0.01682
G1 X119.451 Y118.923 E0.44715
G1 X119.451 Y118.388 E0.01682
G1 X109.933 Y108.870 E0.42336
G1 X110.468 Y108.870 E0.01682
G1 X119.451 Y117.854 E0.39957
G1 X119.451 Y117.319 E0.01682
G1 X111.003 Y108.870 E0.37578
G1 X111.537 Y108.870 E0.01682
G1 X119.451 Y116.784 E0.35199
G1 X119.451 Y116.249 E0.01682
G1 X112.072 Y108.870 E0.32820
G1 X112.607 Y108.870 E0.01682
G1 X119.451 Y115.714 E0.30441
G1 X119.451 Y115.179 E0.01682
G1 X113.142 Y108.870 E0.28061
G1 X113.677 Y108.870 E0.01682
G1 X119.451 Y114.644 E0.25682
G1 X119.451 Y114.109 E0.01682
G1 X114.212 Y108.870 E0.23303
G1 X114.747 Y108.870 E0.01682
G1 X119.451 Y113.574 E0.20924
G1 X119.451 Y113.040 E0.01682
G1 X115.282 Y108.870 E0.18545
G1 X115.817 Y108.870 E0.01682
G1 X119.451 Y112.505 E0.16166
G1 X119.451 Y111.970 E0.01682
G1 X116.352 Y108.870 E0.13787
G1 X116.886 Y108.870 E0.01682
G1 X119.451 Y111.435 E0.11408
G1 X119.451 Y110.900 E0.01682
G1 X117.421 Y108.870 E0.09029
G1 X117.956 Y108.870 E0.01682
G1 X119.451 Y110.365 E0.06650
G1 X119.451 Y109.830 E0.01682
G1 X118.491 Y108.870 E0.04271
G1 X119.026 Y108.870 E0.01682
G1 X119.621 Y109.465 E0.02646
G1 E-0.80000 F2100.00000
G1 Z0.800 F10800.000
G1 X101.247 Y101.287
G1 Z0.200
G1 E0.80000 F2100.00000
G1 F1200.000
G1 X101.247 Y96.684 E0.14433
G1 X88.690 Y96.684 E0.39372
G1 X88.690 Y101.287 E0.14433
G1 X88.347 Y101.287 E0.01074
G1 X88.347 Y96.684 E0.14433
G1 X70.279 Y96.684 E0.56650
G1 X70.279 Y69.806 E0.84274
G1 X119.734 Y69.806 E1.55062
G1 X119.734 Y96.684 E0.84274
G1 X101.723 Y96.684 E0.56473
G1 X101.723 Y101.287 E0.14433
G1 X101.307 Y101.287 E0.01306
G1 E-0.80000 F2100.00000
G1 Z0.800 F10800.000
G1 X92.201 Y101.781
G1 Z0.200
G1 E0.80000 F2100.00000
G1 F1200.000
G1 X89.281 Y101.664 E0.09164
G1 X87.970 Y101.664 E0.04110
G1 X87.970 Y97.061 E0.14433
G1 X69.902 Y97.061 E0.56650
G1 X69.902 Y69.429 E0.86638
G1 X120.111 Y69.429 E1.57427
G1 X120.111 Y97.061 E0.86638
G1 X102.100 Y97.061 E0.56473
G1 X102.100 Y101.664 E0.14433
G1 X97.872 Y101.664 E0.13258
G1 X97.872 Y100.941 E0.02270
G1 X100.870 Y100.941 E0.09400
G1 X100.870 Y97.061 E0.12164
G1 X89.067 Y97.061 E0.37007
G1 X89.067 Y100.941 E0.12164
G1 X92.201 Y100.941 E0.09828
G1 X92.201 Y101.721 E0.02447
G1 X91.804 Y101.735 F10800.000
G1 X92.013 Y101.357
G1 F1200.000
G1 X90.652 Y101.330 E0.05052
G1 X89.292 Y101.303 E0.04489
G1 X88.878 Y101.302 E0.01192
G1 E-0.80000 F2100.00000
G1 Z0.800 F10800.000
G1 X71.157 Y96.571
G1 Z0.200
G1 E0.80000 F2100.00000
G1 F1200.000
G1 X70.562 Y95.976 E0.02646
G1 X70.562 Y95.441 E0.01682
G1 X71.522 Y96.401 E0.04271
G1 X72.057 Y96.401 E0.01682
G1 X70.562 Y94.906 E0.06650
G1 X70.562 Y94.371 E0.01682
G1 X72.592 Y96.401 E0.09029
G1 X73.127 Y96.401 E0.01682
G1 X70.562 Y93.836 E0.11408
G1 X70.562 Y93.301 E0.01682
G1 X73.662 Y96.401 E0.13787
G1 X74.197 Y96.401 E0.01682
G1 X70.562 Y92.766 E0.16166
G1 X70.562 Y92.232 E0.01682
G1 X74.732 Y96.401 E0.18545
G1 X75.267 Y96.401 E0.01682
G1 X70.562 Y91.697 E0.20924
G1 X70.562 Y91.162 E0.01682
G1 X75.802 Y96.401 E0.23303
G1 X76.336 Y96.401 E0.01682
G1 X70.562 Y90.627 E0.25682
G1 X70.562 Y90.092 E0.01682
G1 X76.871 Y96.401 E0.28061
G1 X77.406 Y96.401 E0.01682
G1 X70.562 Y89.557 E0.30440
G1 X70.562 Y89.022 E0.01682
G1 X77.941 Y96.401 E0.32820
G1 X78.476 Y96.401 E0.01682
G1 X70.562 Y88.487 E0.35199
G1 X70.562 Y87.952 E0.01682
G1 X79.011 Y96.401 E0.37578
G1 X79.546 Y96.401 E0.01682
G1 X70.562 Y87.417 E0.39957
G1 X70.562 Y86.883 E0.01682
G1 X80.081 Y96.401 E0.42336
G1 X80.616 Y96.401 E0.01682
G1 X70.562 Y86.348 E0.44715
G1 X70.562 Y85.813 E0.01682
G1 X81.151 Y96.401 E0.47094
G1 X81.685 Y96.401 E0.01682
G1 X70.562 Y85.278 E0.49473
G1 X70.562 Y84.743 E0.01682
G1 X82.220 Y96.401 E0.51852
G1 X82.755 Y96.401 E0.01682
G1 X70.562 Y84.208 E0.54231
G1 X70.562 Y83.673 E0.01682
G1 X83.290 Y96.401 E0.56610
G1 X83.825 Y96.401 E0.01682
G1 X70.562 Y83.138 E0.58989
G1 X70.562 Y82.603 E0.01682
G1 X84.360 Y96.401 E0.61368
G1 X84.895 Y96.401 E0.01682
G1 X70.562 Y82.069 E0.63747
G1 X70.562 Y81.534 E0.01682
G1 X85.430 Y96.401 E0.66126
G1 X85.965 Y96.401 E0.01682
G1 X70.562 Y80.999 E0.68506
G1 X70.562 Y80.464 E0.01682
G1 X86.499 Y96.401 E0.70885
G1 X87.034 Y96.401 E0.01682
G1 X70.562 Y79.929 E0.73264
G1 X70.562 Y79.394 E0.01682
G1 X87.569 Y96.401 E0.75643
G1 X88.104 Y96.401 E0.01682
G1 X70.562 Y78.859 E0.78022
G1 X70.562 Y78.324 E0.01682
G1 X88.639 Y96.401 E0.80401
G1 X89.174 Y96.401 E0.01682
G1 X70.562 Y77.789 E0.82780
G1 X70.562 Y77.254 E0.01682
G1 X89.709 Y96.401 E0.85159
M73 P1 R210
G1 X90.244 Y96.401 E0.01682
G1 X70.562 Y76.720 E0.87538
G1 X70.562 Y76.185 E0.01682
G1 X90.779 Y96.401 E0.89917
G1 X91.314 Y96.401 E0.01682
G1 X70.562 Y75.650 E0.92296
G1 X70.562 Y75.115 E0.01682
G1 X91.848 Y96.401 E0.94675
G1 X92.383 Y96.401 E0.01682
G1 X70.562 Y74.580 E0.97054
G1 X70.562 Y74.045 E0.01682
G1 X92.918 Y96.401 E0.99433
G1 X93.453 Y96.401 E0.01682
G1 X70.562 Y73.510 E1.01812
G1 X70.562 Y72.975 E0.01682
G1 X93.988 Y96.401 E1.04191
G1 X94.523 Y96.401 E0.01682
G1 X70.562 Y72.440 E1.06571
G1 X70.562 Y71.905 E0.01682
G1 X95.058 Y96.401 E1.08950
G1 X95.593 Y96.401 E0.01682
G1 X70.562 Y71.371 E1.11329
G1 X70.562 Y70.836 E0.01682
G1 X96.128 Y96.401 E1.13708
G1 X96.663 Y96.401 E0.01682
G1 X70.562 Y70.301 E1.16087
G1 X70.562 Y70.089 E0.00666
G1 X70.885 Y70.089 E0.01016
G1 X97.197 Y96.401 E1.17029
G1 X97.732 Y96.401 E0.01682
G1 X71.420 Y70.089 E1.17029
G1 X71.955 Y70.089 E0.01682
G1 X98.267 Y96.401 E1.17029
G1 X98.802 Y96.401 E0.01682
G1 X72.490 Y70.089 E1.17029
G1 X73.025 Y70.089 E0.01682
G1 X99.337 Y96.401 E1.17029
G1 X99.872 Y96.401 E0.01682
G1 X73.560 Y70.089 E1.17029
G1 X74.095 Y70.089 E0.01682
G1 X100.407 Y96.401 E1.17029
G1 X100.942 Y96.401 E0.01682
G1 X74.629 Y70.089 E1.17029
G1 X75.164 Y70.089 E0.01682
G1 X101.458 Y96.382 E1.16945
G1 X101.485 Y96.495 F10800.000
