; generated by PrusaSlicer 2.2.0+win64 on 2021-01-20 at 20:01:57 UTC

; 

; external perimeters extrusion width = 0.45mm
; perimeters extrusion width = 0.45mm
; infill extrusion width = 0.45mm
; solid infill extrusion width = 0.45mm
; top infill extrusion width = 0.40mm
; first layer extrusion width = 0.42mm

M73 P0 R351
M201 X9000 Y9000 Z500 E10000 ; sets maximum accelerations, mm/sec^2
M203 X500 Y500 Z12 E120 ; sets maximum feedrates, mm/sec
M204 P2000 R1500 T2000 ; sets acceleration (P, T) and retract acceleration (R), mm/sec^2
M205 X10.00 Y10.00 Z0.20 E2.50 ; sets the jerk limits, mm/sec
M205 S0 T0 ; sets the minimum extruding and travel feed rate, mm/sec
M107
M862.3 P "MK2S" ; printer model check
M862.1 P0.4 ; nozzle diameter check
M115 U3.2.3 ; tell printer latest fw version
G90 ; use absolute coordinates
M83 ; extruder relative mode
M204 S2000 T1500 ; MK2 firmware only supports the old M204 format
M104 S215 ; set extruder temp
M140 S60 ; set bed temp
M190 S60 ; wait for bed temp
M109 S215 ; wait for extruder temp
G28 W ; home all without mesh bed level
G80 ; mesh bed leveling
G1 Y-3.0 F1000.0 ; go outside print area
G92 E0.0
G1 X60.0 E9.0  F1000.0 ; intro line
M73 P0 R351
G1 X100.0 E12.5 F1000.0 ; intro line
G92 E0.0
G21 ; set units to millimeters
G90 ; use absolute coordinates
M83 ; use relative distances for extrusion
M900 K0.05 ; Filament gcode LA 1.5
M900 K30 ; Filament gcode LA 1.0
;BEFORE_LAYER_CHANGE
G92 E0.0
;0.2


G1 E-0.80000 F2100.00000
G1 Z0.600 F10800.000
;AFTER_LAYER_CHANGE
;0.2
G1 X96.751 Y69.863
G1 Z0.200
G1 E0.80000 F2100.00000
M204 S1000
G1 F1200.000
G1 X96.218 Y69.701 E0.01746
G1 X95.727 Y69.439 E0.01746
G1 X95.297 Y69.086 E0.01746
G1 X94.944 Y68.655 E0.01746
G1 X94.682 Y68.164 E0.01746
G1 X94.520 Y67.632 E0.01746
G1 X94.465 Y67.078 E0.01746
G1 X94.520 Y66.524 E0.01746
G1 X94.682 Y65.991 E0.01746
G1 X94.944 Y65.500 E0.01746
G1 X95.297 Y65.069 E0.01746
G1 X95.727 Y64.716 E0.01746
G1 X96.218 Y64.454 E0.01746
G1 X96.751 Y64.292 E0.01746
G1 X97.289 Y64.239 E0.01694
G1 X97.858 Y64.292 E0.01791
G1 X98.392 Y64.454 E0.01751
G1 X98.883 Y64.716 E0.01746
G1 X99.313 Y65.069 E0.01746
G1 X99.667 Y65.500 E0.01746
G1 X99.929 Y65.991 E0.01746
G1 X100.091 Y66.524 E0.01746
G1 X100.145 Y67.078 E0.01746
G1 X100.091 Y67.632 E0.01746
G1 X99.929 Y68.164 E0.01746
G1 X99.667 Y68.655 E0.01746
G1 X99.313 Y69.086 E0.01746
G1 X98.883 Y69.439 E0.01746
G1 X98.392 Y69.701 E0.01746
G1 X97.859 Y69.863 E0.01746
G1 X97.305 Y69.918 E0.01746
G1 X96.811 Y69.869 E0.01557
G1 X97.305 Y69.539 F10800.000
G1 F1200.000
G1 X96.825 Y69.491 E0.01513
G1 X96.363 Y69.351 E0.01513
G1 X95.938 Y69.124 E0.01513
G1 X95.565 Y68.818 E0.01513
G1 X95.259 Y68.445 E0.01513
G1 X95.032 Y68.019 E0.01513
G1 X94.892 Y67.558 E0.01513
G1 X94.844 Y67.078 E0.01513
G1 X94.892 Y66.597 E0.01513
G1 X95.032 Y66.136 E0.01513
G1 X95.259 Y65.710 E0.01513
G1 X95.565 Y65.337 E0.01513
G1 X95.938 Y65.031 E0.01513
G1 X96.363 Y64.804 E0.01513
G1 X96.825 Y64.664 E0.01513
G1 X97.290 Y64.618 E0.01464
G1 X97.785 Y64.664 E0.01558
G1 X98.247 Y64.804 E0.01515
G1 X98.673 Y65.031 E0.01513
G1 X99.045 Y65.337 E0.01513
G1 X99.352 Y65.710 E0.01513
G1 X99.579 Y66.136 E0.01513
G1 X99.719 Y66.597 E0.01513
G1 X99.766 Y67.078 E0.01513
G1 X99.719 Y67.558 E0.01513
G1 X99.579 Y68.019 E0.01513
G1 X99.352 Y68.445 E0.01513
G1 X99.045 Y68.818 E0.01513
G1 X98.673 Y69.124 E0.01513
G1 X98.247 Y69.351 E0.01513
G1 X97.785 Y69.491 E0.01513
G1 X97.365 Y69.533 E0.01325
G1 X97.105 Y69.885 F10800.000
G1 E-0.80000 F2100.00000
G1 Z0.800 F10800.000
G1 X89.500 Y101.076
G1 Z0.200
G1 E0.80000 F2100.00000
G1 F1200.000
G1 X58.540 Y101.076 E0.97074
G1 X58.540 Y72.543 E0.89463
G1 X92.714 Y72.543 E1.07151
G1 X92.714 Y62.599 E0.31179
G1 X101.540 Y62.599 E0.27673
G1 X101.540 Y72.543 E0.31179
G1 X120.460 Y72.543 E0.59324
G1 X120.460 Y101.076 E0.89463
G1 X89.560 Y101.076 E0.96886
G1 X89.500 Y101.453 F10800.000
G1 F1200.000
G1 X58.163 Y101.453 E0.98256
G1 X58.163 Y72.166 E0.91828
G1 X92.337 Y72.166 E1.07151
G1 X92.337 Y62.222 E0.31179
G1 X101.917 Y62.222 E0.30037
G1 X101.917 Y72.166 E0.31179
G1 X120.837 Y72.166 E0.59324
G1 X120.837 Y101.453 E0.91828
G1 X89.560 Y101.453 E0.98068
G1 X89.220 Y101.167 F10800.000
G1 E-0.80000 F2100.00000
G1 Z0.800 F10800.000
G1 X59.419 Y100.963
G1 Z0.200
G1 E0.80000 F2100.00000
G1 F1200.000
G1 X58.822 Y100.366 E0.02661
G1 X58.822 Y99.830 E0.01690
G1 X59.786 Y100.793 E0.04295
G1 X60.322 Y100.793 E0.01690
G1 X58.822 Y99.293 E0.06685
G1 X58.822 Y98.757 E0.01690
G1 X60.858 Y100.793 E0.09076
G1 X61.394 Y100.793 E0.01690
G1 X58.822 Y98.221 E0.11466
G1 X58.822 Y97.685 E0.01690
G1 X61.930 Y100.793 E0.13857
G1 X62.467 Y100.793 E0.01690
G1 X58.822 Y97.149 E0.16247
G1 X58.822 Y96.613 E0.01690
G1 X63.003 Y100.793 E0.18637
G1 X63.539 Y100.793 E0.01690
G1 X58.822 Y96.076 E0.21028
G1 X58.822 Y95.540 E0.01690
G1 X64.075 Y100.793 E0.23418
G1 X64.611 Y100.793 E0.01690
G1 X58.822 Y95.004 E0.25809
G1 X58.822 Y94.468 E0.01690
G1 X65.148 Y100.793 E0.28199
G1 X65.684 Y100.793 E0.01690
G1 X58.822 Y93.932 E0.30589
G1 X58.822 Y93.396 E0.01690
G1 X66.220 Y100.793 E0.32980
G1 X66.756 Y100.793 E0.01690
G1 X58.822 Y92.859 E0.35370
G1 X58.822 Y92.323 E0.01690
G1 X67.292 Y100.793 E0.37761
G1 X67.828 Y100.793 E0.01690
G1 X58.822 Y91.787 E0.40151
G1 X58.822 Y91.251 E0.01690
G1 X68.365 Y100.793 E0.42541
G1 X68.901 Y100.793 E0.01690
G1 X58.822 Y90.715 E0.44932
G1 X58.822 Y90.178 E0.01690
G1 X69.437 Y100.793 E0.47322
G1 X69.973 Y100.793 E0.01690
G1 X58.822 Y89.642 E0.49713
G1 X58.822 Y89.106 E0.01690
G1 X70.509 Y100.793 E0.52103
G1 X71.045 Y100.793 E0.01690
G1 X58.822 Y88.570 E0.54493
G1 X58.822 Y88.034 E0.01690
G1 X71.582 Y100.793 E0.56884
G1 X72.118 Y100.793 E0.01690
G1 X58.822 Y87.498 E0.59274
G1 X58.822 Y86.961 E0.01690
G1 X72.654 Y100.793 E0.61665
G1 X73.190 Y100.793 E0.01690
G1 X58.822 Y86.425 E0.64055
G1 X58.822 Y85.889 E0.01690
G1 X73.726 Y100.793 E0.66445
G1 X74.262 Y100.793 E0.01690
G1 X58.822 Y85.353 E0.68836
G1 X58.822 Y84.817 E0.01690
G1 X74.799 Y100.793 E0.71226
G1 X75.335 Y100.793 E0.01690
G1 X58.822 Y84.281 E0.73617
G1 X58.822 Y83.744 E0.01690
G1 X75.871 Y100.793 E0.76007
G1 X76.407 Y100.793 E0.01690
G1 X58.822 Y83.208 E0.78397
G1 X58.822 Y82.672 E0.01690
G1 X76.943 Y100.793 E0.80788
G1 X77.479 Y100.793 E0.01690
G1 X58.822 Y82.136 E0.83178
G1 X58.822 Y81.600 E0.01690
G1 X78.016 Y100.793 E0.85569
G1 X78.552 Y100.793 E0.01690
G1 X58.822 Y81.064 E0.87959
G1 X58.822 Y80.527 E0.01690
G1 X79.088 Y100.793 E0.90349
G1 X79.624 Y100.793 E0.01690
G1 X58.822 Y79.991 E0.92740
G1 X58.822 Y79.455 E0.01690
G1 X80.160 Y100.793 E0.95130
G1 X80.696 Y100.793 E0.01690
G1 X58.822 Y78.919 E0.97521
M73 P0 R350
G1 X58.822 Y78.383 E0.01690
G1 X81.233 Y100.793 E0.99911
G1 X81.769 Y100.793 E0.01690
G1 X58.822 Y77.847 E1.02301
G1 X58.822 Y77.310 E0.01690
G1 X82.305 Y100.793 E1.04692
G1 X82.841 Y100.793 E0.01690
G1 X58.822 Y76.774 E1.07082
G1 X58.822 Y76.238 E0.01690
G1 X83.377 Y100.793 E1.09473
G1 X83.913 Y100.793 E0.01690
G1 X58.822 Y75.702 E1.11863
G1 X58.822 Y75.166 E0.01690
G1 X84.450 Y100.793 E1.14253
G1 X84.986 Y100.793 E0.01690
G1 X58.822 Y74.630 E1.16644
G1 X58.822 Y74.093 E0.01690
G1 X85.522 Y100.793 E1.19034
G1 X86.058 Y100.793 E0.01690
G1 X58.822 Y73.557 E1.21425
G1 X58.822 Y73.021 E0.01690
G1 X86.594 Y100.793 E1.23815
G1 X87.131 Y100.793 E0.01690
G1 X59.163 Y72.826 E1.24687
G1 X59.699 Y72.826 E0.01690
G1 X87.667 Y100.793 E1.24687
G1 X88.203 Y100.793 E0.01690
G1 X60.235 Y72.826 E1.24687
G1 X60.772 Y72.826 E0.01690
G1 X88.739 Y100.793 E1.24687
G1 X89.275 Y100.793 E0.01690
G1 X61.308 Y72.826 E1.24687
G1 X61.844 Y72.826 E0.01690
G1 X89.811 Y100.793 E1.24687
G1 X90.348 Y100.793 E0.01690
G1 X62.380 Y72.826 E1.24687
G1 X62.916 Y72.826 E0.01690
G1 X90.884 Y100.793 E1.24687
G1 X91.420 Y100.793 E0.01690
G1 X63.452 Y72.826 E1.24687
G1 X63.989 Y72.826 E0.01690
G1 X91.956 Y100.793 E1.24687
G1 X92.492 Y100.793 E0.01690
G1 X64.525 Y72.826 E1.24687
G1 X65.061 Y72.826 E0.01690
G1 X93.028 Y100.793 E1.24687
G1 X93.565 Y100.793 E0.01690
G1 X65.597 Y72.826 E1.24687
G1 X66.133 Y72.826 E0.01690
G1 X94.101 Y100.793 E1.24687
G1 X94.637 Y100.793 E0.01690
G1 X66.669 Y72.826 E1.24687
G1 X67.206 Y72.826 E0.01690
G1 X95.173 Y100.793 E1.24687
G1 X95.709 Y100.793 E0.01690
G1 X67.742 Y72.826 E1.24687
G1 X68.278 Y72.826 E0.01690
G1 X96.245 Y100.793 E1.24687
G1 X96.782 Y100.793 E0.01690
G1 X68.814 Y72.826 E1.24687
G1 X69.350 Y72.826 E0.01690
G1 X97.318 Y100.793 E1.24687
M73 P0 R349
G1 X97.854 Y100.793 E0.01690
G1 X69.886 Y72.826 E1.24687
G1 X70.423 Y72.826 E0.01690
G1 X98.390 Y100.793 E1.24687
G1 X98.926 Y100.793 E0.01690
G1 X70.959 Y72.826 E1.24687
G1 X71.495 Y72.826 E0.01690
G1 X99.462 Y100.793 E1.24687
G1 X99.999 Y100.793 E0.01690
G1 X72.031 Y72.826 E1.24687
G1 X72.567 Y72.826 E0.01690
G1 X100.535 Y100.793 E1.24687
G1 X101.071 Y100.793 E0.01690
G1 X73.104 Y72.826 E1.24687
G1 X73.640 Y72.826 E0.01690
G1 X101.607 Y100.793 E1.24687
G1 X102.143 Y100.793 E0.01690
G1 X74.176 Y72.826 E1.24687
G1 X74.712 Y72.826 E0.01690
G1 X102.679 Y100.793 E1.24687
G1 X103.216 Y100.793 E0.01690
G1 X75.248 Y72.826 E1.24687
G1 X75.784 Y72.826 E0.01690
G1 X103.752 Y100.793 E1.24687
G1 X104.288 Y100.793 E0.01690
G1 X76.321 Y72.826 E1.24687
G1 X76.857 Y72.826 E0.01690
G1 X104.824 Y100.793 E1.24687
G1 X105.360 Y100.793 E0.01690
G1 X77.393 Y72.826 E1.24687
G1 X77.929 Y72.826 E0.01690
G1 X105.896 Y100.793 E1.24687
G1 X106.433 Y100.793 E0.01690
G1 X78.465 Y72.826 E1.24687
G1 X79.001 Y72.826 E0.01690
G1 X106.969 Y100.793 E1.24687
G1 X107.505 Y100.793 E0.01690
G1 X79.538 Y72.826 E1.24687
G1 X80.074 Y72.826 E0.01690
G1 X108.041 Y100.793 E1.24687
G1 X108.577 Y100.793 E0.01690
G1 X80.610 Y72.826 E1.24687
G1 X81.146 Y72.826 E0.01690
G1 X109.114 Y100.793 E1.24687
G1 X109.650 Y100.793 E0.01690
G1 X81.682 Y72.826 E1.24687
G1 X82.218 Y72.826 E0.01690
G1 X110.186 Y100.793 E1.24687
G1 X110.722 Y100.793 E0.01690
G1 X82.755 Y72.826 E1.24687
G1 X83.291 Y72.826 E0.01690
G1 X111.258 Y100.793 E1.24687
G1 X111.794 Y100.793 E0.01690
G1 X83.827 Y72.826 E1.24687
G1 X84.363 Y72.826 E0.01690
G1 X112.331 Y100.793 E1.24687
G1 X112.867 Y100.793 E0.01690
G1 X84.899 Y72.826 E1.24687
G1 X85.435 Y72.826 E0.01690
G1 X113.403 Y100.793 E1.24687
M73 P0 R348
G1 X113.939 Y100.793 E0.01690
G1 X85.972 Y72.826 E1.24687
G1 X86.508 Y72.826 E0.01690
G1 X114.475 Y100.793 E1.24687
G1 X115.011 Y100.793 E0.01690
G1 X87.044 Y72.826 E1.24687
G1 X87.580 Y72.826 E0.01690
G1 X115.548 Y100.793 E1.24687
G1 X116.084 Y100.793 E0.01690
G1 X88.116 Y72.826 E1.24687
G1 X88.652 Y72.826 E0.01690
G1 X116.620 Y100.793 E1.24687
G1 X117.156 Y100.793 E0.01690
G1 X89.189 Y72.826 E1.24687
G1 X89.725 Y72.826 E0.01690
G1 X117.692 Y100.793 E1.24687
G1 X118.228 Y100.793 E0.01690
G1 X90.261 Y72.826 E1.24687
G1 X90.797 Y72.826 E0.01690
G1 X118.765 Y100.793 E1.24687
G1 X119.301 Y100.793 E0.01690
G1 X91.333 Y72.826 E1.24687
G1 X91.869 Y72.826 E0.01690
G1 X119.837 Y100.793 E1.24687
G1 X120.178 Y100.793 E0.01074
G1 X120.178 Y100.597 E0.00616
G1 X92.406 Y72.826 E1.23815
G1 X92.942 Y72.826 E0.01690
G1 X120.178 Y100.061 E1.21425
G1 X120.178 Y99.525 E0.01690
G1 X92.997 Y72.344 E1.21179
G1 X92.997 Y71.808 E0.01690
G1 X120.178 Y98.989 E1.21179
G1 X120.178 Y98.453 E0.01690
G1 X92.997 Y71.272 E1.21179
G1 X92.997 Y70.736 E0.01690
G1 X120.178 Y97.917 E1.21179
G1 X120.178 Y97.380 E0.01690
G1 X92.997 Y70.200 E1.21179
G1 X92.997 Y69.663 E0.01690
G1 X120.178 Y96.844 E1.21179
G1 X120.178 Y96.308 E0.01690
G1 X92.997 Y69.127 E1.21179
G1 X92.997 Y68.591 E0.01690
G1 X120.178 Y95.772 E1.21179
G1 X120.178 Y95.236 E0.01690
G1 X92.997 Y68.055 E1.21179
G1 X92.997 Y67.519 E0.01690
G1 X120.347 Y94.869 E1.21936
G1 X120.347 Y92.188 F10800.000
G1 F1200.000
G1 X98.211 Y70.052 E0.98691
G1 X97.915 Y70.142 E0.00975
G1 X97.778 Y70.155 E0.00434
G1 X120.178 Y92.555 E0.99864
G1 X120.178 Y93.091 E0.01690
G1 X97.286 Y70.200 E1.02055
G1 X96.690 Y70.140 E0.01888
G1 X120.178 Y93.627 E1.04712
G1 X120.178 Y94.163 E0.01690
G1 X92.997 Y66.983 E1.21179
G1 X92.997 Y66.446 E0.01690
G1 X94.243 Y67.692 E0.05555
G1 X94.183 Y67.096 E0.01888
G1 X92.997 Y65.910 E0.05288
G1 X92.997 Y65.374 E0.01690
G1 X94.228 Y66.605 E0.05488
G1 X94.241 Y66.468 E0.00434
G1 X94.331 Y66.172 E0.00975
G1 X92.997 Y64.838 E0.05948
G1 X92.997 Y64.302 E0.01690
G1 X94.474 Y65.779 E0.06586
G1 X94.661 Y65.430 E0.01249
G1 X92.997 Y63.766 E0.07419
G1 X92.997 Y63.229 E0.01690
G1 X94.889 Y65.121 E0.08435
G1 X95.138 Y64.834 E0.01198
G1 X93.185 Y62.881 E0.08707
G1 X93.721 Y62.881 E0.01690
G1 X95.432 Y64.593 E0.07629
G1 X95.570 Y64.480 E0.00560
G1 X95.756 Y64.380 E0.00667
G1 X94.257 Y62.881 E0.06683
G1 X94.793 Y62.881 E0.01690
G1 X96.106 Y64.194 E0.05850
G1 X96.516 Y64.068 E0.01354
G1 X95.330 Y62.881 E0.05290
G1 X95.866 Y62.881 E0.01690
G1 X96.971 Y63.986 E0.04927
G1 X97.288 Y63.955 E0.01004
G1 X97.495 Y63.974 E0.00655
G1 X96.402 Y62.881 E0.04873
G1 X96.938 Y62.881 E0.01690
G1 X98.393 Y64.336 E0.06484
G1 X101.427 Y63.081 F10800.000
G1 F1200.000
G1 X101.228 Y62.881 E0.00888
G1 X100.691 Y62.881 E0.01690
G1 X101.257 Y63.447 E0.02522
G1 X101.257 Y63.983 E0.01690
G1 X100.155 Y62.881 E0.04913
G1 X99.619 Y62.881 E0.01690
G1 X101.257 Y64.519 E0.07303
G1 X101.257 Y65.056 E0.01690
G1 X99.083 Y62.881 E0.09693
G1 X98.547 Y62.881 E0.01690
G1 X101.257 Y65.592 E0.12084
G1 X101.257 Y66.128 E0.01690
G1 X98.010 Y62.881 E0.14474
G1 X97.474 Y62.881 E0.01690
G1 X101.427 Y66.834 E0.17621
G1 X100.047 Y65.990 F10800.000
G1 F1200.000
G1 X101.257 Y67.200 E0.05395
G1 X101.257 Y67.736 E0.01690
G1 X100.411 Y66.890 E0.03773
G1 X100.429 Y67.078 E0.00593
G1 X100.396 Y67.412 E0.01059
G1 X101.257 Y68.273 E0.03837
G1 X101.257 Y68.809 E0.01690
M73 P1 R347
G1 X100.315 Y67.867 E0.04201
G1 X100.189 Y68.277 E0.01354
G1 X101.257 Y69.345 E0.04760
G1 X101.257 Y69.881 E0.01690
G1 X100.003 Y68.627 E0.05593
G1 X99.903 Y68.813 E0.00667
G1 X99.790 Y68.950 E0.00560
G1 X101.257 Y70.417 E0.06540
G1 X101.257 Y70.954 E0.01690
G1 X99.549 Y69.245 E0.07617
G1 X99.262 Y69.494 E0.01198
G1 X101.257 Y71.490 E0.08897
G1 X101.257 Y72.026 E0.01690
G1 X98.953 Y69.722 E0.10271
G1 X98.604 Y69.909 E0.01249
G1 X120.178 Y91.483 E0.96182
G1 X120.178 Y90.946 E0.01690
G1 X102.057 Y72.826 E0.80788
G1 X102.593 Y72.826 E0.01690
G1 X120.178 Y90.410 E0.78398
G1 X120.178 Y89.874 E0.01690
G1 X103.129 Y72.826 E0.76007
G1 X103.665 Y72.826 E0.01690
G1 X120.178 Y89.338 E0.73617
G1 X120.178 Y88.802 E0.01690
G1 X104.201 Y72.826 E0.71226
G1 X104.738 Y72.826 E0.01690
G1 X120.178 Y88.266 E0.68836
G1 X120.178 Y87.729 E0.01690
G1 X105.274 Y72.826 E0.66446
G1 X105.810 Y72.826 E0.01690
G1 X120.178 Y87.193 E0.64055
G1 X120.178 Y86.657 E0.01690
G1 X106.346 Y72.826 E0.61665
G1 X106.882 Y72.826 E0.01690
G1 X120.178 Y86.121 E0.59274
G1 X120.178 Y85.585 E0.01690
G1 X107.418 Y72.826 E0.56884
G1 X107.955 Y72.826 E0.01690
G1 X120.178 Y85.049 E0.54494
G1 X120.178 Y84.512 E0.01690
G1 X108.491 Y72.826 E0.52103
G1 X109.027 Y72.826 E0.01690
G1 X120.178 Y83.976 E0.49713
G1 X120.178 Y83.440 E0.01690
G1 X109.563 Y72.826 E0.47322
G1 X110.099 Y72.826 E0.01690
G1 X120.178 Y82.904 E0.44932
G1 X120.178 Y82.368 E0.01690
G1 X110.635 Y72.826 E0.42542
G1 X111.172 Y72.826 E0.01690
G1 X120.178 Y81.831 E0.40151
G1 X120.178 Y81.295 E0.01690
G1 X111.708 Y72.826 E0.37761
G1 X112.244 Y72.826 E0.01690
G1 X120.178 Y80.759 E0.35370
G1 X120.178 Y80.223 E0.01690
G1 X112.780 Y72.826 E0.32980
G1 X113.316 Y72.826 E0.01690
G1 X120.178 Y79.687 E0.30590
G1 X120.178 Y79.151 E0.01690
G1 X113.852 Y72.826 E0.28199
G1 X114.389 Y72.826 E0.01690
G1 X120.178 Y78.614 E0.25809
G1 X120.178 Y78.078 E0.01690
G1 X114.925 Y72.826 E0.23418
G1 X115.461 Y72.826 E0.01690
G1 X120.178 Y77.542 E0.21028
G1 X120.178 Y77.006 E0.01690
G1 X115.997 Y72.826 E0.18638
G1 X116.533 Y72.826 E0.01690
G1 X120.178 Y76.470 E0.16247
G1 X120.178 Y75.934 E0.01690
G1 X117.070 Y72.826 E0.13857
G1 X117.606 Y72.826 E0.01690
G1 X120.178 Y75.397 E0.11466
G1 X120.178 Y74.861 E0.01690
G1 X118.142 Y72.826 E0.09076
G1 X118.678 Y72.826 E0.01690
G1 X120.178 Y74.325 E0.06686
G1 X120.178 Y73.789 E0.01690
G1 X119.214 Y72.826 E0.04295
G1 X119.750 Y72.826 E0.01690
G1 X120.347 Y73.422 E0.02661
G1 E-0.80000 F2100.00000
