; generated by PrusaSlicer 2.0.0+ on 2019-08-13 at 15:48:40

; 

; external perimeters extrusion width = 0.45mm
; perimeters extrusion width = 0.45mm
; infill extrusion width = 0.45mm
; solid infill extrusion width = 0.45mm
; top infill extrusion width = 0.40mm
; first layer extrusion width = 0.42mm

M73 P0 R15
M201 X9000 Y9000 Z500 E10000 ; sets maximum accelerations, mm/sec^2
M203 X500 Y500 Z12 E120 ; sets maximum feedrates, mm/sec
M204 P2000 R1500 T2000 ; sets acceleration (P, T) and retract acceleration (R), mm/sec^2
M205 X10.00 Y10.00 Z0.20 E2.50 ; sets the jerk limits, mm/sec
M205 S0 T0 ; sets the minimum extruding and travel feed rate, mm/sec
M107
M115 U3.2.3 ; tell printer latest fw version
G90 ; use absolute coordinates
M83 ; extruder relative mode
M204 S2000 T1500 ; MK2 firmware only supports the old M204 format
M104 S215 ; set extruder temp
M140 S60 ; set bed temp
M190 S60 ; wait for bed temp
M109 S215 ; wait for extruder temp
G28 W ; home all without mesh bed level
G80 ; mesh bed leveling
G1 Y-3.0 F1000.0 ; go outside print area
G92 E0.0
G1 X60.0 E9.0  F1000.0 ; intro line
M73 P0 R15
G1 X100.0 E12.5 F1000.0 ; intro line
G92 E0.0
M900 K30 ; Filament gcode
G21 ; set units to millimeters
G90 ; use absolute coordinates
M83 ; use relative distances for extrusion
;BEFORE_LAYER_CHANGE
G92 E0.0
;0.2


G1 E-0.80000 F2100.00000
G1 Z0.600 F10800.000
;AFTER_LAYER_CHANGE
;0.2
G1 X91.125 Y89.063
G1 Z0.200
G1 E0.80000 F2100.00000
M204 S1000
G1 F1200
G1 X92.813 Y87.676 E0.06849
G1 X94.582 Y86.497 E0.06667
G1 X134.229 Y63.610 E1.43538
G1 X135.196 Y63.126 E0.03390
G1 X137.052 Y62.358 E0.06296
G1 X139.127 Y61.725 E0.06804
G1 X140.211 Y61.483 E0.03482
G1 X142.197 Y61.189 E0.06296
G1 X144.368 Y61.079 E0.06815
G1 X146.426 Y61.179 E0.06460
G1 X147.579 Y61.321 E0.03642
G1 X149.602 Y61.725 E0.06467
G1 X151.574 Y62.322 E0.06460
G1 X152.656 Y62.739 E0.03638
G1 X154.522 Y63.623 E0.06472
G1 X155.490 Y64.174 E0.03493
G1 X157.201 Y65.319 E0.06456
G1 X158.798 Y66.627 E0.06472
G1 X159.608 Y67.396 E0.03500
G1 X160.993 Y68.921 E0.06460
G1 X161.707 Y69.837 E0.03642
G1 X162.852 Y71.553 E0.06467
G1 X163.824 Y73.369 E0.06460
G1 X164.295 Y74.430 E0.03638
G1 X164.977 Y76.336 E0.06346
G1 X165.284 Y77.448 E0.03619
G1 X165.684 Y79.468 E0.06456
G1 X165.818 Y80.574 E0.03493
G1 X165.917 Y82.594 E0.06341
G1 X165.917 Y127.367 E1.40381
G1 X165.814 Y129.480 E0.06636
G1 X165.503 Y131.573 E0.06632
G1 X164.989 Y133.625 E0.06632
G1 X164.276 Y135.616 E0.06632
G1 X163.372 Y137.528 E0.06632
G1 X162.284 Y139.343 E0.06632
G1 X161.024 Y141.041 E0.06632
G1 X159.604 Y142.609 E0.06632
G1 X158.036 Y144.029 E0.06632
G1 X156.337 Y145.289 E0.06632
G1 X154.523 Y146.376 E0.06632
G1 X152.611 Y147.281 E0.06632
G1 X150.619 Y147.993 E0.06632
G1 X148.567 Y148.507 E0.06632
G1 X146.475 Y148.817 E0.06632
G1 X144.362 Y148.921 E0.06632
G1 X142.197 Y148.811 E0.06797
G1 X140.207 Y148.516 E0.06307
G1 X139.128 Y148.276 E0.03466
G1 X137.051 Y147.642 E0.06808
G1 X135.196 Y146.874 E0.06296
G1 X134.231 Y146.391 E0.03386
G1 X94.580 Y123.502 E1.43549
G1 X92.811 Y122.323 E0.06667
G1 X91.126 Y120.938 E0.06838
G1 X89.010 Y118.715 E0.09623
G1 X87.714 Y116.974 E0.06804
G1 X86.603 Y115.113 E0.06797
G1 X85.360 Y112.308 E0.09619
G1 X84.728 Y110.236 E0.06792
G1 X84.487 Y109.152 E0.03482
G1 X84.192 Y107.166 E0.06296
G1 X84.083 Y104.999 E0.06804
G1 X84.192 Y102.834 E0.06797
G1 X84.487 Y100.844 E0.06307
G1 X84.728 Y99.765 E0.03466
G1 X85.359 Y97.693 E0.06792
G1 X86.603 Y94.887 E0.09623
G1 X87.716 Y93.024 E0.06804
G1 X89.010 Y91.285 E0.06797
G1 X91.084 Y89.107 E0.09431
G1 F8640
G1 X92.813 Y87.676 E-0.51817
G1 X93.684 Y87.095 E-0.24183
G1 E-0.04000 F2100.00000
G1 Z0.800 F10800.000
G1 X130.796 Y117.305
G1 Z0.200
G1 E0.80000 F2100.00000
G1 F1200
G1 X131.306 Y116.651 E0.02599
G1 X131.848 Y116.023 E0.02599
G1 X132.419 Y115.423 E0.02599
G1 X133.020 Y114.851 E0.02599
G1 X133.648 Y114.310 E0.02599
G1 X134.301 Y113.800 E0.02599
G1 X134.979 Y113.322 E0.02599
G1 X135.680 Y112.879 E0.02599
G1 X136.401 Y112.470 E0.02599
G1 X137.141 Y112.097 E0.02599
G1 X137.899 Y111.761 E0.02599
G1 X138.673 Y111.463 E0.02599
G1 X139.460 Y111.203 E0.02599
G1 X140.259 Y110.982 E0.02599
G1 X141.068 Y110.800 E0.02599
G1 X141.885 Y110.658 E0.02599
G1 X142.708 Y110.557 E0.02599
G1 X143.534 Y110.496 E0.02599
G1 X144.309 Y110.477 E0.02429
G1 X145.191 Y110.496 E0.02767
G1 X146.019 Y110.557 E0.02602
G1 X146.842 Y110.658 E0.02599
G1 X147.658 Y110.800 E0.02599
G1 X148.467 Y110.982 E0.02599
G1 X149.266 Y111.203 E0.02599
G1 X150.054 Y111.463 E0.02599
G1 X150.827 Y111.761 E0.02599
G1 X151.585 Y112.097 E0.02599
G1 X152.326 Y112.470 E0.02599
G1 X153.047 Y112.879 E0.02599
G1 X153.747 Y113.322 E0.02599
G1 X154.425 Y113.800 E0.02599
G1 X155.079 Y114.310 E0.02599
G1 X155.707 Y114.851 E0.02599
G1 X156.307 Y115.423 E0.02599
G1 X156.879 Y116.023 E0.02599
G1 X157.420 Y116.651 E0.02599
G1 X157.930 Y117.305 E0.02599
G1 X158.408 Y117.983 E0.02599
G1 X158.851 Y118.683 E0.02599
G1 X159.260 Y119.404 E0.02599
G1 X159.632 Y120.145 E0.02599
G1 X159.968 Y120.903 E0.02599
G1 X160.267 Y121.676 E0.02599
G1 X160.527 Y122.463 E0.02599
G1 X160.748 Y123.262 E0.02599
G1 X160.930 Y124.071 E0.02599
G1 X161.071 Y124.888 E0.02599
G1 X161.173 Y125.711 E0.02599
G1 X161.234 Y126.538 E0.02599
G1 X161.254 Y127.367 E0.02599
G1 X161.234 Y128.195 E0.02599
G1 X161.173 Y129.022 E0.02599
G1 X161.071 Y129.845 E0.02599
G1 X160.930 Y130.662 E0.02599
G1 X160.748 Y131.471 E0.02599
G1 X160.527 Y132.270 E0.02599
G1 X160.267 Y133.057 E0.02599
G1 X159.968 Y133.831 E0.02599
G1 X159.632 Y134.588 E0.02599
G1 X159.260 Y135.329 E0.02599
G1 X158.851 Y136.050 E0.02599
G1 X158.408 Y136.751 E0.02599
G1 X157.930 Y137.429 E0.02599
G1 X157.420 Y138.082 E0.02599
G1 X156.879 Y138.710 E0.02599
G1 X156.307 Y139.310 E0.02599
G1 X155.707 Y139.882 E0.02599
G1 X155.079 Y140.424 E0.02599
G1 X154.425 Y140.934 E0.02599
G1 X153.747 Y141.411 E0.02599
G1 X153.047 Y141.855 E0.02599
G1 X152.326 Y142.263 E0.02599
G1 X151.585 Y142.636 E0.02599
G1 X150.827 Y142.972 E0.02599
G1 X150.054 Y143.270 E0.02599
G1 X149.266 Y143.530 E0.02599
G1 X148.467 Y143.751 E0.02599
G1 X147.659 Y143.933 E0.02599
G1 X146.842 Y144.075 E0.02599
G1 X146.019 Y144.176 E0.02599
G1 X145.192 Y144.237 E0.02599
G1 X144.363 Y144.258 E0.02599
G1 X143.534 Y144.237 E0.02599
G1 X142.708 Y144.176 E0.02599
G1 X141.885 Y144.075 E0.02599
G1 X141.068 Y143.933 E0.02599
G1 X140.259 Y143.751 E0.02599
G1 X139.460 Y143.530 E0.02599
G1 X138.673 Y143.270 E0.02599
G1 X137.899 Y142.972 E0.02599
G1 X137.141 Y142.636 E0.02599
G1 X136.401 Y142.263 E0.02599
G1 X135.680 Y141.855 E0.02599
G1 X134.979 Y141.411 E0.02599
G1 X134.301 Y140.934 E0.02599
G1 X133.648 Y140.424 E0.02599
G1 X133.020 Y139.882 E0.02599
G1 X132.420 Y139.310 E0.02599
G1 X131.848 Y138.710 E0.02599
G1 X131.306 Y138.082 E0.02599
G1 X130.796 Y137.429 E0.02599
G1 X130.319 Y136.751 E0.02599
G1 X129.875 Y136.050 E0.02599
G1 X129.467 Y135.329 E0.02599
G1 X129.094 Y134.589 E0.02599
G1 X128.758 Y133.831 E0.02599
G1 X128.460 Y133.057 E0.02599
G1 X128.200 Y132.270 E0.02599
G1 X127.978 Y131.471 E0.02599
G1 X127.797 Y130.662 E0.02599
G1 X127.655 Y129.845 E0.02599
G1 X127.554 Y129.022 E0.02599
G1 X127.493 Y128.195 E0.02599
G1 X127.472 Y127.367 E0.02599
G1 X127.493 Y126.538 E0.02599
G1 X127.554 Y125.711 E0.02599
G1 X127.655 Y124.888 E0.02599
G1 X127.797 Y124.071 E0.02599
G1 X127.978 Y123.262 E0.02599
G1 X128.200 Y122.463 E0.02599
G1 X128.460 Y121.676 E0.02599
G1 X128.758 Y120.903 E0.02599
G1 X129.094 Y120.145 E0.02599
G1 X129.467 Y119.404 E0.02599
G1 X129.875 Y118.683 E0.02599
G1 X130.319 Y117.983 E0.02599
G1 X130.762 Y117.354 E0.02411
G1 X131.070 Y117.571 F10800.000
G1 F1200
G1 X131.598 Y116.890 E0.02700
G1 X132.127 Y116.277 E0.02541
G1 X132.686 Y115.690 E0.02541
G1 X133.273 Y115.131 E0.02541
G1 X133.887 Y114.601 E0.02541
G1 X134.526 Y114.103 E0.02541
G1 X135.189 Y113.636 E0.02541
G1 X135.873 Y113.202 E0.02541
G1 X136.579 Y112.803 E0.02541
G1 X137.303 Y112.438 E0.02541
G1 X138.044 Y112.110 E0.02541
G1 X138.800 Y111.818 E0.02541
G1 X139.570 Y111.564 E0.02541
G1 X140.351 Y111.348 E0.02541
G1 X141.142 Y111.170 E0.02541
G1 X141.940 Y111.032 E0.02541
G1 X142.745 Y110.932 E0.02541
G1 X143.553 Y110.873 E0.02541
G1 X144.310 Y110.854 E0.02373
G1 X145.173 Y110.873 E0.02708
G1 X145.982 Y110.932 E0.02542
G1 X146.786 Y111.032 E0.02541
G1 X147.585 Y111.170 E0.02541
G1 X148.376 Y111.348 E0.02541
G1 X149.157 Y111.564 E0.02541
G1 X149.927 Y111.818 E0.02541
G1 X150.683 Y112.110 E0.02541
G1 X151.424 Y112.438 E0.02541
G1 X152.148 Y112.803 E0.02541
G1 X152.853 Y113.202 E0.02541
G1 X153.538 Y113.636 E0.02541
G1 X154.200 Y114.103 E0.02541
G1 X154.839 Y114.601 E0.02541
G1 X155.453 Y115.131 E0.02541
G1 X156.040 Y115.690 E0.02541
G1 X156.599 Y116.277 E0.02541
G1 X157.129 Y116.890 E0.02541
G1 X157.627 Y117.529 E0.02541
G1 X158.094 Y118.192 E0.02541
G1 X158.528 Y118.877 E0.02541
G1 X158.927 Y119.582 E0.02541
G1 X159.292 Y120.306 E0.02541
G1 X159.620 Y121.047 E0.02541
G1 X159.912 Y121.803 E0.02541
G1 X160.166 Y122.573 E0.02541
G1 X160.382 Y123.354 E0.02541
G1 X160.560 Y124.145 E0.02541
G1 X160.698 Y124.944 E0.02541
G1 X160.797 Y125.748 E0.02541
G1 X160.857 Y126.556 E0.02541
G1 X160.877 Y127.367 E0.02541
G1 X160.857 Y128.177 E0.02541
G1 X160.797 Y128.985 E0.02541
G1 X160.698 Y129.790 E0.02541
G1 X160.560 Y130.588 E0.02541
G1 X160.382 Y131.379 E0.02541
G1 X160.166 Y132.160 E0.02541
G1 X159.912 Y132.930 E0.02541
G1 X159.620 Y133.686 E0.02541
G1 X159.292 Y134.427 E0.02541
G1 X158.927 Y135.151 E0.02541
G1 X158.528 Y135.856 E0.02541
G1 X158.094 Y136.541 E0.02541
G1 X157.627 Y137.204 E0.02541
G1 X157.129 Y137.843 E0.02541
G1 X156.599 Y138.457 E0.02541
G1 X156.040 Y139.044 E0.02541
G1 X155.453 Y139.603 E0.02541
G1 X154.839 Y140.132 E0.02541
G1 X154.200 Y140.631 E0.02541
G1 X153.538 Y141.097 E0.02541
G1 X152.853 Y141.531 E0.02541
G1 X152.148 Y141.931 E0.02541
G1 X151.424 Y142.295 E0.02541
G1 X150.683 Y142.623 E0.02541
G1 X149.927 Y142.915 E0.02541
G1 X149.157 Y143.169 E0.02541
G1 X148.376 Y143.386 E0.02541
G1 X147.585 Y143.563 E0.02541
G1 X146.786 Y143.702 E0.02541
G1 X145.982 Y143.801 E0.02541
G1 X145.174 Y143.861 E0.02541
G1 X144.363 Y143.880 E0.02541
G1 X143.553 Y143.861 E0.02541
G1 X142.745 Y143.801 E0.02541
G1 X141.940 Y143.702 E0.02541
G1 X141.142 Y143.563 E0.02541
G1 X140.351 Y143.386 E0.02541
G1 X139.570 Y143.169 E0.02541
G1 X138.800 Y142.915 E0.02541
G1 X138.044 Y142.623 E0.02541
G1 X137.303 Y142.295 E0.02541
G1 X136.579 Y141.931 E0.02541
G1 X135.873 Y141.531 E0.02541
G1 X135.189 Y141.097 E0.02541
G1 X134.526 Y140.631 E0.02541
G1 X133.887 Y140.132 E0.02541
G1 X133.273 Y139.603 E0.02541
G1 X132.686 Y139.044 E0.02541
G1 X132.127 Y138.457 E0.02541
G1 X131.598 Y137.843 E0.02541
G1 X131.099 Y137.204 E0.02541
G1 X130.633 Y136.541 E0.02541
G1 X130.199 Y135.856 E0.02541
G1 X129.799 Y135.151 E0.02541
G1 X129.435 Y134.427 E0.02541
G1 X129.106 Y133.686 E0.02541
G1 X128.815 Y132.930 E0.02541
G1 X128.560 Y132.160 E0.02541
G1 X128.344 Y131.379 E0.02541
G1 X128.167 Y130.588 E0.02541
G1 X128.028 Y129.790 E0.02541
G1 X127.929 Y128.985 E0.02541
G1 X127.869 Y128.177 E0.02541
G1 X127.849 Y127.367 E0.02541
G1 X127.869 Y126.556 E0.02541
G1 X127.929 Y125.748 E0.02541
G1 X128.028 Y124.944 E0.02541
G1 X128.167 Y124.145 E0.02541
G1 X128.344 Y123.354 E0.02541
G1 X128.560 Y122.573 E0.02541
G1 X128.815 Y121.803 E0.02541
G1 X129.106 Y121.047 E0.02541
G1 X129.435 Y120.306 E0.02541
G1 X129.799 Y119.582 E0.02541
G1 X130.199 Y118.877 E0.02541
G1 X130.632 Y118.192 E0.02541
G1 X131.035 Y117.620 E0.02194
G1 X130.910 Y117.204 F10800.000
G1 F8640
G1 X131.598 Y116.890 E-0.21270
G1 X132.127 Y116.277 E-0.18716
G1 X132.686 Y115.690 E-0.18716
G1 X133.229 Y115.173 E-0.17299
G1 E-0.04000 F2100.00000
G1 Z0.800 F10800.000
G1 X129.184 Y116.316
G1 Z0.200
G1 E0.80000 F2100.00000
G1 F1200
G1 X129.847 Y115.454 E0.03411
G1 X130.449 Y114.756 E0.02890
G1 X131.085 Y114.088 E0.02890
G1 X131.752 Y113.453 E0.02890
G1 X132.450 Y112.851 E0.02890
G1 X133.177 Y112.284 E0.02890
G1 X133.930 Y111.753 E0.02890
G1 X134.709 Y111.260 E0.02890
G1 X135.511 Y110.805 E0.02890
G1 X136.334 Y110.391 E0.02890
G1 X137.177 Y110.018 E0.02890
G1 X138.037 Y109.686 E0.02890
G1 X138.912 Y109.397 E0.02890
G1 X139.800 Y109.151 E0.02890
G1 X140.700 Y108.949 E0.02890
G1 X141.608 Y108.791 E0.02890
G1 X142.523 Y108.679 E0.02890
G1 X143.442 Y108.611 E0.02890
G1 X144.363 Y108.588 E0.02890
G1 X145.222 Y108.609 E0.02694
G1 X146.205 Y108.679 E0.03088
G1 X147.119 Y108.791 E0.02887
G1 X148.027 Y108.949 E0.02890
G1 X148.926 Y109.151 E0.02890
G1 X149.814 Y109.397 E0.02890
G1 X150.689 Y109.686 E0.02890
G1 X151.549 Y110.018 E0.02890
G1 X152.392 Y110.391 E0.02890
G1 X153.215 Y110.805 E0.02890
G1 X154.017 Y111.260 E0.02890
G1 X154.796 Y111.753 E0.02890
G1 X155.550 Y112.284 E0.02890
G1 X156.276 Y112.851 E0.02890
G1 X156.974 Y113.453 E0.02890
G1 X157.642 Y114.088 E0.02890
G1 X158.277 Y114.756 E0.02890
G1 X158.879 Y115.454 E0.02890
G1 X159.446 Y116.180 E0.02890
G1 X159.977 Y116.934 E0.02890
G1 X160.470 Y117.713 E0.02890
G1 X160.924 Y118.515 E0.02890
G1 X161.339 Y119.338 E0.02890
G1 X161.712 Y120.180 E0.02890
G1 X162.044 Y121.040 E0.02890
G1 X162.333 Y121.916 E0.02890
G1 X162.579 Y122.804 E0.02890
G1 X162.781 Y123.703 E0.02890
G1 X162.938 Y124.611 E0.02890
G1 X163.051 Y125.526 E0.02890
G1 X163.119 Y126.445 E0.02890
G1 X163.142 Y127.367 E0.02890
G1 X163.119 Y128.288 E0.02890
G1 X163.051 Y129.207 E0.02890
G1 X162.938 Y130.122 E0.02890
G1 X162.781 Y131.030 E0.02890
G1 X162.579 Y131.929 E0.02890
G1 X162.333 Y132.818 E0.02890
G1 X162.044 Y133.693 E0.02890
G1 X161.712 Y134.553 E0.02890
G1 X161.339 Y135.395 E0.02890
G1 X160.924 Y136.219 E0.02890
G1 X160.470 Y137.021 E0.02890
G1 X159.977 Y137.799 E0.02890
G1 X159.446 Y138.553 E0.02890
G1 X158.879 Y139.280 E0.02890
G1 X158.277 Y139.978 E0.02890
G1 X157.642 Y140.645 E0.02890
G1 X156.974 Y141.281 E0.02890
G1 X156.276 Y141.883 E0.02890
G1 X155.550 Y142.450 E0.02890
G1 X154.796 Y142.980 E0.02890
G1 X154.017 Y143.473 E0.02890
G1 X153.215 Y143.928 E0.02890
G1 X152.392 Y144.342 E0.02890
G1 X151.549 Y144.716 E0.02890
G1 X150.690 Y145.047 E0.02890
G1 X149.814 Y145.337 E0.02890
G1 X148.926 Y145.582 E0.02890
G1 X148.027 Y145.784 E0.02890
G1 X147.119 Y145.942 E0.02890
G1 X146.204 Y146.055 E0.02890
G1 X145.285 Y146.123 E0.02890
G1 X144.363 Y146.145 E0.02890
G1 X143.442 Y146.123 E0.02890
G1 X142.523 Y146.055 E0.02890
G1 X141.608 Y145.942 E0.02890
G1 X140.700 Y145.784 E0.02890
G1 X139.800 Y145.582 E0.02890
G1 X138.912 Y145.337 E0.02890
G1 X138.037 Y145.047 E0.02890
G1 X137.177 Y144.716 E0.02890
G1 X136.334 Y144.342 E0.02890
G1 X135.511 Y143.928 E0.02890
G1 X134.709 Y143.474 E0.02890
G1 X133.930 Y142.980 E0.02890
G1 X133.177 Y142.450 E0.02890
G1 X132.450 Y141.883 E0.02890
G1 X131.752 Y141.281 E0.02890
G1 X131.085 Y140.645 E0.02890
G1 X130.449 Y139.978 E0.02890
G1 X129.847 Y139.280 E0.02890
G1 X129.280 Y138.553 E0.02890
G1 X128.749 Y137.799 E0.02890
G1 X128.256 Y137.021 E0.02890
G1 X127.802 Y136.219 E0.02890
G1 X127.388 Y135.396 E0.02890
G1 X127.014 Y134.553 E0.02890
G1 X126.682 Y133.693 E0.02890
G1 X126.393 Y132.818 E0.02890
G1 X126.147 Y131.929 E0.02890
G1 X125.946 Y131.030 E0.02890
G1 X125.788 Y130.122 E0.02890
G1 X125.675 Y129.207 E0.02890
G1 X125.607 Y128.288 E0.02890
G1 X125.585 Y127.367 E0.02890
G1 X125.607 Y126.445 E0.02890
G1 X125.675 Y125.526 E0.02890
G1 X125.788 Y124.611 E0.02890
G1 X125.946 Y123.703 E0.02890
G1 X126.147 Y122.804 E0.02890
G1 X126.393 Y121.916 E0.02890
G1 X126.682 Y121.040 E0.02890
G1 X127.014 Y120.180 E0.02890
G1 X127.388 Y119.338 E0.02890
G1 X127.802 Y118.515 E0.02890
G1 X128.256 Y117.713 E0.02890
G1 X128.749 Y116.934 E0.02890
G1 X129.150 Y116.365 E0.02180
G1 X128.842 Y116.148 F10800.000
G1 F1200
G1 X129.556 Y115.214 E0.03686
G1 X130.170 Y114.502 E0.02948
G1 X130.818 Y113.822 E0.02948
G1 X131.499 Y113.173 E0.02948
G1 X132.211 Y112.559 E0.02948
G1 X132.952 Y111.981 E0.02948
G1 X133.721 Y111.439 E0.02948
G1 X134.515 Y110.936 E0.02948
G1 X135.333 Y110.473 E0.02948
G1 X136.173 Y110.050 E0.02948
G1 X137.033 Y109.669 E0.02948
G1 X137.910 Y109.331 E0.02948
G1 X138.803 Y109.036 E0.02948
