; generated by PrusaSlicer 2.2.0+win64 on 2020-12-08 at 19:07:01 UTC

; 

; external perimeters extrusion width = 0.60mm
; perimeters extrusion width = 0.43mm
; infill extrusion width = 0.45mm
; solid infill extrusion width = 0.70mm
; top infill extrusion width = 0.43mm
; first layer extrusion width = 0.42mm

M73 P0 R18
M201 X9000 Y9000 Z500 E10000 ; sets maximum accelerations, mm/sec^2
M203 X500 Y500 Z12 E120 ; sets maximum feedrates, mm/sec
M204 P2000 R1500 T2000 ; sets acceleration (P, T) and retract acceleration (R), mm/sec^2
M205 X10.00 Y10.00 Z0.20 E2.50 ; sets the jerk limits, mm/sec
M205 S0 T0 ; sets the minimum extruding and travel feed rate, mm/sec
M107
M862.3 P "MK2S" ; printer model check
M862.1 P0.4 ; nozzle diameter check
M115 U3.2.3 ; tell printer latest fw version
G90 ; use absolute coordinates
M83 ; extruder relative mode
M204 S2000 T1500 ; MK2 firmware only supports the old M204 format
M104 S215 ; set extruder temp
M140 S60 ; set bed temp
M190 S60 ; wait for bed temp
M109 S215 ; wait for extruder temp
G28 W ; home all without mesh bed level
G80 ; mesh bed leveling
G1 Y-3.0 F1000.0 ; go outside print area
G92 E0.0
G1 X60.0 E9.0  F1000.0 ; intro line
M73 P0 R18
G1 X100.0 E12.5 F1000.0 ; intro line
G92 E0.0
G21 ; set units to millimeters
G90 ; use absolute coordinates
M83 ; use relative distances for extrusion
M900 K0.05 ; Filament gcode LA 1.5
M900 K30 ; Filament gcode LA 1.0
;BEFORE_LAYER_CHANGE
G92 E0.0
;0.2


G1 E-0.80000 F2100.00000
G1 Z0.600 F10800.000
;AFTER_LAYER_CHANGE
;0.2
G1 X95.907 Y76.846
G1 Z0.200
G1 E0.80000 F2100.00000
M204 S1000
G1 F1200.000
G1 X97.039 Y76.637 E0.03607
G1 X152.931 Y76.606 E1.75246
G1 X154.093 Y76.815 E0.03701
G1 X154.750 Y77.143 E0.02306
G1 X155.174 Y77.472 E0.01680
G1 X155.668 Y78.011 E0.02292
G1 X156.033 Y78.670 E0.02364
G1 X156.199 Y79.160 E0.01621
G1 X156.302 Y79.888 E0.02306
G1 X156.304 Y130.037 E1.57237
G1 X156.202 Y130.791 E0.02388
G1 X156.034 Y131.292 E0.01657
G1 X155.664 Y131.962 E0.02400
G1 X155.155 Y132.513 E0.02352
G1 X154.741 Y132.829 E0.01633
G1 X154.093 Y133.152 E0.02270
G1 X152.961 Y133.360 E0.03607
G1 X97.062 Y133.391 E1.75270
G1 X96.287 Y133.294 E0.02447
G1 X95.778 Y133.128 E0.01680
G1 X95.100 Y132.755 E0.02424
G1 X94.543 Y132.242 E0.02376
G1 X94.227 Y131.828 E0.01633
G1 X93.905 Y131.180 E0.02270
G1 X93.696 Y130.052 E0.03595
G1 X93.696 Y80.003 E1.56927
G1 X93.793 Y79.228 E0.02447
G1 X93.959 Y78.718 E0.01680
G1 X94.334 Y78.038 E0.02435
G1 X94.845 Y77.484 E0.02364
G1 X95.259 Y77.168 E0.01633
G1 X95.854 Y76.872 E0.02082
G1 E-0.80000 F2100.00000
G1 Z0.800 F10800.000
G1 X146.600 Y123.656
G1 Z0.200
G1 E0.80000 F2100.00000
G1 F1200.000
G1 X147.099 Y123.247 E0.02023
G1 X147.668 Y122.943 E0.02023
G1 X148.285 Y122.756 E0.02023
G1 X148.887 Y122.696 E0.01898
G1 X149.566 Y122.755 E0.02134
G1 X150.186 Y122.943 E0.02034
G1 X150.755 Y123.247 E0.02023
G1 X151.254 Y123.656 E0.02023
G1 X151.663 Y124.155 E0.02023
G1 X151.967 Y124.724 E0.02023
G1 X152.155 Y125.341 E0.02023
G1 X152.218 Y125.983 E0.02023
G1 X152.155 Y126.625 E0.02023
G1 X151.967 Y127.243 E0.02023
G1 X151.663 Y127.812 E0.02023
G1 X151.254 Y128.310 E0.02023
G1 X150.755 Y128.720 E0.02023
G1 X150.186 Y129.024 E0.02023
G1 X149.569 Y129.211 E0.02023
G1 X148.927 Y129.274 E0.02023
G1 X148.285 Y129.211 E0.02023
G1 X147.668 Y129.024 E0.02023
G1 X147.099 Y128.720 E0.02023
G1 X146.600 Y128.310 E0.02023
G1 X146.191 Y127.812 E0.02023
G1 X145.887 Y127.243 E0.02023
G1 X145.699 Y126.625 E0.02023
G1 X145.636 Y125.983 E0.02023
G1 X145.699 Y125.341 E0.02023
G1 X145.887 Y124.724 E0.02023
G1 X146.191 Y124.155 E0.02023
G1 X146.562 Y123.703 E0.01835
G1 X146.853 Y123.942 F10800.000
G1 F1200.000
G1 X147.309 Y123.562 E0.01860
G1 X147.813 Y123.293 E0.01790
G1 X148.359 Y123.127 E0.01790
G1 X148.890 Y123.075 E0.01673
G1 X149.494 Y123.127 E0.01901
G1 X150.041 Y123.293 E0.01794
G1 X150.545 Y123.562 E0.01790
G1 X150.986 Y123.924 E0.01790
G1 X151.348 Y124.365 E0.01790
G1 X151.617 Y124.869 E0.01790
G1 X151.783 Y125.415 E0.01790
G1 X151.839 Y125.983 E0.01790
G1 X151.783 Y126.551 E0.01790
G1 X151.617 Y127.098 E0.01790
G1 X151.348 Y127.601 E0.01790
G1 X150.986 Y128.042 E0.01790
G1 X150.545 Y128.405 E0.01790
G1 X150.041 Y128.674 E0.01790
G1 X149.495 Y128.839 E0.01790
G1 X148.927 Y128.895 E0.01790
G1 X148.359 Y128.839 E0.01790
G1 X147.813 Y128.674 E0.01790
G1 X147.309 Y128.405 E0.01790
G1 X146.868 Y128.042 E0.01790
G1 X146.506 Y127.601 E0.01790
G1 X146.237 Y127.098 E0.01790
G1 X146.071 Y126.551 E0.01790
G1 X146.015 Y125.983 E0.01790
G1 X146.071 Y125.415 E0.01790
G1 X146.237 Y124.869 E0.01790
G1 X146.506 Y124.365 E0.01790
G1 X146.815 Y123.988 E0.01530
G1 X146.748 Y123.556 F10800.000
G1 E-0.80000 F2100.00000
G1 Z0.800 F10800.000
G1 X148.927 Y87.274
G1 Z0.200
G1 E0.80000 F2100.00000
G1 F1200.000
G1 X148.285 Y87.211 E0.02023
G1 X147.668 Y87.024 E0.02023
G1 X147.099 Y86.720 E0.02023
G1 X146.600 Y86.310 E0.02023
G1 X146.191 Y85.812 E0.02023
G1 X145.887 Y85.243 E0.02023
G1 X145.699 Y84.625 E0.02023
G1 X145.636 Y83.983 E0.02023
G1 X145.699 Y83.341 E0.02023
G1 X145.887 Y82.724 E0.02023
G1 X146.191 Y82.155 E0.02023
G1 X146.600 Y81.656 E0.02023
G1 X147.099 Y81.247 E0.02023
G1 X147.671 Y80.941 E0.02036
G1 X148.332 Y80.751 E0.02155
G1 X148.927 Y80.692 E0.01875
G1 X149.569 Y80.756 E0.02023
G1 X150.186 Y80.943 E0.02023
G1 X150.755 Y81.247 E0.02023
G1 X151.254 Y81.656 E0.02023
G1 X151.663 Y82.155 E0.02023
G1 X151.967 Y82.724 E0.02023
G1 X152.155 Y83.341 E0.02023
G1 X152.218 Y83.983 E0.02023
G1 X152.155 Y84.625 E0.02023
G1 X151.967 Y85.243 E0.02023
G1 X151.663 Y85.812 E0.02023
G1 X151.254 Y86.310 E0.02023
G1 X150.755 Y86.720 E0.02023
G1 X150.186 Y87.024 E0.02023
G1 X149.569 Y87.211 E0.02023
G1 X148.987 Y87.268 E0.01835
G1 X148.950 Y86.893 F10800.000
G1 F1200.000
G1 X148.359 Y86.839 E0.01860
G1 X147.813 Y86.674 E0.01790
G1 X147.309 Y86.404 E0.01790
G1 X146.868 Y86.042 E0.01790
G1 X146.506 Y85.601 E0.01790
G1 X146.237 Y85.098 E0.01790
G1 X146.071 Y84.551 E0.01790
G1 X146.015 Y83.983 E0.01790
G1 X146.071 Y83.415 E0.01790
G1 X146.237 Y82.869 E0.01790
G1 X146.506 Y82.365 E0.01790
G1 X146.868 Y81.924 E0.01790
G1 X147.309 Y81.562 E0.01790
G1 X147.814 Y81.292 E0.01795
G1 X148.403 Y81.123 E0.01922
G1 X148.927 Y81.071 E0.01650
G1 X149.495 Y81.127 E0.01790
G1 X150.041 Y81.293 E0.01790
G1 X150.545 Y81.562 E0.01790
G1 X150.986 Y81.924 E0.01790
G1 X151.348 Y82.365 E0.01790
G1 X151.617 Y82.869 E0.01790
G1 X151.783 Y83.415 E0.01790
G1 X151.839 Y83.983 E0.01790
G1 X151.783 Y84.551 E0.01790
G1 X151.617 Y85.098 E0.01790
G1 X151.348 Y85.601 E0.01790
G1 X150.986 Y86.042 E0.01790
G1 X150.545 Y86.404 E0.01790
G1 X150.041 Y86.674 E0.01790
G1 X149.495 Y86.839 E0.01790
G1 X149.009 Y86.887 E0.01530
G1 X148.752 Y87.241 F10800.000
G1 E-0.80000 F2100.00000
G1 Z0.800 F10800.000
G1 X153.120 Y79.921
G1 Z0.200
G1 E0.80000 F2100.00000
G1 F1200.000
G1 X153.140 Y80.045 E0.00396
G1 X153.140 Y129.921 E1.56383
G1 X153.120 Y130.046 E0.00396
G1 X153.046 Y130.148 E0.00394
G1 X152.990 Y130.176 E0.00199
G1 X152.865 Y130.196 E0.00396
G1 X144.989 Y130.196 E0.24695
G1 X144.864 Y130.176 E0.00396
G1 X144.763 Y130.103 E0.00394
G1 X144.734 Y130.046 E0.00199
G1 X144.714 Y129.921 E0.00396
G1 X144.714 Y80.045 E1.56383
G1 X144.734 Y79.921 E0.00396
G1 X144.808 Y79.819 E0.00394
G1 X144.864 Y79.790 E0.00199
G1 X144.989 Y79.770 E0.00396
G1 X152.865 Y79.770 E0.24695
G1 X152.990 Y79.790 E0.00396
G1 X153.093 Y79.867 E0.00404
G1 X153.400 Y79.639 F10800.000
G1 F1200.000
G1 X153.483 Y79.803 E0.00574
G1 X153.517 Y80.016 E0.00676
G1 X153.517 Y129.951 E1.56569
G1 X153.483 Y130.164 E0.00676
G1 X153.400 Y130.327 E0.00574
G1 X153.271 Y130.456 E0.00574
G1 X153.108 Y130.540 E0.00574
G1 X152.895 Y130.573 E0.00676
G1 X144.959 Y130.573 E0.24881
G1 X144.746 Y130.540 E0.00676
G1 X144.583 Y130.456 E0.00574
G1 X144.454 Y130.327 E0.00574
G1 X144.371 Y130.164 E0.00574
G1 X144.337 Y129.951 E0.00676
G1 X144.337 Y80.016 E1.56569
G1 X144.371 Y79.803 E0.00676
G1 X144.454 Y79.639 E0.00574
G1 X144.583 Y79.510 E0.00574
G1 X144.746 Y79.427 E0.00574
G1 X144.959 Y79.393 E0.00676
G1 X152.895 Y79.393 E0.24881
G1 X153.108 Y79.427 E0.00676
G1 X153.271 Y79.510 E0.00574
G1 X153.358 Y79.597 E0.00386
G1 X153.326 Y79.807 F10800.000
G1 X153.027 Y80.736
G1 F1200.000
G1 X152.344 Y80.053 E0.03036
G1 X151.809 Y80.053 E0.01682
G1 X152.857 Y81.101 E0.04660
G1 X152.857 Y81.636 E0.01682
G1 X151.274 Y80.053 E0.07039
G1 X150.740 Y80.053 E0.01682
G1 X152.857 Y82.171 E0.09418
G1 X152.857 Y82.706 E0.01682
G1 X150.205 Y80.053 E0.11796
G1 X149.670 Y80.053 E0.01682
G1 X150.299 Y80.683 E0.02799
G1 X149.624 Y80.477 E0.02218
G1 X149.552 Y80.470 E0.00230
G1 X149.135 Y80.053 E0.01853
G1 X148.600 Y80.053 E0.01682
G1 X148.958 Y80.411 E0.01593
G1 X148.466 Y80.454 E0.01554
G1 X148.065 Y80.053 E0.01781
G1 X147.530 Y80.053 E0.01682
G1 X148.023 Y80.546 E0.02190
G1 X147.607 Y80.665 E0.01359
G1 X146.996 Y80.053 E0.02721
G1 X146.461 Y80.053 E0.01682
G1 X147.252 Y80.844 E0.03519
G1 X146.909 Y81.037 E0.01236
G1 X145.926 Y80.053 E0.04374
G1 X145.391 Y80.053 E0.01682
G1 X146.616 Y81.278 E0.05446
G1 X146.399 Y81.455 E0.00881
G1 X146.336 Y81.533 E0.00314
G1 X144.997 Y80.194 E0.05954
G1 X144.997 Y80.729 E0.01682
G1 X146.095 Y81.826 E0.04882
G1 X145.954 Y81.997 E0.00694
G1 X145.876 Y82.143 E0.00521
G1 X144.997 Y81.264 E0.03911
G1 X144.997 Y81.798 E0.01682
G1 X145.690 Y82.492 E0.03083
G1 X145.624 Y82.615 E0.00440
G1 X145.544 Y82.880 E0.00871
G1 X144.997 Y82.333 E0.02432
G1 X144.997 Y82.868 E0.01682
G1 X145.420 Y83.291 E0.01882
G1 X145.372 Y83.778 E0.01539
G1 X144.997 Y83.403 E0.01669
G1 X144.997 Y83.938 E0.01682
G1 X145.386 Y84.327 E0.01730
G1 X145.421 Y84.681 E0.01119
G1 X145.515 Y84.990 E0.01018
G1 X144.997 Y84.473 E0.02302
G1 X144.997 Y85.008 E0.01682
G1 X152.857 Y92.868 E0.34957
G1 X152.857 Y92.333 E0.01682
G1 X147.920 Y87.396 E0.21958
G1 X148.230 Y87.490 E0.01018
G1 X148.584 Y87.524 E0.01119
G1 X152.857 Y91.798 E0.19006
G1 X152.857 Y91.263 E0.01682
G1 X149.132 Y87.538 E0.16567
G1 X149.619 Y87.490 E0.01539
G1 X152.857 Y90.728 E0.14401
G1 X152.857 Y90.194 E0.01682
G1 X150.030 Y87.367 E0.12572
G1 X150.295 Y87.286 E0.00871
G1 X150.419 Y87.220 E0.00440
G1 X152.857 Y89.659 E0.10845
G1 X152.857 Y89.124 E0.01682
G1 X150.767 Y87.034 E0.09295
G1 X150.913 Y86.956 E0.00521
G1 X151.084 Y86.816 E0.00694
G1 X152.857 Y88.589 E0.07886
G1 X152.857 Y88.054 E0.01682
G1 X151.378 Y86.575 E0.06580
G1 X151.455 Y86.511 E0.00314
G1 X151.633 Y86.295 E0.00881
G1 X152.857 Y87.519 E0.05446
G1 X152.857 Y86.984 E0.01682
G1 X151.874 Y86.001 E0.04374
G1 X152.066 Y85.658 E0.01236
G1 X152.857 Y86.450 E0.03519
G1 X152.857 Y85.915 E0.01682
G1 X152.245 Y85.302 E0.02723
G1 X152.369 Y84.892 E0.01349
G1 X152.857 Y85.380 E0.02170
G1 X152.857 Y84.845 E0.01682
G1 X152.457 Y84.445 E0.01781
G1 X152.499 Y83.952 E0.01554
G1 X152.857 Y84.310 E0.01593
G1 X152.857 Y83.775 E0.01682
G1 X152.441 Y83.359 E0.01853
G1 X152.433 Y83.286 E0.00230
G1 X152.228 Y82.611 E0.02218
G1 X153.027 Y83.410 E0.03554
G1 E-0.80000 F2100.00000
G1 Z0.800 F10800.000
G1 X153.027 Y93.572
G1 Z0.200
G1 E0.80000 F2100.00000
G1 F1200.000
G1 X144.997 Y85.542 E0.35712
G1 X144.997 Y86.077 E0.01682
G1 X152.857 Y93.938 E0.34957
G1 X152.857 Y94.472 E0.01682
G1 X144.997 Y86.612 E0.34957
G1 X144.997 Y87.147 E0.01682
G1 X152.857 Y95.007 E0.34957
G1 X152.857 Y95.542 E0.01682
G1 X144.997 Y87.682 E0.34957
G1 X144.997 Y88.217 E0.01682
G1 X152.857 Y96.077 E0.34957
G1 X152.857 Y96.612 E0.01682
G1 X144.997 Y88.752 E0.34957
G1 X144.997 Y89.286 E0.01682
G1 X152.857 Y97.147 E0.34957
G1 X152.857 Y97.681 E0.01682
G1 X144.997 Y89.821 E0.34957
G1 X144.997 Y90.356 E0.01682
G1 X152.857 Y98.216 E0.34957
G1 X152.857 Y98.751 E0.01682
G1 X144.997 Y90.891 E0.34957
G1 X144.997 Y91.426 E0.01682
G1 X152.857 Y99.286 E0.34957
G1 X152.857 Y99.821 E0.01682
G1 X144.997 Y91.961 E0.34957
G1 X144.997 Y92.495 E0.01682
G1 X152.857 Y100.356 E0.34957
G1 X152.857 Y100.891 E0.01682
G1 X144.997 Y93.030 E0.34957
G1 X144.997 Y93.565 E0.01682
G1 X152.857 Y101.425 E0.34957
G1 X152.857 Y101.960 E0.01682
G1 X144.997 Y94.100 E0.34957
G1 X144.997 Y94.635 E0.01682
G1 X152.857 Y102.495 E0.34957
G1 X152.857 Y103.030 E0.01682
G1 X144.997 Y95.170 E0.34957
G1 X144.997 Y95.705 E0.01682
G1 X152.857 Y103.565 E0.34957
G1 X152.857 Y104.100 E0.01682
G1 X144.997 Y96.239 E0.34957
G1 X144.997 Y96.774 E0.01682
G1 X152.857 Y104.635 E0.34957
G1 X152.857 Y105.169 E0.01682
G1 X144.997 Y97.309 E0.34957
G1 X144.997 Y97.844 E0.01682
G1 X152.857 Y105.704 E0.34957
G1 X152.857 Y106.239 E0.01682
G1 X144.997 Y98.379 E0.34957
G1 X144.997 Y98.914 E0.01682
G1 X152.857 Y106.774 E0.34957
G1 X152.857 Y107.309 E0.01682
G1 X144.997 Y99.449 E0.34957
G1 X144.997 Y99.983 E0.01682
G1 X152.857 Y107.844 E0.34957
G1 X152.857 Y108.379 E0.01682
G1 X144.997 Y100.518 E0.34957
G1 X144.997 Y101.053 E0.01682
G1 X152.857 Y108.913 E0.34957
G1 X152.857 Y109.448 E0.01682
G1 X144.997 Y101.588 E0.34957
G1 X144.997 Y102.123 E0.01682
G1 X152.857 Y109.983 E0.34957
G1 X152.857 Y110.518 E0.01682
G1 X144.997 Y102.658 E0.34957
G1 X144.997 Y103.193 E0.01682
G1 X152.857 Y111.053 E0.34957
G1 X152.857 Y111.588 E0.01682
G1 X144.997 Y103.727 E0.34957
G1 X144.997 Y104.262 E0.01682
G1 X152.857 Y112.123 E0.34957
G1 X152.857 Y112.657 E0.01682
G1 X144.997 Y104.797 E0.34957
M73 P5 R17
G1 X144.997 Y105.332 E0.01682
G1 X152.857 Y113.192 E0.34957
G1 X152.857 Y113.727 E0.01682
G1 X144.997 Y105.867 E0.34957
G1 X144.997 Y106.402 E0.01682
G1 X152.857 Y114.262 E0.34957
G1 X152.857 Y114.797 E0.01682
G1 X144.997 Y106.937 E0.34957
G1 X144.997 Y107.471 E0.01682
G1 X152.857 Y115.332 E0.34957
G1 X152.857 Y115.866 E0.01682
G1 X144.997 Y108.006 E0.34957
G1 X144.997 Y108.541 E0.01682
G1 X152.857 Y116.401 E0.34957
G1 X152.857 Y116.936 E0.01682
G1 X144.997 Y109.076 E0.34957
G1 X144.997 Y109.611 E0.01682
G1 X152.857 Y117.471 E0.34957
G1 X152.857 Y118.006 E0.01682
G1 X144.997 Y110.146 E0.34957
G1 X144.997 Y110.680 E0.01682
G1 X152.857 Y118.541 E0.34957
G1 X152.857 Y119.076 E0.01682
G1 X144.997 Y111.215 E0.34957
G1 X144.997 Y111.750 E0.01682
G1 X152.857 Y119.610 E0.34957
G1 X152.857 Y120.145 E0.01682
G1 X144.997 Y112.285 E0.34957
G1 X144.997 Y112.820 E0.01682
G1 X152.857 Y120.680 E0.34957
G1 X152.857 Y121.215 E0.01682
G1 X144.997 Y113.355 E0.34957
G1 X144.997 Y113.890 E0.01682
G1 X152.857 Y121.750 E0.34957
G1 X152.857 Y122.285 E0.01682
G1 X144.997 Y114.424 E0.34957
G1 X144.997 Y114.959 E0.01682
G1 X152.857 Y122.820 E0.34957
G1 X152.857 Y123.354 E0.01682
G1 X144.997 Y115.494 E0.34957
G1 X144.997 Y116.029 E0.01682
G1 X152.857 Y123.889 E0.34957
G1 X152.857 Y124.424 E0.01682
G1 X144.997 Y116.564 E0.34957
G1 X144.997 Y117.099 E0.01682
G1 X152.857 Y124.959 E0.34957
G1 X152.857 Y125.494 E0.01682
G1 X152.339 Y124.976 E0.02302
G1 X152.433 Y125.286 E0.01018
G1 X152.468 Y125.640 E0.01119
G1 X152.857 Y126.029 E0.01730
G1 X152.857 Y126.564 E0.01682
G1 X152.482 Y126.188 E0.01669
G1 X152.434 Y126.675 E0.01539
G1 X152.857 Y127.098 E0.01882
G1 X152.857 Y127.633 E0.01682
G1 X152.310 Y127.086 E0.02432
G1 X152.230 Y127.351 E0.00871
G1 X152.164 Y127.475 E0.00440
G1 X152.857 Y128.168 E0.03083
G1 X152.857 Y128.703 E0.01682
G1 X151.978 Y127.823 E0.03911
G1 X151.900 Y127.969 E0.00521
G1 X151.759 Y128.140 E0.00694
G1 X152.857 Y129.238 E0.04882
G1 X152.857 Y129.773 E0.01682
G1 X151.518 Y128.434 E0.05954
G1 X151.455 Y128.511 E0.00314
G1 X151.239 Y128.689 E0.00881
G1 X152.463 Y129.913 E0.05446
G1 X151.928 Y129.913 E0.01682
G1 X150.945 Y128.930 E0.04374
G1 X150.602 Y129.122 E0.01236
G1 X151.393 Y129.913 E0.03519
G1 X150.858 Y129.913 E0.01682
G1 X150.246 Y129.301 E0.02723
G1 X149.836 Y129.426 E0.01349
G1 X150.324 Y129.913 E0.02170
G1 X149.789 Y129.913 E0.01682
G1 X149.388 Y129.513 E0.01781
G1 X148.896 Y129.555 E0.01554
G1 X149.254 Y129.913 E0.01593
G1 X148.719 Y129.913 E0.01682
G1 X148.302 Y129.497 E0.01853
G1 X148.230 Y129.490 E0.00230
G1 X147.555 Y129.284 E0.02218
G1 X148.184 Y129.913 E0.02799
G1 X147.649 Y129.913 E0.01682
G1 X144.997 Y127.261 E0.11796
G1 X144.997 Y126.726 E0.01682
G1 X145.626 Y127.355 E0.02799
G1 X145.421 Y126.681 E0.02218
G1 X145.413 Y126.608 E0.00230
G1 X144.997 Y126.191 E0.01853
G1 X144.997 Y125.656 E0.01682
