; generated by PrusaSlicer 2.2.0+win64 on 2020-12-08 at 19:06:29 UTC

; 

; external perimeters extrusion width = 0.60mm
; perimeters extrusion width = 0.43mm
; infill extrusion width = 0.45mm
; solid infill extrusion width = 0.70mm
; top infill extrusion width = 0.43mm
; first layer extrusion width = 0.42mm

M73 P0 R12
M201 X9000 Y9000 Z500 E10000 ; sets maximum accelerations, mm/sec^2
M203 X500 Y500 Z12 E120 ; sets maximum feedrates, mm/sec
M204 P2000 R1500 T2000 ; sets acceleration (P, T) and retract acceleration (R), mm/sec^2
M205 X10.00 Y10.00 Z0.20 E2.50 ; sets the jerk limits, mm/sec
M205 S0 T0 ; sets the minimum extruding and travel feed rate, mm/sec
M107
M862.3 P "MK2S" ; printer model check
M862.1 P0.4 ; nozzle diameter check
M115 U3.2.3 ; tell printer latest fw version
G90 ; use absolute coordinates
M83 ; extruder relative mode
M204 S2000 T1500 ; MK2 firmware only supports the old M204 format
M104 S215 ; set extruder temp
M140 S60 ; set bed temp
M190 S60 ; wait for bed temp
M109 S215 ; wait for extruder temp
G28 W ; home all without mesh bed level
G80 ; mesh bed leveling
G1 Y-3.0 F1000.0 ; go outside print area
G92 E0.0
G1 X60.0 E9.0  F1000.0 ; intro line
M73 P0 R12
G1 X100.0 E12.5 F1000.0 ; intro line
G92 E0.0
G21 ; set units to millimeters
G90 ; use absolute coordinates
M83 ; use relative distances for extrusion
M900 K0.05 ; Filament gcode LA 1.5
M900 K30 ; Filament gcode LA 1.0
;BEFORE_LAYER_CHANGE
G92 E0.0
;0.2


G1 E-0.80000 F2100.00000
G1 Z0.600 F10800.000
;AFTER_LAYER_CHANGE
;0.2
G1 X110.497 Y71.433
G1 Z0.200
G1 E0.80000 F2100.00000
M204 S1000
G1 F1200.000
G1 X111.420 Y70.493 E0.04128
G1 X112.612 Y69.859 E0.04234
G1 X113.774 Y69.632 E0.03711
G1 X135.956 Y69.616 E0.69550
G1 X137.398 Y69.863 E0.04588
G1 X138.324 Y70.321 E0.03239
G1 X138.781 Y70.667 E0.01799
G1 X139.493 Y71.420 E0.03249
G1 X139.992 Y72.337 E0.03273
G1 X140.175 Y72.864 E0.01752
G1 X140.324 Y73.848 E0.03120
G1 X140.329 Y136.015 E1.94918
G1 X140.111 Y137.370 E0.04305
G1 X139.502 Y138.567 E0.04211
G1 X138.573 Y139.512 E0.04152
G1 X137.377 Y140.145 E0.04246
G1 X136.191 Y140.372 E0.03783
G1 X114.028 Y140.384 E0.69491
G1 X112.684 Y140.166 E0.04270
G1 X111.478 Y139.550 E0.04247
G1 X110.520 Y138.598 E0.04235
G1 X109.894 Y137.389 E0.04270
G1 X109.672 Y136.106 E0.04081
G1 X109.670 Y73.985 E1.94775
G1 X109.888 Y72.630 E0.04305
G1 X110.470 Y71.486 E0.04023
G1 E-0.80000 F2100.00000
G1 Z0.800 F10800.000
G1 X130.625 Y94.666
G1 Z0.200
G1 E0.80000 F2100.00000
G1 F1200.000
G1 X131.123 Y94.257 E0.02023
G1 X131.692 Y93.953 E0.02023
G1 X132.310 Y93.765 E0.02023
G1 X132.912 Y93.706 E0.01898
G1 X133.590 Y93.764 E0.02134
G1 X134.211 Y93.953 E0.02034
G1 X134.780 Y94.257 E0.02023
G1 X135.279 Y94.666 E0.02023
G1 X135.688 Y95.165 E0.02023
G1 X135.992 Y95.734 E0.02023
G1 X136.179 Y96.351 E0.02023
G1 X136.243 Y96.993 E0.02023
G1 X136.179 Y97.635 E0.02023
G1 X135.992 Y98.252 E0.02023
G1 X135.688 Y98.821 E0.02023
G1 X135.279 Y99.320 E0.02023
G1 X134.780 Y99.729 E0.02023
G1 X134.211 Y100.033 E0.02023
G1 X133.594 Y100.221 E0.02023
G1 X132.952 Y100.284 E0.02023
G1 X132.310 Y100.221 E0.02023
G1 X131.692 Y100.033 E0.02023
G1 X131.123 Y99.729 E0.02023
G1 X130.625 Y99.320 E0.02023
G1 X130.216 Y98.821 E0.02023
G1 X129.911 Y98.252 E0.02023
G1 X129.724 Y97.635 E0.02023
G1 X129.661 Y96.993 E0.02023
G1 X129.724 Y96.351 E0.02023
G1 X129.911 Y95.734 E0.02023
G1 X130.215 Y95.165 E0.02023
G1 X130.587 Y94.712 E0.01835
G1 X130.878 Y94.952 F10800.000
G1 F1200.000
G1 X131.334 Y94.572 E0.01860
G1 X131.837 Y94.303 E0.01790
G1 X132.384 Y94.137 E0.01790
G1 X132.915 Y94.085 E0.01673
G1 X133.519 Y94.137 E0.01901
G1 X134.066 Y94.303 E0.01794
G1 X134.570 Y94.572 E0.01790
G1 X135.011 Y94.934 E0.01790
G1 X135.373 Y95.375 E0.01790
G1 X135.642 Y95.879 E0.01790
G1 X135.808 Y96.425 E0.01790
G1 X135.864 Y96.993 E0.01790
G1 X135.808 Y97.561 E0.01790
G1 X135.642 Y98.107 E0.01790
G1 X135.373 Y98.611 E0.01790
G1 X135.011 Y99.052 E0.01790
G1 X134.570 Y99.414 E0.01790
G1 X134.066 Y99.683 E0.01790
G1 X133.520 Y99.849 E0.01790
G1 X132.952 Y99.905 E0.01790
G1 X132.384 Y99.849 E0.01790
G1 X131.837 Y99.683 E0.01790
G1 X131.334 Y99.414 E0.01790
G1 X130.893 Y99.052 E0.01790
G1 X130.531 Y98.611 E0.01790
G1 X130.261 Y98.107 E0.01790
G1 X130.096 Y97.561 E0.01790
G1 X130.040 Y96.993 E0.01790
G1 X130.096 Y96.425 E0.01790
G1 X130.261 Y95.879 E0.01790
G1 X130.531 Y95.375 E0.01790
G1 X130.840 Y94.998 E0.01530
G1 X130.772 Y94.566 F10800.000
G1 E-0.80000 F2100.00000
G1 Z0.800 F10800.000
G1 X132.310 Y80.221
G1 Z0.200
G1 E0.80000 F2100.00000
G1 F1200.000
G1 X131.692 Y80.033 E0.02023
G1 X131.123 Y79.729 E0.02023
G1 X130.625 Y79.320 E0.02023
G1 X130.216 Y78.821 E0.02023
G1 X129.911 Y78.252 E0.02023
G1 X129.724 Y77.635 E0.02023
G1 X129.661 Y76.993 E0.02023
G1 X129.724 Y76.351 E0.02023
G1 X129.911 Y75.734 E0.02023
G1 X130.215 Y75.165 E0.02023
G1 X130.625 Y74.666 E0.02023
G1 X131.123 Y74.257 E0.02023
G1 X131.692 Y73.953 E0.02023
G1 X132.310 Y73.765 E0.02023
G1 X132.912 Y73.706 E0.01898
G1 X133.590 Y73.764 E0.02134
G1 X134.211 Y73.953 E0.02034
G1 X134.780 Y74.257 E0.02023
G1 X135.279 Y74.666 E0.02023
G1 X135.688 Y75.165 E0.02023
G1 X135.992 Y75.734 E0.02023
G1 X136.179 Y76.351 E0.02023
G1 X136.243 Y76.993 E0.02023
G1 X136.179 Y77.635 E0.02023
G1 X135.992 Y78.252 E0.02023
G1 X135.688 Y78.821 E0.02023
G1 X135.279 Y79.320 E0.02023
G1 X134.780 Y79.729 E0.02023
G1 X134.211 Y80.033 E0.02023
G1 X133.594 Y80.221 E0.02023
G1 X132.952 Y80.284 E0.02023
G1 X132.369 Y80.227 E0.01835
G1 X132.406 Y79.851 F10800.000
G1 F1200.000
G1 X131.837 Y79.683 E0.01860
G1 X131.334 Y79.414 E0.01790
G1 X130.893 Y79.052 E0.01790
G1 X130.531 Y78.611 E0.01790
G1 X130.261 Y78.107 E0.01790
G1 X130.096 Y77.561 E0.01790
G1 X130.040 Y76.993 E0.01790
G1 X130.096 Y76.425 E0.01790
G1 X130.261 Y75.879 E0.01790
G1 X130.531 Y75.375 E0.01790
G1 X130.893 Y74.934 E0.01790
G1 X131.334 Y74.572 E0.01790
G1 X131.837 Y74.303 E0.01790
G1 X132.384 Y74.137 E0.01790
G1 X132.915 Y74.085 E0.01673
G1 X133.519 Y74.137 E0.01901
G1 X134.066 Y74.303 E0.01794
G1 X134.570 Y74.572 E0.01790
G1 X135.011 Y74.934 E0.01790
G1 X135.373 Y75.375 E0.01790
G1 X135.642 Y75.879 E0.01790
G1 X135.808 Y76.425 E0.01790
G1 X135.864 Y76.993 E0.01790
G1 X135.808 Y77.561 E0.01790
G1 X135.642 Y78.107 E0.01790
G1 X135.373 Y78.611 E0.01790
G1 X135.011 Y79.052 E0.01790
G1 X134.570 Y79.414 E0.01790
G1 X134.066 Y79.683 E0.01790
G1 X133.520 Y79.849 E0.01790
G1 X132.952 Y79.905 E0.01790
G1 X132.466 Y79.857 E0.01530
G1 X132.144 Y80.153 F10800.000
G1 E-0.80000 F2100.00000
G1 Z0.800 F10800.000
G1 X128.808 Y73.621
G1 Z0.200
G1 E0.80000 F2100.00000
G1 F1200.000
G1 X128.978 Y73.286 E0.01180
G1 X129.245 Y73.020 E0.01180
G1 X129.580 Y72.849 E0.01180
G1 X130.014 Y72.780 E0.01377
G1 X135.890 Y72.780 E0.18424
G1 X136.324 Y72.849 E0.01377
G1 X136.659 Y73.020 E0.01180
G1 X136.925 Y73.286 E0.01180
G1 X137.096 Y73.621 E0.01180
G1 X137.165 Y74.055 E0.01377
G1 X137.165 Y99.931 E0.81133
G1 X137.096 Y100.365 E0.01377
G1 X136.925 Y100.700 E0.01180
G1 X136.659 Y100.966 E0.01180
G1 X136.324 Y101.137 E0.01180
G1 X135.890 Y101.206 E0.01377
G1 X130.014 Y101.206 E0.18424
G1 X129.580 Y101.137 E0.01377
G1 X129.245 Y100.966 E0.01180
G1 X128.978 Y100.700 E0.01180
G1 X128.808 Y100.365 E0.01180
G1 X128.739 Y99.931 E0.01377
G1 X128.739 Y74.055 E0.81133
G1 X128.798 Y73.680 E0.01189
G1 X128.444 Y73.503 F10800.000
G1 F1200.000
G1 X128.670 Y73.061 E0.01555
G1 X129.020 Y72.711 E0.01555
G1 X129.462 Y72.486 E0.01555
G1 X129.984 Y72.403 E0.01657
G1 X135.920 Y72.403 E0.18610
G1 X136.442 Y72.486 E0.01657
G1 X136.883 Y72.711 E0.01555
G1 X137.234 Y73.061 E0.01555
G1 X137.459 Y73.503 E0.01555
G1 X137.542 Y74.025 E0.01657
G1 X137.542 Y99.961 E0.81319
G1 X137.459 Y100.483 E0.01657
G1 X137.234 Y100.925 E0.01555
G1 X136.883 Y101.275 E0.01555
G1 X136.442 Y101.500 E0.01555
G1 X135.920 Y101.583 E0.01657
G1 X129.984 Y101.583 E0.18610
G1 X129.462 Y101.500 E0.01657
G1 X129.020 Y101.275 E0.01555
G1 X128.670 Y100.925 E0.01555
G1 X128.444 Y100.483 E0.01555
G1 X128.362 Y99.961 E0.01657
G1 X128.362 Y74.025 E0.81319
G1 X128.435 Y73.562 E0.01469
G1 X128.836 Y73.420 F10800.000
G1 E-0.80000 F2100.00000
G1 Z0.800 F10800.000
G1 X137.005 Y73.769
G1 Z0.200
G1 E0.80000 F2100.00000
G1 F1200.000
G1 X136.484 Y73.248 E0.02340
G1 X136.235 Y73.121 E0.00886
G1 X135.868 Y73.063 E0.01181
G1 X135.759 Y73.063 E0.00345
G1 X136.882 Y74.186 E0.05041
G1 X136.882 Y74.726 E0.01714
G1 X135.219 Y73.063 E0.07465
G1 X134.679 Y73.063 E0.01714
G1 X136.882 Y75.266 E0.09889
G1 X136.882 Y75.806 E0.01714
G1 X134.139 Y73.063 E0.12313
G1 X133.599 Y73.063 E0.01714
G1 X134.186 Y73.649 E0.02633
G1 X133.644 Y73.485 E0.01797
G1 X133.466 Y73.470 E0.00566
G1 X133.059 Y73.063 E0.01827
G1 X132.519 Y73.063 E0.01714
G1 X132.881 Y73.425 E0.01625
G1 X132.390 Y73.473 E0.01568
G1 X131.980 Y73.063 E0.01842
G1 X131.440 Y73.063 E0.01714
G1 X131.954 Y73.578 E0.02311
G1 X131.547 Y73.710 E0.01361
G1 X130.900 Y73.063 E0.02904
G1 X130.360 Y73.063 E0.01714
G1 X131.195 Y73.898 E0.03749
G1 X130.966 Y74.020 E0.00825
G1 X130.862 Y74.105 E0.00424
G1 X129.849 Y73.092 E0.04547
G1 X129.668 Y73.121 E0.00582
G1 X129.450 Y73.233 E0.00780
G1 X130.566 Y74.349 E0.05010
G1 X130.424 Y74.465 E0.00583
G1 X130.297 Y74.620 E0.00635
G1 X129.183 Y73.506 E0.04999
G1 X129.080 Y73.710 E0.00725
G1 X129.048 Y73.911 E0.00646
G1 X130.054 Y74.916 E0.04514
G1 X129.979 Y75.007 E0.00372
G1 X129.849 Y75.251 E0.00880
G1 X129.022 Y74.424 E0.03712
G1 X129.022 Y74.964 E0.01714
G1 X129.661 Y75.603 E0.02868
G1 X129.531 Y76.013 E0.01366
G1 X129.022 Y75.504 E0.02287
G1 X129.022 Y76.044 E0.01714
G1 X129.430 Y76.452 E0.01833
G1 X129.382 Y76.944 E0.01568
G1 X129.022 Y76.584 E0.01616
G1 X129.022 Y77.124 E0.01714
G1 X129.430 Y77.532 E0.01832
G1 X129.445 Y77.690 E0.00505
G1 X129.618 Y78.260 E0.01891
G1 X129.022 Y77.664 E0.02679
G1 X129.022 Y78.204 E0.01714
G1 X136.882 Y86.064 E0.35288
G1 X136.882 Y85.524 E0.01714
G1 X131.684 Y80.326 E0.23334
G1 X132.254 Y80.499 E0.01891
G1 X132.413 Y80.515 E0.00505
G1 X136.882 Y84.984 E0.20064
G1 X136.882 Y84.444 E0.01714
G1 X133.001 Y80.563 E0.17423
G1 X133.492 Y80.515 E0.01568
G1 X136.882 Y83.904 E0.15217
G1 X136.882 Y83.364 E0.01714
G1 X133.931 Y80.414 E0.13246
G1 X134.342 Y80.284 E0.01366
G1 X136.882 Y82.824 E0.11404
G1 X136.882 Y82.285 E0.01714
G1 X134.694 Y80.096 E0.09824
G1 X134.938 Y79.966 E0.00880
G1 X135.029 Y79.891 E0.00372
G1 X136.882 Y81.745 E0.08321
G1 X136.882 Y81.205 E0.01714
G1 X135.325 Y79.648 E0.06989
G1 X135.480 Y79.521 E0.00635
G1 X135.596 Y79.379 E0.00583
G1 X136.882 Y80.665 E0.05772
G1 X136.882 Y80.125 E0.01714
G1 X135.840 Y79.082 E0.04680
G1 X135.924 Y78.979 E0.00424
G1 X136.047 Y78.750 E0.00825
G1 X136.882 Y79.585 E0.03749
G1 X136.882 Y79.045 E0.01714
G1 X136.235 Y78.398 E0.02905
G1 X136.367 Y77.990 E0.01361
G1 X136.882 Y78.505 E0.02311
G1 X136.882 Y77.965 E0.01714
G1 X136.471 Y77.555 E0.01842
G1 X136.520 Y77.063 E0.01568
G1 X136.882 Y77.425 E0.01625
G1 X136.882 Y76.885 E0.01714
G1 X136.476 Y76.480 E0.01821
G1 X136.458 Y76.296 E0.00588
G1 X136.295 Y75.759 E0.01780
G1 X137.052 Y76.515 E0.03395
G1 E-0.80000 F2100.00000
G1 Z0.800 F10800.000
G1 X137.052 Y86.774
G1 Z0.200
G1 E0.80000 F2100.00000
G1 F1200.000
G1 X129.022 Y78.744 E0.36049
G1 X129.022 Y79.283 E0.01714
G1 X136.882 Y87.144 E0.35288
G1 X136.882 Y87.684 E0.01714
G1 X129.022 Y79.823 E0.35288
G1 X129.022 Y80.363 E0.01714
G1 X136.882 Y88.224 E0.35288
G1 X136.882 Y88.763 E0.01714
G1 X129.022 Y80.903 E0.35288
G1 X129.022 Y81.443 E0.01714
G1 X136.882 Y89.303 E0.35288
G1 X136.882 Y89.843 E0.01714
G1 X129.022 Y81.983 E0.35288
G1 X129.022 Y82.523 E0.01714
G1 X136.882 Y90.383 E0.35288
G1 X136.882 Y90.923 E0.01714
G1 X129.022 Y83.063 E0.35288
G1 X129.022 Y83.603 E0.01714
G1 X136.882 Y91.463 E0.35288
G1 X136.882 Y92.003 E0.01714
G1 X129.022 Y84.143 E0.35288
G1 X129.022 Y84.683 E0.01714
G1 X136.882 Y92.543 E0.35288
G1 X136.882 Y93.083 E0.01714
G1 X129.022 Y85.223 E0.35288
G1 X129.022 Y85.762 E0.01714
G1 X136.882 Y93.623 E0.35288
G1 X136.882 Y94.163 E0.01714
G1 X129.022 Y86.302 E0.35288
G1 X129.022 Y86.842 E0.01714
G1 X136.882 Y94.703 E0.35288
G1 X136.882 Y95.242 E0.01714
G1 X129.022 Y87.382 E0.35288
G1 X129.022 Y87.922 E0.01714
G1 X136.882 Y95.782 E0.35288
G1 X136.882 Y96.322 E0.01714
G1 X136.285 Y95.726 E0.02679
G1 X136.458 Y96.296 E0.01891
G1 X136.474 Y96.454 E0.00506
G1 X136.882 Y96.862 E0.01832
G1 X136.882 Y97.402 E0.01714
G1 X136.522 Y97.042 E0.01616
G1 X136.474 Y97.534 E0.01568
G1 X136.882 Y97.942 E0.01833
G1 X136.882 Y98.482 E0.01714
G1 X136.373 Y97.973 E0.02287
G1 X136.243 Y98.383 E0.01366
G1 X136.882 Y99.022 E0.02868
G1 X136.882 Y99.562 E0.01714
G1 X136.055 Y98.735 E0.03712
G1 X135.924 Y98.979 E0.00880
G1 X135.850 Y99.070 E0.00372
G1 X136.856 Y100.075 E0.04514
G1 X136.824 Y100.276 E0.00646
G1 X136.720 Y100.480 E0.00725
G1 X135.607 Y99.366 E0.04999
G1 X135.480 Y99.521 E0.00635
G1 X135.338 Y99.637 E0.00583
G1 X136.454 Y100.753 E0.05010
G1 X136.235 Y100.865 E0.00779
G1 X136.054 Y100.894 E0.00582
G1 X135.041 Y99.881 E0.04547
G1 X134.938 Y99.966 E0.00424
G1 X134.709 Y100.088 E0.00825
G1 X135.544 Y100.923 E0.03749
G1 X135.004 Y100.923 E0.01714
G1 X134.357 Y100.276 E0.02904
G1 X133.949 Y100.408 E0.01361
G1 X134.464 Y100.923 E0.02311
G1 X133.924 Y100.923 E0.01714
G1 X133.514 Y100.513 E0.01842
G1 X133.022 Y100.561 E0.01568
G1 X133.384 Y100.923 E0.01625
G1 X132.844 Y100.923 E0.01714
G1 X132.439 Y100.517 E0.01821
G1 X132.254 Y100.499 E0.00588
G1 X131.718 Y100.337 E0.01780
G1 X132.304 Y100.923 E0.02633
G1 X131.764 Y100.923 E0.01714
G1 X129.022 Y98.180 E0.12313
G1 X129.022 Y97.641 E0.01714
G1 X129.608 Y98.227 E0.02633
G1 X129.445 Y97.690 E0.01780
G1 X129.427 Y97.506 E0.00588
G1 X129.022 Y97.101 E0.01821
G1 X129.022 Y96.561 E0.01714
G1 X129.384 Y96.923 E0.01625
G1 X129.432 Y96.431 E0.01568
G1 X129.022 Y96.021 E0.01842
G1 X129.022 Y95.481 E0.01714
G1 X129.536 Y95.996 E0.02311
G1 X129.669 Y95.588 E0.01361
G1 X129.022 Y94.941 E0.02904
G1 X129.022 Y94.401 E0.01714
G1 X129.857 Y95.236 E0.03749
G1 X129.979 Y95.007 E0.00825
G1 X130.064 Y94.903 E0.00424
G1 X129.022 Y93.861 E0.04679
G1 X129.022 Y93.321 E0.01714
G1 X130.307 Y94.607 E0.05772
G1 X130.424 Y94.465 E0.00583
G1 X130.578 Y94.338 E0.00635
G1 X129.022 Y92.781 E0.06989
G1 X129.022 Y92.241 E0.01714
G1 X130.875 Y94.095 E0.08320
G1 X130.966 Y94.020 E0.00372
G1 X131.210 Y93.890 E0.00880
G1 X129.022 Y91.701 E0.09824
G1 X129.022 Y91.162 E0.01714
G1 X131.562 Y93.702 E0.11404
G1 X131.972 Y93.572 E0.01366
G1 X129.022 Y90.622 E0.13246
G1 X129.022 Y90.082 E0.01714
G1 X132.411 Y93.471 E0.15216
G1 X132.903 Y93.423 E0.01568
G1 X129.022 Y89.542 E0.17423
G1 X129.022 Y89.002 E0.01714
G1 X133.492 Y93.472 E0.20068
G1 X133.644 Y93.485 E0.00485
G1 X134.219 Y93.659 E0.01908
G1 X128.852 Y88.292 E0.24095
G1 E-0.80000 F2100.00000
G1 Z0.800 F10800.000
G1 X129.728 Y101.046
G1 Z0.200
G1 E0.80000 F2100.00000
G1 F1200.000
G1 X129.207 Y100.525 E0.02339
G1 X129.080 Y100.276 E0.00886
G1 X129.022 Y99.909 E0.01181
G1 X129.022 Y99.800 E0.00345
G1 X130.145 Y100.923 E0.05041
G1 X130.684 Y100.923 E0.01714
G1 X129.022 Y99.260 E0.07465
G1 X129.022 Y98.720 E0.01714
G1 X131.394 Y101.093 E0.10651
G1 E-0.80000 F2100.00000
G1 Z0.800 F10800.000
G1 X120.275 Y97.635
G1 Z0.200
G1 E0.80000 F2100.00000
G1 F1200.000
G1 X120.088 Y98.252 E0.02023
G1 X119.784 Y98.821 E0.02023
G1 X119.374 Y99.320 E0.02023
G1 X118.876 Y99.729 E0.02023
G1 X118.307 Y100.033 E0.02023
G1 X117.689 Y100.221 E0.02023
G1 X117.047 Y100.284 E0.02023
G1 X116.405 Y100.221 E0.02023
G1 X115.788 Y100.033 E0.02023
G1 X115.219 Y99.729 E0.02023
G1 X114.720 Y99.320 E0.02023
G1 X114.311 Y98.821 E0.02023
G1 X114.007 Y98.252 E0.02023
G1 X113.820 Y97.635 E0.02023
G1 X113.756 Y96.993 E0.02023
G1 X113.820 Y96.351 E0.02023
G1 X114.007 Y95.734 E0.02023
G1 X114.311 Y95.165 E0.02023
G1 X114.720 Y94.666 E0.02023
G1 X115.219 Y94.257 E0.02023
G1 X115.788 Y93.953 E0.02023
G1 X116.405 Y93.765 E0.02023
G1 X117.008 Y93.706 E0.01898
G1 X117.686 Y93.764 E0.02134
G1 X118.307 Y93.953 E0.02034
G1 X118.876 Y94.257 E0.02023
G1 X119.374 Y94.666 E0.02023
G1 X119.784 Y95.165 E0.02023
G1 X120.088 Y95.734 E0.02023
G1 X120.275 Y96.351 E0.02023
