; generated by PrusaSlicer 2.2.0+win64 on 2020-12-08 at 19:06:19 UTC

; 

; external perimeters extrusion width = 0.60mm
; perimeters extrusion width = 0.43mm
; infill extrusion width = 0.45mm
; solid infill extrusion width = 0.70mm
; top infill extrusion width = 0.43mm
; first layer extrusion width = 0.42mm

M73 P0 R6
M201 X9000 Y9000 Z500 E10000 ; sets maximum accelerations, mm/sec^2
M203 X500 Y500 Z12 E120 ; sets maximum feedrates, mm/sec
M204 P2000 R1500 T2000 ; sets acceleration (P, T) and retract acceleration (R), mm/sec^2
M205 X10.00 Y10.00 Z0.20 E2.50 ; sets the jerk limits, mm/sec
M205 S0 T0 ; sets the minimum extruding and travel feed rate, mm/sec
M107
M862.3 P "MK2S" ; printer model check
M862.1 P0.4 ; nozzle diameter check
M115 U3.2.3 ; tell printer latest fw version
G90 ; use absolute coordinates
M83 ; extruder relative mode
M204 S2000 T1500 ; MK2 firmware only supports the old M204 format
M104 S215 ; set extruder temp
M140 S60 ; set bed temp
M190 S60 ; wait for bed temp
M109 S215 ; wait for extruder temp
G28 W ; home all without mesh bed level
G80 ; mesh bed leveling
G1 Y-3.0 F1000.0 ; go outside print area
G92 E0.0
G1 X60.0 E9.0  F1000.0 ; intro line
M73 P1 R6
G1 X100.0 E12.5 F1000.0 ; intro line
G92 E0.0
G21 ; set units to millimeters
G90 ; use absolute coordinates
M83 ; use relative distances for extrusion
M900 K0.05 ; Filament gcode LA 1.5
M900 K30 ; Filament gcode LA 1.0
;BEFORE_LAYER_CHANGE
G92 E0.0
;0.2


G1 E-0.80000 F2100.00000
G1 Z0.600 F10800.000
;AFTER_LAYER_CHANGE
;0.2
G1 X109.532 Y90.543
G1 Z0.200
G1 E0.80000 F2100.00000
M204 S1000
G1 F1200.000
G1 X110.186 Y89.256 E0.04524
G1 X111.004 Y88.387 E0.03744
G1 X111.560 Y87.990 E0.02141
G1 X112.612 Y87.497 E0.03642
G1 X113.828 Y87.284 E0.03873
G1 X135.956 Y87.217 E0.69380
G1 X137.523 Y87.485 E0.04987
G1 X138.504 Y87.967 E0.03426
G1 X139.013 Y88.345 E0.01988
G1 X139.787 Y89.161 E0.03527
G1 X140.311 Y90.110 E0.03398
G1 X140.530 Y90.701 E0.01975
G1 X140.688 Y91.658 E0.03041
G1 X140.705 Y118.053 E0.82760
G1 X140.469 Y119.453 E0.04454
G1 X139.813 Y120.743 E0.04537
G1 X138.986 Y121.621 E0.03783
G1 X138.410 Y122.026 E0.02205
G1 X137.352 Y122.513 E0.03653
G1 X136.060 Y122.723 E0.04104
G1 X113.953 Y122.782 E0.69316
G1 X112.561 Y122.545 E0.04428
G1 X111.275 Y121.891 E0.04524
G1 X110.397 Y121.063 E0.03783
G1 X109.991 Y120.484 E0.02218
G1 X109.504 Y119.426 E0.03653
G1 X109.295 Y118.122 E0.04142
G1 X109.295 Y91.943 E0.82080
G1 X109.522 Y90.602 E0.04266
G1 X109.889 Y90.663 F10800.000
G1 F1200.000
G1 X110.500 Y89.466 E0.04215
G1 X111.263 Y88.662 E0.03475
G1 X111.749 Y88.316 E0.01870
G1 X112.727 Y87.856 E0.03391
G1 X113.872 Y87.659 E0.03642
G1 X135.955 Y87.594 E0.69241
G1 X137.391 Y87.838 E0.04564
G1 X138.314 Y88.293 E0.03227
G1 X138.762 Y88.627 E0.01752
G1 X139.486 Y89.389 E0.03297
G1 X139.977 Y90.284 E0.03201
G1 X140.167 Y90.805 E0.01740
G1 X140.315 Y91.716 E0.02894
G1 X140.328 Y118.039 E0.82535
G1 X140.110 Y119.338 E0.04128
G1 X139.500 Y120.534 E0.04211
G1 X138.731 Y121.343 E0.03499
G1 X138.230 Y121.694 E0.01917
G1 X137.246 Y122.152 E0.03402
G1 X136.039 Y122.346 E0.03833
G1 X113.971 Y122.405 E0.69193
G1 X112.677 Y122.186 E0.04116
G1 X111.484 Y121.577 E0.04199
G1 X110.675 Y120.809 E0.03499
G1 X110.322 Y120.304 E0.01929
G1 X109.865 Y119.320 E0.03402
G1 X109.671 Y118.102 E0.03868
G1 X109.671 Y91.961 E0.81963
G1 X109.879 Y90.723 E0.03936
G1 E-0.80000 F2100.00000
G1 Z0.800 F10800.000
G1 X116.405 Y111.802
G1 Z0.200
G1 E0.80000 F2100.00000
G1 F1200.000
G1 X117.008 Y111.742 E0.01898
G1 X117.686 Y111.801 E0.02134
G1 X118.307 Y111.989 E0.02034
G1 X118.876 Y112.293 E0.02023
G1 X119.374 Y112.702 E0.02023
G1 X119.784 Y113.201 E0.02023
G1 X120.088 Y113.770 E0.02023
G1 X120.275 Y114.387 E0.02023
G1 X120.338 Y115.029 E0.02023
G1 X120.275 Y115.671 E0.02023
G1 X120.088 Y116.289 E0.02023
G1 X119.784 Y116.858 E0.02023
G1 X119.374 Y117.356 E0.02023
G1 X118.876 Y117.766 E0.02023
G1 X118.307 Y118.070 E0.02023
G1 X117.689 Y118.257 E0.02023
G1 X117.047 Y118.320 E0.02023
G1 X116.405 Y118.257 E0.02023
G1 X115.788 Y118.070 E0.02023
G1 X115.219 Y117.766 E0.02023
G1 X114.720 Y117.356 E0.02023
G1 X114.311 Y116.858 E0.02023
G1 X114.007 Y116.289 E0.02023
G1 X113.820 Y115.671 E0.02023
G1 X113.757 Y115.029 E0.02023
G1 X113.820 Y114.387 E0.02023
G1 X114.007 Y113.770 E0.02023
G1 X114.311 Y113.201 E0.02023
G1 X114.720 Y112.702 E0.02023
G1 X115.219 Y112.293 E0.02023
G1 X115.788 Y111.989 E0.02023
G1 X116.348 Y111.819 E0.01835
G1 X116.457 Y112.180 F10800.000
G1 F1200.000
G1 X117.010 Y112.121 E0.01743
G1 X117.614 Y112.173 E0.01901
G1 X118.162 Y112.339 E0.01794
G1 X118.665 Y112.608 E0.01790
G1 X119.107 Y112.970 E0.01790
G1 X119.469 Y113.411 E0.01790
G1 X119.738 Y113.915 E0.01790
G1 X119.903 Y114.461 E0.01790
G1 X119.959 Y115.029 E0.01790
G1 X119.903 Y115.597 E0.01790
G1 X119.738 Y116.144 E0.01790
G1 X119.469 Y116.647 E0.01790
G1 X119.107 Y117.088 E0.01790
G1 X118.665 Y117.450 E0.01790
G1 X118.162 Y117.720 E0.01790
G1 X117.616 Y117.885 E0.01790
G1 X117.047 Y117.941 E0.01790
G1 X116.479 Y117.885 E0.01790
G1 X115.933 Y117.720 E0.01790
G1 X115.430 Y117.450 E0.01790
G1 X114.988 Y117.088 E0.01790
G1 X114.626 Y116.647 E0.01790
G1 X114.357 Y116.144 E0.01790
G1 X114.191 Y115.597 E0.01790
G1 X114.135 Y115.029 E0.01790
G1 X114.191 Y114.461 E0.01790
G1 X114.357 Y113.915 E0.01790
G1 X114.626 Y113.411 E0.01790
G1 X114.988 Y112.970 E0.01790
G1 X115.430 Y112.608 E0.01790
G1 X115.933 Y112.339 E0.01790
G1 X116.400 Y112.197 E0.01530
G1 X116.584 Y111.800 F10800.000
G1 E-0.80000 F2100.00000
G1 Z0.800 F10800.000
G1 X117.047 Y98.320
G1 Z0.200
G1 E0.80000 F2100.00000
G1 F1200.000
G1 X116.405 Y98.257 E0.02023
G1 X115.788 Y98.070 E0.02023
G1 X115.219 Y97.766 E0.02023
G1 X114.720 Y97.356 E0.02023
G1 X114.311 Y96.858 E0.02023
G1 X114.007 Y96.289 E0.02023
G1 X113.820 Y95.671 E0.02023
G1 X113.757 Y95.029 E0.02023
G1 X113.820 Y94.387 E0.02023
G1 X114.007 Y93.770 E0.02023
G1 X114.311 Y93.201 E0.02023
G1 X114.720 Y92.702 E0.02023
G1 X115.219 Y92.293 E0.02023
G1 X115.788 Y91.989 E0.02023
G1 X116.405 Y91.802 E0.02023
G1 X117.008 Y91.742 E0.01898
G1 X117.686 Y91.801 E0.02134
G1 X118.307 Y91.989 E0.02034
G1 X118.876 Y92.293 E0.02023
G1 X119.374 Y92.702 E0.02023
G1 X119.784 Y93.201 E0.02023
G1 X120.088 Y93.770 E0.02023
G1 X120.275 Y94.387 E0.02023
G1 X120.338 Y95.029 E0.02023
G1 X120.275 Y95.671 E0.02023
G1 X120.088 Y96.289 E0.02023
G1 X119.784 Y96.858 E0.02023
G1 X119.374 Y97.356 E0.02023
G1 X118.876 Y97.766 E0.02023
G1 X118.307 Y98.070 E0.02023
G1 X117.689 Y98.257 E0.02023
G1 X117.107 Y98.314 E0.01835
G1 X117.070 Y97.939 F10800.000
G1 F1200.000
G1 X116.479 Y97.885 E0.01860
G1 X115.933 Y97.720 E0.01790
G1 X115.430 Y97.450 E0.01790
G1 X114.988 Y97.088 E0.01790
G1 X114.626 Y96.647 E0.01790
G1 X114.357 Y96.144 E0.01790
G1 X114.191 Y95.597 E0.01790
G1 X114.135 Y95.029 E0.01790
G1 X114.191 Y94.461 E0.01790
G1 X114.357 Y93.915 E0.01790
G1 X114.626 Y93.411 E0.01790
G1 X114.988 Y92.970 E0.01790
G1 X115.430 Y92.608 E0.01790
G1 X115.933 Y92.339 E0.01790
G1 X116.479 Y92.173 E0.01790
G1 X117.010 Y92.121 E0.01673
G1 X117.614 Y92.173 E0.01901
G1 X118.162 Y92.339 E0.01794
G1 X118.665 Y92.608 E0.01790
G1 X119.107 Y92.970 E0.01790
G1 X119.469 Y93.411 E0.01790
G1 X119.738 Y93.915 E0.01790
G1 X119.903 Y94.461 E0.01790
G1 X119.959 Y95.029 E0.01790
G1 X119.903 Y95.597 E0.01790
G1 X119.738 Y96.144 E0.01790
G1 X119.469 Y96.647 E0.01790
G1 X119.107 Y97.088 E0.01790
G1 X118.665 Y97.450 E0.01790
G1 X118.162 Y97.720 E0.01790
G1 X117.616 Y97.885 E0.01790
G1 X117.130 Y97.933 E0.01530
G1 X116.872 Y98.287 F10800.000
G1 E-0.80000 F2100.00000
G1 Z0.800 F10800.000
G1 X121.192 Y91.657
G1 Z0.200
G1 E0.80000 F2100.00000
G1 F1200.000
G1 X121.260 Y92.091 E0.01377
G1 X121.260 Y117.967 E0.81133
G1 X121.192 Y118.401 E0.01377
G1 X121.021 Y118.736 E0.01180
G1 X120.755 Y119.003 E0.01180
G1 X120.419 Y119.173 E0.01180
G1 X119.986 Y119.242 E0.01377
G1 X114.109 Y119.242 E0.18424
G1 X113.676 Y119.173 E0.01377
G1 X113.340 Y119.003 E0.01180
G1 X113.074 Y118.736 E0.01180
G1 X112.903 Y118.401 E0.01180
G1 X112.835 Y117.967 E0.01377
G1 X112.835 Y92.091 E0.81133
G1 X112.903 Y91.657 E0.01377
G1 X113.074 Y91.322 E0.01180
G1 X113.340 Y91.056 E0.01180
G1 X113.676 Y90.885 E0.01180
G1 X114.109 Y90.816 E0.01377
G1 X119.986 Y90.816 E0.18424
G1 X120.419 Y90.885 E0.01377
G1 X120.755 Y91.056 E0.01180
G1 X121.021 Y91.322 E0.01180
G1 X121.164 Y91.604 E0.00992
G1 X121.555 Y91.539 F10800.000
G1 F1200.000
G1 X121.637 Y92.062 E0.01657
G1 X121.637 Y117.997 E0.81319
G1 X121.555 Y118.519 E0.01657
G1 X121.330 Y118.961 E0.01555
G1 X120.979 Y119.311 E0.01555
G1 X120.537 Y119.537 E0.01555
G1 X120.015 Y119.619 E0.01657
G1 X114.080 Y119.619 E0.18610
G1 X113.558 Y119.537 E0.01657
G1 X113.116 Y119.311 E0.01555
G1 X112.765 Y118.961 E0.01555
G1 X112.540 Y118.519 E0.01555
G1 X112.457 Y117.997 E0.01657
G1 X112.457 Y92.062 E0.81319
G1 X112.540 Y91.539 E0.01657
G1 X112.765 Y91.098 E0.01555
G1 X113.116 Y90.747 E0.01555
G1 X113.558 Y90.522 E0.01555
G1 X114.080 Y90.439 E0.01657
G1 X120.015 Y90.439 E0.18610
G1 X120.537 Y90.522 E0.01657
G1 X120.979 Y90.747 E0.01555
G1 X121.330 Y91.098 E0.01555
G1 X121.528 Y91.486 E0.01367
G1 X121.287 Y91.837 F10800.000
G1 X121.101 Y91.805
G1 F1200.000
G1 X120.579 Y91.284 E0.02340
G1 X120.331 Y91.157 E0.00886
G1 X119.963 Y91.099 E0.01181
G1 X119.855 Y91.099 E0.00345
G1 X120.978 Y92.222 E0.05041
G1 X120.978 Y92.762 E0.01714
G1 X119.315 Y91.099 E0.07465
G1 X118.775 Y91.099 E0.01714
G1 X120.978 Y93.302 E0.09889
G1 X120.978 Y93.842 E0.01714
G1 X118.235 Y91.099 E0.12313
G1 X117.695 Y91.099 E0.01714
G1 X118.281 Y91.686 E0.02633
G1 X117.740 Y91.521 E0.01797
G1 X117.562 Y91.506 E0.00566
G1 X117.155 Y91.099 E0.01827
G1 X116.615 Y91.099 E0.01714
G1 X116.977 Y91.461 E0.01625
G1 X116.486 Y91.510 E0.01568
G1 X116.075 Y91.099 E0.01842
G1 X115.535 Y91.099 E0.01714
G1 X116.050 Y91.614 E0.02311
G1 X115.642 Y91.746 E0.01361
G1 X114.995 Y91.099 E0.02904
G1 X114.455 Y91.099 E0.01714
G1 X115.291 Y91.934 E0.03749
G1 X115.061 Y92.057 E0.00825
G1 X114.958 Y92.141 E0.00424
G1 X113.945 Y91.129 E0.04547
G1 X113.764 Y91.157 E0.00582
G1 X113.545 Y91.269 E0.00780
G1 X114.661 Y92.385 E0.05010
G1 X114.520 Y92.501 E0.00583
G1 X114.393 Y92.656 E0.00635
G1 X113.279 Y91.543 E0.04999
G1 X113.176 Y91.746 E0.00725
G1 X113.144 Y91.947 E0.00646
G1 X114.149 Y92.953 E0.04514
G1 X114.075 Y93.043 E0.00372
G1 X113.944 Y93.287 E0.00880
G1 X113.117 Y92.461 E0.03712
G1 X113.117 Y93.000 E0.01714
G1 X113.756 Y93.639 E0.02868
G1 X113.627 Y94.050 E0.01366
G1 X113.117 Y93.540 E0.02287
G1 X113.117 Y94.080 E0.01714
G1 X113.526 Y94.489 E0.01833
G1 X113.477 Y94.980 E0.01568
G1 X113.117 Y94.620 E0.01616
G1 X113.117 Y95.160 E0.01714
G1 X113.525 Y95.568 E0.01832
G1 X113.541 Y95.727 E0.00505
G1 X113.714 Y96.297 E0.01891
G1 X113.117 Y95.700 E0.02679
G1 X113.117 Y96.240 E0.01714
G1 X120.978 Y104.100 E0.35288
G1 X120.978 Y103.560 E0.01714
G1 X115.780 Y98.363 E0.23334
G1 X116.350 Y98.536 E0.01891
G1 X116.508 Y98.551 E0.00505
G1 X120.978 Y103.020 E0.20064
G1 X120.978 Y102.480 E0.01714
G1 X117.097 Y98.599 E0.17423
G1 X117.588 Y98.551 E0.01568
G1 X120.978 Y101.941 E0.15217
G1 X120.978 Y101.401 E0.01714
G1 X118.027 Y98.450 E0.13246
G1 X118.437 Y98.321 E0.01366
G1 X120.978 Y100.861 E0.11404
G1 X120.978 Y100.321 E0.01714
G1 X118.789 Y98.132 E0.09824
G1 X119.034 Y98.002 E0.00880
G1 X119.124 Y97.927 E0.00372
G1 X120.978 Y99.781 E0.08321
G1 X120.978 Y99.241 E0.01714
G1 X119.421 Y97.684 E0.06989
G1 X119.575 Y97.557 E0.00635
G1 X119.692 Y97.415 E0.00583
G1 X120.978 Y98.701 E0.05772
G1 X120.978 Y98.161 E0.01714
G1 X119.935 Y97.119 E0.04680
G1 X120.020 Y97.015 E0.00424
G1 X120.143 Y96.786 E0.00825
G1 X120.978 Y97.621 E0.03749
G1 X120.978 Y97.081 E0.01714
G1 X120.331 Y96.434 E0.02905
G1 X120.463 Y96.027 E0.01361
G1 X120.978 Y96.541 E0.02311
G1 X120.978 Y96.001 E0.01714
G1 X120.567 Y95.591 E0.01842
G1 X120.616 Y95.100 E0.01568
G1 X120.978 Y95.462 E0.01625
G1 X120.978 Y94.922 E0.01714
G1 X120.572 Y94.516 E0.01821
G1 X120.554 Y94.332 E0.00588
G1 X120.391 Y93.795 E0.01780
G1 X121.147 Y94.551 E0.03395
G1 E-0.80000 F2100.00000
G1 Z0.800 F10800.000
G1 X121.147 Y104.810
G1 Z0.200
G1 E0.80000 F2100.00000
G1 F1200.000
G1 X113.117 Y96.780 E0.36049
G1 X113.117 Y97.320 E0.01714
G1 X120.978 Y105.180 E0.35288
G1 X120.978 Y105.720 E0.01714
G1 X113.117 Y97.860 E0.35288
G1 X113.117 Y98.400 E0.01714
G1 X120.978 Y106.260 E0.35288
G1 X120.978 Y106.800 E0.01714
G1 X113.117 Y98.940 E0.35288
G1 X113.117 Y99.479 E0.01714
G1 X120.978 Y107.340 E0.35288
G1 X120.978 Y107.880 E0.01714
G1 X113.117 Y100.019 E0.35288
G1 X113.117 Y100.559 E0.01714
G1 X120.978 Y108.419 E0.35288
G1 X120.978 Y108.959 E0.01714
G1 X113.117 Y101.099 E0.35288
G1 X113.117 Y101.639 E0.01714
G1 X120.978 Y109.499 E0.35288
G1 X120.978 Y110.039 E0.01714
G1 X113.117 Y102.179 E0.35288
G1 X113.117 Y102.719 E0.01714
G1 X120.978 Y110.579 E0.35288
G1 X120.978 Y111.119 E0.01714
G1 X113.117 Y103.259 E0.35288
G1 X113.117 Y103.799 E0.01714
G1 X120.978 Y111.659 E0.35288
G1 X120.978 Y112.199 E0.01714
G1 X113.117 Y104.339 E0.35288
G1 X113.117 Y104.879 E0.01714
G1 X120.978 Y112.739 E0.35288
G1 X120.978 Y113.279 E0.01714
G1 X113.117 Y105.418 E0.35288
G1 X113.117 Y105.958 E0.01714
G1 X120.978 Y113.819 E0.35288
G1 X120.978 Y114.359 E0.01714
G1 X120.381 Y113.762 E0.02679
G1 X120.554 Y114.332 E0.01891
G1 X120.569 Y114.490 E0.00506
G1 X120.978 Y114.898 E0.01832
G1 X120.978 Y115.438 E0.01714
G1 X120.618 Y115.078 E0.01616
G1 X120.569 Y115.570 E0.01568
G1 X120.978 Y115.978 E0.01833
G1 X120.978 Y116.518 E0.01714
G1 X120.468 Y116.009 E0.02287
G1 X120.339 Y116.419 E0.01366
G1 X120.978 Y117.058 E0.02868
G1 X120.978 Y117.598 E0.01714
G1 X120.151 Y116.771 E0.03712
G1 X120.020 Y117.015 E0.00880
G1 X119.946 Y117.106 E0.00372
G1 X120.951 Y118.112 E0.04514
G1 X120.919 Y118.313 E0.00646
G1 X120.816 Y118.516 E0.00725
G1 X119.702 Y117.403 E0.04999
G1 X119.575 Y117.557 E0.00635
G1 X119.433 Y117.674 E0.00583
G1 X120.550 Y118.790 E0.05010
G1 X120.331 Y118.901 E0.00779
G1 X120.150 Y118.930 E0.00582
G1 X119.137 Y117.917 E0.04547
G1 X119.034 Y118.002 E0.00424
G1 X118.804 Y118.124 E0.00825
G1 X119.639 Y118.959 E0.03749
G1 X119.099 Y118.959 E0.01714
G1 X118.453 Y118.312 E0.02904
G1 X118.045 Y118.445 E0.01361
G1 X118.560 Y118.959 E0.02311
G1 X118.020 Y118.959 E0.01714
G1 X117.609 Y118.549 E0.01842
G1 X117.118 Y118.597 E0.01568
G1 X117.480 Y118.959 E0.01625
G1 X116.940 Y118.959 E0.01714
G1 X116.534 Y118.554 E0.01821
G1 X116.350 Y118.536 E0.00588
G1 X115.813 Y118.373 E0.01780
G1 X116.400 Y118.959 E0.02633
G1 X115.860 Y118.959 E0.01714
G1 X113.117 Y116.217 E0.12313
G1 X113.117 Y115.677 E0.01714
G1 X113.704 Y116.263 E0.02633
G1 X113.541 Y115.727 E0.01780
G1 X113.523 Y115.543 E0.00588
G1 X113.117 Y115.137 E0.01821
G1 X113.117 Y114.597 E0.01714
G1 X113.479 Y114.959 E0.01625
G1 X113.528 Y114.467 E0.01568
G1 X113.117 Y114.057 E0.01842
G1 X113.117 Y113.517 E0.01714
G1 X113.632 Y114.032 E0.02311
G1 X113.764 Y113.624 E0.01361
G1 X113.117 Y112.977 E0.02904
G1 X113.117 Y112.437 E0.01714
G1 X113.952 Y113.272 E0.03749
G1 X114.075 Y113.043 E0.00825
G1 X114.160 Y112.940 E0.00424
G1 X113.117 Y111.897 E0.04679
G1 X113.117 Y111.357 E0.01714
G1 X114.403 Y112.643 E0.05772
G1 X114.520 Y112.501 E0.00583
G1 X114.674 Y112.374 E0.00635
G1 X113.117 Y110.818 E0.06989
G1 X113.117 Y110.278 E0.01714
G1 X114.971 Y112.131 E0.08320
G1 X115.061 Y112.057 E0.00372
G1 X115.306 Y111.926 E0.00880
G1 X113.117 Y109.738 E0.09824
G1 X113.117 Y109.198 E0.01714
G1 X115.657 Y111.738 E0.11404
G1 X116.068 Y111.608 E0.01366
G1 X113.117 Y108.658 E0.13246
G1 X113.117 Y108.118 E0.01714
G1 X116.507 Y111.507 E0.15216
G1 X116.998 Y111.459 E0.01568
G1 X113.117 Y107.578 E0.17423
G1 X113.117 Y107.038 E0.01714
G1 X117.587 Y111.508 E0.20068
G1 X117.740 Y111.521 E0.00485
G1 X118.315 Y111.696 E0.01908
G1 X112.948 Y106.329 E0.24095
G1 E-0.80000 F2100.00000
G1 Z0.800 F10800.000
G1 X113.823 Y119.082
G1 Z0.200
G1 E0.80000 F2100.00000
G1 F1200.000
G1 X113.302 Y118.561 E0.02339
G1 X113.176 Y118.313 E0.00886
G1 X113.117 Y117.945 E0.01181
G1 X113.117 Y117.836 E0.00345
G1 X114.240 Y118.959 E0.05041
G1 X114.780 Y118.959 E0.01714
