; generated by PrusaSlicer 2.1.1+win64 on 2020-05-22 at 22:07:55 UTC

; 

; external perimeters extrusion width = 0.60mm
; perimeters extrusion width = 0.43mm
; infill extrusion width = 0.45mm
; solid infill extrusion width = 0.70mm
; top infill extrusion width = 0.43mm
; support material extrusion width = 0.37mm
; first layer extrusion width = 0.42mm

; external perimeters extrusion width = 0.60mm
; perimeters extrusion width = 0.43mm
; infill extrusion width = 0.45mm
; solid infill extrusion width = 0.70mm
; top infill extrusion width = 0.43mm
; support material extrusion width = 0.37mm
; first layer extrusion width = 0.42mm

M73 P0 R12
M201 X9000 Y9000 Z500 E10000 ; sets maximum accelerations, mm/sec^2
M203 X500 Y500 Z12 E120 ; sets maximum feedrates, mm/sec
M204 P2000 R1500 T2000 ; sets acceleration (P, T) and retract acceleration (R), mm/sec^2
M205 X10.00 Y10.00 Z0.20 E2.50 ; sets the jerk limits, mm/sec
M205 S0 T0 ; sets the minimum extruding and travel feed rate, mm/sec
M107
M862.3 P "MK2S" ; printer model check
M862.1 P0.4 ; nozzle diameter check
M115 U3.2.3 ; tell printer latest fw version
G90 ; use absolute coordinates
M83 ; extruder relative mode
M204 S2000 T1500 ; MK2 firmware only supports the old M204 format
M104 S215 ; set extruder temp
M140 S60 ; set bed temp
M190 S60 ; wait for bed temp
M109 S215 ; wait for extruder temp
G28 W ; home all without mesh bed level
G80 ; mesh bed leveling
G1 Y-3.0 F1000.0 ; go outside print area
G92 E0.0
G1 X60.0 E9.0  F1000.0 ; intro line
M73 P0 R12
G1 X100.0 E12.5 F1000.0 ; intro line
G92 E0.0
G21 ; set units to millimeters
G90 ; use absolute coordinates
M83 ; use relative distances for extrusion
M900 K30 ; Filament gcode
;BEFORE_LAYER_CHANGE
G92 E0.0
;0.2


G1 E-0.80000 F2100.00000
G1 Z0.600 F10800.000
;AFTER_LAYER_CHANGE
;0.2
G1 X104.420 Y91.574
G1 Z0.200
G1 E0.80000 F2100.00000
M204 S1000
G1 F1200
G1 X104.975 Y91.179 E0.02134
G1 X105.441 Y91.010 E0.01555
G1 X105.938 Y90.950 E0.01567
G1 X144.054 Y90.950 E1.19511
G1 X144.561 Y91.011 E0.01601
G1 X145.040 Y91.187 E0.01601
G1 X145.465 Y91.469 E0.01601
G1 X145.811 Y91.839 E0.01589
G1 X146.077 Y92.313 E0.01703
G1 X147.047 Y94.713 E0.08118
G1 X147.167 Y95.169 E0.01475
G1 X147.191 Y110.366 E0.47649
G1 X147.084 Y111.031 E0.02112
G1 X146.822 Y111.571 E0.01885
G1 X146.422 Y112.020 E0.01885
G1 X134.286 Y122.003 E0.49270
G1 X133.875 Y122.268 E0.01532
G1 X133.398 Y122.439 E0.01589
G1 X132.895 Y122.497 E0.01589
G1 X116.273 Y122.327 E0.52119
G1 X115.578 Y122.201 E0.02213
G1 X114.895 Y121.808 E0.02473
G1 X103.563 Y112.008 E0.46973
G1 X103.038 Y111.330 E0.02687
G1 X102.871 Y110.871 E0.01532
G1 X102.809 Y110.382 E0.01544
G1 X102.819 Y95.285 E0.47336
G1 X102.950 Y94.721 E0.01817
G1 X104.012 Y92.122 E0.08802
G1 X104.385 Y91.622 E0.01957
G1 E-0.80000 F2100.00000
G1 Z0.800 F10800.000
G1 X116.310 Y98.983
G1 Z0.200
G1 E0.80000 F2100.00000
G1 F1200
G1 X116.310 Y105.277 E0.19734
G1 X117.064 Y105.277 E0.02365
G1 X117.064 Y99.277 E0.18814
G1 X117.818 Y99.377 E0.02385
G1 X117.818 Y105.277 E0.18500
G1 X118.572 Y105.277 E0.02365
G1 X118.572 Y99.477 E0.18187
G1 X119.327 Y99.589 E0.02391
G1 X119.327 Y105.277 E0.17833
G1 X120.081 Y105.277 E0.02365
G1 X120.081 Y99.694 E0.17504
G1 X120.726 Y99.773 E0.02038
G1 X120.726 Y102.654 E0.09033
G1 X120.835 Y102.654 E0.00342
G1 X120.835 Y105.277 E0.08224
G1 X121.589 Y105.277 E0.02365
G1 X121.589 Y102.654 E0.08224
G1 X122.343 Y102.654 E0.02365
G1 X122.343 Y105.277 E0.08224
G1 X123.097 Y105.277 E0.02365
G1 X123.097 Y102.654 E0.08224
G1 X123.693 Y102.654 E0.01866
G1 X123.693 Y102.351 E0.00952
G1 X123.851 Y102.489 E0.00659
G1 X123.851 Y105.277 E0.08743
G1 X124.606 Y105.277 E0.02365
G1 X124.606 Y102.489 E0.08743
G1 X125.315 Y102.489 E0.02226
G1 X125.315 Y102.654 E0.00520
G1 X125.360 Y102.654 E0.00139
G1 X125.360 Y105.277 E0.08224
G1 X126.114 Y105.277 E0.02365
G1 X126.114 Y102.654 E0.08224
G1 X126.868 Y102.654 E0.02365
G1 X126.868 Y105.277 E0.08224
G1 X127.622 Y105.277 E0.02365
G1 X127.622 Y102.654 E0.08224
G1 X128.376 Y102.654 E0.02365
G1 X128.376 Y105.277 E0.08224
G1 X129.131 Y105.277 E0.02365
G1 X129.131 Y102.654 E0.08224
G1 X129.885 Y102.654 E0.02365
G1 X129.885 Y105.277 E0.08224
G1 X130.639 Y105.277 E0.02365
G1 X130.639 Y99.592 E0.17826
G1 X131.393 Y99.481 E0.02390
G1 X131.393 Y105.277 E0.18173
G1 X132.147 Y105.277 E0.02365
G1 X132.147 Y99.381 E0.18486
G1 X132.901 Y99.281 E0.02385
G1 X132.901 Y105.447 E0.19332
G1 X130.237 Y102.451 F10800.000
G1 F1200
G1 X130.237 Y99.684 E0.07527
G1 X129.742 Y99.809 E0.01388
G1 X129.742 Y102.318 E0.06826
G1 X129.247 Y102.318 E0.01346
G1 X129.247 Y99.932 E0.06490
G1 X128.752 Y100.061 E0.01391
G1 X128.752 Y102.318 E0.06138
G1 X128.257 Y102.318 E0.01346
G1 X128.257 Y100.223 E0.05700
G1 X128.129 Y100.265 E0.00367
G1 X127.762 Y100.440 E0.01106
G1 X127.762 Y102.318 E0.05108
G1 X127.268 Y102.318 E0.01346
G1 X127.268 Y100.800 E0.04129
G1 X127.622 Y100.335 F10800.000
G1 F1200
G1 X127.622 Y99.971 E0.01142
G1 X126.868 Y100.109 E0.02404
G1 X126.868 Y102.281 E0.06812
G1 X123.097 Y102.281 F10800.000
G1 F1200
G1 X123.097 Y100.094 E0.06859
G1 X122.343 Y99.964 E0.02399
G1 X122.343 Y100.307 E0.01077
G1 X121.329 Y99.948 F10800.000
G1 F1200
G1 X121.329 Y102.318 E0.06447
G1 X121.824 Y102.318 E0.01346
G1 X121.824 Y100.246 E0.05635
G1 X122.181 Y100.406 E0.01065
G1 X122.319 Y100.490 E0.00438
G1 X122.319 Y102.451 E0.05333
G1 X124.607 Y101.413 F10800.000
G1 F1200
G1 X124.578 Y100.023 E0.04358
G1 X124.417 Y99.656 E0.01257
G1 X124.182 Y99.395 E0.01102
G1 X123.883 Y99.218 E0.01089
G1 X123.457 Y99.070 E0.01413
G1 X122.652 Y98.920 E0.02567
G1 X120.253 Y98.633 E0.07578
G1 X116.919 Y98.171 E0.10551
G1 X114.513 Y97.742 E0.07665
G1 X112.143 Y97.205 E0.07618
G1 X109.801 Y96.559 E0.07618
G1 X107.491 Y95.807 E0.07618
G1 X105.767 Y95.156 E0.05776
G1 X106.280 Y93.888 E0.04289
G1 X108.374 Y94.668 E0.07005
G1 X111.068 Y95.506 E0.08846
G1 X113.804 Y96.195 E0.08846
G1 X116.573 Y96.733 E0.08846
G1 X119.368 Y97.119 E0.08846
G1 X122.180 Y97.351 E0.08846
G1 X125.000 Y97.428 E0.08846
G1 X127.820 Y97.351 E0.08846
G1 X130.632 Y97.119 E0.08846
G1 X133.427 Y96.733 E0.08846
G1 X136.196 Y96.195 E0.08846
G1 X138.932 Y95.506 E0.08846
G1 X141.626 Y94.668 E0.08846
G1 X143.720 Y93.888 E0.07005
G1 X144.233 Y95.156 E0.04289
G1 X142.509 Y95.807 E0.05776
G1 X140.199 Y96.559 E0.07618
G1 X137.857 Y97.205 E0.07618
G1 X135.487 Y97.742 E0.07618
G1 X133.094 Y98.169 E0.07623
G1 X129.839 Y98.616 E0.10301
G1 X127.596 Y98.886 E0.07082
G1 X126.750 Y99.025 E0.02691
G1 X126.352 Y99.135 E0.01293
G1 X126.064 Y99.245 E0.00967
G1 X125.829 Y99.391 E0.00866
G1 X125.644 Y99.572 E0.00812
G1 X125.510 Y99.786 E0.00792
G1 X125.422 Y100.049 E0.00870
G1 X125.393 Y101.413 E0.04276
G1 X124.667 Y101.413 E0.02274
G1 X125.853 Y99.949 F10800.000
G1 F1200
G1 X125.798 Y100.115 E0.00550
G1 X125.762 Y101.790 E0.05253
G1 X124.238 Y101.790 E0.04777
G1 X124.202 Y100.106 E0.05282
G1 X124.096 Y99.863 E0.00830
G1 X123.940 Y99.691 E0.00730
G1 X123.723 Y99.562 E0.00791
G1 X123.360 Y99.436 E0.01205
G1 X122.595 Y99.293 E0.02439
G1 X120.204 Y99.007 E0.07551
G1 X116.860 Y98.544 E0.10585
G1 X114.438 Y98.111 E0.07715
G1 X112.051 Y97.570 E0.07672
G1 X109.692 Y96.920 E0.07672
G1 X107.366 Y96.163 E0.07672
G1 X105.273 Y95.373 E0.07013
G1 X106.068 Y93.407 E0.06650
G1 X108.496 Y94.311 E0.08123
G1 X111.170 Y95.143 E0.08781
G1 X113.886 Y95.827 E0.08781
G1 X116.635 Y96.361 E0.08781
G1 X119.409 Y96.744 E0.08781
G1 X122.200 Y96.974 E0.08781
G1 X125.000 Y97.051 E0.08781
G1 X127.800 Y96.974 E0.08781
G1 X130.591 Y96.744 E0.08781
G1 X133.365 Y96.361 E0.08781
G1 X136.114 Y95.827 E0.08781
G1 X138.830 Y95.143 E0.08781
G1 X141.504 Y94.311 E0.08781
G1 X143.932 Y93.407 E0.08123
G1 X144.727 Y95.373 E0.06650
G1 X142.634 Y96.163 E0.07013
G1 X140.308 Y96.920 E0.07672
G1 X137.949 Y97.570 E0.07672
G1 X135.562 Y98.111 E0.07672
G1 X133.153 Y98.542 E0.07674
G1 X129.887 Y98.990 E0.10335
G1 X127.650 Y99.260 E0.07066
G1 X126.830 Y99.394 E0.02603
G1 X126.470 Y99.493 E0.01173
G1 X126.232 Y99.584 E0.00797
G1 X126.064 Y99.689 E0.00622
G1 X125.940 Y99.810 E0.00541
G1 X125.885 Y99.898 E0.00325
G1 X125.679 Y99.963 F10800.000
G1 X125.294 Y100.739
G1 F1200
G1 X124.867 Y100.312 E0.01918
G1 X124.878 Y100.863 E0.01751
G1 X125.283 Y101.268 E0.01814
G1 E-0.80000 F2100.00000
G1 Z0.800 F10800.000
G1 X107.159 Y95.561
G1 Z0.200
G1 E0.80000 F2100.00000
G1 F1200
G1 X106.269 Y94.670 E0.03996
G1 X106.424 Y94.286 E0.01316
G1 X107.723 Y95.585 E0.05831
G1 X108.524 Y95.846 E0.02673
G1 X107.217 Y94.539 E0.05868
G1 X108.077 Y94.859 E0.02913
G1 X109.325 Y96.107 E0.05601
G1 X110.108 Y96.351 E0.02606
G1 X108.879 Y95.121 E0.05519
G1 X109.662 Y95.365 E0.02605
G1 X110.854 Y96.556 E0.05347
G1 X111.599 Y96.761 E0.02454
G1 X110.446 Y95.609 E0.05174
G1 X111.211 Y95.834 E0.02530
G1 X112.336 Y96.958 E0.05048
G1 X113.034 Y97.116 E0.02272
G1 X111.933 Y96.015 E0.04942
G1 X112.654 Y96.197 E0.02362
G1 X113.732 Y97.275 E0.04836
G1 X114.430 Y97.433 E0.02272
G1 X113.376 Y96.379 E0.04730
G1 X114.072 Y96.535 E0.02265
G1 X115.095 Y97.558 E0.04592
G1 X115.752 Y97.676 E0.02119
G1 X114.742 Y96.666 E0.04534
G1 X115.412 Y96.796 E0.02167
G1 X116.410 Y97.793 E0.04476
G1 X117.062 Y97.906 E0.02102
G1 X116.082 Y96.926 E0.04397
G1 X116.738 Y97.042 E0.02112
G1 X117.689 Y97.992 E0.04269
G1 X118.315 Y98.079 E0.02008
G1 X117.364 Y97.128 E0.04270
G1 X117.990 Y97.214 E0.02007
G1 X118.942 Y98.166 E0.04272
G1 X119.569 Y98.253 E0.02008
G1 X118.617 Y97.301 E0.04274
G1 X119.243 Y97.387 E0.02007
G1 X120.195 Y98.340 E0.04276
G1 X120.811 Y98.415 E0.01967
G1 X119.837 Y97.441 E0.04371
G1 X120.425 Y97.490 E0.01874
G1 X121.424 Y98.488 E0.04482
G1 X122.037 Y98.562 E0.01960
G1 X121.014 Y97.538 E0.04593
G1 X121.602 Y97.587 E0.01874
G1 X122.650 Y98.635 E0.04704
G1 X123.310 Y98.755 E0.02129
G1 X122.189 Y97.634 E0.05032
G1 X122.744 Y97.649 E0.01763
G1 X125.139 Y100.044 E0.10751
G1 X125.140 Y100.000 E0.00140
G1 X125.271 Y99.636 E0.01228
G1 X123.299 Y97.664 E0.08851
G1 X123.854 Y97.680 E0.01763
G1 X125.496 Y99.322 E0.07370
G1 X125.653 Y99.167 E0.00700
G1 X125.794 Y99.080 E0.00526
G1 X124.409 Y97.695 E0.06216
G1 X124.964 Y97.710 E0.01763
G1 X126.160 Y98.905 E0.05366
G1 X126.574 Y98.780 E0.01375
G1 X125.492 Y97.698 E0.04860
G1 X126.017 Y97.683 E0.01668
G1 X127.027 Y98.693 E0.04534
G1 X127.491 Y98.617 E0.01492
G1 X126.543 Y97.669 E0.04257
G1 X127.068 Y97.654 E0.01668
G1 X127.970 Y98.556 E0.04049
G1 X128.452 Y98.498 E0.01540
G1 X127.593 Y97.640 E0.03853
G1 X128.105 Y97.611 E0.01625
G1 X128.934 Y98.440 E0.03722
G1 X129.416 Y98.382 E0.01540
G1 X128.603 Y97.570 E0.03646
G1 X129.102 Y97.529 E0.01588
G1 X129.896 Y98.323 E0.03564
G1 X130.371 Y98.258 E0.01521
G1 X129.601 Y97.488 E0.03456
G1 X130.099 Y97.447 E0.01588
G1 X130.845 Y98.193 E0.03348
G1 X131.320 Y98.127 E0.01521
G1 X130.598 Y97.406 E0.03240
G1 X131.076 Y97.343 E0.01529
G1 X131.795 Y98.062 E0.03228
G1 X132.269 Y97.997 E0.01521
G1 X131.550 Y97.278 E0.03229
G1 X132.025 Y97.212 E0.01520
G1 X132.744 Y97.932 E0.03230
G1 X133.050 Y97.890 E0.00979
G1 X133.213 Y97.861 E0.00526
G1 X132.499 Y97.147 E0.03205
G1 X132.973 Y97.081 E0.01520
G1 X133.671 Y97.779 E0.03131
G1 X134.129 Y97.697 E0.01477
G1 X133.448 Y97.016 E0.03058
G1 X133.901 Y96.929 E0.01465
G1 X134.587 Y97.615 E0.03079
G1 X135.045 Y97.533 E0.01477
G1 X134.353 Y96.841 E0.03106
G1 X134.805 Y96.754 E0.01462
G1 X135.500 Y97.449 E0.03120
G1 X135.940 Y97.349 E0.01432
G1 X135.257 Y96.666 E0.03067
G1 X135.709 Y96.578 E0.01462
G1 X136.380 Y97.249 E0.03013
G1 X136.820 Y97.150 E0.01432
G1 X136.161 Y96.490 E0.02960
G1 X136.597 Y96.386 E0.01422
G1 X137.261 Y97.050 E0.02980
G1 X137.701 Y96.950 E0.01432
G1 X137.028 Y96.277 E0.03020
G1 X137.459 Y96.169 E0.01412
G1 X138.127 Y96.837 E0.02999
G1 X138.551 Y96.720 E0.01393
G1 X137.890 Y96.060 E0.02963
G1 X138.322 Y95.951 E0.01412
G1 X138.974 Y96.604 E0.02927
G1 X139.397 Y96.487 E0.01393
G1 X138.753 Y95.843 E0.02892
G1 X139.176 Y95.726 E0.01394
G1 X139.820 Y96.370 E0.02891
G1 X140.118 Y96.288 E0.00980
G1 X140.239 Y96.249 E0.00404
G1 X139.588 Y95.598 E0.02921
G1 X140.000 Y95.470 E0.01369
G1 X140.646 Y96.116 E0.02901
G1 X141.053 Y95.984 E0.01359
G1 X140.411 Y95.342 E0.02881
G1 X140.823 Y95.214 E0.01369
G1 X141.460 Y95.851 E0.02860
G1 X141.868 Y95.718 E0.01359
G1 X141.235 Y95.086 E0.02840
G1 X141.647 Y94.958 E0.01369
G1 X142.275 Y95.586 E0.02820
G1 X142.416 Y95.540 E0.00470
G1 X142.672 Y95.443 E0.00870
G1 X142.043 Y94.814 E0.02823
G1 X142.437 Y94.668 E0.01332
G1 X143.064 Y95.295 E0.02817
G1 X143.456 Y95.147 E0.01330
G1 X142.830 Y94.521 E0.02810
G1 X143.223 Y94.375 E0.01332
G1 X143.980 Y95.131 E0.03395
G1 E-0.80000 F2100.00000
G1 Z0.800 F10800.000
G1 X127.622 Y115.196
G1 Z0.200
G1 E0.80000 F2100.00000
G1 F1200
G1 X127.622 Y114.832 E0.01142
G1 X126.868 Y114.970 E0.02404
G1 X126.868 Y117.142 E0.06812
G1 X127.268 Y115.661 F10800.000
G1 F1200
G1 X127.268 Y117.180 E0.04129
G1 X127.762 Y117.180 E0.01346
G1 X127.762 Y115.301 E0.05108
G1 X128.129 Y115.126 E0.01106
G1 X128.257 Y115.084 E0.00367
G1 X128.257 Y117.180 E0.05700
G1 X128.752 Y117.180 E0.01346
G1 X128.752 Y114.923 E0.06138
G1 X129.247 Y114.793 E0.01391
G1 X129.247 Y117.180 E0.06490
G1 X129.742 Y117.180 E0.01346
G1 X129.742 Y114.670 E0.06826
G1 X130.237 Y114.545 E0.01388
G1 X130.237 Y117.312 E0.07527
G1 X132.901 Y120.308 F10800.000
G1 F1200
G1 X132.901 Y114.142 E0.19332
G1 X132.147 Y114.243 E0.02385
G1 X132.147 Y120.138 E0.18486
G1 X131.393 Y120.138 E0.02365
G1 X131.393 Y114.342 E0.18173
G1 X130.639 Y114.453 E0.02390
G1 X130.639 Y120.138 E0.17826
G1 X129.885 Y120.138 E0.02365
G1 X129.885 Y117.516 E0.08224
G1 X129.131 Y117.516 E0.02365
G1 X129.131 Y120.138 E0.08224
G1 X128.376 Y120.138 E0.02365
G1 X128.376 Y117.516 E0.08224
G1 X127.622 Y117.516 E0.02365
G1 X127.622 Y120.138 E0.08224
G1 X126.868 Y120.138 E0.02365
G1 X126.868 Y117.516 E0.08224
G1 X126.114 Y117.516 E0.02365
G1 X126.114 Y120.138 E0.08224
G1 X125.360 Y120.138 E0.02365
G1 X125.360 Y117.516 E0.08224
G1 X125.315 Y117.516 E0.00139
G1 X125.315 Y117.350 E0.00520
G1 X124.606 Y117.350 E0.02226
G1 X124.606 Y120.138 E0.08743
G1 X123.851 Y120.138 E0.02365
G1 X123.851 Y117.350 E0.08743
G1 X123.693 Y117.212 E0.00659
G1 X123.693 Y117.516 E0.00952
G1 X123.097 Y117.516 E0.01866
G1 X123.097 Y120.138 E0.08224
G1 X122.343 Y120.138 E0.02365
G1 X122.343 Y117.516 E0.08224
G1 X121.589 Y117.516 E0.02365
G1 X121.589 Y120.138 E0.08224
G1 X120.835 Y120.138 E0.02365
G1 X120.835 Y117.516 E0.08224
G1 X120.726 Y117.516 E0.00342
G1 X120.726 Y114.635 E0.09033
G1 X120.081 Y114.556 E0.02038
G1 X120.081 Y120.138 E0.17504
G1 X119.327 Y120.138 E0.02365
G1 X119.327 Y114.451 E0.17833
G1 X118.572 Y114.338 E0.02391
G1 X118.572 Y120.138 E0.18187
G1 X117.818 Y120.138 E0.02365
G1 X117.818 Y114.238 E0.18500
G1 X117.064 Y114.138 E0.02385
G1 X117.064 Y120.138 E0.18814
G1 X116.310 Y120.138 E0.02365
G1 X116.310 Y113.844 E0.19734
G1 E-0.80000 F2100.00000
G1 Z0.800 F10800.000
G1 X121.329 Y114.809
G1 Z0.200
G1 E0.80000 F2100.00000
G1 F1200
G1 X121.329 Y117.180 E0.06447
G1 X121.824 Y117.180 E0.01346
G1 X121.824 Y115.108 E0.05635
G1 X122.181 Y115.267 E0.01065
G1 X122.319 Y115.351 E0.00438
G1 X122.319 Y117.312 E0.05333
G1 X123.097 Y117.142 F10800.000
G1 F1200
G1 X123.097 Y114.955 E0.06859
G1 X122.343 Y114.825 E0.02399
G1 X122.343 Y115.168 E0.01077
G1 X124.607 Y116.274 F10800.000
G1 F1200
G1 X124.578 Y114.884 E0.04358
G1 X124.417 Y114.517 E0.01257
G1 X124.182 Y114.257 E0.01102
G1 X123.883 Y114.079 E0.01089
G1 X123.457 Y113.931 E0.01413
G1 X122.652 Y113.781 E0.02567
G1 X120.253 Y113.494 E0.07578
G1 X116.919 Y113.033 E0.10551
G1 X114.513 Y112.603 E0.07665
G1 X112.143 Y112.066 E0.07618
G1 X109.801 Y111.420 E0.07618
G1 X107.491 Y110.668 E0.07618
G1 X105.767 Y110.018 E0.05776
G1 X106.280 Y108.749 E0.04289
G1 X108.374 Y109.529 E0.07005
G1 X111.068 Y110.367 E0.08846
G1 X113.804 Y111.056 E0.08846
G1 X116.573 Y111.595 E0.08846
G1 X119.368 Y111.980 E0.08846
G1 X122.180 Y112.212 E0.08846
G1 X125.000 Y112.289 E0.08846
G1 X127.820 Y112.212 E0.08846
G1 X130.632 Y111.980 E0.08846
G1 X133.427 Y111.595 E0.08846
G1 X136.196 Y111.056 E0.08846
G1 X138.932 Y110.367 E0.08846
G1 X141.626 Y109.529 E0.08846
