; generated by PrusaSlicer 2.1.1+win64 on 2020-05-22 at 22:06:42 UTC

; 

; external perimeters extrusion width = 0.60mm
; perimeters extrusion width = 0.43mm
; infill extrusion width = 0.45mm
; solid infill extrusion width = 0.70mm
; top infill extrusion width = 0.43mm
; support material extrusion width = 0.37mm
; first layer extrusion width = 0.42mm

; external perimeters extrusion width = 0.60mm
; perimeters extrusion width = 0.43mm
; infill extrusion width = 0.45mm
; solid infill extrusion width = 0.70mm
; top infill extrusion width = 0.43mm
; support material extrusion width = 0.37mm
; first layer extrusion width = 0.42mm

M73 P0 R149
M201 X9000 Y9000 Z500 E10000 ; sets maximum accelerations, mm/sec^2
M203 X500 Y500 Z12 E120 ; sets maximum feedrates, mm/sec
M204 P2000 R1500 T2000 ; sets acceleration (P, T) and retract acceleration (R), mm/sec^2
M205 X10.00 Y10.00 Z0.20 E2.50 ; sets the jerk limits, mm/sec
M205 S0 T0 ; sets the minimum extruding and travel feed rate, mm/sec
M107
M862.3 P "MK2S" ; printer model check
M862.1 P0.4 ; nozzle diameter check
M115 U3.2.3 ; tell printer latest fw version
G90 ; use absolute coordinates
M83 ; extruder relative mode
M204 S2000 T1500 ; MK2 firmware only supports the old M204 format
M104 S215 ; set extruder temp
M140 S60 ; set bed temp
M190 S60 ; wait for bed temp
M109 S215 ; wait for extruder temp
G28 W ; home all without mesh bed level
G80 ; mesh bed leveling
G1 Y-3.0 F1000.0 ; go outside print area
G92 E0.0
G1 X60.0 E9.0  F1000.0 ; intro line
M73 P0 R149
G1 X100.0 E12.5 F1000.0 ; intro line
G92 E0.0
G21 ; set units to millimeters
G90 ; use absolute coordinates
M83 ; use relative distances for extrusion
M900 K30 ; Filament gcode
;BEFORE_LAYER_CHANGE
G92 E0.0
;0.2


G1 E-0.80000 F2100.00000
G1 Z0.600 F10800.000
;AFTER_LAYER_CHANGE
;0.2
G1 X34.770 Y51.850
G1 Z0.200
G1 E0.80000 F2100.00000
M204 S1000
G1 F1200
G1 X35.261 Y50.655 E0.04054
G1 X40.679 Y41.272 E0.33972
G1 X41.181 Y40.565 E0.02719
G1 X41.826 Y39.925 E0.02847
G1 X42.553 Y39.418 E0.02779
G1 X43.369 Y39.038 E0.02825
G1 X44.239 Y38.804 E0.02824
G1 X45.129 Y38.725 E0.02801
G1 X201.684 Y38.724 E4.90868
G1 X203.055 Y38.913 E0.04340
G1 X203.939 Y39.242 E0.02955
G1 X205.091 Y40.007 E0.04338
G1 X205.758 Y40.704 E0.03024
G1 X206.169 Y41.310 E0.02295
G1 X211.962 Y51.344 E0.36328
G1 X212.164 Y51.848 E0.01703
G1 X212.237 Y52.383 E0.01692
G1 X212.230 Y154.586 E3.20453
G1 X212.143 Y155.053 E0.01487
G1 X211.957 Y155.489 E0.01487
G1 X204.333 Y168.694 E0.47809
G1 X203.818 Y169.427 E0.02810
G1 X203.166 Y170.075 E0.02881
G1 X202.436 Y170.584 E0.02790
G1 X201.619 Y170.964 E0.02824
G1 X200.749 Y171.197 E0.02824
G1 X199.863 Y171.275 E0.02790
G1 X46.970 Y171.276 E4.79384
G1 X45.924 Y171.164 E0.03300
G1 X45.207 Y170.964 E0.02333
G1 X44.546 Y170.665 E0.02275
G1 X43.671 Y170.085 E0.03291
G1 X42.989 Y169.406 E0.03018
G1 X42.490 Y168.691 E0.02733
G1 X35.248 Y156.145 E0.45422
G1 X34.762 Y154.948 E0.04051
G1 X34.588 Y153.634 E0.04156
G1 X34.593 Y53.072 E3.15305
G1 X34.761 Y51.910 E0.03680
G1 E-0.80000 F2100.00000
G1 Z0.800 F10800.000
G1 X98.032 Y95.755
G1 Z0.200
G1 E0.80000 F2100.00000
G1 F1200
G1 X98.329 Y95.331 E0.01625
G1 X98.696 Y94.964 E0.01625
G1 X99.120 Y94.667 E0.01625
G1 X99.590 Y94.448 E0.01625
G1 X100.090 Y94.314 E0.01625
G1 X100.588 Y94.270 E0.01568
G1 X101.121 Y94.313 E0.01675
G1 X101.624 Y94.448 E0.01631
G1 X102.093 Y94.667 E0.01625
G1 X102.518 Y94.964 E0.01625
G1 X102.884 Y95.331 E0.01625
G1 X103.181 Y95.755 E0.01625
G1 X103.400 Y96.225 E0.01625
G1 X103.535 Y96.726 E0.01625
G1 X103.580 Y97.242 E0.01625
G1 X103.535 Y97.758 E0.01625
G1 X103.400 Y98.259 E0.01625
G1 X103.181 Y98.728 E0.01625
G1 X102.884 Y99.153 E0.01625
G1 X102.518 Y99.519 E0.01625
G1 X102.093 Y99.817 E0.01625
G1 X101.624 Y100.036 E0.01625
G1 X101.123 Y100.170 E0.01625
G1 X100.607 Y100.215 E0.01625
G1 X100.090 Y100.170 E0.01625
G1 X99.590 Y100.036 E0.01625
G1 X99.137 Y99.824 E0.01568
G1 X98.697 Y99.521 E0.01675
G1 X98.329 Y99.153 E0.01631
G1 X98.032 Y98.728 E0.01625
G1 X97.813 Y98.259 E0.01625
G1 X97.679 Y97.758 E0.01625
G1 X97.634 Y97.242 E0.01625
G1 X97.679 Y96.726 E0.01625
G1 X97.813 Y96.225 E0.01625
G1 X98.007 Y95.810 E0.01437
G1 X98.348 Y95.969 F10800.000
G1 F1200
G1 X98.619 Y95.574 E0.01502
G1 X98.939 Y95.254 E0.01418
G1 X99.309 Y94.995 E0.01418
G1 X99.719 Y94.804 E0.01418
G1 X100.156 Y94.687 E0.01418
G1 X100.590 Y94.649 E0.01365
G1 X101.057 Y94.686 E0.01469
G1 X101.494 Y94.804 E0.01420
G1 X101.904 Y94.995 E0.01418
G1 X102.274 Y95.254 E0.01418
G1 X102.594 Y95.574 E0.01418
G1 X102.854 Y95.944 E0.01418
G1 X103.045 Y96.354 E0.01418
G1 X103.162 Y96.791 E0.01418
G1 X103.201 Y97.242 E0.01418
G1 X103.162 Y97.692 E0.01418
G1 X103.045 Y98.129 E0.01418
G1 X102.854 Y98.539 E0.01418
G1 X102.594 Y98.910 E0.01418
G1 X102.274 Y99.229 E0.01418
G1 X101.904 Y99.489 E0.01418
G1 X101.494 Y99.680 E0.01418
G1 X101.057 Y99.797 E0.01418
G1 X100.607 Y99.836 E0.01418
G1 X100.156 Y99.797 E0.01418
G1 X99.719 Y99.680 E0.01418
G1 X99.325 Y99.496 E0.01365
G1 X98.939 Y99.230 E0.01469
G1 X98.619 Y98.910 E0.01420
G1 X98.360 Y98.539 E0.01418
G1 X98.169 Y98.129 E0.01418
G1 X98.051 Y97.692 E0.01418
G1 X98.012 Y97.242 E0.01418
G1 X98.051 Y96.791 E0.01418
G1 X98.169 Y96.354 E0.01418
G1 X98.323 Y96.023 E0.01145
G1 X98.146 Y95.624 F10800.000
G1 E-0.80000 F2100.00000
G1 Z0.800 F10800.000
G1 X87.628 Y81.813
G1 Z0.200
G1 E0.80000 F2100.00000
G1 F1200
G1 X87.393 Y81.407 E0.01471
G1 X87.321 Y80.998 E0.01302
G1 X87.321 Y58.740 E0.69788
G1 X87.393 Y58.331 E0.01302
G1 X87.614 Y57.949 E0.01384
G1 X87.815 Y57.747 E0.00895
G1 X88.198 Y57.527 E0.01384
G1 X88.607 Y57.454 E0.01302
G1 X109.871 Y57.454 E0.66674
G1 X110.280 Y57.527 E0.01302
G1 X110.663 Y57.747 E0.01384
G1 X110.864 Y57.949 E0.00895
G1 X111.085 Y58.332 E0.01386
G1 X111.157 Y58.740 E0.01301
G1 X111.157 Y80.998 E0.69787
G1 X111.090 Y81.381 E0.01219
G1 X110.969 Y81.640 E0.00896
G1 X110.685 Y81.978 E0.01384
G1 X110.280 Y82.211 E0.01466
G1 X109.872 Y82.284 E0.01300
G1 X88.632 Y82.284 E0.66596
G1 X88.400 Y82.263 E0.00731
G1 X87.991 Y82.115 E0.01363
G1 X87.674 Y81.851 E0.01295
G1 X87.920 Y81.566 F10800.000
G1 F1200
G1 X87.753 Y81.276 E0.01051
G1 X87.698 Y80.965 E0.00990
G1 X87.698 Y58.773 E0.69581
G1 X87.753 Y58.462 E0.00990
G1 X87.915 Y58.180 E0.01019
G1 X88.047 Y58.049 E0.00583
G1 X88.328 Y57.886 E0.01019
G1 X88.640 Y57.832 E0.00990
G1 X109.838 Y57.832 E0.66467
G1 X110.149 Y57.886 E0.00990
G1 X110.431 Y58.049 E0.01020
G1 X110.563 Y58.180 E0.00583
G1 X110.725 Y58.463 E0.01021
G1 X110.780 Y58.773 E0.00989
G1 X110.780 Y80.965 E0.69580
G1 X110.727 Y81.266 E0.00960
G1 X110.648 Y81.435 E0.00584
G1 X110.439 Y81.684 E0.01020
G1 X110.149 Y81.852 E0.01049
G1 X109.839 Y81.906 E0.00988
G1 X88.649 Y81.906 E0.66441
G1 X88.482 Y81.892 E0.00525
G1 X88.182 Y81.783 E0.01002
G1 X87.966 Y81.604 E0.00877
G1 X87.590 Y81.624 F10800.000
G1 E-0.80000 F2100.00000
G1 Z0.800 F10800.000
G1 X99.590 Y48.465
G1 Z0.200
G1 E0.80000 F2100.00000
G1 F1200
G1 X99.120 Y48.246 E0.01625
G1 X98.696 Y47.949 E0.01625
G1 X98.329 Y47.582 E0.01625
G1 X98.032 Y47.158 E0.01625
G1 X97.813 Y46.688 E0.01625
G1 X97.679 Y46.187 E0.01625
G1 X97.634 Y45.671 E0.01625
G1 X97.679 Y45.155 E0.01625
G1 X97.813 Y44.654 E0.01625
G1 X98.032 Y44.185 E0.01625
G1 X98.329 Y43.760 E0.01625
G1 X98.696 Y43.394 E0.01625
G1 X99.120 Y43.096 E0.01625
G1 X99.590 Y42.877 E0.01625
G1 X100.090 Y42.743 E0.01625
G1 X100.588 Y42.700 E0.01568
G1 X101.121 Y42.743 E0.01675
G1 X101.624 Y42.877 E0.01631
G1 X102.093 Y43.096 E0.01625
G1 X102.518 Y43.394 E0.01625
G1 X102.884 Y43.760 E0.01625
G1 X103.181 Y44.185 E0.01625
G1 X103.400 Y44.654 E0.01625
G1 X103.535 Y45.155 E0.01625
G1 X103.580 Y45.671 E0.01625
G1 X103.535 Y46.187 E0.01625
G1 X103.400 Y46.688 E0.01625
G1 X103.181 Y47.158 E0.01625
G1 X102.884 Y47.582 E0.01625
G1 X102.531 Y47.936 E0.01568
G1 X102.095 Y48.245 E0.01675
G1 X101.624 Y48.465 E0.01631
G1 X101.123 Y48.599 E0.01625
G1 X100.607 Y48.644 E0.01625
G1 X100.090 Y48.599 E0.01625
G1 X99.648 Y48.481 E0.01437
G1 X99.745 Y48.116 F10800.000
G1 F1200
G1 X99.309 Y47.918 E0.01502
G1 X98.939 Y47.659 E0.01418
G1 X98.619 Y47.339 E0.01418
G1 X98.360 Y46.969 E0.01418
G1 X98.169 Y46.559 E0.01418
G1 X98.051 Y46.122 E0.01418
G1 X98.012 Y45.671 E0.01418
G1 X98.051 Y45.221 E0.01418
G1 X98.169 Y44.784 E0.01418
G1 X98.360 Y44.374 E0.01418
G1 X98.619 Y44.003 E0.01418
G1 X98.939 Y43.684 E0.01418
G1 X99.309 Y43.424 E0.01418
G1 X99.719 Y43.233 E0.01418
G1 X100.156 Y43.116 E0.01418
G1 X100.590 Y43.078 E0.01365
G1 X101.057 Y43.116 E0.01469
G1 X101.494 Y43.233 E0.01420
G1 X101.904 Y43.424 E0.01418
G1 X102.274 Y43.684 E0.01418
G1 X102.594 Y44.003 E0.01418
G1 X102.854 Y44.374 E0.01418
G1 X103.045 Y44.784 E0.01418
G1 X103.162 Y45.221 E0.01418
G1 X103.201 Y45.671 E0.01418
G1 X103.162 Y46.122 E0.01418
G1 X103.045 Y46.559 E0.01418
G1 X102.854 Y46.969 E0.01418
G1 X102.594 Y47.339 E0.01418
G1 X102.286 Y47.647 E0.01365
G1 X101.905 Y47.918 E0.01469
G1 X101.494 Y48.109 E0.01420
G1 X101.057 Y48.226 E0.01418
G1 X100.607 Y48.266 E0.01418
G1 X100.156 Y48.226 E0.01418
G1 X99.803 Y48.132 E0.01145
G1 X99.441 Y48.376 F10800.000
G1 E-0.80000 F2100.00000
G1 Z0.800 F10800.000
G1 X118.238 Y52.564
G1 Z0.200
G1 E0.80000 F2100.00000
G1 F1200
G1 X118.238 Y87.174 E1.08518
G1 X110.727 Y100.184 E0.47103
G1 X110.471 Y100.550 E0.01398
G1 X110.187 Y100.834 E0.01259
G1 X109.828 Y101.089 E0.01381
G1 X109.449 Y101.265 E0.01311
G1 X109.043 Y101.374 E0.01318
G1 X108.598 Y101.413 E0.01398
G1 X92.615 Y101.413 E0.50115
G1 X92.171 Y101.374 E0.01398
G1 X91.765 Y101.265 E0.01318
G1 X91.384 Y101.088 E0.01318
G1 X91.040 Y100.847 E0.01318
G1 X90.743 Y100.550 E0.01318
G1 X90.487 Y100.184 E0.01398
G1 X83.308 Y87.751 E0.45015
G1 X83.160 Y87.451 E0.01049
G1 X83.059 Y87.152 E0.00989
G1 X82.997 Y86.842 E0.00989
G1 X82.975 Y86.508 E0.01049
G1 X82.975 Y53.230 E1.04344
G1 X82.997 Y52.896 E0.01050
G1 X83.059 Y52.586 E0.00989
G1 X83.160 Y52.287 E0.00989
G1 X83.308 Y51.987 E0.01050
G1 X88.654 Y42.729 E0.33520
G1 X88.909 Y42.363 E0.01398
G1 X89.207 Y42.066 E0.01318
G1 X89.551 Y41.825 E0.01318
G1 X89.932 Y41.648 E0.01318
G1 X90.338 Y41.539 E0.01318
G1 X90.782 Y41.500 E0.01398
G1 X110.435 Y41.500 E0.61622
G1 X110.801 Y41.527 E0.01149
G1 X111.169 Y41.609 E0.01185
G1 X111.503 Y41.741 E0.01125
G1 X111.816 Y41.921 E0.01130
G1 X112.085 Y42.135 E0.01080
G1 X112.343 Y42.411 E0.01185
G1 X112.558 Y42.726 E0.01194
G1 X118.208 Y52.512 E0.35431
G1 X118.534 Y52.323 F10800.000
G1 F1200
G1 X118.615 Y52.463 E0.00505
G1 X118.615 Y87.275 E1.09152
G1 X111.045 Y100.387 E0.47471
G1 X110.761 Y100.793 E0.01553
G1 X110.431 Y101.123 E0.01462
G1 X110.018 Y101.416 E0.01588
G1 X109.578 Y101.621 E0.01522
G1 X109.108 Y101.747 E0.01524
G1 X108.615 Y101.790 E0.01553
G1 X92.598 Y101.790 E0.50219
M73 P0 R148
G1 X92.105 Y101.747 E0.01553
G1 X91.635 Y101.621 E0.01524
G1 X91.195 Y101.416 E0.01524
G1 X90.796 Y101.137 E0.01524
G1 X90.453 Y100.793 E0.01524
G1 X90.168 Y100.387 E0.01553
G1 X82.976 Y87.929 E0.45106
G1 X82.811 Y87.595 E0.01166
G1 X82.694 Y87.250 E0.01144
G1 X82.623 Y86.892 E0.01144
G1 X82.598 Y86.521 E0.01166
G1 X82.598 Y53.217 E1.04421
G1 X82.623 Y52.846 E0.01166
G1 X82.694 Y52.488 E0.01144
G1 X82.811 Y52.143 E0.01144
G1 X82.976 Y51.809 E0.01166
G1 X88.335 Y42.526 E0.33611
G1 X88.619 Y42.120 E0.01553
G1 X88.963 Y41.776 E0.01524
G1 X89.362 Y41.497 E0.01524
G1 X89.802 Y41.292 E0.01524
G1 X90.272 Y41.166 E0.01524
G1 X90.765 Y41.123 E0.01553
G1 X110.449 Y41.123 E0.61718
G1 X110.856 Y41.153 E0.01278
G1 X111.280 Y41.248 E0.01362
G1 X111.667 Y41.400 E0.01305
G1 X112.029 Y41.608 E0.01307
G1 X112.341 Y41.858 E0.01254
G1 X112.638 Y42.174 E0.01362
G1 X112.877 Y42.525 E0.01330
G1 X118.504 Y52.271 E0.35287
G1 X118.454 Y52.463 F10800.000
G1 X117.761 Y51.965
G1 F1200
G1 X111.320 Y45.523 E0.28703
G1 X111.328 Y46.067 E0.01714
G1 X117.955 Y52.694 E0.29530
G1 X117.955 Y53.230 E0.01688
G1 X111.310 Y46.585 E0.29609
G1 X111.270 Y47.081 E0.01567
G1 X117.955 Y53.766 E0.29788
G1 X117.955 Y54.302 E0.01688
G1 X111.209 Y47.556 E0.30060
G1 X111.130 Y48.013 E0.01462
G1 X117.955 Y54.838 E0.30410
G1 X117.955 Y55.374 E0.01688
G1 X111.035 Y48.453 E0.30836
G1 X110.924 Y48.878 E0.01385
G1 X117.955 Y55.910 E0.31329
G1 X117.955 Y56.445 E0.01688
G1 X110.799 Y49.290 E0.31884
G1 X110.661 Y49.687 E0.01326
G1 X117.955 Y56.981 E0.32501
G1 X117.955 Y57.517 E0.01688
G1 X110.510 Y50.072 E0.33173
G1 X110.348 Y50.445 E0.01283
G1 X117.955 Y58.053 E0.33898
G1 X117.955 Y58.589 E0.01688
G1 X110.173 Y50.807 E0.34673
G1 X109.988 Y51.158 E0.01250
G1 X117.955 Y59.125 E0.35498
G1 X117.955 Y59.661 E0.01688
G1 X109.793 Y51.498 E0.36370
G1 X109.587 Y51.828 E0.01225
G1 X117.955 Y60.196 E0.37289
G1 X117.955 Y60.732 E0.01688
G1 X109.370 Y52.148 E0.38252
G1 X109.144 Y52.457 E0.01208
G1 X117.955 Y61.268 E0.39260
G1 X117.955 Y61.804 E0.01688
G1 X108.908 Y52.757 E0.40310
G1 X108.663 Y53.048 E0.01198
G1 X117.955 Y62.340 E0.41403
G1 X117.955 Y62.876 E0.01688
G1 X108.408 Y53.329 E0.42539
G1 X108.144 Y53.600 E0.01194
G1 X117.955 Y63.412 E0.43717
G1 X117.955 Y63.948 E0.01688
G1 X107.870 Y53.863 E0.44936
G1 X107.587 Y54.115 E0.01196
G1 X117.955 Y64.483 E0.46198
G1 X117.955 Y65.019 E0.01688
G1 X111.395 Y58.459 E0.29232
G1 X111.440 Y58.716 E0.00821
G1 X111.440 Y59.040 E0.01022
G1 X117.955 Y65.555 E0.29031
G1 X117.955 Y66.091 E0.01688
G1 X111.440 Y59.576 E0.29031
G1 X111.440 Y60.112 E0.01688
G1 X117.955 Y66.627 E0.29031
G1 X117.955 Y67.163 E0.01688
G1 X111.440 Y60.647 E0.29031
G1 X111.440 Y61.183 E0.01688
G1 X117.955 Y67.699 E0.29031
G1 X117.955 Y68.235 E0.01688
G1 X111.440 Y61.719 E0.29031
G1 X111.440 Y62.255 E0.01688
G1 X117.955 Y68.770 E0.29031
G1 X117.955 Y69.306 E0.01688
G1 X111.440 Y62.791 E0.29031
G1 X111.440 Y63.327 E0.01688
G1 X117.955 Y69.842 E0.29031
G1 X117.955 Y70.378 E0.01688
G1 X111.440 Y63.863 E0.29031
G1 X111.440 Y64.399 E0.01688
G1 X117.955 Y70.914 E0.29031
G1 X117.955 Y71.450 E0.01688
G1 X111.440 Y64.934 E0.29031
G1 X111.440 Y65.470 E0.01688
G1 X117.955 Y71.986 E0.29031
G1 X117.955 Y72.521 E0.01688
G1 X111.440 Y66.006 E0.29031
G1 X111.440 Y66.542 E0.01688
G1 X117.955 Y73.057 E0.29031
G1 X117.955 Y73.593 E0.01688
G1 X111.440 Y67.078 E0.29031
G1 X111.440 Y67.614 E0.01688
G1 X117.955 Y74.129 E0.29031
G1 X117.955 Y74.665 E0.01688
G1 X111.440 Y68.150 E0.29031
G1 X111.440 Y68.686 E0.01688
G1 X117.955 Y75.201 E0.29031
G1 X117.955 Y75.737 E0.01688
G1 X111.440 Y69.221 E0.29031
G1 X111.440 Y69.757 E0.01688
G1 X117.955 Y76.273 E0.29031
G1 X117.955 Y76.808 E0.01688
G1 X111.440 Y70.293 E0.29031
G1 X111.440 Y70.829 E0.01688
G1 X117.955 Y77.344 E0.29031
G1 X117.955 Y77.880 E0.01688
G1 X111.440 Y71.365 E0.29031
G1 X111.440 Y71.901 E0.01688
G1 X117.955 Y78.416 E0.29031
G1 X117.955 Y78.952 E0.01688
G1 X111.440 Y72.437 E0.29031
G1 X111.440 Y72.972 E0.01688
G1 X117.955 Y79.488 E0.29031
G1 X117.955 Y80.024 E0.01688
G1 X111.440 Y73.508 E0.29031
G1 X111.440 Y74.044 E0.01688
G1 X117.955 Y80.560 E0.29031
G1 X117.955 Y81.095 E0.01688
G1 X111.440 Y74.580 E0.29031
G1 X111.440 Y75.116 E0.01688
G1 X117.955 Y81.631 E0.29031
G1 X117.955 Y82.167 E0.01688
G1 X111.440 Y75.652 E0.29031
G1 X111.440 Y76.188 E0.01688
G1 X117.955 Y82.703 E0.29031
G1 X117.955 Y83.239 E0.01688
G1 X111.440 Y76.724 E0.29031
G1 X111.440 Y77.259 E0.01688
G1 X117.955 Y83.775 E0.29031
G1 X117.955 Y84.311 E0.01688
G1 X111.440 Y77.795 E0.29031
G1 X111.440 Y78.331 E0.01688
G1 X117.955 Y84.846 E0.29031
G1 X117.955 Y85.382 E0.01688
G1 X111.440 Y78.867 E0.29031
G1 X111.440 Y79.403 E0.01688
G1 X117.955 Y85.918 E0.29031
G1 X117.955 Y86.454 E0.01688
G1 X111.440 Y79.939 E0.29031
G1 X111.440 Y80.475 E0.01688
G1 X117.955 Y86.990 E0.29031
G1 X117.955 Y87.098 E0.00342
G1 X117.799 Y87.369 E0.00986
G1 X111.440 Y81.011 E0.28334
G1 X111.361 Y81.468 E0.01462
G1 X117.603 Y87.709 E0.27810
G1 X117.406 Y88.049 E0.01236
G1 X111.183 Y81.825 E0.27732
G1 X110.938 Y82.116 E0.01198
G1 X117.210 Y88.389 E0.27947
G1 X117.014 Y88.728 E0.01236
G1 X110.625 Y82.339 E0.28469
G1 X110.379 Y82.481 E0.00896
G1 X110.253 Y82.503 E0.00401
G1 X116.818 Y89.068 E0.29250
G1 X116.622 Y89.408 E0.01236
G1 X109.780 Y82.566 E0.30484
G1 X109.245 Y82.566 E0.01688
G1 X116.426 Y89.747 E0.31997
