; generated by PrusaSlicer 2.1.1+win64 on 2020-05-22 at 22:05:36 UTC

; 

; external perimeters extrusion width = 0.60mm
; perimeters extrusion width = 0.43mm
; infill extrusion width = 0.45mm
; solid infill extrusion width = 0.70mm
; top infill extrusion width = 0.43mm
; support material extrusion width = 0.37mm
; first layer extrusion width = 0.42mm

; external perimeters extrusion width = 0.60mm
; perimeters extrusion width = 0.43mm
; infill extrusion width = 0.45mm
; solid infill extrusion width = 0.70mm
; top infill extrusion width = 0.43mm
; support material extrusion width = 0.37mm
; first layer extrusion width = 0.42mm

; external perimeters extrusion width = 0.45mm
; perimeters extrusion width = 0.45mm
; infill extrusion width = 0.45mm
; solid infill extrusion width = 0.45mm
; top infill extrusion width = 0.40mm
; support material extrusion width = 0.37mm
; first layer extrusion width = 0.42mm

M73 P0 R197
M201 X9000 Y9000 Z500 E10000 ; sets maximum accelerations, mm/sec^2
M203 X500 Y500 Z12 E120 ; sets maximum feedrates, mm/sec
M204 P2000 R1500 T2000 ; sets acceleration (P, T) and retract acceleration (R), mm/sec^2
M205 X10.00 Y10.00 Z0.20 E2.50 ; sets the jerk limits, mm/sec
M205 S0 T0 ; sets the minimum extruding and travel feed rate, mm/sec
M107
M862.3 P "MK2S" ; printer model check
M862.1 P0.4 ; nozzle diameter check
M115 U3.2.3 ; tell printer latest fw version
G90 ; use absolute coordinates
M83 ; extruder relative mode
M204 S2000 T1500 ; MK2 firmware only supports the old M204 format
M104 S215 ; set extruder temp
M140 S60 ; set bed temp
M190 S60 ; wait for bed temp
M109 S215 ; wait for extruder temp
G28 W ; home all without mesh bed level
G80 ; mesh bed leveling
G1 Y-3.0 F1000.0 ; go outside print area
G92 E0.0
G1 X60.0 E9.0  F1000.0 ; intro line
M73 P0 R197
G1 X100.0 E12.5 F1000.0 ; intro line
G92 E0.0
G21 ; set units to millimeters
G90 ; use absolute coordinates
M83 ; use relative distances for extrusion
M900 K30 ; Filament gcode
;BEFORE_LAYER_CHANGE
G92 E0.0
;0.2


G1 E-0.80000 F2100.00000
G1 Z0.600 F10800.000
;AFTER_LAYER_CHANGE
;0.2
G1 X73.482 Y26.187
G1 Z0.200
G1 E0.80000 F2100.00000
M204 S1000
G1 F1200
G1 X74.637 Y25.242 E0.04677
G1 X75.622 Y24.672 E0.03570
G1 X76.715 Y24.250 E0.03673
G1 X78.297 Y23.944 E0.05052
G1 X115.923 Y23.848 E1.17973
G1 X170.477 Y23.848 E1.71051
G1 X171.603 Y23.862 E0.03530
G1 X172.706 Y24.047 E0.03506
G1 X173.961 Y24.460 E0.04144
G1 X175.225 Y25.139 E0.04499
G1 X176.264 Y25.969 E0.04169
G1 X177.142 Y26.958 E0.04146
G1 X177.888 Y28.187 E0.04510
G1 X178.317 Y29.240 E0.03563
G1 X178.574 Y30.328 E0.03506
G1 X178.682 Y31.649 E0.04155
G1 X178.786 Y96.191 E2.02369
G1 X178.785 Y178.161 E2.57009
G1 X178.723 Y179.397 E0.03883
G1 X178.472 Y180.566 E0.03749
G1 X177.857 Y182.067 E0.05083
G1 X177.199 Y183.091 E0.03818
G1 X176.411 Y183.971 E0.03703
G1 X175.207 Y184.927 E0.04821
G1 X174.053 Y185.537 E0.04093
G1 X172.928 Y185.910 E0.03715
G1 X171.372 Y186.146 E0.04935
G1 X78.907 Y186.138 E2.89917
G1 X77.348 Y185.917 E0.04939
G1 X76.224 Y185.555 E0.03702
G1 X75.102 Y184.980 E0.03954
G1 X73.860 Y184.019 E0.04922
G1 X73.066 Y183.155 E0.03679
G1 X72.356 Y182.070 E0.04068
G1 X71.769 Y180.661 E0.04786
G1 X71.504 Y179.521 E0.03667
G1 X71.420 Y178.281 E0.03897
G1 X71.214 Y113.985 E2.01596
G1 X71.215 Y32.009 E2.57031
G1 X71.252 Y30.827 E0.03709
G1 X71.502 Y29.555 E0.04062
G1 X71.960 Y28.343 E0.04062
G1 X72.538 Y27.341 E0.03627
G1 X73.444 Y26.233 E0.04489
G1 E-0.80000 F2100.00000
G1 Z0.800 F10800.000
G1 X152.837 Y134.219
G1 Z0.200
G1 E0.80000 F2100.00000
G1 F1200
G1 X152.837 Y157.067 E0.71637
G1 X153.591 Y157.067 E0.02365
G1 X153.591 Y134.389 E0.71105
G1 X154.345 Y134.389 E0.02365
G1 X154.345 Y157.067 E0.71105
G1 X155.099 Y157.067 E0.02365
G1 X155.099 Y134.389 E0.71105
G1 X155.853 Y134.389 E0.02365
G1 X155.853 Y157.067 E0.71105
G1 X156.608 Y157.067 E0.02365
G1 X156.608 Y134.389 E0.71105
G1 X157.362 Y134.389 E0.02365
G1 X157.362 Y157.067 E0.71105
G1 X158.116 Y157.067 E0.02365
G1 X158.116 Y134.389 E0.71105
G1 X158.870 Y134.389 E0.02365
G1 X158.870 Y157.067 E0.71105
G1 X159.624 Y157.067 E0.02365
G1 X159.624 Y134.389 E0.71105
G1 X160.378 Y134.389 E0.02365
G1 X160.378 Y157.067 E0.71105
G1 X161.132 Y157.067 E0.02365
G1 X161.132 Y134.389 E0.71105
G1 X161.887 Y134.389 E0.02365
G1 X161.887 Y157.237 E0.71637
G1 E-0.80000 F2100.00000
G1 Z0.800 F10800.000
G1 X170.117 Y175.915
G1 Z0.200
G1 E0.80000 F2100.00000
G1 F1200
G1 X170.558 Y175.797 E0.01433
G1 X170.997 Y175.759 E0.01381
G1 X171.467 Y175.796 E0.01478
G1 X171.910 Y175.915 E0.01439
G1 X172.324 Y176.108 E0.01433
G1 X172.699 Y176.370 E0.01433
G1 X173.022 Y176.694 E0.01433
G1 X173.284 Y177.068 E0.01433
G1 X173.477 Y177.482 E0.01433
G1 X173.595 Y177.923 E0.01433
G1 X173.635 Y178.378 E0.01433
G1 X173.595 Y178.834 E0.01433
G1 X173.477 Y179.275 E0.01433
G1 X173.284 Y179.689 E0.01433
G1 X173.022 Y180.063 E0.01433
G1 X172.699 Y180.387 E0.01433
G1 X172.324 Y180.649 E0.01433
G1 X171.910 Y180.842 E0.01433
G1 X171.469 Y180.960 E0.01433
G1 X171.014 Y181.000 E0.01433
G1 X170.558 Y180.960 E0.01433
G1 X170.117 Y180.842 E0.01433
G1 X169.718 Y180.656 E0.01381
G1 X169.330 Y180.388 E0.01478
G1 X169.006 Y180.063 E0.01439
G1 X168.744 Y179.689 E0.01433
G1 X168.550 Y179.275 E0.01433
G1 X168.432 Y178.834 E0.01433
G1 X168.392 Y178.378 E0.01433
G1 X168.432 Y177.923 E0.01433
G1 X168.550 Y177.482 E0.01433
G1 X168.744 Y177.068 E0.01433
G1 X169.006 Y176.694 E0.01433
G1 X169.329 Y176.370 E0.01433
G1 X169.703 Y176.108 E0.01433
G1 X170.063 Y175.941 E0.01245
G1 X170.222 Y176.282 F10800.000
G1 F1200
G1 X170.624 Y176.170 E0.01309
G1 X170.998 Y176.137 E0.01178
G1 X171.402 Y176.170 E0.01271
G1 X171.781 Y176.271 E0.01228
G1 X172.135 Y176.436 E0.01226
G1 X172.455 Y176.660 E0.01226
G1 X172.732 Y176.937 E0.01226
G1 X172.956 Y177.257 E0.01226
G1 X173.121 Y177.611 E0.01226
G1 X173.222 Y177.989 E0.01226
G1 X173.256 Y178.378 E0.01226
G1 X173.222 Y178.768 E0.01226
G1 X173.121 Y179.146 E0.01226
G1 X172.956 Y179.500 E0.01226
G1 X172.732 Y179.820 E0.01226
G1 X172.455 Y180.097 E0.01226
G1 X172.135 Y180.321 E0.01226
G1 X171.781 Y180.486 E0.01226
G1 X171.403 Y180.587 E0.01226
G1 X171.014 Y180.621 E0.01226
G1 X170.624 Y180.587 E0.01226
G1 X170.247 Y180.486 E0.01226
G1 X169.906 Y180.327 E0.01178
G1 X169.573 Y180.097 E0.01271
G1 X169.296 Y179.820 E0.01228
G1 X169.071 Y179.500 E0.01226
G1 X168.906 Y179.146 E0.01226
G1 X168.805 Y178.768 E0.01226
G1 X168.771 Y178.378 E0.01226
G1 X168.805 Y177.989 E0.01226
G1 X168.906 Y177.611 E0.01226
G1 X169.071 Y177.257 E0.01226
G1 X169.296 Y176.937 E0.01226
G1 X169.572 Y176.660 E0.01226
G1 X169.892 Y176.436 E0.01226
G1 X170.168 Y176.308 E0.00953
G1 X170.288 Y175.888 F10800.000
G1 E-0.80000 F2100.00000
G1 Z0.800 F10800.000
G1 X136.364 Y178.368
G1 Z0.200
G1 E0.80000 F2100.00000
G1 F1200
G1 X136.324 Y178.824 E0.01433
G1 X136.206 Y179.265 E0.01434
G1 X136.012 Y179.680 E0.01433
G1 X135.750 Y180.054 E0.01434
G1 X135.427 Y180.377 E0.01433
G1 X135.066 Y180.630 E0.01382
G1 X134.640 Y180.832 E0.01478
G1 X134.196 Y180.951 E0.01440
G1 X133.741 Y180.991 E0.01433
G1 X133.285 Y180.951 E0.01434
G1 X132.844 Y180.833 E0.01434
G1 X132.429 Y180.640 E0.01434
G1 X132.055 Y180.377 E0.01433
G1 X131.732 Y180.054 E0.01433
G1 X131.469 Y179.680 E0.01434
G1 X131.276 Y179.265 E0.01433
G1 X131.158 Y178.824 E0.01434
G1 X131.118 Y178.368 E0.01433
G1 X131.158 Y177.913 E0.01434
G1 X131.276 Y177.471 E0.01434
G1 X131.469 Y177.057 E0.01434
G1 X131.732 Y176.682 E0.01433
G1 X132.055 Y176.359 E0.01433
G1 X132.429 Y176.097 E0.01434
G1 X132.844 Y175.903 E0.01434
G1 X133.285 Y175.785 E0.01434
G1 X133.724 Y175.747 E0.01382
G1 X134.194 Y175.785 E0.01478
G1 X134.638 Y175.903 E0.01440
G1 X135.052 Y176.097 E0.01434
G1 X135.427 Y176.359 E0.01434
G1 X135.750 Y176.682 E0.01433
G1 X136.003 Y177.043 E0.01382
G1 X136.205 Y177.469 E0.01478
G1 X136.324 Y177.913 E0.01440
G1 X136.358 Y178.308 E0.01245
G1 X135.983 Y178.341 F10800.000
G1 F1200
G1 X135.951 Y178.758 E0.01310
G1 X135.850 Y179.136 E0.01227
G1 X135.684 Y179.490 E0.01227
G1 X135.460 Y179.811 E0.01227
G1 X135.183 Y180.087 E0.01227
G1 X134.876 Y180.303 E0.01179
G1 X134.509 Y180.477 E0.01272
G1 X134.131 Y180.578 E0.01229
G1 X133.741 Y180.612 E0.01227
G1 X133.351 Y180.578 E0.01227
G1 X132.973 Y180.477 E0.01227
G1 X132.619 Y180.312 E0.01227
G1 X132.298 Y180.087 E0.01227
G1 X132.022 Y179.811 E0.01227
G1 X131.797 Y179.490 E0.01227
G1 X131.632 Y179.136 E0.01227
G1 X131.531 Y178.758 E0.01227
G1 X131.496 Y178.368 E0.01227
G1 X131.531 Y177.978 E0.01227
G1 X131.632 Y177.601 E0.01227
G1 X131.797 Y177.246 E0.01227
G1 X132.022 Y176.925 E0.01227
G1 X132.298 Y176.649 E0.01227
G1 X132.619 Y176.424 E0.01227
G1 X132.973 Y176.259 E0.01227
G1 X133.351 Y176.158 E0.01227
G1 X133.726 Y176.125 E0.01179
G1 X134.130 Y176.158 E0.01271
G1 X134.508 Y176.259 E0.01229
G1 X134.863 Y176.424 E0.01227
G1 X135.183 Y176.649 E0.01227
G1 X135.460 Y176.925 E0.01227
G1 X135.676 Y177.233 E0.01179
G1 X135.850 Y177.600 E0.01272
G1 X135.951 Y177.978 E0.01229
G1 X135.978 Y178.281 E0.00954
G1 X136.331 Y178.538 F10800.000
G1 E-0.80000 F2100.00000
G1 Z0.800 F10800.000
G1 X140.306 Y158.143
G1 Z0.200
G1 E0.80000 F2100.00000
G1 F1200
G1 X140.306 Y133.313 E0.77850
G1 X163.703 Y133.313 E0.73358
G1 X163.703 Y158.143 E0.77850
G1 X140.366 Y158.143 E0.73170
G1 X140.683 Y157.766 F10800.000
G1 F1200
G1 X140.683 Y133.691 E0.75485
G1 X163.326 Y133.691 E0.70994
G1 X163.326 Y157.766 E0.75485
G1 X140.743 Y157.766 E0.70806
M73 P0 R196
G1 X140.298 Y157.873 F10800.000
G1 E-0.80000 F2100.00000
G1 Z0.800 F10800.000
G1 X143.526 Y131.527
G1 Z0.200
G1 E0.80000 F2100.00000
G1 F1200
G1 X142.999 Y131.386 E0.01708
G1 X142.506 Y131.156 E0.01708
G1 X142.060 Y130.844 E0.01708
G1 X141.675 Y130.459 E0.01708
G1 X141.362 Y130.013 E0.01708
G1 X141.132 Y129.519 E0.01708
G1 X140.991 Y128.993 E0.01708
G1 X140.944 Y128.451 E0.01708
G1 X140.991 Y127.908 E0.01708
G1 X141.132 Y127.382 E0.01708
G1 X141.362 Y126.888 E0.01708
G1 X141.675 Y126.442 E0.01708
G1 X142.060 Y126.057 E0.01708
G1 X142.506 Y125.745 E0.01708
G1 X142.999 Y125.515 E0.01708
G1 X143.526 Y125.374 E0.01708
G1 X144.048 Y125.328 E0.01644
G1 X144.609 Y125.373 E0.01764
G1 X145.137 Y125.515 E0.01714
G1 X145.630 Y125.745 E0.01708
G1 X146.076 Y126.057 E0.01708
G1 X146.461 Y126.442 E0.01708
G1 X146.774 Y126.888 E0.01708
G1 X147.004 Y127.382 E0.01708
G1 X147.145 Y127.908 E0.01708
G1 X147.192 Y128.451 E0.01708
G1 X147.145 Y128.993 E0.01708
G1 X147.004 Y129.519 E0.01708
G1 X146.774 Y130.013 E0.01708
G1 X146.461 Y130.459 E0.01708
G1 X146.076 Y130.844 E0.01708
G1 X145.647 Y131.145 E0.01644
G1 X145.139 Y131.386 E0.01764
G1 X144.611 Y131.527 E0.01714
G1 X144.068 Y131.575 E0.01708
G1 X143.585 Y131.533 E0.01519
G1 X143.618 Y131.157 F10800.000
G1 F1200
G1 X143.129 Y131.031 E0.01584
G1 X142.695 Y130.828 E0.01501
G1 X142.303 Y130.554 E0.01501
G1 X141.965 Y130.215 E0.01501
G1 X141.690 Y129.823 E0.01501
G1 X141.488 Y129.390 E0.01501
G1 X141.364 Y128.927 E0.01501
G1 X141.322 Y128.451 E0.01501
G1 X141.364 Y127.974 E0.01501
G1 X141.488 Y127.511 E0.01501
G1 X141.690 Y127.078 E0.01501
G1 X141.965 Y126.686 E0.01501
G1 X142.303 Y126.347 E0.01501
G1 X142.695 Y126.073 E0.01501
G1 X143.129 Y125.870 E0.01501
G1 X143.591 Y125.746 E0.01501
G1 X144.049 Y125.706 E0.01442
G1 X144.544 Y125.746 E0.01557
G1 X145.007 Y125.870 E0.01503
G1 X145.441 Y126.073 E0.01501
G1 X145.833 Y126.347 E0.01501
G1 X146.171 Y126.686 E0.01501
G1 X146.446 Y127.078 E0.01501
G1 X146.648 Y127.511 E0.01501
G1 X146.772 Y127.974 E0.01501
G1 X146.814 Y128.451 E0.01501
G1 X146.772 Y128.927 E0.01501
G1 X146.648 Y129.390 E0.01501
G1 X146.446 Y129.823 E0.01501
G1 X146.171 Y130.215 E0.01501
G1 X145.833 Y130.554 E0.01501
G1 X145.456 Y130.818 E0.01442
G1 X145.008 Y131.031 E0.01557
G1 X144.545 Y131.155 E0.01503
G1 X144.068 Y131.196 E0.01501
G1 X143.678 Y131.162 E0.01228
G1 X143.363 Y131.465 F10800.000
G1 E-0.80000 F2100.00000
G1 Z0.800 F10800.000
G1 X157.118 Y128.993
G1 Z0.200
G1 E0.80000 F2100.00000
G1 F1200
G1 X157.071 Y128.451 E0.01708
G1 X157.118 Y127.908 E0.01708
G1 X157.259 Y127.382 E0.01708
G1 X157.489 Y126.888 E0.01708
G1 X157.802 Y126.442 E0.01708
G1 X158.187 Y126.057 E0.01708
G1 X158.633 Y125.745 E0.01708
G1 X159.127 Y125.515 E0.01708
G1 X159.653 Y125.374 E0.01708
G1 X160.175 Y125.328 E0.01644
G1 X160.736 Y125.373 E0.01763
G1 X161.264 Y125.515 E0.01714
G1 X161.757 Y125.745 E0.01708
G1 X162.203 Y126.057 E0.01708
G1 X162.588 Y126.442 E0.01708
G1 X162.901 Y126.888 E0.01708
G1 X163.131 Y127.382 E0.01708
G1 X163.272 Y127.908 E0.01708
G1 X163.319 Y128.451 E0.01708
G1 X163.272 Y128.993 E0.01708
G1 X163.131 Y129.519 E0.01708
G1 X162.901 Y130.013 E0.01708
G1 X162.588 Y130.459 E0.01708
G1 X162.203 Y130.844 E0.01708
G1 X161.774 Y131.145 E0.01644
G1 X161.266 Y131.386 E0.01764
G1 X160.738 Y131.527 E0.01714
G1 X160.195 Y131.575 E0.01708
G1 X159.653 Y131.527 E0.01708
G1 X159.127 Y131.386 E0.01708
G1 X158.633 Y131.156 E0.01708
G1 X158.187 Y130.844 E0.01708
G1 X157.802 Y130.459 E0.01708
G1 X157.489 Y130.013 E0.01708
G1 X157.259 Y129.519 E0.01708
G1 X157.134 Y129.051 E0.01519
G1 X157.498 Y128.953 F10800.000
G1 F1200
G1 X157.449 Y128.451 E0.01584
G1 X157.491 Y127.974 E0.01501
G1 X157.615 Y127.511 E0.01501
G1 X157.817 Y127.078 E0.01501
G1 X158.092 Y126.686 E0.01501
G1 X158.430 Y126.347 E0.01501
G1 X158.822 Y126.073 E0.01501
G1 X159.256 Y125.870 E0.01501
G1 X159.718 Y125.746 E0.01501
G1 X160.176 Y125.706 E0.01442
G1 X160.671 Y125.746 E0.01557
G1 X161.134 Y125.870 E0.01503
G1 X161.568 Y126.073 E0.01501
G1 X161.960 Y126.347 E0.01501
G1 X162.298 Y126.686 E0.01501
G1 X162.573 Y127.078 E0.01501
G1 X162.775 Y127.511 E0.01501
G1 X162.899 Y127.974 E0.01501
G1 X162.941 Y128.451 E0.01501
G1 X162.899 Y128.927 E0.01501
G1 X162.775 Y129.390 E0.01501
G1 X162.573 Y129.823 E0.01501
G1 X162.298 Y130.215 E0.01501
G1 X161.960 Y130.554 E0.01501
G1 X161.583 Y130.818 E0.01442
G1 X161.135 Y131.031 E0.01557
G1 X160.672 Y131.155 E0.01503
G1 X160.195 Y131.196 E0.01501
G1 X159.718 Y131.155 E0.01501
G1 X159.256 Y131.031 E0.01501
G1 X158.822 Y130.828 E0.01501
G1 X158.430 Y130.554 E0.01501
G1 X158.092 Y130.215 E0.01501
G1 X157.817 Y129.823 E0.01501
G1 X157.615 Y129.390 E0.01501
G1 X157.514 Y129.011 E0.01228
G1 X157.121 Y128.819 F10800.000
G1 E-0.80000 F2100.00000
G1 Z0.800 F10800.000
G1 X169.224 Y115.574
G1 Z0.200
G1 E0.80000 F2100.00000
G1 F1200
G1 X168.901 Y115.251 E0.01433
G1 X168.639 Y114.877 E0.01433
G1 X168.446 Y114.463 E0.01433
G1 X168.328 Y114.021 E0.01433
G1 X168.288 Y113.566 E0.01433
G1 X168.328 Y113.111 E0.01433
G1 X168.446 Y112.670 E0.01433
G1 X168.639 Y112.256 E0.01433
G1 X168.901 Y111.881 E0.01433
G1 X169.224 Y111.558 E0.01433
G1 X169.599 Y111.296 E0.01433
G1 X170.013 Y111.103 E0.01433
G1 X170.454 Y110.985 E0.01433
G1 X170.893 Y110.946 E0.01381
G1 X171.362 Y110.984 E0.01477
G1 X171.806 Y111.103 E0.01439
G1 X172.220 Y111.296 E0.01433
G1 X172.594 Y111.558 E0.01433
G1 X172.917 Y111.881 E0.01433
G1 X173.170 Y112.242 E0.01381
G1 X173.372 Y112.668 E0.01478
G1 X173.491 Y113.111 E0.01439
G1 X173.531 Y113.566 E0.01433
G1 X173.491 Y114.021 E0.01433
G1 X173.372 Y114.463 E0.01433
G1 X173.179 Y114.877 E0.01433
G1 X172.917 Y115.251 E0.01433
G1 X172.594 Y115.574 E0.01433
G1 X172.220 Y115.836 E0.01433
G1 X171.806 Y116.029 E0.01433
G1 X171.364 Y116.148 E0.01433
G1 X170.909 Y116.188 E0.01433
G1 X170.454 Y116.148 E0.01433
G1 X170.013 Y116.029 E0.01433
G1 X169.599 Y115.836 E0.01433
G1 X169.273 Y115.609 E0.01245
G1 X169.490 Y115.300 F10800.000
G1 F1200
G1 X169.191 Y115.008 E0.01309
G1 X168.967 Y114.688 E0.01226
G1 X168.802 Y114.333 E0.01226
G1 X168.701 Y113.956 E0.01226
G1 X168.666 Y113.566 E0.01226
G1 X168.701 Y113.177 E0.01226
G1 X168.802 Y112.799 E0.01226
G1 X168.967 Y112.445 E0.01226
G1 X169.191 Y112.125 E0.01226
G1 X169.468 Y111.848 E0.01226
G1 X169.788 Y111.624 E0.01226
G1 X170.142 Y111.459 E0.01226
G1 X170.520 Y111.358 E0.01226
G1 X170.894 Y111.325 E0.01178
G1 X171.298 Y111.357 E0.01271
G1 X171.676 Y111.459 E0.01228
G1 X172.031 Y111.624 E0.01226
G1 X172.351 Y111.848 E0.01226
G1 X172.627 Y112.125 E0.01226
G1 X172.843 Y112.432 E0.01178
G1 X173.017 Y112.798 E0.01271
G1 X173.118 Y113.177 E0.01228
