; generated by PrusaSlicer 2.1.1+win64 on 2020-05-22 at 22:04:45 UTC

; 

; external perimeters extrusion width = 0.60mm
; perimeters extrusion width = 0.43mm
; infill extrusion width = 0.45mm
; solid infill extrusion width = 0.70mm
; top infill extrusion width = 0.43mm
; support material extrusion width = 0.37mm
; first layer extrusion width = 0.42mm

; external perimeters extrusion width = 0.60mm
; perimeters extrusion width = 0.43mm
; infill extrusion width = 0.45mm
; solid infill extrusion width = 0.70mm
; top infill extrusion width = 0.43mm
; support material extrusion width = 0.37mm
; first layer extrusion width = 0.42mm

; external perimeters extrusion width = 0.45mm
; perimeters extrusion width = 0.45mm
; infill extrusion width = 0.45mm
; solid infill extrusion width = 0.45mm
; top infill extrusion width = 0.40mm
; support material extrusion width = 0.37mm
; first layer extrusion width = 0.42mm

M73 P0 R107
M201 X9000 Y9000 Z500 E10000 ; sets maximum accelerations, mm/sec^2
M203 X500 Y500 Z12 E120 ; sets maximum feedrates, mm/sec
M204 P2000 R1500 T2000 ; sets acceleration (P, T) and retract acceleration (R), mm/sec^2
M205 X10.00 Y10.00 Z0.20 E2.50 ; sets the jerk limits, mm/sec
M205 S0 T0 ; sets the minimum extruding and travel feed rate, mm/sec
M107
M862.3 P "MK2S" ; printer model check
M862.1 P0.4 ; nozzle diameter check
M115 U3.2.3 ; tell printer latest fw version
G90 ; use absolute coordinates
M83 ; extruder relative mode
M204 S2000 T1500 ; MK2 firmware only supports the old M204 format
M104 S215 ; set extruder temp
M140 S60 ; set bed temp
M190 S60 ; wait for bed temp
M109 S215 ; wait for extruder temp
G28 W ; home all without mesh bed level
G80 ; mesh bed leveling
G1 Y-3.0 F1000.0 ; go outside print area
G92 E0.0
G1 X60.0 E9.0  F1000.0 ; intro line
M73 P0 R107
G1 X100.0 E12.5 F1000.0 ; intro line
G92 E0.0
G21 ; set units to millimeters
G90 ; use absolute coordinates
M83 ; use relative distances for extrusion
M900 K30 ; Filament gcode
;BEFORE_LAYER_CHANGE
G92 E0.0
;0.2


G1 E-0.80000 F2100.00000
G1 Z0.600 F10800.000
;AFTER_LAYER_CHANGE
;0.2
G1 X71.971 Y69.343
G1 Z0.200
G1 E0.80000 F2100.00000
M204 S1000
G1 F1200
G1 X72.738 Y68.080 E0.04631
G1 X73.485 Y67.207 E0.03604
G1 X74.387 Y66.437 E0.03719
G1 X75.596 Y65.707 E0.04427
G1 X76.809 Y65.242 E0.04074
G1 X78.111 Y64.981 E0.04165
G1 X79.279 Y64.943 E0.03662
G1 X170.477 Y64.784 E2.85948
G1 X171.785 Y64.822 E0.04102
G1 X172.884 Y65.022 E0.03503
G1 X173.944 Y65.390 E0.03517
G1 X175.210 Y66.065 E0.04498
G1 X176.161 Y66.812 E0.03792
G1 X177.114 Y67.856 E0.04431
G1 X177.820 Y68.978 E0.04158
G1 X178.324 Y70.200 E0.04146
G1 X178.624 Y71.596 E0.04476
G1 X178.684 Y72.680 E0.03403
G1 X178.784 Y137.204 E2.02312
G1 X178.723 Y138.379 E0.03687
G1 X178.478 Y139.516 E0.03646
G1 X177.977 Y140.810 E0.04353
G1 X177.193 Y142.078 E0.04674
G1 X176.167 Y143.174 E0.04708
G1 X175.207 Y143.905 E0.03783
G1 X174.009 Y144.533 E0.04241
G1 X172.741 Y144.938 E0.04173
G1 X171.354 Y145.124 E0.04389
G1 X78.915 Y145.202 E2.89836
G1 X77.493 Y145.020 E0.04495
G1 X76.078 Y144.551 E0.04671
G1 X75.049 Y144.011 E0.03645
G1 X74.114 Y143.314 E0.03656
G1 X73.084 Y142.242 E0.04660
G1 X72.349 Y141.121 E0.04205
G1 X71.822 Y139.907 E0.04148
G1 X71.508 Y138.611 E0.04182
G1 X71.420 Y137.371 E0.03897
G1 X71.215 Y73.009 E2.01802
G1 X71.250 Y71.864 E0.03594
G1 X71.464 Y70.734 E0.03605
G1 X71.950 Y69.399 E0.04455
G1 E-0.80000 F2100.00000
G1 Z0.800 F10800.000
G1 X98.290 Y93.283
G1 Z0.200
G1 E0.80000 F2100.00000
G1 F1200
G1 X98.290 Y116.131 E0.71637
G1 X99.044 Y116.131 E0.02365
G1 X99.044 Y93.453 E0.71105
G1 X99.799 Y93.453 E0.02365
G1 X99.799 Y116.131 E0.71105
G1 X100.553 Y116.131 E0.02365
G1 X100.553 Y93.453 E0.71105
G1 X101.307 Y93.453 E0.02365
G1 X101.307 Y116.131 E0.71105
G1 X102.061 Y116.131 E0.02365
G1 X102.061 Y93.453 E0.71105
G1 X102.815 Y93.453 E0.02365
G1 X102.815 Y116.131 E0.71105
G1 X103.569 Y116.131 E0.02365
G1 X103.569 Y93.453 E0.71105
G1 X104.324 Y93.453 E0.02365
G1 X104.324 Y116.131 E0.71105
G1 X105.078 Y116.131 E0.02365
G1 X105.078 Y93.453 E0.71105
G1 X105.832 Y93.453 E0.02365
G1 X105.832 Y116.131 E0.71105
G1 X106.586 Y116.131 E0.02365
G1 X106.586 Y93.453 E0.71105
G1 X107.340 Y93.453 E0.02365
G1 X107.340 Y116.301 E0.71637
G1 E-0.80000 F2100.00000
G1 Z0.800 F10800.000
G1 X115.571 Y134.979
G1 Z0.200
G1 E0.80000 F2100.00000
G1 F1200
G1 X116.012 Y134.861 E0.01433
G1 X116.451 Y134.823 E0.01381
G1 X116.921 Y134.861 E0.01478
G1 X117.364 Y134.979 E0.01439
G1 X117.778 Y135.172 E0.01433
G1 X118.152 Y135.434 E0.01433
G1 X118.475 Y135.758 E0.01433
G1 X118.737 Y136.132 E0.01433
G1 X118.930 Y136.546 E0.01433
G1 X119.049 Y136.987 E0.01433
G1 X119.089 Y137.442 E0.01433
G1 X119.049 Y137.898 E0.01433
G1 X118.930 Y138.339 E0.01433
G1 X118.737 Y138.753 E0.01433
G1 X118.475 Y139.127 E0.01433
G1 X118.152 Y139.451 E0.01433
G1 X117.778 Y139.713 E0.01433
G1 X117.364 Y139.906 E0.01433
G1 X116.922 Y140.024 E0.01433
G1 X116.467 Y140.064 E0.01433
G1 X116.012 Y140.024 E0.01433
G1 X115.571 Y139.906 E0.01433
G1 X115.172 Y139.720 E0.01381
G1 X114.784 Y139.452 E0.01478
G1 X114.459 Y139.127 E0.01439
G1 X114.197 Y138.753 E0.01433
G1 X114.004 Y138.339 E0.01433
G1 X113.886 Y137.898 E0.01433
G1 X113.846 Y137.442 E0.01433
G1 X113.886 Y136.987 E0.01433
G1 X114.004 Y136.546 E0.01433
G1 X114.197 Y136.132 E0.01433
G1 X114.459 Y135.758 E0.01433
G1 X114.782 Y135.434 E0.01433
G1 X115.157 Y135.172 E0.01433
G1 X115.516 Y135.005 E0.01245
G1 X115.676 Y135.346 F10800.000
G1 F1200
G1 X116.078 Y135.234 E0.01309
G1 X116.452 Y135.201 E0.01178
G1 X116.856 Y135.234 E0.01271
G1 X117.234 Y135.335 E0.01228
G1 X117.589 Y135.500 E0.01226
G1 X117.909 Y135.724 E0.01226
G1 X118.185 Y136.001 E0.01226
G1 X118.410 Y136.321 E0.01226
G1 X118.575 Y136.675 E0.01226
G1 X118.676 Y137.053 E0.01226
G1 X118.710 Y137.442 E0.01226
G1 X118.676 Y137.832 E0.01226
G1 X118.575 Y138.210 E0.01226
G1 X118.410 Y138.564 E0.01226
G1 X118.185 Y138.884 E0.01226
G1 X117.909 Y139.161 E0.01226
G1 X117.589 Y139.385 E0.01226
G1 X117.234 Y139.550 E0.01226
G1 X116.857 Y139.651 E0.01226
G1 X116.467 Y139.685 E0.01226
G1 X116.078 Y139.651 E0.01226
G1 X115.700 Y139.550 E0.01226
G1 X115.360 Y139.391 E0.01178
G1 X115.026 Y139.161 E0.01271
G1 X114.749 Y138.884 E0.01228
G1 X114.525 Y138.564 E0.01226
G1 X114.360 Y138.210 E0.01226
G1 X114.259 Y137.832 E0.01226
G1 X114.224 Y137.442 E0.01226
G1 X114.259 Y137.053 E0.01226
G1 X114.360 Y136.675 E0.01226
G1 X114.525 Y136.321 E0.01226
G1 X114.749 Y136.001 E0.01226
G1 X115.026 Y135.724 E0.01226
G1 X115.346 Y135.500 E0.01226
G1 X115.621 Y135.372 E0.00953
G1 X115.742 Y134.952 F10800.000
G1 E-0.80000 F2100.00000
G1 Z0.800 F10800.000
G1 X81.817 Y137.432
G1 Z0.200
G1 E0.80000 F2100.00000
G1 F1200
G1 X81.777 Y137.888 E0.01433
G1 X81.659 Y138.329 E0.01434
G1 X81.466 Y138.744 E0.01433
G1 X81.204 Y139.118 E0.01434
G1 X80.880 Y139.441 E0.01433
G1 X80.519 Y139.694 E0.01382
G1 X80.093 Y139.896 E0.01478
G1 X79.650 Y140.015 E0.01440
G1 X79.194 Y140.055 E0.01433
G1 X78.739 Y140.015 E0.01434
G1 X78.297 Y139.897 E0.01434
G1 X77.883 Y139.704 E0.01434
G1 X77.509 Y139.441 E0.01433
G1 X77.185 Y139.118 E0.01433
G1 X76.923 Y138.744 E0.01434
G1 X76.730 Y138.329 E0.01433
G1 X76.611 Y137.888 E0.01434
G1 X76.572 Y137.432 E0.01433
G1 X76.611 Y136.977 E0.01434
G1 X76.730 Y136.535 E0.01434
G1 X76.923 Y136.121 E0.01434
G1 X77.185 Y135.746 E0.01433
G1 X77.508 Y135.423 E0.01433
G1 X77.883 Y135.161 E0.01434
G1 X78.297 Y134.967 E0.01434
G1 X78.739 Y134.849 E0.01434
G1 X79.178 Y134.811 E0.01382
G1 X79.648 Y134.849 E0.01478
G1 X80.092 Y134.967 E0.01440
G1 X80.506 Y135.161 E0.01434
G1 X80.880 Y135.423 E0.01434
G1 X81.204 Y135.746 E0.01433
G1 X81.456 Y136.107 E0.01382
G1 X81.659 Y136.533 E0.01478
G1 X81.777 Y136.977 E0.01440
G1 X81.812 Y137.372 E0.01245
G1 X81.436 Y137.405 F10800.000
G1 F1200
G1 X81.405 Y137.822 E0.01310
G1 X81.303 Y138.200 E0.01227
G1 X81.138 Y138.554 E0.01227
G1 X80.914 Y138.875 E0.01227
G1 X80.637 Y139.151 E0.01227
G1 X80.329 Y139.367 E0.01179
G1 X79.963 Y139.541 E0.01272
G1 X79.584 Y139.642 E0.01229
G1 X79.194 Y139.676 E0.01227
G1 X78.805 Y139.642 E0.01227
G1 X78.427 Y139.541 E0.01227
G1 X78.072 Y139.376 E0.01227
G1 X77.752 Y139.151 E0.01227
G1 X77.475 Y138.875 E0.01227
G1 X77.251 Y138.554 E0.01227
G1 X77.085 Y138.200 E0.01227
G1 X76.984 Y137.822 E0.01227
G1 X76.950 Y137.432 E0.01227
G1 X76.984 Y137.042 E0.01227
G1 X77.085 Y136.665 E0.01227
G1 X77.251 Y136.310 E0.01227
G1 X77.475 Y135.989 E0.01227
G1 X77.752 Y135.713 E0.01227
G1 X78.072 Y135.488 E0.01227
G1 X78.427 Y135.323 E0.01227
G1 X78.805 Y135.222 E0.01227
G1 X79.179 Y135.189 E0.01179
G1 X79.583 Y135.222 E0.01271
G1 X79.962 Y135.323 E0.01229
G1 X80.317 Y135.488 E0.01227
G1 X80.637 Y135.713 E0.01227
G1 X80.914 Y135.989 E0.01227
G1 X81.129 Y136.297 E0.01179
G1 X81.303 Y136.664 E0.01272
G1 X81.405 Y137.042 E0.01229
G1 X81.431 Y137.345 E0.00954
G1 X81.785 Y137.602 F10800.000
G1 E-0.80000 F2100.00000
G1 Z0.800 F10800.000
G1 X85.760 Y117.207
G1 Z0.200
G1 E0.80000 F2100.00000
G1 F1200
G1 X85.760 Y92.377 E0.77850
G1 X109.156 Y92.377 E0.73358
G1 X109.156 Y117.207 E0.77850
G1 X85.820 Y117.207 E0.73170
G1 X86.137 Y116.830 F10800.000
G1 F1200
G1 X86.137 Y92.755 E0.75485
G1 X108.779 Y92.755 E0.70994
G1 X108.779 Y116.830 E0.75485
G1 X86.197 Y116.830 E0.70806
G1 X85.752 Y116.937 F10800.000
G1 E-0.80000 F2100.00000
G1 Z0.800 F10800.000
G1 X88.979 Y90.591
G1 Z0.200
G1 E0.80000 F2100.00000
G1 F1200
G1 X88.453 Y90.450 E0.01708
G1 X87.960 Y90.220 E0.01708
G1 X87.513 Y89.908 E0.01708
G1 X87.128 Y89.523 E0.01708
G1 X86.816 Y89.077 E0.01708
G1 X86.586 Y88.583 E0.01708
G1 X86.445 Y88.057 E0.01708
G1 X86.397 Y87.515 E0.01708
G1 X86.445 Y86.972 E0.01708
G1 X86.586 Y86.446 E0.01708
G1 X86.816 Y85.952 E0.01708
G1 X87.128 Y85.506 E0.01708
G1 X87.513 Y85.121 E0.01708
G1 X87.960 Y84.809 E0.01708
G1 X88.453 Y84.579 E0.01708
G1 X88.979 Y84.438 E0.01708
G1 X89.502 Y84.392 E0.01644
G1 X90.062 Y84.437 E0.01764
G1 X90.590 Y84.579 E0.01714
G1 X91.084 Y84.809 E0.01708
G1 X91.530 Y85.121 E0.01708
G1 X91.915 Y85.506 E0.01708
G1 X92.227 Y85.952 E0.01708
G1 X92.458 Y86.446 E0.01708
G1 X92.598 Y86.972 E0.01708
G1 X92.646 Y87.515 E0.01708
G1 X92.598 Y88.057 E0.01708
G1 X92.458 Y88.583 E0.01708
G1 X92.227 Y89.077 E0.01708
G1 X91.915 Y89.523 E0.01708
G1 X91.530 Y89.908 E0.01708
G1 X91.100 Y90.209 E0.01644
G1 X90.592 Y90.450 E0.01764
G1 X90.064 Y90.591 E0.01714
G1 X89.522 Y90.639 E0.01708
G1 X89.039 Y90.597 E0.01519
G1 X89.072 Y90.221 F10800.000
G1 F1200
G1 X88.583 Y90.095 E0.01584
G1 X88.149 Y89.892 E0.01501
G1 X87.757 Y89.618 E0.01501
G1 X87.418 Y89.279 E0.01501
G1 X87.144 Y88.887 E0.01501
G1 X86.941 Y88.454 E0.01501
G1 X86.818 Y87.991 E0.01501
G1 X86.776 Y87.515 E0.01501
G1 X86.818 Y87.038 E0.01501
G1 X86.941 Y86.575 E0.01501
G1 X87.144 Y86.142 E0.01501
G1 X87.418 Y85.750 E0.01501
G1 X87.757 Y85.411 E0.01501
G1 X88.149 Y85.137 E0.01501
G1 X88.583 Y84.934 E0.01501
G1 X89.045 Y84.810 E0.01501
G1 X89.503 Y84.770 E0.01442
G1 X89.998 Y84.810 E0.01557
G1 X90.461 Y84.934 E0.01503
G1 X90.895 Y85.137 E0.01501
G1 X91.287 Y85.411 E0.01501
G1 X91.625 Y85.750 E0.01501
G1 X91.900 Y86.142 E0.01501
G1 X92.102 Y86.575 E0.01501
G1 X92.226 Y87.038 E0.01501
G1 X92.267 Y87.515 E0.01501
G1 X92.226 Y87.991 E0.01501
G1 X92.102 Y88.454 E0.01501
G1 X91.900 Y88.887 E0.01501
G1 X91.625 Y89.279 E0.01501
G1 X91.287 Y89.618 E0.01501
G1 X90.910 Y89.882 E0.01442
G1 X90.461 Y90.095 E0.01557
G1 X89.998 Y90.219 E0.01503
G1 X89.522 Y90.260 E0.01501
G1 X89.132 Y90.226 E0.01228
G1 X88.817 Y90.529 F10800.000
G1 E-0.80000 F2100.00000
G1 Z0.800 F10800.000
G1 X102.572 Y88.057
G1 Z0.200
G1 E0.80000 F2100.00000
G1 F1200
G1 X102.524 Y87.515 E0.01708
G1 X102.572 Y86.972 E0.01708
G1 X102.713 Y86.446 E0.01708
G1 X102.943 Y85.952 E0.01708
G1 X103.255 Y85.506 E0.01708
G1 X103.640 Y85.121 E0.01708
G1 X104.087 Y84.809 E0.01708
G1 X104.580 Y84.579 E0.01708
G1 X105.106 Y84.438 E0.01708
G1 X105.629 Y84.392 E0.01644
G1 X106.189 Y84.437 E0.01763
G1 X106.717 Y84.579 E0.01714
G1 X107.211 Y84.809 E0.01708
G1 X107.657 Y85.121 E0.01708
G1 X108.042 Y85.506 E0.01708
G1 X108.354 Y85.952 E0.01708
G1 X108.585 Y86.446 E0.01708
G1 X108.726 Y86.972 E0.01708
G1 X108.773 Y87.515 E0.01708
G1 X108.726 Y88.057 E0.01708
G1 X108.585 Y88.583 E0.01708
G1 X108.354 Y89.077 E0.01708
G1 X108.042 Y89.523 E0.01708
G1 X107.657 Y89.908 E0.01708
G1 X107.227 Y90.209 E0.01644
G1 X106.719 Y90.450 E0.01764
G1 X106.191 Y90.591 E0.01714
G1 X105.649 Y90.639 E0.01708
G1 X105.106 Y90.591 E0.01708
G1 X104.580 Y90.450 E0.01708
G1 X104.087 Y90.220 E0.01708
G1 X103.640 Y89.908 E0.01708
G1 X103.255 Y89.523 E0.01708
G1 X102.943 Y89.077 E0.01708
G1 X102.713 Y88.583 E0.01708
G1 X102.587 Y88.115 E0.01519
G1 X102.952 Y88.017 F10800.000
G1 F1200
G1 X102.903 Y87.515 E0.01584
G1 X102.945 Y87.038 E0.01501
G1 X103.069 Y86.575 E0.01501
G1 X103.271 Y86.142 E0.01501
G1 X103.545 Y85.750 E0.01501
G1 X103.884 Y85.411 E0.01501
G1 X104.276 Y85.137 E0.01501
G1 X104.710 Y84.934 E0.01501
G1 X105.172 Y84.810 E0.01501
G1 X105.630 Y84.770 E0.01442
G1 X106.125 Y84.810 E0.01557
G1 X106.588 Y84.934 E0.01503
G1 X107.022 Y85.137 E0.01501
G1 X107.414 Y85.411 E0.01501
G1 X107.752 Y85.750 E0.01501
G1 X108.027 Y86.142 E0.01501
G1 X108.229 Y86.575 E0.01501
G1 X108.353 Y87.038 E0.01501
G1 X108.394 Y87.515 E0.01501
G1 X108.353 Y87.991 E0.01501
G1 X108.229 Y88.454 E0.01501
G1 X108.027 Y88.887 E0.01501
G1 X107.752 Y89.279 E0.01501
G1 X107.414 Y89.618 E0.01501
G1 X107.037 Y89.882 E0.01442
G1 X106.589 Y90.095 E0.01557
G1 X106.125 Y90.219 E0.01503
G1 X105.649 Y90.260 E0.01501
G1 X105.172 Y90.219 E0.01501
G1 X104.710 Y90.095 E0.01501
G1 X104.276 Y89.892 E0.01501
G1 X103.884 Y89.618 E0.01501
G1 X103.545 Y89.279 E0.01501
G1 X103.271 Y88.887 E0.01501
G1 X103.069 Y88.454 E0.01501
G1 X102.967 Y88.075 E0.01228
G1 X102.575 Y87.883 F10800.000
G1 E-0.80000 F2100.00000
G1 Z0.800 F10800.000
G1 X114.678 Y74.638
G1 Z0.200
G1 E0.80000 F2100.00000
G1 F1200
G1 X114.355 Y74.315 E0.01433
G1 X114.093 Y73.941 E0.01433
G1 X113.900 Y73.527 E0.01433
G1 X113.781 Y73.085 E0.01433
G1 X113.742 Y72.630 E0.01433
G1 X113.781 Y72.175 E0.01433
G1 X113.900 Y71.734 E0.01433
G1 X114.093 Y71.320 E0.01433
G1 X114.355 Y70.945 E0.01433
G1 X114.678 Y70.622 E0.01433
G1 X115.052 Y70.360 E0.01433
G1 X115.466 Y70.167 E0.01433
G1 X115.908 Y70.049 E0.01433
G1 X116.346 Y70.010 E0.01381
G1 X116.816 Y70.048 E0.01477
G1 X117.259 Y70.167 E0.01439
G1 X117.674 Y70.360 E0.01433
G1 X118.048 Y70.622 E0.01433
G1 X118.371 Y70.945 E0.01433
G1 X118.624 Y71.306 E0.01381
G1 X118.826 Y71.732 E0.01478
G1 X118.944 Y72.175 E0.01439
G1 X118.984 Y72.630 E0.01433
G1 X118.944 Y73.085 E0.01433
G1 X118.826 Y73.527 E0.01433
G1 X118.633 Y73.941 E0.01433
G1 X118.371 Y74.315 E0.01433
G1 X118.048 Y74.638 E0.01433
G1 X117.674 Y74.900 E0.01433
G1 X117.259 Y75.093 E0.01433
G1 X116.818 Y75.212 E0.01433
G1 X116.363 Y75.252 E0.01433
G1 X115.908 Y75.212 E0.01433
G1 X115.466 Y75.093 E0.01433
G1 X115.052 Y74.900 E0.01433
G1 X114.727 Y74.673 E0.01245
G1 X114.943 Y74.364 F10800.000
G1 F1200
G1 X114.645 Y74.072 E0.01309
G1 X114.421 Y73.752 E0.01226
G1 X114.255 Y73.397 E0.01226
G1 X114.154 Y73.020 E0.01226
G1 X114.120 Y72.630 E0.01226
G1 X114.154 Y72.241 E0.01226
G1 X114.255 Y71.863 E0.01226
G1 X114.421 Y71.509 E0.01226
G1 X114.645 Y71.189 E0.01226
G1 X114.921 Y70.912 E0.01226
G1 X115.241 Y70.688 E0.01226
G1 X115.596 Y70.523 E0.01226
G1 X115.973 Y70.422 E0.01226
G1 X116.348 Y70.389 E0.01178
G1 X116.752 Y70.421 E0.01271
G1 X117.130 Y70.523 E0.01228
G1 X117.484 Y70.688 E0.01226
G1 X117.805 Y70.912 E0.01226
G1 X118.081 Y71.189 E0.01226
G1 X118.296 Y71.496 E0.01178
G1 X118.470 Y71.862 E0.01271
G1 X118.572 Y72.241 E0.01228
G1 X118.606 Y72.630 E0.01226
G1 X118.572 Y73.020 E0.01226
G1 X118.470 Y73.397 E0.01226
G1 X118.305 Y73.752 E0.01226
G1 X118.081 Y74.072 E0.01226
G1 X117.805 Y74.348 E0.01226
G1 X117.484 Y74.573 E0.01226
G1 X117.130 Y74.738 E0.01226
G1 X116.752 Y74.839 E0.01226
G1 X116.363 Y74.873 E0.01226
G1 X115.973 Y74.839 E0.01226
G1 X115.596 Y74.738 E0.01226
G1 X115.241 Y74.573 E0.01226
G1 X114.993 Y74.398 E0.00953
G1 X114.569 Y74.504 F10800.000
G1 E-0.80000 F2100.00000
