; generated by PrusaSlicer 2.1.1+win64 on 2020-05-25 at 17:52:00 UTC

; 

; external perimeters extrusion width = 0.60mm
; perimeters extrusion width = 0.43mm
; infill extrusion width = 0.45mm
; solid infill extrusion width = 0.70mm
; top infill extrusion width = 0.43mm
; support material extrusion width = 0.37mm
; first layer extrusion width = 0.42mm

M73 P0 R157
M201 X9000 Y9000 Z500 E10000 ; sets maximum accelerations, mm/sec^2
M203 X500 Y500 Z12 E120 ; sets maximum feedrates, mm/sec
M204 P2000 R1500 T2000 ; sets acceleration (P, T) and retract acceleration (R), mm/sec^2
M205 X10.00 Y10.00 Z0.20 E2.50 ; sets the jerk limits, mm/sec
M205 S0 T0 ; sets the minimum extruding and travel feed rate, mm/sec
M107
M862.3 P "MK2S" ; printer model check
M862.1 P0.4 ; nozzle diameter check
M115 U3.2.3 ; tell printer latest fw version
G90 ; use absolute coordinates
M83 ; extruder relative mode
M204 S2000 T1500 ; MK2 firmware only supports the old M204 format
M104 S215 ; set extruder temp
M140 S60 ; set bed temp
M190 S60 ; wait for bed temp
M109 S215 ; wait for extruder temp
G28 W ; home all without mesh bed level
G80 ; mesh bed leveling
G1 Y-3.0 F1000.0 ; go outside print area
G92 E0.0
G1 X60.0 E9.0  F1000.0 ; intro line
M73 P0 R157
G1 X100.0 E12.5 F1000.0 ; intro line
G92 E0.0
G21 ; set units to millimeters
G90 ; use absolute coordinates
M83 ; use relative distances for extrusion
M900 K30 ; Filament gcode
;BEFORE_LAYER_CHANGE
G92 E0.0
;0.2


G1 E-0.80000 F2100.00000
G1 Z0.600 F10800.000
;AFTER_LAYER_CHANGE
;0.2
G1 X101.056 Y57.986
G1 Z0.200
G1 E0.80000 F2100.00000
M204 S1000
G1 F1200
G1 X101.775 Y57.079 E0.03631
G1 X102.991 Y56.002 E0.05090
G1 X103.972 Y55.401 E0.03608
G1 X105.161 Y54.912 E0.04032
G1 X106.404 Y54.628 E0.03998
G1 X107.651 Y54.550 E0.03918
G1 X154.172 Y58.908 E1.46500
G1 X154.947 Y59.068 E0.02481
G1 X155.891 Y59.444 E0.03186
G1 X156.996 Y60.210 E0.04217
G1 X164.546 Y67.322 E0.32522
G1 X165.078 Y67.908 E0.02482
G1 X165.424 Y68.421 E0.01941
G1 X165.914 Y69.479 E0.03656
G1 X166.104 Y70.262 E0.02524
G1 X166.171 Y71.093 E0.02615
G1 X166.171 Y93.181 E0.69258
G1 X166.103 Y93.998 E0.02568
G1 X165.914 Y94.771 E0.02495
G1 X149.906 Y141.963 E1.56250
G1 X149.624 Y142.554 E0.02051
G1 X143.816 Y152.306 E0.35590
G1 X142.975 Y153.267 E0.04005
G1 X141.946 Y154.107 E0.04165
G1 X140.785 Y154.761 E0.04176
G1 X139.618 Y155.181 E0.03890
G1 X138.032 Y155.443 E0.05041
G1 X136.839 Y155.428 E0.03741
G1 X135.699 Y155.230 E0.03627
G1 X96.944 Y147.680 E1.23797
G1 X96.456 Y147.520 E0.01612
G1 X96.015 Y147.248 E0.01623
G1 X95.582 Y146.786 E0.01987
G1 X95.298 Y146.219 E0.01987
G1 X84.119 Y111.121 E1.15494
G1 X83.876 Y109.523 E0.05069
G1 X83.904 Y108.365 E0.03631
G1 X84.158 Y107.041 E0.04226
G1 X100.406 Y59.159 E1.58541
G1 X101.026 Y58.039 E0.04015
G1 E-0.80000 F2100.00000
G1 Z0.800 F10800.000
G1 X113.243 Y88.033
G1 Z0.200
G1 E0.80000 F2100.00000
G1 F1200
G1 X113.243 Y98.710 E0.33477
G1 X113.997 Y98.710 E0.02365
G1 X113.997 Y88.203 E0.32945
G1 X114.751 Y88.203 E0.02365
G1 X114.751 Y98.710 E0.32945
G1 X115.505 Y98.710 E0.02365
G1 X115.505 Y81.318 E0.54532
G1 X116.259 Y81.318 E0.02365
G1 X116.259 Y98.710 E0.54532
G1 X117.013 Y98.710 E0.02365
G1 X117.013 Y81.863 E0.52825
G1 X117.768 Y82.342 E0.02802
G1 X117.768 Y98.710 E0.51322
G1 X118.522 Y98.710 E0.02365
G1 X118.522 Y82.800 E0.49885
G1 X119.276 Y83.258 E0.02767
G1 X119.276 Y98.710 E0.48448
G1 X120.030 Y98.710 E0.02365
G1 X120.030 Y83.717 E0.47012
G1 X120.648 Y84.092 E0.02265
G1 X120.784 Y84.194 E0.00535
G1 X120.784 Y98.710 E0.45515
G1 X121.538 Y98.710 E0.02365
G1 X121.538 Y84.762 E0.43735
G1 X122.293 Y85.330 E0.02960
G1 X122.293 Y98.710 E0.41954
G1 X123.047 Y98.710 E0.02365
G1 X123.047 Y85.898 E0.40173
G1 X123.606 Y86.320 E0.02198
G1 X123.801 Y86.499 E0.00829
G1 X123.801 Y98.710 E0.38288
G1 X124.555 Y98.710 E0.02365
G1 X124.555 Y87.195 E0.36107
G1 X125.309 Y87.890 E0.03217
G1 X125.309 Y98.710 E0.33926
G1 X126.063 Y98.710 E0.02365
G1 X126.063 Y88.586 E0.31745
G1 X126.329 Y88.831 E0.01133
G1 X126.818 Y89.380 E0.02305
G1 X126.818 Y98.710 E0.29255
G1 X127.572 Y98.710 E0.02365
G1 X127.572 Y90.229 E0.26593
G1 X128.326 Y91.078 E0.03561
G1 X128.326 Y98.710 E0.23931
G1 X129.080 Y98.710 E0.02365
G1 X129.080 Y92.001 E0.21036
G1 X129.834 Y93.043 E0.04032
G1 X129.834 Y98.880 E0.18302
G1 E-0.80000 F2100.00000
G1 Z0.800 F10800.000
G1 X150.298 Y100.852
G1 Z0.200
G1 E0.80000 F2100.00000
G1 F1200
G1 X150.345 Y100.309 E0.01709
G1 X150.486 Y99.783 E0.01709
G1 X150.716 Y99.289 E0.01709
G1 X151.029 Y98.842 E0.01709
G1 X151.414 Y98.457 E0.01709
G1 X151.861 Y98.144 E0.01709
G1 X152.355 Y97.914 E0.01709
G1 X152.881 Y97.773 E0.01709
G1 X153.407 Y97.727 E0.01657
G1 X153.965 Y97.773 E0.01754
G1 X154.493 Y97.914 E0.01714
G1 X154.987 Y98.144 E0.01709
G1 X155.433 Y98.457 E0.01709
G1 X155.819 Y98.842 E0.01709
G1 X156.131 Y99.289 E0.01709
G1 X156.361 Y99.783 E0.01709
G1 X156.503 Y100.309 E0.01709
G1 X156.550 Y100.852 E0.01709
G1 X156.503 Y101.395 E0.01709
G1 X156.361 Y101.921 E0.01709
G1 X156.131 Y102.415 E0.01709
G1 X155.819 Y102.861 E0.01709
G1 X155.445 Y103.235 E0.01657
G1 X154.988 Y103.558 E0.01755
G1 X154.493 Y103.789 E0.01714
G1 X153.967 Y103.930 E0.01709
G1 X153.424 Y103.978 E0.01709
G1 X152.881 Y103.930 E0.01709
G1 X152.355 Y103.789 E0.01709
G1 X151.861 Y103.559 E0.01709
G1 X151.414 Y103.247 E0.01709
G1 X151.029 Y102.861 E0.01709
G1 X150.716 Y102.415 E0.01709
G1 X150.486 Y101.921 E0.01709
G1 X150.345 Y101.395 E0.01709
G1 X150.303 Y100.912 E0.01520
G1 X150.678 Y100.879 F10800.000
G1 F1200
G1 X150.718 Y100.375 E0.01585
G1 X150.842 Y99.912 E0.01502
G1 X151.044 Y99.478 E0.01502
G1 X151.319 Y99.086 E0.01502
G1 X151.658 Y98.747 E0.01502
G1 X152.050 Y98.472 E0.01502
G1 X152.484 Y98.270 E0.01502
G1 X152.947 Y98.146 E0.01502
G1 X153.408 Y98.105 E0.01453
G1 X153.900 Y98.146 E0.01548
G1 X154.364 Y98.270 E0.01504
G1 X154.798 Y98.472 E0.01502
G1 X155.190 Y98.747 E0.01502
G1 X155.529 Y99.086 E0.01502
G1 X155.803 Y99.478 E0.01502
G1 X156.006 Y99.912 E0.01502
G1 X156.130 Y100.375 E0.01502
G1 X156.171 Y100.852 E0.01502
G1 X156.130 Y101.329 E0.01502
G1 X156.006 Y101.792 E0.01502
G1 X155.803 Y102.226 E0.01502
G1 X155.529 Y102.618 E0.01502
G1 X155.201 Y102.946 E0.01453
G1 X154.798 Y103.231 E0.01548
G1 X154.364 Y103.434 E0.01504
G1 X153.901 Y103.558 E0.01502
G1 X153.424 Y103.599 E0.01502
G1 X152.947 Y103.558 E0.01502
G1 X152.484 Y103.434 E0.01502
G1 X152.050 Y103.231 E0.01502
G1 X151.658 Y102.957 E0.01502
G1 X151.319 Y102.618 E0.01502
G1 X151.044 Y102.226 E0.01502
G1 X150.842 Y101.792 E0.01502
G1 X150.718 Y101.329 E0.01502
G1 X150.684 Y100.938 E0.01229
G1 X150.331 Y100.681 F10800.000
G1 E-0.80000 F2100.00000
G1 Z0.800 F10800.000
G1 X109.913 Y64.347
G1 Z0.200
G1 E0.80000 F2100.00000
G1 F1200
G1 X109.527 Y64.733 E0.01712
G1 X109.080 Y65.046 E0.01712
G1 X108.600 Y65.270 E0.01660
G1 X108.059 Y65.418 E0.01758
G1 X107.513 Y65.466 E0.01718
G1 X106.969 Y65.419 E0.01712
G1 X106.442 Y65.277 E0.01712
G1 X105.947 Y65.046 E0.01712
G1 X105.500 Y64.733 E0.01712
G1 X105.113 Y64.347 E0.01712
G1 X104.800 Y63.900 E0.01712
G1 X104.569 Y63.405 E0.01712
G1 X104.428 Y62.877 E0.01712
G1 X104.381 Y62.333 E0.01712
G1 X104.428 Y61.789 E0.01712
G1 X104.569 Y61.262 E0.01712
G1 X104.800 Y60.767 E0.01712
G1 X105.113 Y60.319 E0.01712
G1 X105.500 Y59.933 E0.01712
G1 X105.947 Y59.620 E0.01712
G1 X106.442 Y59.389 E0.01712
G1 X106.969 Y59.248 E0.01712
G1 X107.497 Y59.202 E0.01660
G1 X108.056 Y59.247 E0.01758
G1 X108.585 Y59.389 E0.01717
G1 X109.080 Y59.620 E0.01712
G1 X109.527 Y59.933 E0.01712
G1 X109.913 Y60.319 E0.01712
G1 X110.227 Y60.767 E0.01712
G1 X110.457 Y61.262 E0.01712
G1 X110.599 Y61.789 E0.01712
G1 X110.646 Y62.333 E0.01712
G1 X110.599 Y62.877 E0.01712
G1 X110.457 Y63.405 E0.01712
G1 X110.227 Y63.900 E0.01712
G1 X109.948 Y64.298 E0.01524
G1 X109.639 Y64.082 F10800.000
G1 F1200
G1 X109.284 Y64.443 E0.01589
G1 X108.891 Y64.719 E0.01505
G1 X108.470 Y64.915 E0.01457
G1 X107.992 Y65.046 E0.01551
G1 X107.513 Y65.088 E0.01507
G1 X107.035 Y65.046 E0.01505
G1 X106.571 Y64.921 E0.01505
G1 X106.136 Y64.719 E0.01505
G1 X105.743 Y64.443 E0.01505
G1 X105.403 Y64.104 E0.01505
G1 X105.128 Y63.710 E0.01505
G1 X104.925 Y63.275 E0.01505
G1 X104.801 Y62.811 E0.01505
G1 X104.759 Y62.333 E0.01505
G1 X104.801 Y61.855 E0.01505
G1 X104.925 Y61.391 E0.01505
G1 X105.128 Y60.956 E0.01505
G1 X105.403 Y60.563 E0.01505
G1 X105.743 Y60.223 E0.01505
G1 X106.136 Y59.948 E0.01505
G1 X106.571 Y59.745 E0.01505
G1 X107.035 Y59.621 E0.01505
G1 X107.498 Y59.580 E0.01457
G1 X107.991 Y59.621 E0.01551
G1 X108.455 Y59.745 E0.01507
G1 X108.891 Y59.948 E0.01505
G1 X109.284 Y60.223 E0.01505
G1 X109.623 Y60.563 E0.01505
G1 X109.899 Y60.956 E0.01505
G1 X110.102 Y61.391 E0.01505
G1 X110.226 Y61.855 E0.01505
G1 X110.268 Y62.333 E0.01505
G1 X110.226 Y62.811 E0.01505
G1 X110.102 Y63.275 E0.01505
G1 X109.899 Y63.710 E0.01505
G1 X109.673 Y64.032 E0.01233
G1 X109.778 Y64.456 F10800.000
G1 E-0.80000 F2100.00000
G1 Z0.800 F10800.000
G1 X133.679 Y97.129
G1 Z0.200
G1 E0.80000 F2100.00000
G1 F1200
G1 X131.867 Y94.017 E0.11289
G1 X129.672 Y90.985 E0.11738
G1 X127.099 Y88.078 E0.12172
G1 X124.268 Y85.471 E0.12067
G1 X121.249 Y83.199 E0.11845
G1 X118.024 Y81.239 E0.11833
G1 X117.648 Y80.992 E0.01410
G1 X117.340 Y80.704 E0.01323
G1 X103.810 Y65.706 E0.63331
G1 X103.291 Y65.025 E0.02685
G1 X102.904 Y64.289 E0.02608
G1 X102.644 Y63.499 E0.02608
G1 X102.518 Y62.677 E0.02608
G1 X102.530 Y61.875 E0.02515
G1 X102.680 Y61.025 E0.02705
G1 X102.963 Y60.245 E0.02603
G1 X103.371 Y59.520 E0.02608
G1 X103.894 Y58.873 E0.02608
G1 X104.495 Y58.341 E0.02515
G1 X105.224 Y57.880 E0.02705
G1 X105.991 Y57.563 E0.02603
G1 X106.802 Y57.377 E0.02608
G1 X107.632 Y57.327 E0.02608
G1 X108.430 Y57.413 E0.02515
G1 X109.336 Y57.662 E0.02946
G1 X131.427 Y61.628 E0.70371
G1 X153.489 Y61.640 E0.69176
G1 X153.875 Y61.669 E0.01212
G1 X154.230 Y61.751 E0.01142
G1 X154.568 Y61.885 E0.01142
G1 X154.882 Y62.069 E0.01142
G1 X155.183 Y62.312 E0.01211
G1 X162.622 Y69.322 E0.32051
G1 X162.901 Y69.633 E0.01310
G1 X163.111 Y69.960 E0.01219
G1 X163.263 Y70.311 E0.01197
G1 X163.362 Y70.702 E0.01267
G1 X163.396 Y71.117 E0.01303
G1 X163.396 Y93.135 E0.69037
G1 X163.360 Y93.559 E0.01335
G1 X163.253 Y93.968 E0.01327
G1 X163.094 Y94.323 E0.01216
G1 X162.870 Y94.660 E0.01270
G1 X162.576 Y94.971 E0.01342
G1 X159.590 Y97.653 E0.12585
G1 X159.232 Y98.027 E0.01622
G1 X158.922 Y98.467 E0.01691
G1 X158.681 Y98.950 E0.01691
G1 X158.515 Y99.463 E0.01691
G1 X158.428 Y99.993 E0.01684
G1 X158.401 Y101.399 E0.04409
G1 X158.233 Y102.245 E0.02705
G1 X157.922 Y103.051 E0.02708
G1 X157.477 Y103.791 E0.02708
G1 X156.912 Y104.444 E0.02708
G1 X156.242 Y104.990 E0.02708
G1 X155.489 Y105.413 E0.02708
G1 X154.675 Y105.700 E0.02708
G1 X153.823 Y105.843 E0.02708
G1 X152.990 Y105.837 E0.02612
G1 X152.108 Y105.683 E0.02808
G1 X151.275 Y105.377 E0.02783
G1 X133.733 Y97.154 E0.60743
G1 X133.412 Y97.420 F10800.000
G1 F1200
G1 X131.551 Y94.223 E0.11600
G1 X129.378 Y91.221 E0.11621
G1 X126.829 Y88.342 E0.12054
G1 X124.026 Y85.761 E0.11948
G1 X121.037 Y83.511 E0.11728
G1 X117.822 Y81.558 E0.11795
G1 X117.414 Y81.290 E0.01531
G1 X117.071 Y80.969 E0.01475
G1 X103.520 Y65.947 E0.63431
G1 X102.972 Y65.229 E0.02833
G1 X102.556 Y64.437 E0.02805
G1 X102.276 Y63.587 E0.02805
G1 X102.141 Y62.703 E0.02805
G1 X102.153 Y61.839 E0.02709
G1 X102.315 Y60.927 E0.02902
G1 X102.619 Y60.087 E0.02803
G1 X103.058 Y59.307 E0.02805
G1 X103.621 Y58.612 E0.02805
G1 X104.267 Y58.039 E0.02709
G1 X105.050 Y57.544 E0.02902
G1 X105.876 Y57.203 E0.02803
G1 X106.748 Y57.002 E0.02805
G1 X107.641 Y56.949 E0.02805
G1 X108.500 Y57.041 E0.02709
G1 X109.419 Y57.293 E0.02988
G1 X131.460 Y61.251 E0.70213
G1 X153.504 Y61.262 E0.69116
G1 X153.932 Y61.295 E0.01346
G1 X154.342 Y61.390 E0.01321
G1 X154.734 Y61.545 E0.01321
G1 X155.097 Y61.758 E0.01321
G1 X155.431 Y62.027 E0.01346
G1 X162.892 Y69.059 E0.32145
G1 X163.202 Y69.404 E0.01455
G1 X163.445 Y69.782 E0.01410
G1 X163.621 Y70.189 E0.01388
G1 X163.735 Y70.640 E0.01460
G1 X163.773 Y71.101 E0.01450
G1 X163.773 Y93.151 E0.69134
G1 X163.733 Y93.623 E0.01487
G1 X163.609 Y94.094 E0.01526
G1 X163.426 Y94.505 E0.01412
G1 X163.166 Y94.895 E0.01469
G1 X162.840 Y95.241 E0.01491
G1 X159.852 Y97.924 E0.12590
G1 X159.524 Y98.267 E0.01488
G1 X159.246 Y98.661 E0.01513
G1 X159.031 Y99.093 E0.01513
G1 X158.882 Y99.552 E0.01513
G1 X158.805 Y100.027 E0.01510
G1 X158.777 Y101.440 E0.04429
G1 X158.597 Y102.351 E0.02912
G1 X158.262 Y103.217 E0.02913
G1 X157.784 Y104.014 E0.02913
G1 X157.175 Y104.716 E0.02913
G1 X156.455 Y105.303 E0.02913
G1 X155.645 Y105.758 E0.02913
G1 X154.769 Y106.067 E0.02913
G1 X153.853 Y106.220 E0.02913
G1 X152.956 Y106.214 E0.02813
G1 X152.010 Y106.048 E0.03013
G1 X151.129 Y105.725 E0.02939
G1 X133.466 Y97.446 E0.61164
G1 X133.537 Y97.040 F10800.000
G1 X135.225 Y97.729
G1 F1200
G1 X132.673 Y95.177 E0.11411
G1 X131.890 Y93.856 F10800.000
G1 F1200
G1 X136.237 Y98.203 E0.19442
G1 X137.250 Y98.678 F10800.000
G1 F1200
G1 X130.481 Y91.909 E0.30274
G1 X127.727 Y88.617 F10800.000
G1 F1200
G1 X137.909 Y98.800 E0.45541
G1 X138.922 Y99.274 E0.03536
G1 X102.891 Y63.243 E1.61147
M73 P0 R156
G1 X102.802 Y62.616 E0.02002
G1 X140.287 Y100.101 E1.67651
G1 E-0.80000 F2100.00000
G1 Z0.800 F10800.000
G1 X150.184 Y100.855
G1 Z0.200
G1 E0.80000 F2100.00000
G1 F1200
G1 X110.808 Y61.479 E1.76107
G1 X110.878 Y61.740 E0.00855
G1 X110.912 Y62.120 E0.01206
G1 X150.243 Y101.452 E1.75909
G1 X150.200 Y101.946 F10800.000
G1 F1200
G1 X110.903 Y62.649 E1.75756
G1 X110.878 Y62.927 E0.00882
G1 X110.828 Y63.113 E0.00609
G1 X153.272 Y105.556 E1.89828
G1 X153.016 Y105.555 E0.00812
G1 X152.673 Y105.495 E0.01101
G1 X110.710 Y63.532 E1.87676
G1 X110.539 Y63.899 E0.01280
G1 X151.971 Y105.331 E1.85304
G1 X151.384 Y105.115 E0.01980
G1 X151.071 Y104.969 E0.01092
G1 X110.337 Y64.235 E1.82181
G1 X110.112 Y64.548 E0.01219
G1 X150.059 Y104.494 E1.78658
G1 X149.046 Y104.020 E0.03536
G1 X109.843 Y64.817 E1.75333
G1 X109.710 Y64.951 E0.00598
G1 X109.551 Y65.062 E0.00614
G1 X148.034 Y103.545 E1.72114
G1 X147.021 Y103.071 E0.03536
G1 X109.234 Y65.283 E1.69001
G1 X108.869 Y65.457 E0.01277
G1 X146.009 Y102.596 E1.66105
G1 X144.997 Y102.122 E0.03536
G1 X108.473 Y65.598 E1.63349
G1 X108.041 Y65.704 E0.01407
G1 X143.984 Y101.647 E1.60754
G1 X142.972 Y101.172 E0.03536
G1 X107.546 Y65.747 E1.58438
G1 X106.963 Y65.702 E0.01850
G1 X141.959 Y100.698 E1.56518
G1 X140.947 Y100.223 E0.03536
G1 X106.200 Y65.476 E1.55404
G1 X106.007 Y67.973 F10800.000
G1 F1200
G1 X120.870 Y82.836 E0.66476
G1 X119.500 Y82.004 F10800.000
G1 F1200
G1 X110.963 Y73.467 E0.38182
G1 E-0.80000 F2100.00000
G1 Z0.800 F10800.000
G1 X103.221 Y64.649
G1 Z0.200
G1 E0.80000 F2100.00000
G1 F1200
G1 X122.786 Y84.214 E0.87499
G1 X126.283 Y87.173 F10800.000
G1 F1200
G1 X102.839 Y63.729 E1.04852
G1 X104.370 Y63.647 F10800.000
G1 F1200
G1 X102.809 Y62.086 E0.06981
G1 X102.812 Y61.902 E0.00583
G1 X102.865 Y61.604 E0.00957
G1 X104.145 Y62.883 E0.05724
G1 X104.100 Y62.300 E0.01850
G1 X102.946 Y61.147 E0.05160
G1 X103.082 Y60.745 E0.01341
G1 X104.143 Y61.806 E0.04743
G1 X104.247 Y61.372 E0.01410
G1 X103.227 Y60.352 E0.04563
G1 X103.421 Y60.008 E0.01249
G1 X104.390 Y60.977 E0.04335
G1 X104.563 Y60.612 E0.01277
G1 X103.617 Y59.666 E0.04232
G1 X103.857 Y59.369 E0.01210
G1 X104.785 Y60.296 E0.04148
G1 X104.896 Y60.137 E0.00614
G1 X105.030 Y60.003 E0.00598
G1 X104.098 Y59.071 E0.04169
G1 X104.383 Y58.818 E0.01205
G1 X105.299 Y59.734 E0.04097
G1 X105.612 Y59.510 E0.01219
G1 X104.668 Y58.566 E0.04220
G1 X104.998 Y58.358 E0.01233
G1 X105.948 Y59.308 E0.04248
G1 X106.315 Y59.137 E0.01280
G1 X105.327 Y58.149 E0.04415
G1 X105.704 Y57.988 E0.01295
G1 X106.734 Y59.018 E0.04608
G1 X106.920 Y58.968 E0.00609
G1 X107.198 Y58.944 E0.00882
G1 X106.085 Y57.832 E0.04976
G1 X106.523 Y57.731 E0.01419
G1 X107.729 Y58.937 E0.05393
G1 X108.104 Y58.968 E0.01192
G1 X108.368 Y59.038 E0.00863
G1 X106.979 Y57.650 E0.06211
G1 X107.487 Y57.619 E0.01608
G1 X150.079 Y100.211 E1.90490
M73 P1 R155
G1 X150.192 Y99.787 E0.01389
G1 X108.063 Y57.658 E1.88419
G1 X108.377 Y57.692 E0.00997
G1 X108.732 Y57.789 E0.01166
