; generated by PrusaSlicer 2.1.1+win64 on 2020-05-22 at 22:07:23 UTC

; 

; external perimeters extrusion width = 0.60mm
; perimeters extrusion width = 0.43mm
; infill extrusion width = 0.45mm
; solid infill extrusion width = 0.70mm
; top infill extrusion width = 0.43mm
; support material extrusion width = 0.37mm
; first layer extrusion width = 0.42mm

; external perimeters extrusion width = 0.60mm
; perimeters extrusion width = 0.43mm
; infill extrusion width = 0.45mm
; solid infill extrusion width = 0.70mm
; top infill extrusion width = 0.43mm
; support material extrusion width = 0.37mm
; first layer extrusion width = 0.42mm

M73 P0 R30
M201 X9000 Y9000 Z500 E10000 ; sets maximum accelerations, mm/sec^2
M203 X500 Y500 Z12 E120 ; sets maximum feedrates, mm/sec
M204 P2000 R1500 T2000 ; sets acceleration (P, T) and retract acceleration (R), mm/sec^2
M205 X10.00 Y10.00 Z0.20 E2.50 ; sets the jerk limits, mm/sec
M205 S0 T0 ; sets the minimum extruding and travel feed rate, mm/sec
M107
M862.3 P "MK2S" ; printer model check
M862.1 P0.4 ; nozzle diameter check
M115 U3.2.3 ; tell printer latest fw version
G90 ; use absolute coordinates
M83 ; extruder relative mode
M204 S2000 T1500 ; MK2 firmware only supports the old M204 format
M104 S215 ; set extruder temp
M140 S60 ; set bed temp
M190 S60 ; wait for bed temp
M109 S215 ; wait for extruder temp
G28 W ; home all without mesh bed level
G80 ; mesh bed leveling
G1 Y-3.0 F1000.0 ; go outside print area
G92 E0.0
G1 X60.0 E9.0  F1000.0 ; intro line
M73 P0 R30
G1 X100.0 E12.5 F1000.0 ; intro line
G92 E0.0
G21 ; set units to millimeters
G90 ; use absolute coordinates
M83 ; use relative distances for extrusion
M900 K30 ; Filament gcode
;BEFORE_LAYER_CHANGE
G92 E0.0
;0.2


G1 E-0.80000 F2100.00000
G1 Z0.600 F10800.000
;AFTER_LAYER_CHANGE
;0.2
G1 X72.427 Y21.146
G1 Z0.200
G1 E0.80000 F2100.00000
M204 S1000
G1 F1200
G1 X72.882 Y20.776 E0.01839
G1 X73.416 Y20.542 E0.01828
G1 X73.993 Y20.457 E0.01828
G1 X162.402 Y20.457 E2.77200
G1 X163.126 Y20.581 E0.02304
G1 X163.768 Y20.938 E0.02304
G1 X164.256 Y21.488 E0.02304
G1 X164.534 Y22.168 E0.02304
G1 X178.158 Y91.017 E2.20058
G1 X178.168 Y187.362 E3.02083
G1 X178.102 Y187.887 E0.01658
G1 X177.912 Y188.380 E0.01658
G1 X177.571 Y188.857 E0.01839
G1 X177.114 Y189.226 E0.01839
G1 X176.580 Y189.459 E0.01828
G1 X176.000 Y189.543 E0.01839
G1 X74.014 Y189.543 E3.19769
G1 X73.489 Y189.478 E0.01658
G1 X72.996 Y189.288 E0.01658
G1 X72.519 Y188.946 E0.01839
G1 X72.150 Y188.490 E0.01839
G1 X71.915 Y187.949 E0.01851
G1 X71.832 Y187.368 E0.01839
G1 X71.832 Y22.641 E5.16489
G1 X71.898 Y22.113 E0.01669
G1 X72.088 Y21.620 E0.01658
G1 X72.392 Y21.194 E0.01640
G1 E-0.80000 F2100.00000
G1 Z0.800 F10800.000
G1 X129.325 Y24.035
G1 Z0.200
G1 E0.80000 F2100.00000
G1 F1200
G1 X161.073 Y24.035 E0.99545
G1 X161.073 Y100.610 E2.40098
G1 X129.325 Y100.610 E0.99545
G1 X129.325 Y24.095 E2.39910
G1 X129.702 Y24.412 F10800.000
G1 F1200
G1 X160.696 Y24.412 E0.97180
G1 X160.696 Y100.233 E2.37733
G1 X129.702 Y100.233 E0.97180
G1 X129.702 Y24.472 E2.37545
G1 X129.651 Y24.015 F10800.000
G1 E-0.80000 F2100.00000
G1 Z0.800 F10800.000
G1 X168.249 Y93.172
G1 Z0.200
G1 E0.80000 F2100.00000
G1 F1200
G1 X168.876 Y92.880 E0.02169
G1 X169.544 Y92.701 E0.02169
G1 X170.202 Y92.643 E0.02069
G1 X170.920 Y92.700 E0.02260
G1 X171.591 Y92.880 E0.02177
G1 X172.218 Y93.172 E0.02169
G1 X172.784 Y93.569 E0.02169
G1 X173.274 Y94.058 E0.02169
G1 X173.670 Y94.625 E0.02169
G1 X173.963 Y95.252 E0.02169
G1 X174.142 Y95.920 E0.02169
G1 X174.202 Y96.609 E0.02169
G1 X174.142 Y97.298 E0.02169
G1 X173.963 Y97.966 E0.02169
G1 X173.670 Y98.593 E0.02169
G1 X173.274 Y99.160 E0.02169
G1 X172.784 Y99.649 E0.02169
G1 X172.218 Y100.046 E0.02169
G1 X171.591 Y100.338 E0.02169
G1 X170.923 Y100.517 E0.02169
G1 X170.233 Y100.578 E0.02169
G1 X169.544 Y100.517 E0.02169
G1 X168.876 Y100.338 E0.02169
G1 X168.249 Y100.046 E0.02169
G1 X167.683 Y99.649 E0.02168
G1 X167.206 Y99.174 E0.02113
G1 X166.797 Y98.594 E0.02222
G1 X166.504 Y97.966 E0.02173
G1 X166.325 Y97.298 E0.02169
G1 X166.265 Y96.609 E0.02169
G1 X166.325 Y95.920 E0.02169
G1 X166.504 Y95.252 E0.02169
G1 X166.797 Y94.625 E0.02169
G1 X167.193 Y94.058 E0.02169
G1 X167.683 Y93.569 E0.02169
G1 X168.200 Y93.207 E0.01981
G1 X168.416 Y93.516 F10800.000
G1 F1200
G1 X169.006 Y93.236 E0.02046
G1 X169.610 Y93.074 E0.01962
G1 X170.203 Y93.022 E0.01867
G1 X170.856 Y93.073 E0.02053
G1 X171.461 Y93.236 E0.01965
G1 X172.029 Y93.500 E0.01962
G1 X172.541 Y93.859 E0.01962
G1 X172.984 Y94.301 E0.01962
G1 X173.343 Y94.814 E0.01962
G1 X173.607 Y95.381 E0.01962
G1 X173.769 Y95.986 E0.01962
G1 X173.824 Y96.609 E0.01962
G1 X173.769 Y97.233 E0.01962
G1 X173.607 Y97.837 E0.01962
G1 X173.343 Y98.404 E0.01962
G1 X172.984 Y98.917 E0.01962
G1 X172.541 Y99.359 E0.01962
G1 X172.029 Y99.718 E0.01962
G1 X171.461 Y99.983 E0.01962
G1 X170.857 Y100.145 E0.01962
G1 X170.233 Y100.199 E0.01962
G1 X169.610 Y100.145 E0.01962
G1 X169.006 Y99.983 E0.01962
G1 X168.438 Y99.718 E0.01962
G1 X167.926 Y99.359 E0.01962
G1 X167.495 Y98.930 E0.01908
G1 X167.125 Y98.405 E0.02015
G1 X166.860 Y97.837 E0.01963
G1 X166.698 Y97.233 E0.01962
G1 X166.643 Y96.609 E0.01962
G1 X166.698 Y95.986 E0.01962
G1 X166.860 Y95.381 E0.01962
G1 X167.124 Y94.814 E0.01962
G1 X167.483 Y94.301 E0.01962
G1 X167.926 Y93.859 E0.01962
G1 X168.367 Y93.550 E0.01689
G1 X168.414 Y93.116 F10800.000
G1 E-0.80000 F2100.00000
G1 Z0.800 F10800.000
G1 X175.392 Y91.805
G1 Z0.200
G1 E0.80000 F2100.00000
G1 F1200
G1 X175.392 Y101.413 E0.30124
G1 X128.587 Y101.413 E1.46753
G1 X128.587 Y23.232 E2.45130
M73 P3 R29
G1 X161.811 Y23.232 E1.04173
G1 X161.811 Y84.241 E1.91290
G1 X161.903 Y85.405 E0.03661
G1 X162.178 Y86.551 E0.03695
G1 X162.644 Y87.677 E0.03821
G1 X163.259 Y88.679 E0.03685
G1 X164.032 Y89.584 E0.03733
G1 X164.938 Y90.358 E0.03734
G1 X165.953 Y90.980 E0.03734
G1 X167.053 Y91.436 E0.03733
G1 X168.189 Y91.709 E0.03663
G1 X169.375 Y91.805 E0.03730
G1 X175.332 Y91.805 E0.18678
G1 X175.769 Y91.428 F10800.000
G1 F1200
G1 X175.769 Y101.790 E0.32488
G1 X128.210 Y101.790 E1.49118
G1 X128.210 Y22.855 E2.47495
G1 X162.189 Y22.855 E1.06537
G1 X162.189 Y84.227 E1.92426
G1 X162.277 Y85.346 E0.03522
G1 X162.537 Y86.435 E0.03509
G1 X162.981 Y87.505 E0.03634
G1 X163.565 Y88.457 E0.03499
G1 X164.300 Y89.317 E0.03548
G1 X165.160 Y90.052 E0.03548
G1 X166.125 Y90.643 E0.03548
G1 X167.170 Y91.076 E0.03547
G1 X168.249 Y91.336 E0.03478
G1 X169.390 Y91.428 E0.03590
G1 X175.709 Y91.428 E0.19813
G1 X175.568 Y91.774 F10800.000
G1 X175.279 Y92.681
G1 F1200
G1 X174.686 Y92.088 E0.02632
G1 X174.152 Y92.088 E0.01675
G1 X175.109 Y93.045 E0.04247
G1 X175.109 Y93.579 E0.01675
G1 X173.618 Y92.088 E0.06616
G1 X173.085 Y92.088 E0.01675
G1 X175.109 Y94.113 E0.08984
G1 X175.109 Y94.646 E0.01675
G1 X172.551 Y92.088 E0.11352
G1 X172.017 Y92.088 E0.01675
G1 X175.109 Y95.180 E0.13720
G1 X175.109 Y95.714 E0.01675
G1 X171.484 Y92.088 E0.16088
G1 X170.950 Y92.088 E0.01675
G1 X171.397 Y92.535 E0.01984
G1 X170.968 Y92.420 E0.01392
G1 X170.730 Y92.401 E0.00752
G1 X170.416 Y92.088 E0.01390
G1 X169.883 Y92.088 E0.01675
G1 X170.158 Y92.363 E0.01221
G1 X169.667 Y92.406 E0.01546
G1 X169.348 Y92.087 E0.01417
G1 X168.767 Y92.040 E0.01828
G1 X169.222 Y92.495 E0.02017
G1 X168.801 Y92.607 E0.01367
G1 X168.186 Y91.993 E0.02726
G1 X167.492 Y91.832 E0.02236
G1 X168.434 Y92.774 E0.04179
G1 X168.075 Y92.949 E0.01252
G1 X166.737 Y91.611 E0.05939
G1 X165.826 Y91.233 E0.03094
G1 X167.761 Y93.169 E0.08588
G1 X167.455 Y93.396 E0.01197
G1 X161.356 Y87.297 E0.27064
G1 X161.356 Y86.764 E0.01675
G1 X162.387 Y87.794 E0.04573
G1 X162.009 Y86.883 E0.03097
G1 X161.356 Y86.230 E0.02896
G1 X161.356 Y85.696 E0.01675
G1 X161.785 Y86.125 E0.01901
G1 X161.621 Y85.428 E0.02247
G1 X161.356 Y85.163 E0.01175
G1 X161.356 Y84.629 E0.01675
G1 X161.760 Y85.033 E0.01793
G1 X161.442 Y84.273 F10800.000
G1 F1200
G1 X161.442 Y23.846 E1.81335
G1 X161.314 Y23.733 F10800.000
G1 F1200
G1 X161.096 Y23.515 E0.00979
G1 X160.556 Y23.515 E0.01713
G1 X160.793 Y23.752 E0.01063
G1 X160.254 Y23.752 E0.01713
G1 X160.017 Y23.515 E0.01063
G1 X159.477 Y23.515 E0.01713
G1 X159.714 Y23.752 E0.01063
G1 X159.174 Y23.752 E0.01713
G1 X158.937 Y23.515 E0.01063
G1 X158.398 Y23.515 E0.01713
G1 X158.635 Y23.752 E0.01063
G1 X158.095 Y23.752 E0.01713
G1 X157.858 Y23.515 E0.01063
G1 X157.318 Y23.515 E0.01713
G1 X157.555 Y23.752 E0.01063
G1 X157.015 Y23.752 E0.01713
G1 X156.779 Y23.515 E0.01063
G1 X156.239 Y23.515 E0.01713
G1 X156.476 Y23.752 E0.01063
G1 X155.936 Y23.752 E0.01713
G1 X155.699 Y23.515 E0.01063
G1 X155.159 Y23.515 E0.01713
G1 X155.396 Y23.752 E0.01063
G1 X154.857 Y23.752 E0.01713
G1 X154.620 Y23.515 E0.01063
G1 X154.080 Y23.515 E0.01713
G1 X154.317 Y23.752 E0.01063
G1 X153.777 Y23.752 E0.01713
G1 X153.540 Y23.515 E0.01063
G1 X153.001 Y23.515 E0.01713
G1 X153.238 Y23.752 E0.01063
G1 X152.698 Y23.752 E0.01713
G1 X152.461 Y23.515 E0.01063
G1 X151.921 Y23.515 E0.01713
G1 X152.158 Y23.752 E0.01063
G1 X151.618 Y23.752 E0.01713
G1 X151.382 Y23.515 E0.01063
G1 X150.842 Y23.515 E0.01713
G1 X151.079 Y23.752 E0.01063
G1 X150.539 Y23.752 E0.01713
G1 X150.302 Y23.515 E0.01063
G1 X149.762 Y23.515 E0.01713
G1 X149.999 Y23.752 E0.01063
G1 X149.460 Y23.752 E0.01713
G1 X149.223 Y23.515 E0.01063
G1 X148.683 Y23.515 E0.01713
G1 X148.920 Y23.752 E0.01063
G1 X148.380 Y23.752 E0.01713
G1 X148.143 Y23.515 E0.01063
G1 X147.604 Y23.515 E0.01713
G1 X147.841 Y23.752 E0.01063
G1 X147.301 Y23.752 E0.01713
G1 X147.064 Y23.515 E0.01063
G1 X146.524 Y23.515 E0.01713
G1 X146.761 Y23.752 E0.01063
G1 X146.222 Y23.752 E0.01713
G1 X145.985 Y23.515 E0.01063
G1 X145.445 Y23.515 E0.01713
G1 X145.682 Y23.752 E0.01063
G1 X145.142 Y23.752 E0.01713
G1 X144.905 Y23.515 E0.01063
G1 X144.366 Y23.515 E0.01713
G1 X144.602 Y23.752 E0.01063
G1 X144.063 Y23.752 E0.01713
G1 X143.826 Y23.515 E0.01063
G1 X143.286 Y23.515 E0.01713
G1 X143.523 Y23.752 E0.01063
G1 X142.983 Y23.752 E0.01713
G1 X142.746 Y23.515 E0.01063
G1 X142.207 Y23.515 E0.01713
G1 X142.444 Y23.752 E0.01063
G1 X141.904 Y23.752 E0.01713
G1 X141.667 Y23.515 E0.01063
G1 X141.127 Y23.515 E0.01713
G1 X141.364 Y23.752 E0.01063
G1 X140.825 Y23.752 E0.01713
G1 X140.588 Y23.515 E0.01063
G1 X140.048 Y23.515 E0.01713
G1 X140.285 Y23.752 E0.01063
G1 X139.745 Y23.752 E0.01713
G1 X139.508 Y23.515 E0.01063
G1 X138.969 Y23.515 E0.01713
G1 X139.205 Y23.752 E0.01063
G1 X138.666 Y23.752 E0.01713
G1 X138.429 Y23.515 E0.01063
G1 X137.889 Y23.515 E0.01713
G1 X138.126 Y23.752 E0.01063
G1 X137.586 Y23.752 E0.01713
G1 X137.349 Y23.515 E0.01063
G1 X136.810 Y23.515 E0.01713
G1 X137.047 Y23.752 E0.01063
G1 X136.507 Y23.752 E0.01713
G1 X136.270 Y23.515 E0.01063
G1 X135.730 Y23.515 E0.01713
G1 X135.967 Y23.752 E0.01063
G1 X135.428 Y23.752 E0.01713
G1 X135.191 Y23.515 E0.01063
G1 X134.651 Y23.515 E0.01713
G1 X134.888 Y23.752 E0.01063
G1 X134.348 Y23.752 E0.01713
G1 X134.111 Y23.515 E0.01063
G1 X133.572 Y23.515 E0.01713
G1 X133.808 Y23.752 E0.01063
G1 X133.269 Y23.752 E0.01713
G1 X133.032 Y23.515 E0.01063
G1 X132.492 Y23.515 E0.01713
G1 X132.729 Y23.752 E0.01063
G1 X132.189 Y23.752 E0.01713
G1 X131.952 Y23.515 E0.01063
G1 X131.413 Y23.515 E0.01713
G1 X131.650 Y23.752 E0.01063
G1 X131.110 Y23.752 E0.01713
G1 X130.873 Y23.515 E0.01063
G1 X130.333 Y23.515 E0.01713
G1 X130.570 Y23.752 E0.01063
G1 X130.031 Y23.752 E0.01713
G1 X129.794 Y23.515 E0.01063
G1 X129.254 Y23.515 E0.01713
G1 X129.661 Y23.922 E0.01825
G1 X128.956 Y23.846 F10800.000
G1 F1200
G1 X128.956 Y100.799 E2.30936
G1 X129.463 Y101.300 F10800.000
G1 F1200
G1 X129.245 Y101.082 E0.00968
G1 X129.441 Y101.082 E0.00615
G1 X129.441 Y100.893 E0.00592
G1 X129.590 Y100.893 E0.00468
G1 X129.827 Y101.130 E0.01051
G1 X130.361 Y101.130 E0.01675
G1 X130.124 Y100.893 E0.01051
G1 X130.657 Y100.893 E0.01675
G1 X130.894 Y101.130 E0.01051
G1 X131.428 Y101.130 E0.01675
G1 X131.191 Y100.893 E0.01051
G1 X131.725 Y100.893 E0.01675
G1 X131.962 Y101.130 E0.01051
G1 X132.495 Y101.130 E0.01675
G1 X132.258 Y100.893 E0.01051
G1 X132.792 Y100.893 E0.01675
G1 X133.029 Y101.130 E0.01051
G1 X133.563 Y101.130 E0.01675
G1 X133.326 Y100.893 E0.01051
G1 X133.859 Y100.893 E0.01675
G1 X134.096 Y101.130 E0.01051
G1 X134.630 Y101.130 E0.01675
G1 X134.393 Y100.893 E0.01051
G1 X134.927 Y100.893 E0.01675
G1 X135.164 Y101.130 E0.01051
G1 X135.697 Y101.130 E0.01675
G1 X135.460 Y100.893 E0.01051
G1 X135.994 Y100.893 E0.01675
G1 X136.231 Y101.130 E0.01051
G1 X136.765 Y101.130 E0.01675
G1 X136.528 Y100.893 E0.01051
G1 X137.061 Y100.893 E0.01675
G1 X137.298 Y101.130 E0.01051
G1 X137.832 Y101.130 E0.01675
G1 X137.595 Y100.893 E0.01051
G1 X138.129 Y100.893 E0.01675
G1 X138.366 Y101.130 E0.01051
G1 X138.899 Y101.130 E0.01675
G1 X138.662 Y100.893 E0.01051
G1 X139.196 Y100.893 E0.01675
G1 X139.433 Y101.130 E0.01051
G1 X139.967 Y101.130 E0.01675
G1 X139.730 Y100.893 E0.01051
G1 X140.263 Y100.893 E0.01675
G1 X140.500 Y101.130 E0.01051
G1 X141.034 Y101.130 E0.01675
G1 X140.797 Y100.893 E0.01051
G1 X141.331 Y100.893 E0.01675
G1 X141.568 Y101.130 E0.01051
G1 X142.101 Y101.130 E0.01675
G1 X141.864 Y100.893 E0.01051
G1 X142.398 Y100.893 E0.01675
G1 X142.635 Y101.130 E0.01051
G1 X143.169 Y101.130 E0.01675
G1 X142.932 Y100.893 E0.01051
G1 X143.465 Y100.893 E0.01675
G1 X143.702 Y101.130 E0.01051
G1 X144.236 Y101.130 E0.01675
G1 X143.999 Y100.893 E0.01051
G1 X144.533 Y100.893 E0.01675
G1 X144.770 Y101.130 E0.01051
G1 X145.303 Y101.130 E0.01675
G1 X145.066 Y100.893 E0.01051
G1 X145.600 Y100.893 E0.01675
G1 X145.837 Y101.130 E0.01051
G1 X146.371 Y101.130 E0.01675
G1 X146.134 Y100.893 E0.01051
G1 X146.667 Y100.893 E0.01675
G1 X146.904 Y101.130 E0.01051
G1 X147.438 Y101.130 E0.01675
G1 X147.201 Y100.893 E0.01051
G1 X147.735 Y100.893 E0.01675
G1 X147.972 Y101.130 E0.01051
G1 X148.505 Y101.130 E0.01675
G1 X148.268 Y100.893 E0.01051
G1 X148.802 Y100.893 E0.01675
G1 X149.039 Y101.130 E0.01051
G1 X149.573 Y101.130 E0.01675
G1 X149.336 Y100.893 E0.01051
G1 X149.869 Y100.893 E0.01675
G1 X150.106 Y101.130 E0.01051
G1 X150.640 Y101.130 E0.01675
G1 X150.403 Y100.893 E0.01051
G1 X150.937 Y100.893 E0.01675
G1 X151.174 Y101.130 E0.01051
G1 X151.707 Y101.130 E0.01675
G1 X151.471 Y100.893 E0.01051
G1 X152.004 Y100.893 E0.01675
G1 X152.241 Y101.130 E0.01051
G1 X152.775 Y101.130 E0.01675
G1 X152.538 Y100.893 E0.01051
G1 X153.072 Y100.893 E0.01675
G1 X153.308 Y101.130 E0.01051
G1 X153.842 Y101.130 E0.01675
G1 X153.605 Y100.893 E0.01051
G1 X154.139 Y100.893 E0.01675
G1 X154.376 Y101.130 E0.01051
G1 X154.909 Y101.130 E0.01675
G1 X154.673 Y100.893 E0.01051
G1 X155.206 Y100.893 E0.01675
G1 X155.443 Y101.130 E0.01051
G1 X155.977 Y101.130 E0.01675
G1 X155.740 Y100.893 E0.01051
G1 X156.274 Y100.893 E0.01675
G1 X156.510 Y101.130 E0.01051
G1 X157.044 Y101.130 E0.01675
G1 X156.807 Y100.893 E0.01051
G1 X157.341 Y100.893 E0.01675
G1 X157.578 Y101.130 E0.01051
G1 X158.111 Y101.130 E0.01675
G1 X157.875 Y100.893 E0.01051
G1 X158.408 Y100.893 E0.01675
G1 X158.645 Y101.130 E0.01051
G1 X159.179 Y101.130 E0.01675
G1 X158.942 Y100.893 E0.01051
G1 X159.476 Y100.893 E0.01675
G1 X159.712 Y101.130 E0.01051
G1 X160.246 Y101.130 E0.01675
G1 X160.009 Y100.893 E0.01051
G1 X160.543 Y100.893 E0.01675
G1 X160.780 Y101.130 E0.01051
G1 X161.313 Y101.130 E0.01675
G1 X161.077 Y100.893 E0.01051
G1 X161.356 Y100.893 E0.00878
G1 X161.356 Y100.639 E0.00797
G1 X161.847 Y101.130 E0.02178
G1 X162.381 Y101.130 E0.01675
G1 X161.356 Y100.106 E0.04546
G1 X161.356 Y99.572 E0.01675
G1 X162.914 Y101.130 E0.06915
G1 X163.448 Y101.130 E0.01675
G1 X161.356 Y99.038 E0.09283
G1 X161.356 Y98.505 E0.01675
G1 X163.982 Y101.130 E0.11651
G1 X164.516 Y101.130 E0.01675
G1 X161.356 Y97.971 E0.14019
G1 X161.356 Y97.437 E0.01675
G1 X165.049 Y101.130 E0.16387
G1 X165.583 Y101.130 E0.01675
G1 X161.356 Y96.904 E0.18755
G1 X161.356 Y96.370 E0.01675
G1 X166.117 Y101.130 E0.21124
G1 X166.650 Y101.130 E0.01675
G1 X161.356 Y95.836 E0.23492
G1 X161.356 Y95.303 E0.01675
G1 X167.184 Y101.130 E0.25860
G1 X167.718 Y101.130 E0.01675
G1 X161.356 Y94.769 E0.28228
G1 X161.356 Y94.235 E0.01675
G1 X168.251 Y101.130 E0.30596
G1 X168.785 Y101.130 E0.01675
