; generated by PrusaSlicer 2.1.1+win64 on 2020-05-22 at 22:07:11 UTC

; 

; external perimeters extrusion width = 0.60mm
; perimeters extrusion width = 0.43mm
; infill extrusion width = 0.45mm
; solid infill extrusion width = 0.70mm
; top infill extrusion width = 0.43mm
; support material extrusion width = 0.37mm
; first layer extrusion width = 0.42mm

; external perimeters extrusion width = 0.60mm
; perimeters extrusion width = 0.43mm
; infill extrusion width = 0.45mm
; solid infill extrusion width = 0.70mm
; top infill extrusion width = 0.43mm
; support material extrusion width = 0.37mm
; first layer extrusion width = 0.42mm

M73 P0 R15
M201 X9000 Y9000 Z500 E10000 ; sets maximum accelerations, mm/sec^2
M203 X500 Y500 Z12 E120 ; sets maximum feedrates, mm/sec
M204 P2000 R1500 T2000 ; sets acceleration (P, T) and retract acceleration (R), mm/sec^2
M205 X10.00 Y10.00 Z0.20 E2.50 ; sets the jerk limits, mm/sec
M205 S0 T0 ; sets the minimum extruding and travel feed rate, mm/sec
M107
M862.3 P "MK2S" ; printer model check
M862.1 P0.4 ; nozzle diameter check
M115 U3.2.3 ; tell printer latest fw version
G90 ; use absolute coordinates
M83 ; extruder relative mode
M204 S2000 T1500 ; MK2 firmware only supports the old M204 format
M104 S215 ; set extruder temp
M140 S60 ; set bed temp
M190 S60 ; wait for bed temp
M109 S215 ; wait for extruder temp
G28 W ; home all without mesh bed level
G80 ; mesh bed leveling
G1 Y-3.0 F1000.0 ; go outside print area
G92 E0.0
G1 X60.0 E9.0  F1000.0 ; intro line
M73 P0 R15
G1 X100.0 E12.5 F1000.0 ; intro line
G92 E0.0
G21 ; set units to millimeters
G90 ; use absolute coordinates
M83 ; use relative distances for extrusion
M900 K30 ; Filament gcode
;BEFORE_LAYER_CHANGE
G92 E0.0
;0.2


G1 E-0.80000 F2100.00000
G1 Z0.600 F10800.000
;AFTER_LAYER_CHANGE
;0.2
G1 X72.016 Y64.445
G1 Z0.200
G1 E0.80000 F2100.00000
M204 S1000
G1 F1200
G1 X72.536 Y63.715 E0.02810
G1 X73.219 Y63.286 E0.02529
G1 X74.008 Y63.134 E0.02518
G1 X162.402 Y63.134 E2.77154
G1 X163.126 Y63.259 E0.02304
G1 X163.768 Y63.616 E0.02304
G1 X164.256 Y64.165 E0.02304
G1 X164.534 Y64.845 E0.02304
G1 X178.133 Y133.506 E2.19463
G1 X178.165 Y144.791 E0.35381
G1 X177.961 Y145.605 E0.02631
G1 X177.464 Y146.285 E0.02642
G1 X176.781 Y146.714 E0.02529
G1 X175.992 Y146.866 E0.02518
G1 X74.017 Y146.866 E3.19735
G1 X73.144 Y146.682 E0.02799
G1 X72.413 Y146.163 E0.02810
G1 X71.986 Y145.483 E0.02518
G1 X71.833 Y144.694 E0.02518
G1 X71.832 Y65.319 E2.48876
G1 X72.004 Y64.504 E0.02611
G1 E-0.80000 F2100.00000
G1 Z0.800 F10800.000
G1 X129.325 Y66.712
G1 Z0.200
G1 E0.80000 F2100.00000
G1 F1200
G1 X161.073 Y66.712 E0.99545
G1 X161.073 Y143.288 E2.40098
G1 X129.325 Y143.288 E0.99545
G1 X129.325 Y66.772 E2.39910
G1 X129.702 Y67.089 F10800.000
G1 F1200
G1 X160.696 Y67.089 E0.97180
G1 X160.696 Y142.911 E2.37733
G1 X129.702 Y142.911 E0.97180
G1 X129.702 Y67.149 E2.37545
G1 X129.651 Y66.693 F10800.000
G1 E-0.80000 F2100.00000
G1 Z0.800 F10800.000
G1 X168.249 Y135.850
G1 Z0.200
G1 E0.80000 F2100.00000
G1 F1200
G1 X168.876 Y135.557 E0.02169
G1 X169.544 Y135.378 E0.02169
G1 X170.202 Y135.321 E0.02069
G1 X170.920 Y135.378 E0.02260
G1 X171.591 Y135.557 E0.02177
G1 X172.218 Y135.850 E0.02169
G1 X172.784 Y136.246 E0.02169
G1 X173.274 Y136.736 E0.02169
G1 X173.670 Y137.302 E0.02169
G1 X173.963 Y137.929 E0.02169
G1 X174.142 Y138.597 E0.02169
G1 X174.202 Y139.287 E0.02169
G1 X174.142 Y139.976 E0.02169
G1 X173.963 Y140.644 E0.02169
G1 X173.670 Y141.271 E0.02169
G1 X173.274 Y141.838 E0.02169
G1 X172.784 Y142.327 E0.02169
G1 X172.218 Y142.723 E0.02169
G1 X171.591 Y143.016 E0.02169
G1 X170.923 Y143.195 E0.02169
G1 X170.233 Y143.255 E0.02169
G1 X169.544 Y143.195 E0.02169
G1 X168.876 Y143.016 E0.02169
G1 X168.249 Y142.723 E0.02169
G1 X167.683 Y142.327 E0.02168
G1 X167.206 Y141.851 E0.02113
G1 X166.797 Y141.272 E0.02222
G1 X166.504 Y140.644 E0.02173
G1 X166.325 Y139.976 E0.02169
G1 X166.265 Y139.287 E0.02169
G1 X166.325 Y138.597 E0.02169
G1 X166.504 Y137.929 E0.02169
G1 X166.797 Y137.302 E0.02169
G1 X167.193 Y136.736 E0.02169
G1 X167.683 Y136.246 E0.02169
G1 X168.200 Y135.884 E0.01981
G1 X168.416 Y136.193 F10800.000
G1 F1200
G1 X169.006 Y135.913 E0.02046
G1 X169.610 Y135.751 E0.01962
G1 X170.203 Y135.699 E0.01867
G1 X170.856 Y135.751 E0.02053
G1 X171.461 Y135.913 E0.01965
G1 X172.029 Y136.177 E0.01962
G1 X172.541 Y136.536 E0.01962
G1 X172.984 Y136.979 E0.01962
G1 X173.343 Y137.492 E0.01962
G1 X173.607 Y138.059 E0.01962
G1 X173.769 Y138.663 E0.01962
G1 X173.824 Y139.287 E0.01962
G1 X173.769 Y139.910 E0.01962
G1 X173.607 Y140.514 E0.01962
G1 X173.343 Y141.082 E0.01962
G1 X172.984 Y141.594 E0.01962
G1 X172.541 Y142.037 E0.01962
G1 X172.029 Y142.396 E0.01962
G1 X171.461 Y142.660 E0.01962
G1 X170.857 Y142.822 E0.01962
G1 X170.233 Y142.877 E0.01962
G1 X169.610 Y142.822 E0.01962
G1 X169.006 Y142.660 E0.01962
G1 X168.438 Y142.396 E0.01962
G1 X167.926 Y142.037 E0.01962
G1 X167.495 Y141.607 E0.01908
G1 X167.125 Y141.082 E0.02015
G1 X166.860 Y140.514 E0.01963
G1 X166.698 Y139.910 E0.01962
G1 X166.643 Y139.287 E0.01962
G1 X166.698 Y138.663 E0.01962
G1 X166.860 Y138.059 E0.01962
G1 X167.124 Y137.492 E0.01962
G1 X167.483 Y136.979 E0.01962
G1 X167.926 Y136.536 E0.01962
G1 X168.367 Y136.227 E0.01689
G1 X168.414 Y135.793 F10800.000
G1 E-0.80000 F2100.00000
G1 Z0.800 F10800.000
G1 X175.392 Y134.483
G1 Z0.200
G1 E0.80000 F2100.00000
G1 F1200
G1 X175.392 Y144.090 E0.30124
G1 X128.587 Y144.090 E1.46753
G1 X128.587 Y65.910 E2.45130
G1 X161.811 Y65.910 E1.04173
G1 X161.811 Y126.919 E1.91290
G1 X161.903 Y128.083 E0.03661
G1 X162.178 Y129.229 E0.03695
G1 X162.644 Y130.355 E0.03821
G1 X163.259 Y131.356 E0.03685
G1 X164.032 Y132.262 E0.03733
G1 X164.938 Y133.035 E0.03734
G1 X165.953 Y133.657 E0.03734
G1 X167.053 Y134.113 E0.03733
G1 X168.189 Y134.387 E0.03663
G1 X169.375 Y134.483 E0.03730
G1 X175.332 Y134.483 E0.18678
G1 X175.769 Y134.106 F10800.000
G1 F1200
G1 X175.769 Y144.467 E0.32488
M73 P6 R14
G1 X128.210 Y144.467 E1.49118
G1 X128.210 Y65.533 E2.47495
G1 X162.189 Y65.533 E1.06537
G1 X162.189 Y126.904 E1.92426
G1 X162.277 Y128.024 E0.03522
G1 X162.537 Y129.112 E0.03509
G1 X162.981 Y130.183 E0.03634
G1 X163.565 Y131.134 E0.03499
G1 X164.300 Y131.994 E0.03548
G1 X165.160 Y132.729 E0.03548
G1 X166.125 Y133.320 E0.03548
G1 X167.170 Y133.753 E0.03547
G1 X168.249 Y134.013 E0.03478
G1 X169.390 Y134.106 E0.03590
G1 X175.709 Y134.106 E0.19813
G1 X175.568 Y134.451 F10800.000
G1 X175.279 Y135.359
G1 F1200
G1 X174.686 Y134.766 E0.02632
G1 X174.152 Y134.766 E0.01675
G1 X175.109 Y135.723 E0.04247
G1 X175.109 Y136.256 E0.01675
G1 X173.618 Y134.766 E0.06616
G1 X173.085 Y134.766 E0.01675
G1 X175.109 Y136.790 E0.08984
G1 X175.109 Y137.324 E0.01675
G1 X172.551 Y134.766 E0.11352
G1 X172.017 Y134.766 E0.01675
G1 X175.109 Y137.857 E0.13720
G1 X175.109 Y138.391 E0.01675
G1 X171.484 Y134.766 E0.16088
G1 X170.950 Y134.766 E0.01675
G1 X171.397 Y135.213 E0.01984
G1 X170.968 Y135.098 E0.01392
G1 X170.730 Y135.079 E0.00752
G1 X170.416 Y134.766 E0.01390
G1 X169.883 Y134.766 E0.01675
G1 X170.158 Y135.041 E0.01221
G1 X169.667 Y135.084 E0.01546
G1 X169.348 Y134.764 E0.01417
G1 X168.767 Y134.717 E0.01828
G1 X169.222 Y135.172 E0.02017
G1 X168.801 Y135.285 E0.01367
G1 X168.186 Y134.670 E0.02726
G1 X167.492 Y134.510 E0.02236
G1 X168.434 Y135.452 E0.04179
G1 X168.075 Y135.626 E0.01252
G1 X166.737 Y134.288 E0.05939
G1 X165.826 Y133.911 E0.03094
G1 X167.761 Y135.846 E0.08588
G1 X167.455 Y136.074 E0.01197
G1 X161.356 Y129.975 E0.27064
G1 X161.356 Y129.441 E0.01675
G1 X162.387 Y130.472 E0.04573
G1 X162.009 Y129.560 E0.03097
G1 X161.356 Y128.908 E0.02896
G1 X161.356 Y128.374 E0.01675
G1 X161.785 Y128.802 E0.01901
G1 X161.621 Y128.105 E0.02247
G1 X161.356 Y127.840 E0.01175
G1 X161.356 Y127.307 E0.01675
G1 X161.760 Y127.711 E0.01793
G1 X161.442 Y126.951 F10800.000
G1 F1200
G1 X161.442 Y66.524 E1.81335
G1 X161.314 Y66.410 F10800.000
G1 F1200
G1 X161.096 Y66.192 E0.00979
G1 X160.556 Y66.192 E0.01713
G1 X160.793 Y66.429 E0.01063
G1 X160.254 Y66.429 E0.01713
G1 X160.017 Y66.192 E0.01063
G1 X159.477 Y66.192 E0.01713
G1 X159.714 Y66.429 E0.01063
G1 X159.174 Y66.429 E0.01713
G1 X158.937 Y66.192 E0.01063
G1 X158.398 Y66.192 E0.01713
G1 X158.635 Y66.429 E0.01063
G1 X158.095 Y66.429 E0.01713
G1 X157.858 Y66.192 E0.01063
G1 X157.318 Y66.192 E0.01713
G1 X157.555 Y66.429 E0.01063
G1 X157.015 Y66.429 E0.01713
G1 X156.779 Y66.192 E0.01063
G1 X156.239 Y66.192 E0.01713
G1 X156.476 Y66.429 E0.01063
G1 X155.936 Y66.429 E0.01713
G1 X155.699 Y66.192 E0.01063
G1 X155.159 Y66.192 E0.01713
G1 X155.396 Y66.429 E0.01063
G1 X154.857 Y66.429 E0.01713
G1 X154.620 Y66.192 E0.01063
G1 X154.080 Y66.192 E0.01713
G1 X154.317 Y66.429 E0.01063
G1 X153.777 Y66.429 E0.01713
G1 X153.540 Y66.192 E0.01063
G1 X153.001 Y66.192 E0.01713
G1 X153.238 Y66.429 E0.01063
G1 X152.698 Y66.429 E0.01713
G1 X152.461 Y66.192 E0.01063
G1 X151.921 Y66.192 E0.01713
G1 X152.158 Y66.429 E0.01063
G1 X151.618 Y66.429 E0.01713
G1 X151.382 Y66.192 E0.01063
G1 X150.842 Y66.192 E0.01713
G1 X151.079 Y66.429 E0.01063
G1 X150.539 Y66.429 E0.01713
G1 X150.302 Y66.192 E0.01063
G1 X149.762 Y66.192 E0.01713
G1 X149.999 Y66.429 E0.01063
G1 X149.460 Y66.429 E0.01713
G1 X149.223 Y66.192 E0.01063
G1 X148.683 Y66.192 E0.01713
G1 X148.920 Y66.429 E0.01063
G1 X148.380 Y66.429 E0.01713
G1 X148.143 Y66.192 E0.01063
G1 X147.604 Y66.192 E0.01713
G1 X147.841 Y66.429 E0.01063
G1 X147.301 Y66.429 E0.01713
G1 X147.064 Y66.192 E0.01063
G1 X146.524 Y66.192 E0.01713
G1 X146.761 Y66.429 E0.01063
G1 X146.222 Y66.429 E0.01713
G1 X145.985 Y66.192 E0.01063
G1 X145.445 Y66.192 E0.01713
G1 X145.682 Y66.429 E0.01063
G1 X145.142 Y66.429 E0.01713
G1 X144.905 Y66.192 E0.01063
G1 X144.366 Y66.192 E0.01713
G1 X144.602 Y66.429 E0.01063
G1 X144.063 Y66.429 E0.01713
G1 X143.826 Y66.192 E0.01063
G1 X143.286 Y66.192 E0.01713
G1 X143.523 Y66.429 E0.01063
G1 X142.983 Y66.429 E0.01713
G1 X142.746 Y66.192 E0.01063
G1 X142.207 Y66.192 E0.01713
G1 X142.444 Y66.429 E0.01063
G1 X141.904 Y66.429 E0.01713
G1 X141.667 Y66.192 E0.01063
G1 X141.127 Y66.192 E0.01713
G1 X141.364 Y66.429 E0.01063
G1 X140.825 Y66.429 E0.01713
G1 X140.588 Y66.192 E0.01063
G1 X140.048 Y66.192 E0.01713
G1 X140.285 Y66.429 E0.01063
G1 X139.745 Y66.429 E0.01713
G1 X139.508 Y66.192 E0.01063
G1 X138.969 Y66.192 E0.01713
G1 X139.205 Y66.429 E0.01063
G1 X138.666 Y66.429 E0.01713
G1 X138.429 Y66.192 E0.01063
G1 X137.889 Y66.192 E0.01713
G1 X138.126 Y66.429 E0.01063
G1 X137.586 Y66.429 E0.01713
G1 X137.349 Y66.192 E0.01063
G1 X136.810 Y66.192 E0.01713
G1 X137.047 Y66.429 E0.01063
G1 X136.507 Y66.429 E0.01713
G1 X136.270 Y66.192 E0.01063
G1 X135.730 Y66.192 E0.01713
G1 X135.967 Y66.429 E0.01063
G1 X135.428 Y66.429 E0.01713
G1 X135.191 Y66.192 E0.01063
G1 X134.651 Y66.192 E0.01713
G1 X134.888 Y66.429 E0.01063
G1 X134.348 Y66.429 E0.01713
G1 X134.111 Y66.192 E0.01063
G1 X133.572 Y66.192 E0.01713
G1 X133.808 Y66.429 E0.01063
G1 X133.269 Y66.429 E0.01713
G1 X133.032 Y66.192 E0.01063
G1 X132.492 Y66.192 E0.01713
G1 X132.729 Y66.429 E0.01063
G1 X132.189 Y66.429 E0.01713
G1 X131.952 Y66.192 E0.01063
G1 X131.413 Y66.192 E0.01713
G1 X131.650 Y66.429 E0.01063
G1 X131.110 Y66.429 E0.01713
G1 X130.873 Y66.192 E0.01063
G1 X130.333 Y66.192 E0.01713
G1 X130.570 Y66.429 E0.01063
G1 X130.031 Y66.429 E0.01713
G1 X129.794 Y66.192 E0.01063
G1 X129.254 Y66.192 E0.01713
G1 X129.661 Y66.599 E0.01825
G1 X128.956 Y66.524 F10800.000
G1 F1200
G1 X128.956 Y143.476 E2.30936
G1 X129.463 Y143.977 F10800.000
G1 F1200
G1 X129.245 Y143.759 E0.00968
G1 X129.441 Y143.759 E0.00615
G1 X129.441 Y143.571 E0.00592
G1 X129.590 Y143.571 E0.00468
G1 X129.827 Y143.808 E0.01051
G1 X130.361 Y143.808 E0.01675
G1 X130.124 Y143.571 E0.01051
G1 X130.657 Y143.571 E0.01675
G1 X130.894 Y143.808 E0.01051
G1 X131.428 Y143.808 E0.01675
G1 X131.191 Y143.571 E0.01051
G1 X131.725 Y143.571 E0.01675
G1 X131.962 Y143.808 E0.01051
G1 X132.495 Y143.808 E0.01675
G1 X132.258 Y143.571 E0.01051
G1 X132.792 Y143.571 E0.01675
G1 X133.029 Y143.808 E0.01051
G1 X133.563 Y143.808 E0.01675
G1 X133.326 Y143.571 E0.01051
G1 X133.859 Y143.571 E0.01675
G1 X134.096 Y143.808 E0.01051
G1 X134.630 Y143.808 E0.01675
G1 X134.393 Y143.571 E0.01051
G1 X134.927 Y143.571 E0.01675
G1 X135.164 Y143.808 E0.01051
G1 X135.697 Y143.808 E0.01675
G1 X135.460 Y143.571 E0.01051
G1 X135.994 Y143.571 E0.01675
G1 X136.231 Y143.808 E0.01051
G1 X136.765 Y143.808 E0.01675
G1 X136.528 Y143.571 E0.01051
G1 X137.061 Y143.571 E0.01675
G1 X137.298 Y143.808 E0.01051
G1 X137.832 Y143.808 E0.01675
G1 X137.595 Y143.571 E0.01051
G1 X138.129 Y143.571 E0.01675
G1 X138.366 Y143.808 E0.01051
G1 X138.899 Y143.808 E0.01675
G1 X138.662 Y143.571 E0.01051
G1 X139.196 Y143.571 E0.01675
G1 X139.433 Y143.808 E0.01051
G1 X139.967 Y143.808 E0.01675
G1 X139.730 Y143.571 E0.01051
G1 X140.263 Y143.571 E0.01675
G1 X140.500 Y143.808 E0.01051
G1 X141.034 Y143.808 E0.01675
G1 X140.797 Y143.571 E0.01051
G1 X141.331 Y143.571 E0.01675
G1 X141.568 Y143.808 E0.01051
G1 X142.101 Y143.808 E0.01675
G1 X141.864 Y143.571 E0.01051
G1 X142.398 Y143.571 E0.01675
G1 X142.635 Y143.808 E0.01051
G1 X143.169 Y143.808 E0.01675
G1 X142.932 Y143.571 E0.01051
G1 X143.465 Y143.571 E0.01675
G1 X143.702 Y143.808 E0.01051
G1 X144.236 Y143.808 E0.01675
G1 X143.999 Y143.571 E0.01051
G1 X144.533 Y143.571 E0.01675
G1 X144.770 Y143.808 E0.01051
G1 X145.303 Y143.808 E0.01675
G1 X145.066 Y143.571 E0.01051
G1 X145.600 Y143.571 E0.01675
G1 X145.837 Y143.808 E0.01051
G1 X146.371 Y143.808 E0.01675
G1 X146.134 Y143.571 E0.01051
G1 X146.667 Y143.571 E0.01675
G1 X146.904 Y143.808 E0.01051
G1 X147.438 Y143.808 E0.01675
G1 X147.201 Y143.571 E0.01051
G1 X147.735 Y143.571 E0.01675
G1 X147.972 Y143.808 E0.01051
G1 X148.505 Y143.808 E0.01675
G1 X148.268 Y143.571 E0.01051
G1 X148.802 Y143.571 E0.01675
G1 X149.039 Y143.808 E0.01051
G1 X149.573 Y143.808 E0.01675
G1 X149.336 Y143.571 E0.01051
G1 X149.869 Y143.571 E0.01675
G1 X150.106 Y143.808 E0.01051
G1 X150.640 Y143.808 E0.01675
G1 X150.403 Y143.571 E0.01051
G1 X150.937 Y143.571 E0.01675
G1 X151.174 Y143.808 E0.01051
G1 X151.707 Y143.808 E0.01675
G1 X151.471 Y143.571 E0.01051
G1 X152.004 Y143.571 E0.01675
G1 X152.241 Y143.808 E0.01051
G1 X152.775 Y143.808 E0.01675
G1 X152.538 Y143.571 E0.01051
G1 X153.072 Y143.571 E0.01675
G1 X153.308 Y143.808 E0.01051
G1 X153.842 Y143.808 E0.01675
G1 X153.605 Y143.571 E0.01051
G1 X154.139 Y143.571 E0.01675
G1 X154.376 Y143.808 E0.01051
G1 X154.909 Y143.808 E0.01675
G1 X154.673 Y143.571 E0.01051
G1 X155.206 Y143.571 E0.01675
G1 X155.443 Y143.808 E0.01051
G1 X155.977 Y143.808 E0.01675
G1 X155.740 Y143.571 E0.01051
G1 X156.274 Y143.571 E0.01675
G1 X156.510 Y143.808 E0.01051
G1 X157.044 Y143.808 E0.01675
G1 X156.807 Y143.571 E0.01051
G1 X157.341 Y143.571 E0.01675
G1 X157.578 Y143.808 E0.01051
G1 X158.111 Y143.808 E0.01675
G1 X157.875 Y143.571 E0.01051
G1 X158.408 Y143.571 E0.01675
G1 X158.645 Y143.808 E0.01051
G1 X159.179 Y143.808 E0.01675
G1 X158.942 Y143.571 E0.01051
G1 X159.476 Y143.571 E0.01675
G1 X159.712 Y143.808 E0.01051
G1 X160.246 Y143.808 E0.01675
G1 X160.009 Y143.571 E0.01051
G1 X160.543 Y143.571 E0.01675
G1 X160.780 Y143.808 E0.01051
G1 X161.313 Y143.808 E0.01675
G1 X161.077 Y143.571 E0.01051
G1 X161.356 Y143.571 E0.00878
G1 X161.356 Y143.317 E0.00797
G1 X161.847 Y143.808 E0.02178
G1 X162.381 Y143.808 E0.01675
G1 X161.356 Y142.783 E0.04546
G1 X161.356 Y142.249 E0.01675
G1 X162.914 Y143.808 E0.06915
G1 X163.448 Y143.808 E0.01675
G1 X161.356 Y141.716 E0.09283
G1 X161.356 Y141.182 E0.01675
G1 X163.982 Y143.808 E0.11651
G1 X164.516 Y143.808 E0.01675
G1 X161.356 Y140.648 E0.14019
G1 X161.356 Y140.115 E0.01675
G1 X165.049 Y143.808 E0.16387
G1 X165.583 Y143.808 E0.01675
G1 X161.356 Y139.581 E0.18755
G1 X161.356 Y139.047 E0.01675
G1 X166.117 Y143.808 E0.21124
G1 X166.650 Y143.808 E0.01675
G1 X161.356 Y138.514 E0.23492
G1 X161.356 Y137.980 E0.01675
G1 X167.184 Y143.808 E0.25860
G1 X167.718 Y143.808 E0.01675
G1 X161.356 Y137.446 E0.28228
G1 X161.356 Y136.913 E0.01675
G1 X168.251 Y143.808 E0.30596
G1 X168.785 Y143.808 E0.01675
G1 X161.356 Y136.379 E0.32964
