; G-Code generated by Simplify3D(R) Version 4.1.2
; Nov 9, 2019 at 11:12:33 AM
; Settings Summary
;   processName,Process1
;   applyToModels,HammerGlow,HammerGlow(2)
;   profileName,Prusa Research Original Prusa i3 MK2 (modified)
;   profileVersion,2019-10-24 09:35:36
;   baseProfile,
;   printMaterial,PLA
;   printQuality,Medium
;   printExtruders,
;   extruderName,Primary Extruder
;   extruderToolheadNumber,0
;   extruderDiameter,0.4
;   extruderAutoWidth,1
;   extruderWidth,0.48
;   extrusionMultiplier,1
;   extruderUseRetract,1
;   extruderRetractionDistance,1.5
;   extruderExtraRestartDistance,0
;   extruderRetractionZLift,0
;   extruderRetractionSpeed,1800
;   extruderUseCoasting,1
;   extruderCoastingDistance,0.2
;   extruderUseWipe,1
;   extruderWipeDistance,2
;   primaryExtruder,0
;   layerHeight,0.2
;   topSolidLayers,3
;   bottomSolidLayers,3
;   perimeterOutlines,2
;   printPerimetersInsideOut,1
;   startPointOption,2
;   startPointOriginX,0
;   startPointOriginY,0
;   sequentialIslands,0
;   spiralVaseMode,0
;   firstLayerHeightPercentage,150
;   firstLayerWidthPercentage,100
;   firstLayerUnderspeed,0.5
;   useRaft,0
;   raftExtruder,0
;   raftTopLayers,2
;   raftBaseLayers,2
;   raftOffset,3
;   raftSeparationDistance,0.14
;   raftTopInfill,100
;   aboveRaftSpeedMultiplier,0.3
;   useSkirt,0
;   skirtExtruder,0
;   skirtLayers,1
;   skirtOutlines,2
;   skirtOffset,4
;   usePrimePillar,0
;   primePillarExtruder,999
;   primePillarWidth,12
;   primePillarLocation,7
;   primePillarSpeedMultiplier,1
;   useOozeShield,0
;   oozeShieldExtruder,999
;   oozeShieldOffset,2
;   oozeShieldOutlines,1
;   oozeShieldSidewallShape,1
;   oozeShieldSidewallAngle,30
;   oozeShieldSpeedMultiplier,1
;   infillExtruder,0
;   internalInfillPattern,Rectilinear
;   externalInfillPattern,Rectilinear
;   infillPercentage,15
;   outlineOverlapPercentage,20
;   infillExtrusionWidthPercentage,100
;   minInfillLength,5
;   infillLayerInterval,1
;   internalInfillAngles,45,-45
;   overlapInternalInfillAngles,0
;   externalInfillAngles,45,-45
;   generateSupport,1
;   supportExtruder,0
;   supportInfillPercentage,60
;   supportExtraInflation,0
;   supportBaseLayers,2
;   denseSupportExtruder,0
;   denseSupportLayers,0
;   denseSupportInfillPercentage,70
;   supportLayerInterval,1
;   supportHorizontalPartOffset,0.3
;   supportUpperSeparationLayers,1
;   supportLowerSeparationLayers,1
;   supportType,0
;   supportGridSpacing,1
;   maxOverhangAngle,45
;   supportAngles,0
;   temperatureName,Primary Extruder,Heated Bed
;   temperatureNumber,0,0
;   temperatureSetpointCount,1,1
;   temperatureSetpointLayers,1,1
;   temperatureSetpointTemperatures,200,60
;   temperatureStabilizeAtStartup,1,1
;   temperatureHeatedBed,0,1
;   fanLayers,1,2
;   fanSpeeds,0,100
;   blipFanToFullPower,0
;   adjustSpeedForCooling,1
;   minSpeedLayerTime,15
;   minCoolingSpeedSlowdown,20
;   increaseFanForCooling,0
;   minFanLayerTime,45
;   maxCoolingFanSpeed,100
;   increaseFanForBridging,0
;   bridgingFanSpeed,100
;   use5D,1
;   relativeEdistances,0
;   allowEaxisZeroing,1
;   independentExtruderAxes,0
;   includeM10123,0
;   stickySupport,1
;   applyToolheadOffsets,0
;   gcodeXoffset,0
;   gcodeYoffset,0
;   gcodeZoffset,0
;   overrideMachineDefinition,1
;   machineTypeOverride,0
;   strokeXoverride,250
;   strokeYoverride,210
;   strokeZoverride,200
;   originOffsetXoverride,0
;   originOffsetYoverride,0
;   originOffsetZoverride,0
;   homeXdirOverride,-1
;   homeYdirOverride,-1
;   homeZdirOverride,-1
;   flipXoverride,1
;   flipYoverride,-1
;   flipZoverride,1
;   toolheadOffsets,0,0|0,0|0,0|0,0|0,0|0,0
;   overrideFirmwareConfiguration,1
;   firmwareTypeOverride,RepRap (Marlin/Repetier/Sprinter)
;   GPXconfigOverride,r2
;   baudRateOverride,250000
;   overridePrinterModels,1
;   printerModelsOverride
;   startingGcode,M115 U3.0.7 ; use the latest firmware version,G28 W ; home all axes without mesh bed leveling,G80 ; run mesh bed leveling routine,G1 Y-3.0 F1000.0 ; prepare to prime,G92 E0 ; reset extrusion distance,G1 X60.0 E9.0  F1000.0 ; priming,G1 X100.0 E12.5  F1000.0 ; priming
;   layerChangeGcode,
;   retractionGcode,
;   toolChangeGcode,
;   endingGcode,M106 S0 ; turn off cooling fan,M104 S0 ; turn off extruder,M140 S0 ; turn off bed,G1 X0 Y200 ; part removal,M84 ; disable motors
;   exportFileFormat,gcode
;   celebration,0
;   celebrationSong,Random Song
;   postProcessing,
;   defaultSpeed,2400
;   outlineUnderspeed,0.8
;   solidInfillUnderspeed,0.8
;   supportUnderspeed,0.8
;   rapidXYspeed,4800
;   rapidZspeed,1002
;   minBridgingArea,50
;   bridgingExtraInflation,0
;   bridgingExtrusionMultiplier,1
;   bridgingSpeedMultiplier,1
;   useFixedBridgingAngle,0
;   fixedBridgingAngle,0
;   applyBridgingToPerimeters,0
;   filamentDiameters,1.75|1.75|1.75|1.75|1.75|1.75
;   filamentPricesPerKg,46|46|46|46|46|46
;   filamentDensities,1.25|1.25|1.25|1.25|1.25|1.25
;   useMinPrintHeight,0
;   minPrintHeight,0
;   useMaxPrintHeight,0
;   maxPrintHeight,0
;   useDiaphragm,0
;   diaphragmLayerInterval,20
;   robustSlicing,1
;   mergeAllIntoSolid,0
;   onlyRetractWhenCrossingOutline,1
;   retractBetweenLayers,1
;   useRetractionMinTravel,0
;   retractionMinTravel,3
;   retractWhileWiping,1
;   onlyWipeOutlines,1
;   avoidCrossingOutline,0
;   maxMovementDetourFactor,3
;   toolChangeRetractionDistance,12
;   toolChangeExtraRestartDistance,-0.5
;   toolChangeRetractionSpeed,600
;   externalThinWallType,0
;   internalThinWallType,2
;   thinWallAllowedOverlapPercentage,25
;   singleExtrusionMinLength,1
;   singleExtrusionMinPrintingWidthPercentage,50
;   singleExtrusionMaxPrintingWidthPercentage,200
;   singleExtrusionEndpointExtension,0.2
;   horizontalSizeCompensation,0
G90
M82
M106 S0
M140 S60
M190 S60
M104 S200 T0
M109 S200 T0
M115 U3.0.7 ; use the latest firmware version
G28 W ; home all axes without mesh bed leveling
G80 ; run mesh bed leveling routine
G1 Y-3.0 F1000.0 ; prepare to prime
G92 E0 ; reset extrusion distance
G1 X60.0 E9.0  F1000.0 ; priming
G1 X100.0 E12.5  F1000.0 ; priming
; process Process1
; layer 1, Z = 0.300
T0
G92 E0.0000
G1 E-1.5000 F1800
; feature inner perimeter
; tool H0.300 W0.480
G1 Z0.300 F1002
G1 X99.409 Y87.681 F4800
G1 E0.0000 F1800
G92 E0.0000
G1 X100.523 Y86.756 E0.0867 F1080
G1 X101.796 Y86.065 E0.1734
G1 X103.179 Y85.636 E0.2601
G1 X104.619 Y85.484 E0.3468
G1 X106.062 Y85.616 E0.4335
G1 X107.451 Y86.027 E0.5202
G1 X108.733 Y86.700 E0.6070
G1 X109.860 Y87.611 E0.6937
G1 X110.787 Y88.724 E0.7804
G1 X111.480 Y89.997 E0.8672
G1 X111.911 Y91.380 E0.9539
G1 X112.064 Y92.822 E1.0407
G1 X111.932 Y94.265 E1.1275
G1 X111.521 Y95.656 E1.2143
G1 X110.846 Y96.939 E1.3011
G1 X109.934 Y98.067 E1.3879
G1 X108.819 Y98.995 E1.4748
G1 X107.545 Y99.686 E1.5616
G1 X106.159 Y100.114 E1.6484
G1 X104.717 Y100.264 E1.7352
G1 X103.273 Y100.131 E1.8220
G1 X101.884 Y99.718 E1.9088
G1 X100.601 Y99.043 E1.9956
G1 X99.475 Y98.131 E2.0823
G1 X98.548 Y97.017 E2.1691
G1 X97.857 Y95.743 E2.2559
G1 X97.427 Y94.360 E2.3426
G1 X97.276 Y92.919 E2.4293
G1 X97.409 Y91.476 E2.5161
G1 X97.822 Y90.088 E2.6028
G1 X98.497 Y88.806 E2.6895
G1 X99.283 Y87.837 E2.7642
G1 X99.409 Y87.681 F1080
; feature outer perimeter
G1 X99.066 Y87.342 F4800
G92 E0.0000
G1 X100.253 Y86.356 E0.0924 F960
G1 X101.609 Y85.621 E0.1847
G1 X103.082 Y85.163 E0.2771
G1 X104.616 Y85.002 E0.3694
G1 X106.152 Y85.142 E0.4618
G1 X107.632 Y85.580 E0.5542
G1 X108.998 Y86.297 E0.6466
G1 X110.198 Y87.267 E0.7389
G1 X111.186 Y88.453 E0.8313
G1 X111.924 Y89.809 E0.9237
G1 X112.383 Y91.283 E1.0162
G1 X112.546 Y92.818 E1.1086
G1 X112.406 Y94.356 E1.2011
G1 X111.968 Y95.837 E1.2935
G1 X111.249 Y97.205 E1.3860
G1 X110.278 Y98.406 E1.4785
G1 X109.090 Y99.394 E1.5710
G1 X107.732 Y100.131 E1.6635
G1 X106.256 Y100.586 E1.7560
G1 X104.720 Y100.747 E1.8484
G1 X103.182 Y100.604 E1.9409
G1 X101.702 Y100.165 E2.0333
G1 X100.336 Y99.446 E2.1258
G1 X99.136 Y98.474 E2.2182
G1 X98.149 Y97.287 E2.3106
G1 X97.412 Y95.931 E2.4030
G1 X96.955 Y94.457 E2.4954
G1 X96.794 Y92.922 E2.5878
G1 X96.936 Y91.385 E2.6802
G1 X97.375 Y89.906 E2.7726
G1 X98.095 Y88.541 E2.8650
G1 X98.940 Y87.498 E2.9454
G1 X99.066 Y87.342 F960
G1 X100.253 Y86.356 F960
G1 X100.655 Y86.138
; feature solid layer
G1 X108.224 Y86.866 F4800
G92 E0.0000
G1 X110.670 Y89.313 E0.2071 F960
G1 X111.124 Y90.147 E0.2640
G1 X111.259 Y90.581 E0.2912
G1 X106.961 Y86.282 E0.6551
G1 X105.997 Y85.997 E0.7153
G1 X111.542 Y91.542 E1.1847
G1 X111.622 Y92.301 E1.2304
G1 X105.248 Y85.927 E1.7700
G1 X104.622 Y85.870 E1.8077
G1 X104.523 Y85.880 E1.8137
G1 X111.660 Y93.018 E2.4180
G1 X111.603 Y93.640 E2.4554
G1 X103.908 Y85.945 E3.1069
G1 X103.294 Y86.010 E3.1439
G1 X111.536 Y94.251 E3.8416
G1 X111.381 Y94.775 E3.8743
G1 X102.770 Y86.165 E4.6034
G1 X102.252 Y86.325 E4.6358
G1 X111.226 Y95.299 E5.3956
G1 X111.163 Y95.511 E5.4088
G1 X111.024 Y95.776 E5.4268
G1 X101.766 Y86.518 E6.2106
G1 X101.326 Y86.757 E6.2406
G1 X110.790 Y96.221 E7.0419
G1 X110.556 Y96.666 E7.0719
G1 X100.886 Y86.996 E7.8907
G1 X100.739 Y87.075 E7.9007
G1 X100.492 Y87.281 E7.9199
G1 X110.262 Y97.051 E8.7471
G1 X109.959 Y97.426 E8.7760
G1 X100.122 Y87.589 E9.6089
G1 X99.751 Y87.897 E9.6378
G1 X109.654 Y97.800 E10.4763
G1 X109.284 Y98.108 E10.5051
G1 X99.435 Y88.260 E11.3390
G1 X99.131 Y88.634 E11.3679
G1 X108.913 Y98.417 E12.1961
G1 X108.603 Y98.675 E12.2203
G1 X108.532 Y98.714 E12.2252
G1 X98.827 Y89.009 E13.0468
G1 X98.819 Y89.019 E13.0476
G1 X98.591 Y89.452 E13.0769
G1 X108.092 Y98.953 E13.8813
G1 X107.652 Y99.192 E13.9112
G1 X98.357 Y89.897 E14.6982
G1 X98.179 Y90.233 E14.7210
G1 X98.142 Y90.360 E14.7289
G1 X107.179 Y99.397 E15.4941
G1 X106.660 Y99.557 E15.5266
G1 X97.986 Y90.884 E16.2609
G1 X97.831 Y91.407 E16.2936
G1 X106.141 Y99.717 E16.9972
G1 X106.082 Y99.736 E17.0009
G1 X105.537 Y99.793 E17.0337
G1 X97.746 Y92.002 E17.6934
G1 X97.689 Y92.623 E17.7307
G1 X104.923 Y99.857 E18.3432
G1 X104.715 Y99.879 E18.3557
G1 X104.220 Y99.833 E18.3854
G1 X97.704 Y93.317 E18.9371
G1 X97.783 Y94.075 E18.9828
G1 X103.472 Y99.764 E19.4644
G1 X103.346 Y99.752 E19.4720
G1 X102.543 Y99.514 E19.5221
G1 X98.027 Y94.998 E19.9045
G1 X98.212 Y95.593 E19.9418
G1 X98.531 Y96.180 E19.9818
G1 X101.217 Y98.867 E20.2093
G1 X101.359 Y99.008 F960
G92 E0.0000
G1 E-1.5000 F1800
; feature inner perimeter
G1 X137.892 Y94.360 F4800
G1 E0.0000 F1800
G92 E0.0000
G1 X137.741 Y92.919 E0.0867 F1080
G1 X137.875 Y91.476 E0.1735
G1 X138.287 Y90.088 E0.2602
G1 X138.962 Y88.806 E0.3469
G1 X139.874 Y87.681 E0.4336
G1 X140.988 Y86.756 E0.5203
G1 X142.261 Y86.065 E0.6070
G1 X143.644 Y85.636 E0.6937
G1 X145.085 Y85.484 E0.7804
G1 X146.527 Y85.616 E0.8671
G1 X147.916 Y86.027 E0.9539
G1 X149.198 Y86.700 E1.0406
G1 X150.325 Y87.611 E1.1273
G1 X151.252 Y88.724 E1.2140
G1 X151.945 Y89.997 E1.3008
G1 X152.376 Y91.380 E1.3875
G1 X152.529 Y92.822 E1.4743
G1 X152.397 Y94.265 E1.5611
G1 X151.986 Y95.656 E1.6479
G1 X151.312 Y96.939 E1.7347
G1 X150.399 Y98.067 E1.8216
G1 X149.285 Y98.995 E1.9084
G1 X148.010 Y99.686 E1.9952
G1 X146.625 Y100.114 E2.0820
G1 X145.182 Y100.264 E2.1688
G1 X143.738 Y100.131 E2.2556
G1 X142.349 Y99.718 E2.3424
G1 X141.066 Y99.043 E2.4292
G1 X139.940 Y98.131 E2.5160
G1 X139.013 Y97.017 E2.6027
G1 X138.322 Y95.743 E2.6895
G1 X137.951 Y94.551 E2.7642
G1 X137.892 Y94.360 F1080
; feature outer perimeter
G1 X137.420 Y94.457 F4800
G92 E0.0000
G1 X137.259 Y92.922 E0.0924 F960
G1 X137.401 Y91.385 E0.1848
G1 X137.840 Y89.906 E0.2772
G1 X138.560 Y88.541 E0.3696
G1 X139.531 Y87.342 E0.4619
G1 X140.718 Y86.356 E0.5543
G1 X142.074 Y85.621 E0.6466
G1 X143.547 Y85.163 E0.7390
G1 X145.081 Y85.002 E0.8314
G1 X146.618 Y85.142 E0.9237
G1 X148.097 Y85.580 E1.0161
G1 X149.463 Y86.297 E1.1085
G1 X150.663 Y87.267 E1.2009
G1 X151.651 Y88.453 E1.2933
G1 X152.389 Y89.809 E1.3857
G1 X152.848 Y91.283 E1.4781
G1 X153.011 Y92.818 E1.5705
G1 X152.871 Y94.356 E1.6630
G1 X152.433 Y95.837 E1.7554
G1 X151.715 Y97.205 E1.8479
G1 X150.743 Y98.406 E1.9404
G1 X149.555 Y99.394 E2.0329
G1 X148.197 Y100.131 E2.1254
G1 X146.721 Y100.586 E2.2179
G1 X145.185 Y100.747 E2.3104
G1 X143.647 Y100.604 E2.4028
G1 X142.167 Y100.165 E2.4953
G1 X140.801 Y99.446 E2.5877
G1 X139.601 Y98.474 E2.6801
G1 X138.614 Y97.287 E2.7725
G1 X137.877 Y95.931 E2.8649
G1 X137.479 Y94.648 E2.9454
G1 X137.420 Y94.457 F960
G1 X137.259 Y92.922 F960
G1 X137.301 Y92.467
; feature solid layer
G1 X139.981 Y97.580 F4800
G92 E0.0000
G1 X140.455 Y98.054 E0.0401 F960
G1 X141.279 Y98.721 E0.1036
G1 X142.382 Y99.302 E0.1782
G1 X138.682 Y95.602 E0.4915
G1 X138.677 Y95.593 E0.4921
G1 X138.373 Y94.615 E0.5534
G1 X143.384 Y99.625 E0.9776
G1 X143.811 Y99.752 E1.0044
G1 X144.228 Y99.790 E1.0294
G1 X138.217 Y93.780 E1.5383
G1 X138.138 Y93.021 E1.5840
G1 X144.976 Y99.860 E2.1629
G1 X145.180 Y99.879 E2.1752
G1 X145.627 Y99.832 E2.2021
G1 X138.176 Y92.381 E2.8329
G1 X138.234 Y91.760 E2.8703
G1 X146.242 Y99.768 E3.5483
G1 X146.547 Y99.736 E3.5666
G1 X146.808 Y99.655 E3.5830
G1 X138.356 Y91.203 E4.2986
G1 X138.512 Y90.680 E4.3313
G1 X147.327 Y99.495 E5.0776
G1 X147.846 Y99.335 E5.1101
G1 X138.679 Y90.168 E5.8863
G1 X138.913 Y89.724 E5.9163
G1 X148.288 Y99.099 E6.7101
G1 X148.728 Y98.860 E6.7401
G1 X139.147 Y89.279 E7.5512
G1 X139.284 Y89.019 E7.5688
G1 X139.410 Y88.863 E7.5808
G1 X149.152 Y98.605 E8.4056
G1 X149.523 Y98.297 E8.4345
G1 X139.714 Y88.488 E9.2649
G1 X140.018 Y88.114 E9.2938
G1 X149.893 Y97.988 E10.1299
G1 X150.125 Y97.796 E10.1479
G1 X150.239 Y97.655 E10.1587
G1 X140.360 Y87.777 E10.9951
G1 X140.731 Y87.469 E11.0240
G1 X150.542 Y97.280 E11.8546
G1 X150.846 Y96.905 E11.8835
G1 X141.102 Y87.161 E12.7085
G1 X141.205 Y87.075 E12.7165
G1 X141.523 Y86.903 E12.7382
G1 X151.113 Y96.493 E13.5501
G1 X151.346 Y96.048 E13.5802
G1 X141.963 Y86.664 E14.3747
G1 X142.403 Y86.425 E14.4047
G1 X151.580 Y95.603 E15.1817
G1 X151.629 Y95.511 E15.1880
G1 X151.751 Y95.095 E15.2139
G1 X142.919 Y86.263 E15.9617
G1 X143.437 Y86.102 E15.9942
G1 X151.906 Y94.571 E16.7112
G1 X152.018 Y94.193 E16.7348
G1 X152.034 Y94.020 E16.7452
G1 X143.998 Y85.984 E17.4256
G1 X144.613 Y85.920 E17.4625
G1 X152.091 Y93.398 E18.0957
G1 X152.143 Y92.825 E18.1301
G1 X152.137 Y92.765 E18.1337
G1 X145.257 Y85.885 E18.7162
G1 X146.004 Y85.954 E18.7611
G1 X152.056 Y92.005 E19.2735
G1 X151.998 Y91.458 E19.3064
G1 X151.912 Y91.183 E19.3237
G1 X146.838 Y86.108 E19.7534
G1 X147.771 Y86.384 E19.8116
G1 X147.816 Y86.408 E19.8147
G1 X151.605 Y90.197 E20.1355
G1 X151.589 Y90.147 E20.1386
G1 X150.933 Y88.941 E20.2208
G1 X150.460 Y88.373 E20.2650
G1 X149.771 Y87.684 E20.3234
G1 X149.629 Y87.542 F960
G92 E0.0000
G1 E-1.5000 F1800
; feature support
G1 X149.263 Y83.400 F4800
G1 E0.0000 F1800
G92 E0.0000
G1 X161.203 Y83.400 E0.7148 F960
G1 X161.203 Y83.880 E0.7436
G1 X149.263 Y83.880 E1.4584
G1 X149.263 Y84.360 E1.4871
G1 X161.203 Y84.360 E2.2020
G1 X161.203 Y84.840 E2.2307
G1 X149.263 Y84.840 E2.9455
G1 X149.263 Y84.941 E2.9516
G1 X149.983 Y85.320 E3.0003
G1 X161.203 Y85.320 E3.6720
G1 X161.203 Y85.800 E3.7007
G1 X150.608 Y85.800 E4.3350
G1 X151.201 Y86.280 E4.3807
G1 X161.203 Y86.280 E4.9794
G1 X161.203 Y86.760 E5.0082
G1 X151.680 Y86.760 E5.5783
G1 X151.855 Y86.970 E5.5946
G1 X153.263 Y86.970 E5.6789
G1 X153.263 Y87.240 E5.6951
G1 X161.203 Y87.240 E6.1704
G1 X161.203 Y87.720 E6.1992
G1 X153.263 Y87.720 E6.6745
G1 X153.263 Y88.200 E6.7033
G1 X161.203 Y88.200 E7.1786
G1 X161.203 Y88.680 E7.2073
G1 X153.263 Y88.680 E7.6827
G1 X153.263 Y89.104 E7.7081
G1 X153.293 Y89.160 E7.7119
G1 X161.203 Y89.160 E8.1854
G1 X161.203 Y89.640 E8.2142
G1 X153.493 Y89.640 E8.6758
G1 X153.642 Y90.120 E8.7059
G1 X161.203 Y90.120 E9.1585
G1 X161.203 Y90.600 E9.1872
G1 X153.791 Y90.600 E9.6310
G1 X153.934 Y91.059 E9.6598
G1 X153.936 Y91.080 E9.6610
G1 X161.203 Y91.080 E10.0961
G1 X161.203 Y91.560 E10.1248
G1 X153.986 Y91.560 E10.5568
G1 X154.037 Y92.040 E10.5857
G1 X161.203 Y92.040 E11.0147
G1 X161.203 Y92.520 E11.0435
G1 X154.087 Y92.520 E11.4694
G1 X154.118 Y92.811 E11.4869
G1 X154.101 Y93.000 E11.4983
G1 X161.203 Y93.000 E11.9235
G1 X161.203 Y93.480 E11.9522
G1 X154.057 Y93.480 E12.3800
