; generated by PrusaSlicer 2.1.1+win64 on 2020-04-24 at 23:13:19 UTC

; 

; external perimeters extrusion width = 0.45mm
; perimeters extrusion width = 0.45mm
; infill extrusion width = 0.45mm
; solid infill extrusion width = 0.45mm
; top infill extrusion width = 0.40mm
; support material extrusion width = 0.35mm
; first layer extrusion width = 0.42mm

M73 P0 R187
M201 X9000 Y9000 Z500 E10000 ; sets maximum accelerations, mm/sec^2
M203 X500 Y500 Z12 E120 ; sets maximum feedrates, mm/sec
M204 P2000 R1500 T2000 ; sets acceleration (P, T) and retract acceleration (R), mm/sec^2
M205 X10.00 Y10.00 Z0.20 E2.50 ; sets the jerk limits, mm/sec
M205 S0 T0 ; sets the minimum extruding and travel feed rate, mm/sec
M107
M862.3 P "MK2S" ; printer model check
M862.1 P0.4 ; nozzle diameter check
M115 U3.2.3 ; tell printer latest fw version
G90 ; use absolute coordinates
M83 ; extruder relative mode
M204 S2000 T1500 ; MK2 firmware only supports the old M204 format
M104 S215 ; set extruder temp
M140 S60 ; set bed temp
M190 S60 ; wait for bed temp
M109 S215 ; wait for extruder temp
G28 W ; home all without mesh bed level
G80 ; mesh bed leveling
G1 Y-3.0 F1000.0 ; go outside print area
G92 E0.0
G1 X60.0 E9.0  F1000.0 ; intro line
M73 P0 R186
G1 X100.0 E12.5 F1000.0 ; intro line
G92 E0.0
G21 ; set units to millimeters
G90 ; use absolute coordinates
M83 ; use relative distances for extrusion
M900 K30 ; Filament gcode
;BEFORE_LAYER_CHANGE
G92 E0.0
;0.2


G1 E-0.80000 F2100.00000
G1 Z0.600 F10800.000
;AFTER_LAYER_CHANGE
;0.2
G1 X111.119 Y101.413
G1 Z0.200
G1 E0.80000 F2100.00000
M204 S1000
G1 F1200
G1 X102.511 Y101.410 E0.26989
G1 X100.855 Y99.754 E0.07344
G1 X100.855 Y52.809 E1.47194
G1 X108.250 Y52.812 E0.23187
G1 X108.312 Y53.367 E0.01749
G1 X108.866 Y55.237 E0.06118
G1 X109.777 Y56.970 E0.06137
G1 X111.008 Y58.491 E0.06137
G1 X112.513 Y59.743 E0.06137
G1 X114.233 Y60.678 E0.06137
G1 X116.102 Y61.258 E0.06135
G1 X116.998 Y61.354 E0.02824
G1 X116.991 Y70.899 E0.29929
G1 X120.616 Y73.872 E0.14700
G1 X120.045 Y74.554 E0.02790
G1 X118.949 Y76.224 E0.06261
G1 X115.580 Y83.050 E0.23867
G1 X113.906 Y88.199 E0.16978
G1 X113.244 Y93.793 E0.17663
G1 X112.909 Y98.591 E0.15078
G1 X112.798 Y99.731 E0.03593
G1 X111.161 Y101.370 E0.07263
G1 X111.275 Y101.790 F10800.000
G1 F1200
G1 X102.355 Y101.787 E0.27969
G1 X100.478 Y99.910 E0.08323
G1 X100.478 Y52.432 E1.48866
G1 X108.587 Y52.435 E0.25426
G1 X108.683 Y53.291 E0.02701
G1 X109.217 Y55.095 E0.05897
G1 X110.093 Y56.762 E0.05904
G1 X111.278 Y58.225 E0.05904
G1 X112.726 Y59.430 E0.05905
G1 X114.381 Y60.329 E0.05905
G1 X116.178 Y60.887 E0.05903
G1 X117.375 Y61.014 E0.03773
G1 X117.368 Y70.721 E0.30433
G1 X121.150 Y73.822 E0.15335
G1 X120.348 Y74.780 E0.03916
G1 X119.277 Y76.411 E0.06120
G1 X115.931 Y83.192 E0.23709
G1 X114.276 Y88.280 E0.16776
G1 X113.620 Y93.829 E0.17518
G1 X113.284 Y98.622 E0.15066
G1 X113.160 Y99.902 E0.04032
G1 X111.317 Y101.747 E0.08177
G1 X110.972 Y101.528 F10800.000
G1 E-0.80000 F2100.00000
G1 Z0.800 F10800.000
G1 X102.800 Y101.297
G1 Z0.200
G1 E0.80000 F2100.00000
G1 F1200
G1 X101.138 Y99.635 E0.07421
G1 X101.138 Y99.098 E0.01695
G1 X103.167 Y101.128 E0.09061
G1 X103.704 Y101.128 E0.01696
G1 X101.138 Y98.561 E0.11459
G1 X101.138 Y98.024 E0.01695
G1 X104.241 Y101.128 E0.13856
G1 X104.778 Y101.128 E0.01696
G1 X101.138 Y97.488 E0.16254
G1 X101.138 Y96.951 E0.01695
G1 X105.315 Y101.128 E0.18652
G1 X105.852 Y101.128 E0.01696
G1 X101.138 Y96.414 E0.21050
G1 X101.138 Y95.877 E0.01695
G1 X106.389 Y101.129 E0.23448
G1 X106.926 Y101.129 E0.01696
G1 X101.138 Y95.340 E0.25846
G1 X101.138 Y94.803 E0.01695
G1 X107.464 Y101.129 E0.28244
G1 X108.001 Y101.129 E0.01696
G1 X101.138 Y94.266 E0.30642
G1 X101.138 Y93.729 E0.01695
G1 X108.538 Y101.129 E0.33039
G1 X109.075 Y101.129 E0.01696
G1 X101.138 Y93.192 E0.35437
G1 X101.138 Y92.655 E0.01695
G1 X109.612 Y101.129 E0.37835
G1 X110.149 Y101.130 E0.01696
G1 X101.138 Y92.118 E0.40233
G1 X101.138 Y91.581 E0.01695
G1 X110.686 Y101.130 E0.42631
G1 X111.001 Y101.130 E0.00996
G1 X111.112 Y101.019 E0.00495
G1 X101.138 Y91.044 E0.44534
G1 X101.138 Y90.507 E0.01695
G1 X111.380 Y100.750 E0.45731
G1 X111.649 Y100.482 E0.01199
G1 X101.138 Y89.970 E0.46929
G1 X101.138 Y89.433 E0.01695
G1 X111.917 Y100.213 E0.48127
G1 X112.185 Y99.944 E0.01199
G1 X101.138 Y88.896 E0.49325
G1 X101.138 Y88.360 E0.01695
G1 X112.454 Y99.676 E0.50523
G1 X112.526 Y99.603 E0.00324
G1 X112.561 Y99.246 E0.01132
G1 X101.138 Y87.823 E0.51001
G1 X101.138 Y87.286 E0.01695
G1 X112.608 Y98.756 E0.51213
G1 X112.648 Y98.259 E0.01574
G1 X101.138 Y86.749 E0.51392
G1 X101.138 Y86.212 E0.01695
G1 X112.683 Y97.758 E0.51548
G1 X112.718 Y97.256 E0.01588
G1 X101.138 Y85.675 E0.51705
G1 X101.138 Y85.138 E0.01695
G1 X112.753 Y96.754 E0.51862
G1 X112.789 Y96.252 E0.01588
G1 X101.138 Y84.601 E0.52018
G1 X101.138 Y84.064 E0.01695
G1 X112.824 Y95.750 E0.52175
G1 X112.859 Y95.248 E0.01588
G1 X101.138 Y83.527 E0.52332
G1 X101.138 Y82.990 E0.01695
G1 X112.894 Y94.746 E0.52489
G1 X112.929 Y94.245 E0.01588
G1 X101.138 Y82.453 E0.52645
G1 X101.138 Y81.916 E0.01695
G1 X112.965 Y93.744 E0.52807
G1 X113.022 Y93.264 E0.01526
G1 X101.138 Y81.379 E0.53060
G1 X101.138 Y80.842 E0.01695
G1 X113.079 Y92.784 E0.53314
G1 X113.136 Y92.303 E0.01526
G1 X101.138 Y80.305 E0.53567
G1 X101.138 Y79.768 E0.01695
G1 X113.192 Y91.823 E0.53821
G1 X113.249 Y91.343 E0.01526
G1 X101.138 Y79.232 E0.54074
G1 X101.138 Y78.695 E0.01695
G1 X113.306 Y90.863 E0.54328
G1 X113.363 Y90.383 E0.01526
G1 X101.138 Y78.158 E0.54582
G1 X101.138 Y77.621 E0.01695
G1 X113.419 Y89.903 E0.54835
G1 X113.476 Y89.423 E0.01526
G1 X101.138 Y77.084 E0.55089
G1 X101.138 Y76.547 E0.01695
G1 X113.533 Y88.942 E0.55342
G1 X113.590 Y88.462 E0.01526
G1 X101.138 Y76.010 E0.55596
G1 X101.138 Y75.473 E0.01695
G1 X113.671 Y88.006 E0.55958
G1 X113.803 Y87.601 E0.01345
G1 X101.138 Y74.936 E0.56546
G1 X101.138 Y74.399 E0.01695
G1 X113.935 Y87.196 E0.57135
G1 X114.066 Y86.791 E0.01345
G1 X101.138 Y73.862 E0.57723
G1 X101.138 Y73.325 E0.01695
G1 X114.198 Y86.386 E0.58311
G1 X114.330 Y85.981 E0.01345
G1 X101.138 Y72.788 E0.58900
G1 X101.138 Y72.251 E0.01695
G1 X114.462 Y85.575 E0.59488
G1 X114.593 Y85.170 E0.01345
G1 X101.138 Y71.714 E0.60076
G1 X101.138 Y71.177 E0.01695
G1 X114.725 Y84.765 E0.60664
G1 X114.857 Y84.360 E0.01345
G1 X101.138 Y70.640 E0.61253
G1 X101.138 Y70.104 E0.01695
G1 X114.989 Y83.955 E0.61841
G1 X115.120 Y83.550 E0.01345
G1 X101.138 Y69.567 E0.62429
G1 X101.138 Y69.030 E0.01695
G1 X115.252 Y83.144 E0.63018
M73 P0 R185
G1 X115.318 Y82.943 E0.00669
G1 X115.407 Y82.762 E0.00636
G1 X101.138 Y68.493 E0.63708
G1 X101.138 Y67.956 E0.01695
G1 X115.584 Y82.403 E0.64501
G1 X115.762 Y82.043 E0.01266
G1 X101.138 Y67.419 E0.65293
G1 X101.138 Y66.882 E0.01695
G1 X115.939 Y81.684 E0.66085
G1 X116.117 Y81.324 E0.01266
G1 X101.138 Y66.345 E0.66877
G1 X101.138 Y65.808 E0.01695
G1 X116.294 Y80.965 E0.67669
G1 X116.472 Y80.605 E0.01266
G1 X101.138 Y65.271 E0.68462
G1 X101.138 Y64.734 E0.01695
G1 X116.649 Y80.246 E0.69254
G1 X116.826 Y79.886 E0.01266
G1 X101.138 Y64.197 E0.70046
G1 X101.138 Y63.660 E0.01695
G1 X117.004 Y79.527 E0.70838
G1 X117.181 Y79.167 E0.01266
G1 X101.138 Y63.123 E0.71631
G1 X101.138 Y62.586 E0.01695
G1 X117.359 Y78.808 E0.72423
G1 X117.536 Y78.448 E0.01266
G1 X101.138 Y62.049 E0.73215
G1 X101.138 Y61.512 E0.01695
G1 X117.714 Y78.089 E0.74007
G1 X117.891 Y77.729 E0.01266
G1 X101.138 Y60.976 E0.74799
G1 X101.138 Y60.439 E0.01695
G1 X118.069 Y77.370 E0.75592
G1 X118.246 Y77.010 E0.01266
G1 X101.138 Y59.902 E0.76384
G1 X101.138 Y59.365 E0.01695
G1 X118.423 Y76.651 E0.77176
G1 X118.601 Y76.291 E0.01266
G1 X101.138 Y58.828 E0.77968
G1 X101.138 Y58.291 E0.01695
G1 X118.793 Y75.946 E0.78827
G1 X119.006 Y75.622 E0.01224
G1 X101.138 Y57.754 E0.79777
G1 X101.138 Y57.217 E0.01695
G1 X119.219 Y75.298 E0.80727
G1 X119.431 Y74.974 E0.01224
G1 X101.138 Y56.680 E0.81677
G1 X101.138 Y56.143 E0.01695
G1 X119.767 Y74.772 E0.83174
G1 X117.673 Y71.604 F10800.000
G1 F1200
G1 X120.108 Y74.039 E0.10870
G1 X119.863 Y74.331 E0.01203
G1 X101.138 Y55.606 E0.83603
G1 X101.138 Y55.069 E0.01695
G1 X116.708 Y70.640 E0.69519
G1 X116.709 Y70.103 E0.01694
G1 X101.138 Y54.532 E0.69520
G1 X101.138 Y53.995 E0.01695
G1 X116.709 Y69.567 E0.69522
G1 X116.709 Y69.030 E0.01694
G1 X101.138 Y53.458 E0.69524
G1 X101.138 Y53.092 E0.01157
G1 X101.308 Y53.092 E0.00538
G1 X116.710 Y68.494 E0.68765
G1 X116.710 Y67.957 E0.01694
G1 X101.845 Y53.092 E0.66369
G1 X102.382 Y53.092 E0.01695
G1 X116.711 Y67.421 E0.63973
G1 X116.711 Y66.884 E0.01694
G1 X102.919 Y53.092 E0.61576
G1 X103.456 Y53.092 E0.01696
G1 X116.711 Y66.347 E0.59179
G1 X116.712 Y65.811 E0.01694
G1 X103.994 Y53.093 E0.56782
G1 X104.531 Y53.093 E0.01696
G1 X116.712 Y65.274 E0.54385
G1 X116.712 Y64.738 E0.01694
G1 X105.068 Y53.093 E0.51988
G1 X105.605 Y53.094 E0.01696
G1 X109.431 Y56.919 E0.17080
G1 X109.240 Y56.191 F10800.000
G1 F1200
G1 X106.143 Y53.094 E0.13828
G1 X106.680 Y53.094 E0.01696
G1 X108.465 Y54.880 E0.07972
G1 X108.240 Y54.117 E0.02511
G1 X107.217 Y53.095 E0.04566
G1 X107.754 Y53.095 E0.01696
G1 X108.265 Y53.606 E0.02282
G1 E-0.80000 F2100.00000
G1 Z0.800 F10800.000
G1 X112.653 Y60.141
G1 Z0.200
G1 E0.80000 F2100.00000
G1 F1200
G1 X116.713 Y64.201 E0.18128
G1 X116.713 Y63.665 E0.01694
G1 X113.828 Y60.780 E0.12881
G1 X114.123 Y60.940 E0.01058
G1 X114.707 Y61.121 E0.01930
G1 X116.714 Y63.128 E0.08961
G1 X116.714 Y62.591 E0.01694
G1 X115.486 Y61.363 E0.05484
G1 X116.044 Y61.537 E0.01847
G1 X116.214 Y61.555 E0.00539
G1 X116.884 Y62.224 E0.02990
G1 E-0.80000 F2100.00000
G1 Z0.800 F10800.000
G1 X108.253 Y50.139
G1 Z0.200
G1 E0.80000 F2100.00000
G1 F1200
G1 X100.855 Y50.136 E0.23196
G1 X100.855 Y27.458 E0.71104
G1 X102.511 Y25.801 E0.07345
G1 X116.778 Y25.802 E0.44734
G1 X116.778 Y41.612 E0.49572
G1 X116.229 Y41.676 E0.01732
G1 X114.359 Y42.230 E0.06114
G1 X112.627 Y43.140 E0.06138
G1 X111.105 Y44.372 E0.06137
G1 X109.853 Y45.876 E0.06137
G1 X108.918 Y47.596 E0.06137
G1 X108.339 Y49.459 E0.06117
G1 X108.260 Y50.079 E0.01961
G1 X108.585 Y50.516 F10800.000
G1 F1200
G1 X100.478 Y50.513 E0.25419
G1 X100.478 Y27.302 E0.72776
G1 X102.355 Y25.424 E0.08324
G1 X117.155 Y25.425 E0.46406
G1 X117.155 Y41.948 E0.51806
G1 X116.305 Y42.047 E0.02683
G1 X114.502 Y42.581 E0.05896
G1 X112.835 Y43.457 E0.05905
G1 X111.371 Y44.641 E0.05904
G1 X110.167 Y46.089 E0.05904
G1 X109.267 Y47.743 E0.05904
G1 X108.709 Y49.539 E0.05897
G1 X108.592 Y50.456 E0.02899
G1 X108.256 Y50.289 F10800.000
G1 E-0.80000 F2100.00000
G1 Z0.800 F10800.000
G1 X101.739 Y50.023
G1 Z0.200
G1 E0.80000 F2100.00000
G1 F1200
G1 X101.138 Y49.422 E0.02694
G1 X101.138 Y48.883 E0.01708
G1 X102.108 Y49.853 E0.04350
G1 X102.647 Y49.854 E0.01708
G1 X101.138 Y48.344 E0.06766
G1 X101.138 Y47.805 E0.01708
G1 X103.186 Y49.854 E0.09182
G1 X103.726 Y49.854 E0.01708
G1 X101.138 Y47.266 E0.11598
G1 X101.138 Y46.727 E0.01708
G1 X104.265 Y49.854 E0.14014
G1 X104.804 Y49.855 E0.01708
G1 X101.138 Y46.188 E0.16430
G1 X101.138 Y45.649 E0.01708
G1 X105.343 Y49.855 E0.18846
G1 X105.882 Y49.855 E0.01708
G1 X101.138 Y45.110 E0.21262
G1 X101.138 Y44.571 E0.01708
G1 X106.421 Y49.855 E0.23678
G1 X106.960 Y49.855 E0.01708
G1 X101.138 Y44.033 E0.26094
G1 X101.138 Y43.494 E0.01708
G1 X107.500 Y49.856 E0.28509
G1 X108.004 Y49.856 E0.01597
G1 X108.008 Y49.825 E0.00100
G1 X101.138 Y42.955 E0.30786
G1 X101.138 Y42.416 E0.01708
G1 X108.076 Y49.354 E0.31091
G1 X108.204 Y48.943 E0.01364
G1 X101.138 Y41.877 E0.31664
G1 X101.138 Y41.338 E0.01708
G1 X108.331 Y48.532 E0.32236
G1 X108.459 Y48.121 E0.01364
G1 X101.138 Y40.799 E0.32809
G1 X101.138 Y40.260 E0.01708
G1 X108.587 Y47.709 E0.33382
G1 X108.657 Y47.485 E0.00744
G1 X108.743 Y47.327 E0.00573
G1 X101.138 Y39.721 E0.34081
M73 P1 R184
G1 X101.138 Y39.182 E0.01708
G1 X108.933 Y46.977 E0.34931
G1 X109.122 Y46.628 E0.01259
G1 X101.138 Y38.643 E0.35781
G1 X101.138 Y38.104 E0.01708
G1 X109.312 Y46.279 E0.36632
G1 X109.502 Y45.930 E0.01259
G1 X101.138 Y37.565 E0.37482
G1 X101.138 Y37.027 E0.01708
G1 X109.713 Y45.602 E0.38428
G1 X109.958 Y45.308 E0.01213
G1 X101.138 Y36.488 E0.39525
G1 X101.138 Y35.949 E0.01708
G1 X110.203 Y45.014 E0.40622
G1 X110.447 Y44.720 E0.01213
G1 X101.138 Y35.410 E0.41719
G1 X101.138 Y34.871 E0.01708
G1 X110.692 Y44.426 E0.42816
G1 X110.944 Y44.138 E0.01210
G1 X101.138 Y34.332 E0.43944
G1 X101.138 Y33.793 E0.01708
G1 X111.242 Y43.897 E0.45279
G1 X111.540 Y43.656 E0.01214
G1 X101.138 Y33.254 E0.46613
G1 X101.138 Y32.715 E0.01708
G1 X111.838 Y43.415 E0.47948
G1 X112.135 Y43.174 E0.01214
G1 X101.138 Y32.176 E0.49283
G1 X101.138 Y31.637 E0.01708
G1 X112.433 Y42.933 E0.50618
G1 X112.780 Y42.740 E0.01256
G1 X101.138 Y31.098 E0.52170
G1 X101.138 Y30.559 E0.01708
G1 X113.133 Y42.555 E0.53753
G1 X113.486 Y42.369 E0.01265
G1 X101.138 Y30.021 E0.55336
G1 X101.138 Y29.482 E0.01708
G1 X113.839 Y42.183 E0.56919
G1 X114.193 Y41.998 E0.01265
G1 X101.138 Y28.943 E0.58502
G1 X101.138 Y28.404 E0.01708
G1 X114.598 Y41.864 E0.60318
G1 X115.014 Y41.741 E0.01374
G1 X101.138 Y27.865 E0.62181
G1 X101.138 Y27.575 E0.00918
G1 X101.262 Y27.451 E0.00558
G1 X115.430 Y41.618 E0.63487
G1 X115.845 Y41.495 E0.01374
G1 X101.532 Y27.181 E0.64143
G1 X101.801 Y26.912 E0.01207
G1 X116.276 Y41.386 E0.64863
G1 X116.495 Y41.360 E0.00701
G1 X116.495 Y41.067 E0.00930
G1 X102.070 Y26.642 E0.64640
G1 X102.340 Y26.373 E0.01207
G1 X116.495 Y40.528 E0.63433
G1 X116.495 Y39.989 E0.01708
G1 X102.609 Y26.103 E0.62226
G1 X102.628 Y26.084 E0.00084
G1 X103.129 Y26.084 E0.01588
G1 X116.495 Y39.450 E0.59895
G1 X116.495 Y38.911 E0.01708
G1 X103.668 Y26.084 E0.57480
G1 X104.207 Y26.084 E0.01708
G1 X116.495 Y38.372 E0.55065
G1 X116.495 Y37.833 E0.01708
G1 X104.746 Y26.084 E0.52650
G1 X105.285 Y26.084 E0.01708
G1 X116.495 Y37.294 E0.50235
G1 X116.495 Y36.756 E0.01708
G1 X105.824 Y26.084 E0.47820
G1 X106.363 Y26.084 E0.01708
G1 X116.495 Y36.217 E0.45405
G1 X116.495 Y35.678 E0.01708
G1 X106.902 Y26.084 E0.42989
G1 X107.441 Y26.084 E0.01708
G1 X116.495 Y35.139 E0.40574
G1 X116.495 Y34.600 E0.01708
G1 X107.980 Y26.084 E0.38159
G1 X108.519 Y26.084 E0.01708
G1 X116.495 Y34.061 E0.35744
G1 X116.495 Y33.522 E0.01708
G1 X109.058 Y26.084 E0.33329
G1 X109.597 Y26.084 E0.01708
G1 X116.495 Y32.983 E0.30914
G1 X116.495 Y32.444 E0.01708
G1 X110.136 Y26.084 E0.28499
G1 X110.674 Y26.084 E0.01708
G1 X116.495 Y31.905 E0.26084
G1 X116.495 Y31.366 E0.01708
G1 X111.213 Y26.084 E0.23669
G1 X111.752 Y26.085 E0.01708
G1 X116.495 Y30.827 E0.21254
G1 X116.495 Y30.289 E0.01708
G1 X112.291 Y26.085 E0.18839
G1 X112.830 Y26.085 E0.01708
G1 X116.495 Y29.750 E0.16424
G1 X116.495 Y29.211 E0.01708
G1 X113.369 Y26.085 E0.14009
G1 X113.908 Y26.085 E0.01708
G1 X116.495 Y28.672 E0.11593
G1 X116.495 Y28.133 E0.01708
G1 X114.447 Y26.085 E0.09178
G1 X114.986 Y26.085 E0.01708
G1 X116.495 Y27.594 E0.06763
G1 X116.495 Y27.055 E0.01708
G1 X115.525 Y26.085 E0.04348
G1 X116.064 Y26.085 E0.01708
G1 X116.665 Y26.686 E0.02694
G1 E-0.80000 F2100.00000
G1 Z0.800 F10800.000
G1 X127.985 Y50.146
G1 Z0.200
G1 E0.80000 F2100.00000
G1 F1200
G1 X127.923 Y49.593 E0.01746
G1 X127.369 Y47.722 E0.06117
G1 X126.458 Y45.990 E0.06137
G1 X125.227 Y44.468 E0.06137
G1 X123.722 Y43.216 E0.06137
G1 X122.002 Y42.282 E0.06138
G1 X120.141 Y41.703 E0.06110
G1 X119.461 Y41.611 E0.02153
G1 X119.457 Y25.802 E0.49569
G1 X133.477 Y25.802 E0.43959
G1 X135.133 Y27.458 E0.07344
G1 X135.133 Y50.149 E0.71144
G1 X128.045 Y50.146 E0.22224
G1 X127.648 Y50.523 F10800.000
G1 F1200
G1 X127.552 Y49.668 E0.02698
G1 X127.018 Y47.865 E0.05897
G1 X126.142 Y46.198 E0.05904
G1 X124.957 Y44.734 E0.05904
G1 X123.509 Y43.530 E0.05904
G1 X121.855 Y42.631 E0.05905
G1 X120.059 Y42.073 E0.05895
G1 X119.084 Y41.941 E0.03087
G1 X119.080 Y25.425 E0.51784
G1 X133.633 Y25.425 E0.45631
G1 X135.510 Y27.302 E0.08323
G1 X135.510 Y50.526 E0.72817
G1 X127.708 Y50.523 E0.24463
G1 X127.662 Y50.124 F10800.000
G1 X127.883 Y49.061
G1 F1200
G1 X128.686 Y49.864 E0.03585
G1 X129.223 Y49.864 E0.01695
G1 X127.909 Y48.550 E0.05867
G1 X127.683 Y47.787 E0.02510
G1 X129.930 Y50.034 E0.10028
G1 X126.767 Y46.334 F10800.000
G1 F1200
