; generated by PrusaSlicer 2.1.1+win64 on 2020-03-04 at 22:55:14 UTC

; 

; external perimeters extrusion width = 0.45mm
; perimeters extrusion width = 0.45mm
; infill extrusion width = 0.45mm
; solid infill extrusion width = 0.45mm
; top infill extrusion width = 0.40mm
; support material extrusion width = 0.35mm
; first layer extrusion width = 0.42mm

M73 P0 R159
M201 X9000 Y9000 Z500 E10000 ; sets maximum accelerations, mm/sec^2
M203 X500 Y500 Z12 E120 ; sets maximum feedrates, mm/sec
M204 P2000 R1500 T2000 ; sets acceleration (P, T) and retract acceleration (R), mm/sec^2
M205 X10.00 Y10.00 Z0.20 E2.50 ; sets the jerk limits, mm/sec
M205 S0 T0 ; sets the minimum extruding and travel feed rate, mm/sec
M107
M862.3 P "MK2S" ; printer model check
M862.1 P0.4 ; nozzle diameter check
M115 U3.2.3 ; tell printer latest fw version
G90 ; use absolute coordinates
M83 ; extruder relative mode
M204 S2000 T1500 ; MK2 firmware only supports the old M204 format
M104 S215 ; set extruder temp
M140 S60 ; set bed temp
M190 S60 ; wait for bed temp
M109 S215 ; wait for extruder temp
G28 W ; home all without mesh bed level
G80 ; mesh bed leveling
G1 Y-3.0 F1000.0 ; go outside print area
G92 E0.0
G1 X60.0 E9.0  F1000.0 ; intro line
M73 P0 R159
G1 X100.0 E12.5 F1000.0 ; intro line
G92 E0.0
G21 ; set units to millimeters
G90 ; use absolute coordinates
M83 ; use relative distances for extrusion
M900 K30 ; Filament gcode
;BEFORE_LAYER_CHANGE
G92 E0.0
;0.2


G1 E-0.80000 F2100.00000
G1 Z0.600 F10800.000
;AFTER_LAYER_CHANGE
;0.2
G1 X92.768 Y102.148
G1 Z0.200
G1 E0.80000 F2100.00000
M204 S1000
G1 F1200
G1 X93.078 Y101.838 E0.01374
G1 X94.060 Y101.665 E0.03125
G1 X94.188 Y101.678 E0.00403
G1 X94.272 Y101.711 E0.00283
G1 X93.422 Y102.561 E0.03771
G1 X93.955 Y103.094 E0.02365
G1 X95.020 Y102.029 E0.04723
G1 X95.348 Y102.221 E0.01192
G1 X95.659 Y102.456 E0.01223
G1 X94.488 Y103.627 E0.05193
G1 X95.021 Y104.161 E0.02365
G1 X96.361 Y102.821 E0.05941
G1 X96.583 Y102.878 E0.00717
G1 X96.894 Y103.354 E0.01785
G1 X95.555 Y104.694 E0.05940
G1 X96.088 Y105.227 E0.02365
G1 X97.512 Y103.803 E0.06316
G1 X97.872 Y103.984 E0.01262
G1 X98.040 Y104.009 E0.00534
G1 X98.444 Y103.938 E0.01285
G1 X96.621 Y105.761 E0.08082
G1 X97.155 Y106.294 E0.02365
G1 X99.739 Y103.709 E0.11459
G1 X101.034 Y103.481 E0.04123
G1 X97.688 Y106.827 E0.14836
G1 X98.221 Y107.360 E0.02365
G1 X102.329 Y103.253 E0.18213
G1 X103.623 Y103.025 E0.04123
G1 X98.754 Y107.894 E0.21590
G1 X99.288 Y108.427 E0.02365
G1 X104.918 Y102.796 E0.24967
G1 X106.213 Y102.568 E0.04123
G1 X99.821 Y108.960 E0.28344
G1 X100.354 Y109.493 E0.02365
G1 X107.508 Y102.340 E0.31721
G1 X108.803 Y102.111 E0.04123
G1 X102.519 Y108.395 E0.27865
G1 X103.052 Y108.929 E0.02365
G1 X110.098 Y101.883 E0.31242
G1 X110.795 Y101.760 E0.02220
G1 X111.041 Y102.006 E0.01091
G1 X103.465 Y109.582 E0.33592
G1 E-0.80000 F2100.00000
G1 Z0.800 F10800.000
G1 X143.973 Y95.737
G1 Z0.200
G1 E0.80000 F2100.00000
G1 F1200
G1 X143.019 Y96.692 E0.04233
G1 X143.552 Y97.225 E0.02365
G1 X145.059 Y95.718 E0.06682
G1 X146.354 Y95.490 E0.04123
G1 X142.454 Y99.390 E0.17293
G1 X142.987 Y99.923 E0.02365
G1 X147.649 Y95.262 E0.20670
G1 X148.944 Y95.033 E0.04123
G1 X143.520 Y100.456 E0.24047
G1 X144.054 Y100.990 E0.02365
G1 X150.238 Y94.805 E0.27424
G1 X151.533 Y94.577 E0.04123
G1 X144.587 Y101.523 E0.30801
G1 X145.120 Y102.056 E0.02365
G1 X152.828 Y94.348 E0.34178
G1 X154.123 Y94.120 E0.04123
G1 X144.022 Y104.221 E0.44789
G1 X144.555 Y104.754 E0.02365
G1 X155.418 Y93.892 E0.48166
G1 X156.713 Y93.663 E0.04123
G1 X145.089 Y105.287 E0.51543
G1 X145.622 Y105.821 E0.02365
G1 X157.972 Y93.471 E0.54761
G1 X158.505 Y94.004 E0.02365
G1 X146.155 Y106.354 E0.54761
G1 X146.689 Y106.887 E0.02365
G1 X159.038 Y94.537 E0.54761
G1 X159.572 Y95.071 E0.02365
G1 X147.222 Y107.421 E0.54761
G1 X147.755 Y107.954 E0.02365
G1 X160.105 Y95.604 E0.54761
G1 X160.323 Y95.823 E0.00969
G1 X158.692 Y97.454 E0.07234
G1 X159.007 Y97.769 E0.01395
G1 X148.288 Y108.487 E0.47527
G1 X148.822 Y109.020 E0.02365
G1 X159.540 Y98.302 E0.47527
G1 X160.073 Y98.835 E0.02365
G1 X149.355 Y109.554 E0.47527
G1 X149.605 Y109.804 E0.01109
G1 X151.236 Y108.172 E0.07234
G1 X151.519 Y108.456 E0.01255
G1 X160.607 Y99.368 E0.40294
G1 X161.140 Y99.902 E0.02365
G1 X152.053 Y108.989 E0.40294
G1 X152.586 Y109.522 E0.02365
G1 X161.673 Y100.435 E0.40294
G1 X161.955 Y100.717 E0.01249
G1 X160.323 Y102.348 E0.07234
G1 X160.575 Y102.600 E0.01116
G1 X154.751 Y108.424 E0.25826
G1 X155.284 Y108.957 E0.02365
G1 X161.108 Y103.133 E0.25826
G1 X161.642 Y103.666 E0.02365
G1 X155.697 Y109.611 E0.26358
G1 E-0.80000 F2100.00000
G1 Z0.800 F10800.000
G1 X107.654 Y101.184
G1 Z0.200
G1 E0.80000 F2100.00000
G1 F1200
G1 X98.123 Y102.864 E0.30345
G1 X97.933 Y102.768 E0.00668
G1 X97.850 Y102.687 E0.00364
G1 X97.751 Y102.630 E0.00359
G1 X97.278 Y101.908 E0.02708
G1 X96.497 Y101.707 E0.02528
G1 X95.971 Y101.295 E0.02096
G1 X95.449 Y100.991 E0.01893
G1 X95.067 Y100.823 E0.01308
G1 X94.453 Y100.588 E0.02061
G1 X93.614 Y100.489 E0.02650
G1 X93.024 Y100.003 E0.02395
G1 X91.556 Y91.677 E0.26507
G1 X156.709 Y80.189 E2.07434
G1 X158.820 Y92.162 E0.38117
G1 X107.713 Y101.173 E1.62715
G1 X107.720 Y101.555 F10800.000
G1 F1200
G1 X98.065 Y103.257 E0.30738
G1 X97.710 Y103.078 E0.01247
G1 X97.621 Y102.990 E0.00392
G1 X97.485 Y102.913 E0.00489
G1 X97.043 Y102.236 E0.02537
G1 X96.327 Y102.052 E0.02316
G1 X95.758 Y101.608 E0.02263
G1 X95.278 Y101.327 E0.01745
G1 X94.924 Y101.172 E0.01212
G1 X94.362 Y100.957 E0.01886
G1 X93.460 Y100.850 E0.02850
G1 X92.681 Y100.226 E0.03129
G1 X91.120 Y91.372 E0.28192
G1 X157.015 Y79.752 E2.09798
G1 X159.257 Y92.467 E0.40482
G1 X107.779 Y101.544 E1.63898
G1 X107.439 Y101.270 F10800.000
G1 E-0.80000 F2100.00000
G1 Z0.800 F10800.000
G1 X98.293 Y102.719
G1 Z0.200
G1 E0.80000 F2100.00000
G1 F1200
G1 X92.827 Y97.253 E0.24390
G1 X92.712 Y96.602 E0.02087
G1 X98.603 Y102.492 E0.26285
G1 X99.059 Y102.412 E0.01461
G1 X92.597 Y95.950 E0.28833
G1 X92.482 Y95.299 E0.02087
G1 X99.515 Y102.331 E0.31381
G1 X99.971 Y102.251 E0.01461
G1 X92.367 Y94.647 E0.33929
G1 X92.252 Y93.996 E0.02087
G1 X100.427 Y102.171 E0.36477
G1 X100.884 Y102.090 E0.01461
G1 X92.138 Y93.344 E0.39025
G1 X92.023 Y92.693 E0.02087
G1 X101.340 Y102.010 E0.41573
G1 X101.796 Y101.929 E0.01461
G1 X91.908 Y92.041 E0.44121
G1 X91.884 Y91.907 E0.00430
G1 X92.246 Y91.843 E0.01160
G1 X102.252 Y101.849 E0.44646
G1 X102.708 Y101.768 E0.01461
G1 X92.702 Y91.763 E0.44646
G1 X93.159 Y91.682 E0.01461
G1 X103.164 Y101.688 E0.44646
G1 X103.621 Y101.608 E0.01461
G1 X93.615 Y91.602 E0.44646
G1 X94.071 Y91.521 E0.01461
G1 X104.077 Y101.527 E0.44646
G1 X104.533 Y101.447 E0.01461
G1 X94.527 Y91.441 E0.44646
G1 X94.983 Y91.360 E0.01461
G1 X104.989 Y101.366 E0.44646
G1 X105.445 Y101.286 E0.01461
G1 X95.439 Y91.280 E0.44646
G1 X95.896 Y91.199 E0.01461
G1 X105.902 Y101.205 E0.44646
G1 X106.358 Y101.125 E0.01461
G1 X96.352 Y91.119 E0.44646
G1 X96.808 Y91.039 E0.01461
G1 X106.814 Y101.045 E0.44646
G1 X107.270 Y100.964 E0.01461
G1 X97.264 Y90.958 E0.44646
G1 X97.720 Y90.878 E0.01461
G1 X107.726 Y100.884 E0.44646
G1 X108.182 Y100.803 E0.01461
G1 X98.177 Y90.797 E0.44646
G1 X98.633 Y90.717 E0.01461
G1 X108.639 Y100.723 E0.44646
G1 X109.095 Y100.642 E0.01461
G1 X99.089 Y90.636 E0.44646
G1 X99.545 Y90.556 E0.01461
G1 X109.551 Y100.562 E0.44646
M73 P0 R158
G1 X110.007 Y100.481 E0.01461
G1 X100.001 Y90.476 E0.44646
G1 X100.457 Y90.395 E0.01461
G1 X110.463 Y100.401 E0.44646
G1 X110.920 Y100.321 E0.01461
G1 X100.914 Y90.315 E0.44646
G1 X101.370 Y90.234 E0.01461
G1 X111.376 Y100.240 E0.44646
G1 X111.832 Y100.160 E0.01461
G1 X101.826 Y90.154 E0.44646
G1 X102.282 Y90.073 E0.01461
G1 X112.288 Y100.079 E0.44646
G1 X112.744 Y99.999 E0.01461
G1 X102.738 Y89.993 E0.44646
G1 X103.195 Y89.912 E0.01461
G1 X113.200 Y99.918 E0.44646
G1 X113.657 Y99.838 E0.01461
G1 X103.651 Y89.832 E0.44646
G1 X104.107 Y89.752 E0.01461
G1 X114.113 Y99.758 E0.44646
G1 X114.569 Y99.677 E0.01461
G1 X104.563 Y89.671 E0.44646
G1 X105.019 Y89.591 E0.01461
G1 X115.025 Y99.597 E0.44646
G1 X115.481 Y99.516 E0.01461
G1 X105.475 Y89.510 E0.44646
G1 X105.932 Y89.430 E0.01461
G1 X115.938 Y99.436 E0.44646
G1 X116.394 Y99.355 E0.01461
G1 X106.388 Y89.349 E0.44646
G1 X106.844 Y89.269 E0.01461
G1 X116.850 Y99.275 E0.44646
G1 X117.306 Y99.194 E0.01461
G1 X107.300 Y89.189 E0.44646
G1 X107.756 Y89.108 E0.01461
G1 X117.762 Y99.114 E0.44646
G1 X118.218 Y99.034 E0.01461
G1 X108.213 Y89.028 E0.44646
G1 X108.669 Y88.947 E0.01461
G1 X118.675 Y98.953 E0.44646
G1 X119.131 Y98.873 E0.01461
G1 X109.125 Y88.867 E0.44646
G1 X109.581 Y88.786 E0.01461
G1 X119.587 Y98.792 E0.44646
G1 X120.043 Y98.712 E0.01461
G1 X110.037 Y88.706 E0.44646
G1 X110.493 Y88.626 E0.01461
G1 X120.499 Y98.631 E0.44646
G1 X120.955 Y98.551 E0.01461
G1 X110.950 Y88.545 E0.44646
G1 X111.406 Y88.465 E0.01461
G1 X121.412 Y98.471 E0.44646
G1 X121.868 Y98.390 E0.01461
G1 X111.862 Y88.384 E0.44646
G1 X112.318 Y88.304 E0.01461
G1 X122.324 Y98.310 E0.44646
G1 X122.780 Y98.229 E0.01461
G1 X112.774 Y88.223 E0.44646
G1 X113.230 Y88.143 E0.01461
G1 X123.236 Y98.149 E0.44646
G1 X123.693 Y98.068 E0.01461
G1 X113.687 Y88.062 E0.44646
G1 X114.143 Y87.982 E0.01461
G1 X124.149 Y97.988 E0.44646
G1 X124.605 Y97.907 E0.01461
G1 X114.599 Y87.902 E0.44646
G1 X115.055 Y87.821 E0.01461
G1 X125.061 Y97.827 E0.44646
G1 X125.517 Y97.747 E0.01461
G1 X115.511 Y87.741 E0.44646
G1 X115.968 Y87.660 E0.01461
G1 X125.973 Y97.666 E0.44646
G1 X126.430 Y97.586 E0.01461
G1 X116.424 Y87.580 E0.44646
G1 X116.880 Y87.499 E0.01461
G1 X126.886 Y97.505 E0.44646
G1 X127.342 Y97.425 E0.01461
G1 X117.336 Y87.419 E0.44646
G1 X117.792 Y87.339 E0.01461
G1 X127.798 Y97.344 E0.44646
G1 X128.254 Y97.264 E0.01461
G1 X118.248 Y87.258 E0.44646
G1 X118.705 Y87.178 E0.01461
G1 X128.711 Y97.184 E0.44646
G1 X129.167 Y97.103 E0.01461
G1 X119.161 Y87.097 E0.44646
G1 X119.617 Y87.017 E0.01461
G1 X129.623 Y97.023 E0.44646
G1 X130.079 Y96.942 E0.01461
G1 X120.073 Y86.936 E0.44646
G1 X120.529 Y86.856 E0.01461
G1 X130.535 Y96.862 E0.44646
G1 X130.991 Y96.781 E0.01461
G1 X120.986 Y86.775 E0.44646
G1 X121.442 Y86.695 E0.01461
G1 X131.448 Y96.701 E0.44646
G1 X131.904 Y96.620 E0.01461
G1 X121.898 Y86.615 E0.44646
G1 X122.354 Y86.534 E0.01461
G1 X132.360 Y96.540 E0.44646
G1 X132.816 Y96.460 E0.01461
G1 X122.810 Y86.454 E0.44646
G1 X123.266 Y86.373 E0.01461
G1 X133.272 Y96.379 E0.44646
G1 X133.729 Y96.299 E0.01461
G1 X123.723 Y86.293 E0.44646
G1 X124.179 Y86.212 E0.01461
G1 X134.185 Y96.218 E0.44646
G1 X134.641 Y96.138 E0.01461
G1 X124.635 Y86.132 E0.44646
G1 X125.091 Y86.052 E0.01461
G1 X135.097 Y96.057 E0.44646
G1 X135.553 Y95.977 E0.01461
G1 X125.547 Y85.971 E0.44646
G1 X126.004 Y85.891 E0.01461
G1 X136.009 Y95.897 E0.44646
G1 X136.466 Y95.816 E0.01461
G1 X126.460 Y85.810 E0.44646
G1 X126.916 Y85.730 E0.01461
G1 X136.922 Y95.736 E0.44646
G1 X137.378 Y95.655 E0.01461
G1 X127.372 Y85.649 E0.44646
G1 X127.828 Y85.569 E0.01461
G1 X137.834 Y95.575 E0.44646
G1 X138.290 Y95.494 E0.01461
G1 X128.284 Y85.488 E0.44646
G1 X128.741 Y85.408 E0.01461
G1 X138.746 Y95.414 E0.44646
G1 X139.203 Y95.333 E0.01461
G1 X129.197 Y85.328 E0.44646
G1 X129.653 Y85.247 E0.01461
G1 X139.659 Y95.253 E0.44646
G1 X140.115 Y95.173 E0.01461
G1 X130.109 Y85.167 E0.44646
G1 X130.565 Y85.086 E0.01461
G1 X140.571 Y95.092 E0.44646
G1 X141.027 Y95.012 E0.01461
G1 X131.021 Y85.006 E0.44646
G1 X131.478 Y84.925 E0.01461
G1 X141.484 Y94.931 E0.44646
G1 X141.940 Y94.851 E0.01461
G1 X131.934 Y84.845 E0.44646
G1 X132.390 Y84.765 E0.01461
G1 X142.396 Y94.770 E0.44646
G1 X142.852 Y94.690 E0.01461
G1 X132.846 Y84.684 E0.44646
G1 X133.302 Y84.604 E0.01461
G1 X143.308 Y94.610 E0.44646
G1 X143.764 Y94.529 E0.01461
G1 X133.759 Y84.523 E0.44646
G1 X134.215 Y84.443 E0.01461
G1 X144.221 Y94.449 E0.44646
G1 X144.677 Y94.368 E0.01461
G1 X134.671 Y84.362 E0.44646
G1 X135.127 Y84.282 E0.01461
G1 X145.133 Y94.288 E0.44646
G1 X145.589 Y94.207 E0.01461
G1 X135.583 Y84.201 E0.44646
G1 X136.039 Y84.121 E0.01461
G1 X146.045 Y94.127 E0.44646
G1 X146.502 Y94.047 E0.01461
G1 X136.496 Y84.041 E0.44646
G1 X136.952 Y83.960 E0.01461
G1 X146.958 Y93.966 E0.44646
M73 P1 R157
G1 X147.414 Y93.886 E0.01461
G1 X137.408 Y83.880 E0.44646
G1 X137.864 Y83.799 E0.01461
G1 X147.870 Y93.805 E0.44646
G1 X148.326 Y93.725 E0.01461
G1 X138.320 Y83.719 E0.44646
G1 X138.777 Y83.638 E0.01461
G1 X148.782 Y93.644 E0.44646
G1 X149.239 Y93.564 E0.01461
G1 X139.233 Y83.558 E0.44646
G1 X139.689 Y83.478 E0.01461
G1 X149.695 Y93.483 E0.44646
G1 X150.151 Y93.403 E0.01461
G1 X140.145 Y83.397 E0.44646
G1 X140.601 Y83.317 E0.01461
G1 X150.607 Y93.323 E0.44646
G1 X151.063 Y93.242 E0.01461
G1 X141.057 Y83.236 E0.44646
G1 X141.514 Y83.156 E0.01461
G1 X151.520 Y93.162 E0.44646
G1 X151.976 Y93.081 E0.01461
G1 X141.970 Y83.075 E0.44646
G1 X142.426 Y82.995 E0.01461
G1 X152.432 Y93.001 E0.44646
G1 X152.888 Y92.920 E0.01461
G1 X142.882 Y82.914 E0.44646
G1 X143.338 Y82.834 E0.01461
G1 X153.344 Y92.840 E0.44646
G1 X153.800 Y92.760 E0.01461
G1 X143.795 Y82.754 E0.44646
G1 X144.251 Y82.673 E0.01461
G1 X154.257 Y92.679 E0.44646
G1 X154.713 Y92.599 E0.01461
G1 X144.707 Y82.593 E0.44646
G1 X145.163 Y82.512 E0.01461
G1 X155.169 Y92.518 E0.44646
G1 X155.625 Y92.438 E0.01461
G1 X145.619 Y82.432 E0.44646
G1 X146.075 Y82.351 E0.01461
G1 X156.081 Y92.357 E0.44646
G1 X156.537 Y92.277 E0.01461
G1 X146.532 Y82.271 E0.44646
G1 X146.988 Y82.191 E0.01461
G1 X156.994 Y92.196 E0.44646
G1 X157.450 Y92.116 E0.01461
G1 X147.444 Y82.110 E0.44646
G1 X147.900 Y82.030 E0.01461
G1 X157.906 Y92.036 E0.44646
G1 X158.362 Y91.955 E0.01461
G1 X148.356 Y81.949 E0.44646
G1 X148.812 Y81.869 E0.01461
G1 X158.411 Y91.467 E0.42828
G1 X158.296 Y90.816 E0.02087
G1 X149.269 Y81.788 E0.40280
G1 X149.725 Y81.708 E0.01461
G1 X158.181 Y90.164 E0.37732
G1 X158.066 Y89.513 E0.02087
G1 X150.181 Y81.628 E0.35184
G1 X150.637 Y81.547 E0.01461
G1 X157.951 Y88.861 E0.32636
G1 X157.836 Y88.210 E0.02087
G1 X151.093 Y81.467 E0.30088
G1 X151.550 Y81.386 E0.01461
G1 X157.722 Y87.558 E0.27539
G1 X157.607 Y86.907 E0.02087
G1 X152.006 Y81.306 E0.24991
G1 X152.462 Y81.225 E0.01461
G1 X157.492 Y86.255 E0.22443
G1 X157.377 Y85.604 E0.02087
G1 X152.918 Y81.145 E0.19895
G1 X153.374 Y81.064 E0.01461
G1 X157.262 Y84.952 E0.17347
G1 X157.147 Y84.301 E0.02087
G1 X153.830 Y80.984 E0.14799
G1 X154.287 Y80.904 E0.01461
G1 X157.032 Y83.649 E0.12251
G1 X156.917 Y82.998 E0.02087
G1 X154.743 Y80.823 E0.09703
G1 X155.199 Y80.743 E0.01461
G1 X156.803 Y82.346 E0.07155
G1 X156.688 Y81.695 E0.02087
G1 X155.655 Y80.662 E0.04607
G1 X156.111 Y80.582 E0.01461
G1 X156.782 Y81.252 E0.02992
G1 E-0.80000 F2100.00000
G1 Z0.800 F10800.000
G1 X96.672 Y101.635
G1 Z0.200
G1 E0.80000 F2100.00000
G1 F1200
G1 X92.942 Y97.905 E0.16644
G1 X93.057 Y98.556 E0.02087
G1 X94.992 Y100.491 E0.08636
G1 X94.522 Y100.311 E0.01589
G1 X94.242 Y100.278 E0.00888
G1 X92.962 Y98.998 E0.05711
G1 E-0.80000 F2100.00000
G1 Z0.800 F10800.000
G1 X92.768 Y132.261
G1 Z0.200
G1 E0.80000 F2100.00000
G1 F1200
G1 X93.078 Y131.951 E0.01374
G1 X94.060 Y131.778 E0.03125
G1 X94.188 Y131.792 E0.00403
G1 X94.272 Y131.824 E0.00283
G1 X93.422 Y132.674 E0.03771
G1 X93.955 Y133.208 E0.02365
G1 X95.020 Y132.142 E0.04723
G1 X95.348 Y132.334 E0.01192
G1 X95.659 Y132.570 E0.01223
G1 X94.488 Y133.741 E0.05193
G1 X95.021 Y134.274 E0.02365
G1 X96.361 Y132.934 E0.05941
G1 X96.583 Y132.991 E0.00717
G1 X96.894 Y133.468 E0.01785
G1 X95.555 Y134.807 E0.05940
G1 X96.088 Y135.341 E0.02365
G1 X97.512 Y133.916 E0.06316
G1 X97.872 Y134.098 E0.01262
G1 X98.040 Y134.122 E0.00534
G1 X98.444 Y134.051 E0.01285
G1 X96.621 Y135.874 E0.08082
G1 X97.155 Y136.407 E0.02365
G1 X99.739 Y133.823 E0.11459
G1 X101.034 Y133.595 E0.04123
G1 X97.688 Y136.940 E0.14836
G1 X98.221 Y137.474 E0.02365
G1 X102.329 Y133.366 E0.18213
G1 X103.623 Y133.138 E0.04123
G1 X98.754 Y138.007 E0.21590
G1 X99.288 Y138.540 E0.02365
G1 X104.918 Y132.910 E0.24967
G1 X106.213 Y132.681 E0.04123
G1 X99.821 Y139.074 E0.28344
G1 X100.354 Y139.607 E0.02365
G1 X107.508 Y132.453 E0.31721
G1 X108.803 Y132.225 E0.04123
G1 X102.519 Y138.509 E0.27865
