; generated by PrusaSlicer 2.1.1+win64 on 2020-05-22 at 18:19:40 UTC

; 

; external perimeters extrusion width = 0.45mm
; perimeters extrusion width = 0.45mm
; infill extrusion width = 0.45mm
; solid infill extrusion width = 0.45mm
; top infill extrusion width = 0.40mm
; first layer extrusion width = 0.42mm

M73 P0 R28
M201 X9000 Y9000 Z500 E10000 ; sets maximum accelerations, mm/sec^2
M203 X500 Y500 Z12 E120 ; sets maximum feedrates, mm/sec
M204 P2000 R1500 T2000 ; sets acceleration (P, T) and retract acceleration (R), mm/sec^2
M205 X10.00 Y10.00 Z0.20 E2.50 ; sets the jerk limits, mm/sec
M205 S0 T0 ; sets the minimum extruding and travel feed rate, mm/sec
M107
M862.3 P "MK2S" ; printer model check
M862.1 P0.4 ; nozzle diameter check
M115 U3.2.3 ; tell printer latest fw version
G90 ; use absolute coordinates
M83 ; extruder relative mode
M204 S2000 T1500 ; MK2 firmware only supports the old M204 format
M104 S215 ; set extruder temp
M140 S60 ; set bed temp
M190 S60 ; wait for bed temp
M109 S215 ; wait for extruder temp
G28 W ; home all without mesh bed level
G80 ; mesh bed leveling
G1 Y-3.0 F1000.0 ; go outside print area
G92 E0.0
G1 X60.0 E9.0  F1000.0 ; intro line
M73 P0 R28
G1 X100.0 E12.5 F1000.0 ; intro line
G92 E0.0
G21 ; set units to millimeters
G90 ; use absolute coordinates
M83 ; use relative distances for extrusion
M900 K30 ; Filament gcode
;BEFORE_LAYER_CHANGE
G92 E0.0
;0.2


G1 E-0.80000 F2100.00000
G1 Z0.600 F10800.000
;AFTER_LAYER_CHANGE
;0.2
G1 X103.579 Y140.816
G1 Z0.200
G1 E0.80000 F2100.00000
M204 S1000
G1 F1200
G1 X102.547 Y140.710 E0.03254
G1 X101.603 Y140.423 E0.03094
G1 X100.710 Y139.946 E0.03174
G1 X99.928 Y139.304 E0.03174
G1 X99.286 Y138.521 E0.03174
G1 X98.809 Y137.629 E0.03172
G1 X98.512 Y136.635 E0.03254
G1 X98.415 Y135.653 E0.03094
G1 X98.515 Y134.645 E0.03174
G1 X98.865 Y133.491 E0.03781
G1 X98.317 Y133.201 E0.01943
G1 X97.764 Y133.043 E0.01803
G1 X96.830 Y132.734 E0.03086
G1 X95.912 Y132.380 E0.03083
G1 X95.014 Y131.982 E0.03083
G1 X94.135 Y131.540 E0.03083
G1 X93.280 Y131.055 E0.03083
G1 X92.449 Y130.529 E0.03083
G1 X91.645 Y129.963 E0.03083
G1 X90.889 Y129.373 E0.03007
G1 X90.125 Y128.716 E0.03160
G1 X89.413 Y128.038 E0.03083
G1 X88.735 Y127.325 E0.03083
G1 X88.093 Y126.581 E0.03083
G1 X87.488 Y125.806 E0.03083
G1 X86.922 Y125.002 E0.03083
G1 X86.396 Y124.171 E0.03083
G1 X85.911 Y123.315 E0.03083
G1 X85.469 Y122.437 E0.03083
G1 X85.070 Y121.538 E0.03083
G1 X84.716 Y120.621 E0.03083
G1 X84.408 Y119.687 E0.03083
G1 X84.146 Y118.739 E0.03083
G1 X83.930 Y117.780 E0.03083
G1 X83.762 Y116.811 E0.03083
G1 X83.642 Y115.835 E0.03083
G1 X83.569 Y114.855 E0.03083
G1 X83.545 Y113.872 E0.03083
G1 X83.569 Y112.889 E0.03083
G1 X83.640 Y111.932 E0.03007
G1 X83.762 Y110.932 E0.03160
G1 X83.930 Y109.963 E0.03083
G1 X84.146 Y109.004 E0.03083
G1 X84.408 Y108.056 E0.03083
G1 X84.716 Y107.123 E0.03083
G1 X85.070 Y106.205 E0.03083
G1 X85.469 Y105.306 E0.03083
G1 X85.900 Y104.450 E0.03007
G1 X86.396 Y103.572 E0.03160
G1 X86.922 Y102.742 E0.03083
G1 X87.488 Y101.938 E0.03083
G1 X88.093 Y101.162 E0.03083
G1 X88.735 Y100.418 E0.03083
G1 X89.413 Y99.706 E0.03083
G1 X90.108 Y99.045 E0.03007
G1 X90.870 Y98.385 E0.03160
G1 X91.645 Y97.781 E0.03083
G1 X92.449 Y97.214 E0.03083
G1 X93.280 Y96.688 E0.03083
G1 X94.114 Y96.216 E0.03007
G1 X95.014 Y95.761 E0.03160
G1 X95.912 Y95.363 E0.03083
G1 X96.830 Y95.009 E0.03083
G1 X97.764 Y94.700 E0.03086
G1 X98.317 Y94.543 E0.01802
G1 X98.864 Y94.252 E0.01941
G1 X98.512 Y93.073 E0.03860
G1 X98.415 Y92.091 E0.03094
G1 X98.515 Y91.083 E0.03174
G1 X98.808 Y90.115 E0.03174
G1 X99.286 Y89.222 E0.03174
G1 X99.928 Y88.440 E0.03174
G1 X100.710 Y87.797 E0.03174
G1 X101.603 Y87.320 E0.03174
G1 X102.571 Y87.027 E0.03172
G1 X103.604 Y86.930 E0.03254
G1 X104.586 Y87.026 E0.03094
G1 X105.555 Y87.320 E0.03174
G1 X106.448 Y87.797 E0.03174
G1 X107.230 Y88.440 E0.03174
G1 X107.872 Y89.222 E0.03174
G1 X108.349 Y90.114 E0.03172
G1 X108.646 Y91.109 E0.03254
G1 X108.743 Y92.091 E0.03094
G1 X108.643 Y93.098 E0.03174
G1 X108.293 Y94.252 E0.03781
G1 X108.841 Y94.543 E0.01943
G1 X109.394 Y94.700 E0.01803
G1 X110.328 Y95.009 E0.03086
G1 X111.246 Y95.363 E0.03083
G1 X112.144 Y95.762 E0.03083
G1 X113.023 Y96.204 E0.03083
G1 X113.878 Y96.688 E0.03083
G1 X114.709 Y97.214 E0.03083
G1 X115.513 Y97.781 E0.03083
G1 X116.288 Y98.385 E0.03083
G1 X117.033 Y99.028 E0.03083
G1 X117.745 Y99.706 E0.03083
G1 X118.423 Y100.418 E0.03083
G1 X119.065 Y101.162 E0.03083
G1 X119.670 Y101.938 E0.03083
G1 X120.236 Y102.742 E0.03083
G1 X120.749 Y103.552 E0.03007
G1 X121.247 Y104.428 E0.03160
G1 X121.689 Y105.306 E0.03083
G1 X122.088 Y106.205 E0.03083
G1 X122.442 Y107.123 E0.03083
G1 X122.750 Y108.056 E0.03083
G1 X123.012 Y109.004 E0.03083
G1 X123.228 Y109.963 E0.03083
G1 X123.396 Y110.932 E0.03083
G1 X123.516 Y111.908 E0.03083
G1 X123.588 Y112.889 E0.03083
G1 X123.613 Y113.872 E0.03083
G1 X123.588 Y114.855 E0.03083
G1 X123.518 Y115.811 E0.03007
G1 X123.396 Y116.811 E0.03160
G1 X123.228 Y117.780 E0.03083
G1 X123.012 Y118.739 E0.03083
G1 X122.750 Y119.687 E0.03083
G1 X122.442 Y120.621 E0.03083
G1 X122.088 Y121.538 E0.03083
G1 X121.689 Y122.437 E0.03083
G1 X121.258 Y123.294 E0.03007
G1 X120.762 Y124.171 E0.03160
G1 X120.236 Y125.002 E0.03083
G1 X119.670 Y125.806 E0.03083
G1 X119.065 Y126.581 E0.03083
G1 X118.423 Y127.325 E0.03083
G1 X117.745 Y128.038 E0.03083
G1 X117.033 Y128.716 E0.03083
G1 X116.288 Y129.358 E0.03083
G1 X115.513 Y129.963 E0.03083
G1 X114.709 Y130.529 E0.03083
G1 X113.878 Y131.055 E0.03083
G1 X113.023 Y131.540 E0.03083
G1 X112.144 Y131.982 E0.03083
G1 X111.245 Y132.380 E0.03083
G1 X110.328 Y132.734 E0.03083
G1 X109.394 Y133.043 E0.03086
G1 X108.841 Y133.201 E0.01802
G1 X108.294 Y133.491 E0.01941
G1 X108.646 Y134.671 E0.03860
G1 X108.743 Y135.653 E0.03094
G1 X108.643 Y136.660 E0.03174
G1 X108.350 Y137.629 E0.03174
G1 X107.872 Y138.521 E0.03174
G1 X107.231 Y139.303 E0.03172
G1 X106.425 Y139.958 E0.03254
G1 X105.555 Y140.423 E0.03094
G1 X104.586 Y140.717 E0.03174
G1 X103.639 Y140.810 E0.02984
G1 X103.381 Y140.469 F10800.000
G1 E-0.80000 F2100.00000
G1 Z0.800 F10800.000
G1 X103.538 Y96.870
G1 Z0.200
G1 E0.80000 F2100.00000
G1 F1200
G1 X102.633 Y96.781 E0.02851
G1 X101.763 Y96.517 E0.02851
G1 X100.961 Y96.088 E0.02851
G1 X100.258 Y95.511 E0.02851
G1 X99.682 Y94.809 E0.02851
G1 X99.253 Y94.007 E0.02851
G1 X98.989 Y93.137 E0.02851
G1 X98.900 Y92.232 E0.02851
G1 X98.989 Y91.327 E0.02851
G1 X99.253 Y90.457 E0.02851
G1 X99.682 Y89.655 E0.02851
G1 X100.258 Y88.952 E0.02851
G1 X100.961 Y88.376 E0.02851
G1 X101.763 Y87.947 E0.02852
G1 X102.655 Y87.681 E0.02916
G1 X103.538 Y87.594 E0.02782
G1 X104.443 Y87.683 E0.02851
G1 X105.313 Y87.947 E0.02851
G1 X106.115 Y88.376 E0.02851
G1 X106.817 Y88.952 E0.02851
G1 X107.394 Y89.655 E0.02851
G1 X107.823 Y90.457 E0.02851
G1 X108.087 Y91.327 E0.02851
G1 X108.176 Y92.232 E0.02851
G1 X108.087 Y93.137 E0.02851
G1 X107.823 Y94.007 E0.02851
G1 X107.394 Y94.809 E0.02851
G1 X106.817 Y95.511 E0.02851
G1 X106.115 Y96.088 E0.02851
G1 X105.313 Y96.517 E0.02851
G1 X104.443 Y96.781 E0.02851
G1 X103.598 Y96.864 E0.02663
G1 X103.338 Y97.216 F10800.000
G1 E-0.80000 F2100.00000
G1 Z0.800 F10800.000
G1 X99.178 Y133.231
G1 Z0.200
G1 E0.80000 F2100.00000
G1 F1200
G1 X98.459 Y132.849 E0.02553
G1 X97.875 Y132.682 E0.01903
G1 X96.957 Y132.379 E0.03032
G1 X96.057 Y132.032 E0.03025
G1 X95.175 Y131.641 E0.03025
G1 X94.313 Y131.207 E0.03025
G1 X93.474 Y130.732 E0.03025
G1 X92.658 Y130.215 E0.03025
G1 X91.870 Y129.660 E0.03025
G1 X91.128 Y129.081 E0.02949
G1 X90.378 Y128.436 E0.03102
G1 X89.680 Y127.771 E0.03024
G1 X89.015 Y127.072 E0.03025
G1 X88.384 Y126.342 E0.03025
G1 X87.791 Y125.581 E0.03025
G1 X87.235 Y124.792 E0.03025
G1 X86.719 Y123.977 E0.03025
G1 X86.244 Y123.138 E0.03025
G1 X85.810 Y122.276 E0.03025
G1 X85.419 Y121.394 E0.03025
G1 X85.072 Y120.494 E0.03025
G1 X84.769 Y119.578 E0.03025
G1 X84.512 Y118.648 E0.03025
G1 X84.300 Y117.706 E0.03025
G1 X84.135 Y116.756 E0.03025
G1 X84.017 Y115.798 E0.03025
G1 X83.946 Y114.836 E0.03025
G1 X83.923 Y113.872 E0.03025
G1 X83.946 Y112.907 E0.03025
G1 X84.015 Y111.969 E0.02949
G1 X84.135 Y110.987 E0.03102
G1 X84.300 Y110.037 E0.03024
G1 X84.512 Y109.096 E0.03025
G1 X84.769 Y108.166 E0.03025
G1 X85.072 Y107.250 E0.03025
G1 X85.419 Y106.350 E0.03025
G1 X85.810 Y105.467 E0.03025
G1 X86.233 Y104.627 E0.02949
G1 X86.719 Y103.766 E0.03102
G1 X87.235 Y102.951 E0.03024
G1 X87.791 Y102.162 E0.03025
G1 X88.384 Y101.402 E0.03025
G1 X89.015 Y100.671 E0.03025
G1 X89.680 Y99.972 E0.03025
G1 X90.361 Y99.324 E0.02949
G1 X91.109 Y98.677 E0.03102
G1 X91.870 Y98.083 E0.03024
G1 X92.658 Y97.528 E0.03025
G1 X93.474 Y97.012 E0.03025
G1 X94.292 Y96.548 E0.02949
G1 X95.175 Y96.102 E0.03102
G1 X96.057 Y95.711 E0.03024
G1 X96.957 Y95.364 E0.03025
G1 X97.875 Y95.061 E0.03032
G1 X98.459 Y94.894 E0.01903
G1 X99.114 Y94.547 E0.02326
G1 X99.367 Y95.019 E0.01680
G1 X99.990 Y95.779 E0.03084
G1 X100.751 Y96.403 E0.03084
G1 X101.618 Y96.867 E0.03084
G1 X102.559 Y97.152 E0.03084
G1 X103.538 Y97.249 E0.03084
G1 X104.517 Y97.152 E0.03084
G1 X105.458 Y96.867 E0.03084
G1 X106.325 Y96.403 E0.03084
G1 X107.085 Y95.779 E0.03084
G1 X107.709 Y95.019 E0.03084
G1 X107.980 Y94.513 E0.01801
G1 X108.699 Y94.894 E0.02553
G1 X109.283 Y95.061 E0.01903
G1 X110.201 Y95.364 E0.03032
G1 X111.101 Y95.712 E0.03025
G1 X111.983 Y96.102 E0.03025
G1 X112.845 Y96.536 E0.03025
G1 X113.684 Y97.012 E0.03025
G1 X114.500 Y97.528 E0.03025
G1 X115.288 Y98.083 E0.03025
G1 X116.049 Y98.677 E0.03025
G1 X116.779 Y99.307 E0.03025
G1 X117.478 Y99.972 E0.03025
G1 X118.143 Y100.671 E0.03025
G1 X118.774 Y101.402 E0.03025
G1 X119.367 Y102.162 E0.03025
G1 X119.923 Y102.951 E0.03025
G1 X120.426 Y103.746 E0.02949
G1 X120.915 Y104.606 E0.03102
G1 X121.348 Y105.467 E0.03024
G1 X121.739 Y106.350 E0.03025
G1 X122.086 Y107.250 E0.03025
G1 X122.389 Y108.166 E0.03025
G1 X122.646 Y109.096 E0.03025
G1 X122.858 Y110.037 E0.03025
G1 X123.023 Y110.988 E0.03025
G1 X123.141 Y111.945 E0.03025
G1 X123.212 Y112.907 E0.03025
G1 X123.235 Y113.872 E0.03025
G1 X123.212 Y114.836 E0.03025
G1 X123.143 Y115.774 E0.02949
G1 X123.023 Y116.756 E0.03102
G1 X122.858 Y117.706 E0.03024
G1 X122.646 Y118.648 E0.03025
G1 X122.389 Y119.578 E0.03025
G1 X122.086 Y120.494 E0.03025
G1 X121.739 Y121.394 E0.03025
G1 X121.348 Y122.276 E0.03025
G1 X120.925 Y123.116 E0.02949
G1 X120.439 Y123.977 E0.03102
G1 X119.923 Y124.792 E0.03024
G1 X119.367 Y125.581 E0.03025
G1 X118.774 Y126.342 E0.03025
G1 X118.143 Y127.072 E0.03025
G1 X117.478 Y127.771 E0.03025
G1 X116.779 Y128.436 E0.03025
G1 X116.049 Y129.066 E0.03025
G1 X115.288 Y129.660 E0.03025
G1 X114.500 Y130.215 E0.03025
G1 X113.684 Y130.732 E0.03025
G1 X112.845 Y131.207 E0.03025
G1 X111.983 Y131.641 E0.03025
G1 X111.101 Y132.032 E0.03025
G1 X110.201 Y132.379 E0.03025
G1 X109.283 Y132.682 E0.03032
G1 X108.699 Y132.849 E0.01903
G1 X108.044 Y133.197 E0.02326
G1 X107.791 Y132.724 E0.01680
G1 X107.168 Y131.964 E0.03084
G1 X106.407 Y131.340 E0.03084
G1 X105.540 Y130.876 E0.03084
G1 X104.599 Y130.591 E0.03084
G1 X103.620 Y130.495 E0.03084
G1 X102.664 Y130.589 E0.03012
G1 X101.701 Y130.876 E0.03149
G1 X100.833 Y131.340 E0.03088
G1 X100.073 Y131.964 E0.03084
G1 X99.449 Y132.724 E0.03084
G1 X99.206 Y133.178 E0.01613
G1 E-0.80000 F2100.00000
G1 Z0.800 F10800.000
G1 X103.579 Y127.210
G1 Z0.200
G1 E0.80000 F2100.00000
G1 F1200
G1 X102.924 Y127.194 E0.02053
G1 X102.272 Y127.146 E0.02053
G1 X101.622 Y127.066 E0.02053
G1 X100.977 Y126.954 E0.02053
G1 X100.338 Y126.810 E0.02053
G1 X99.707 Y126.636 E0.02053
G1 X99.085 Y126.430 E0.02053
G1 X98.475 Y126.195 E0.02053
G1 X97.876 Y125.930 E0.02053
G1 X97.291 Y125.635 E0.02053
G1 X96.722 Y125.313 E0.02053
G1 X96.169 Y124.962 E0.02053
G1 X95.633 Y124.585 E0.02053
G1 X95.117 Y124.183 E0.02053
G1 X94.621 Y123.755 E0.02053
G1 X94.147 Y123.303 E0.02053
G1 X93.696 Y122.829 E0.02053
G1 X93.268 Y122.334 E0.02053
G1 X92.865 Y121.817 E0.02053
G1 X92.488 Y121.282 E0.02053
G1 X92.138 Y120.729 E0.02053
G1 X91.815 Y120.159 E0.02053
G1 X91.521 Y119.575 E0.02053
G1 X91.256 Y118.976 E0.02053
G1 X91.020 Y118.365 E0.02053
G1 X90.815 Y117.744 E0.02053
G1 X90.640 Y117.113 E0.02053
G1 X90.497 Y116.474 E0.02053
G1 X90.385 Y115.829 E0.02053
G1 X90.305 Y115.179 E0.02053
G1 X90.257 Y114.526 E0.02053
G1 X90.240 Y113.872 E0.02053
G1 X90.257 Y113.217 E0.02053
G1 X90.305 Y112.564 E0.02053
G1 X90.385 Y111.915 E0.02053
G1 X90.497 Y111.269 E0.02053
G1 X90.640 Y110.631 E0.02053
G1 X90.815 Y110.000 E0.02053
G1 X91.020 Y109.378 E0.02053
G1 X91.256 Y108.767 E0.02053
G1 X91.521 Y108.169 E0.02053
G1 X91.815 Y107.584 E0.02053
G1 X92.138 Y107.014 E0.02053
G1 X92.488 Y106.461 E0.02053
G1 X92.865 Y105.926 E0.02053
G1 X93.268 Y105.410 E0.02053
G1 X93.696 Y104.914 E0.02053
G1 X94.147 Y104.440 E0.02053
G1 X94.621 Y103.989 E0.02053
G1 X95.117 Y103.561 E0.02053
G1 X95.633 Y103.158 E0.02053
G1 X96.169 Y102.781 E0.02053
G1 X96.722 Y102.431 E0.02053
G1 X97.291 Y102.108 E0.02053
G1 X97.876 Y101.814 E0.02053
G1 X98.475 Y101.549 E0.02053
G1 X99.085 Y101.313 E0.02053
G1 X99.707 Y101.108 E0.02053
G1 X100.338 Y100.933 E0.02053
G1 X100.977 Y100.789 E0.02053
G1 X101.622 Y100.678 E0.02053
G1 X102.272 Y100.597 E0.02053
G1 X102.939 Y100.549 E0.02096
G1 X103.579 Y100.533 E0.02009
G1 X104.233 Y100.549 E0.02053
G1 X104.886 Y100.597 E0.02053
G1 X105.536 Y100.678 E0.02053
G1 X106.181 Y100.789 E0.02053
G1 X106.820 Y100.933 E0.02053
G1 X107.451 Y101.108 E0.02053
G1 X108.073 Y101.313 E0.02053
G1 X108.683 Y101.549 E0.02053
G1 X109.282 Y101.814 E0.02053
G1 X109.867 Y102.108 E0.02053
G1 X110.436 Y102.431 E0.02053
G1 X110.989 Y102.781 E0.02053
G1 X111.525 Y103.158 E0.02053
G1 X112.041 Y103.561 E0.02053
G1 X112.537 Y103.989 E0.02053
G1 X113.011 Y104.440 E0.02053
G1 X113.462 Y104.914 E0.02053
G1 X113.890 Y105.410 E0.02053
G1 X114.293 Y105.926 E0.02053
G1 X114.670 Y106.461 E0.02053
G1 X115.020 Y107.014 E0.02053
G1 X115.343 Y107.584 E0.02053
G1 X115.637 Y108.169 E0.02053
G1 X115.902 Y108.767 E0.02053
G1 X116.138 Y109.378 E0.02053
G1 X116.343 Y110.000 E0.02053
G1 X116.518 Y110.631 E0.02053
G1 X116.661 Y111.269 E0.02053
G1 X116.773 Y111.915 E0.02053
G1 X116.853 Y112.564 E0.02053
G1 X116.901 Y113.217 E0.02053
G1 X116.917 Y113.872 E0.02053
G1 X116.901 Y114.526 E0.02053
G1 X116.853 Y115.179 E0.02053
G1 X116.773 Y115.829 E0.02053
G1 X116.661 Y116.474 E0.02053
G1 X116.518 Y117.113 E0.02053
G1 X116.343 Y117.744 E0.02053
G1 X116.138 Y118.365 E0.02053
G1 X115.902 Y118.976 E0.02053
G1 X115.637 Y119.575 E0.02053
G1 X115.343 Y120.159 E0.02053
G1 X115.020 Y120.729 E0.02053
G1 X114.670 Y121.282 E0.02053
G1 X114.293 Y121.817 E0.02053
G1 X113.890 Y122.334 E0.02053
G1 X113.462 Y122.829 E0.02053
G1 X113.011 Y123.303 E0.02053
G1 X112.537 Y123.755 E0.02053
G1 X112.041 Y124.183 E0.02053
G1 X111.525 Y124.585 E0.02053
G1 X110.989 Y124.962 E0.02053
G1 X110.436 Y125.313 E0.02053
G1 X109.867 Y125.635 E0.02053
G1 X109.282 Y125.930 E0.02053
G1 X108.683 Y126.195 E0.02053
G1 X108.073 Y126.430 E0.02053
G1 X107.451 Y126.636 E0.02053
G1 X106.820 Y126.810 E0.02053
G1 X106.181 Y126.954 E0.02053
G1 X105.536 Y127.066 E0.02053
G1 X104.886 Y127.146 E0.02053
G1 X104.233 Y127.194 E0.02053
G1 X103.639 Y127.209 E0.01864
G1 X103.379 Y127.557 F10800.000
G1 X103.579 Y127.587
G1 F1200
G1 X102.906 Y127.571 E0.02111
G1 X102.235 Y127.521 E0.02111
G1 X101.566 Y127.439 E0.02111
G1 X100.903 Y127.324 E0.02111
G1 X100.246 Y127.176 E0.02111
G1 X99.598 Y126.997 E0.02111
G1 X98.958 Y126.786 E0.02111
G1 X98.330 Y126.543 E0.02111
G1 X97.715 Y126.271 E0.02111
G1 X97.113 Y125.968 E0.02111
G1 X96.528 Y125.636 E0.02111
G1 X95.959 Y125.276 E0.02111
G1 X95.409 Y124.888 E0.02111
G1 X94.878 Y124.474 E0.02111
G1 X94.368 Y124.034 E0.02111
G1 X93.881 Y123.570 E0.02111
G1 X93.416 Y123.083 E0.02111
G1 X92.977 Y122.573 E0.02111
G1 X92.562 Y122.042 E0.02111
G1 X92.175 Y121.492 E0.02111
G1 X91.815 Y120.923 E0.02111
G1 X91.483 Y120.337 E0.02111
G1 X91.180 Y119.736 E0.02111
G1 X90.907 Y119.120 E0.02111
G1 X90.665 Y118.492 E0.02111
G1 X90.454 Y117.853 E0.02111
G1 X90.274 Y117.204 E0.02111
G1 X90.127 Y116.547 E0.02111
G1 X90.012 Y115.884 E0.02111
