; generated by PrusaSlicer 2.2.0+win64 on 2021-04-21 at 22:40:57 UTC

; 

; external perimeters extrusion width = 0.45mm
; perimeters extrusion width = 0.45mm
; infill extrusion width = 0.45mm
; solid infill extrusion width = 0.45mm
; top infill extrusion width = 0.40mm
; first layer extrusion width = 0.42mm

M73 P0 R246
M201 X9000 Y9000 Z500 E10000 ; sets maximum accelerations, mm/sec^2
M203 X500 Y500 Z12 E120 ; sets maximum feedrates, mm/sec
M204 P2000 R1500 T2000 ; sets acceleration (P, T) and retract acceleration (R), mm/sec^2
M205 X10.00 Y10.00 Z0.20 E2.50 ; sets the jerk limits, mm/sec
M205 S0 T0 ; sets the minimum extruding and travel feed rate, mm/sec
M107
M862.3 P "MK2S" ; printer model check
M862.1 P0.4 ; nozzle diameter check
M115 U3.2.3 ; tell printer latest fw version
G90 ; use absolute coordinates
M83 ; extruder relative mode
M204 S2000 T1500 ; MK2 firmware only supports the old M204 format
M104 S215 ; set extruder temp
M140 S60 ; set bed temp
M190 S60 ; wait for bed temp
M109 S215 ; wait for extruder temp
G28 W ; home all without mesh bed level
G80 ; mesh bed leveling
G1 Y-3.0 F1000.0 ; go outside print area
G92 E0.0
G1 X60.0 E9.0  F1000.0 ; intro line
M73 P0 R246
G1 X100.0 E12.5 F1000.0 ; intro line
G92 E0.0
G21 ; set units to millimeters
G90 ; use absolute coordinates
M83 ; use relative distances for extrusion
M900 K0.05 ; Filament gcode LA 1.5
M900 K30 ; Filament gcode LA 1.0
;BEFORE_LAYER_CHANGE
G92 E0.0
;0.2


G1 E-0.80000 F2100.00000
G1 Z0.600 F10800.000
;AFTER_LAYER_CHANGE
;0.2
G1 X50.813 Y130.952
G1 Z0.200
G1 E0.80000 F2100.00000
M204 S1000
G1 F1200.000
G1 X27.987 Y130.952 E0.71569
G1 X27.987 Y90.304 E1.27449
G1 X78.165 Y40.126 E2.22497
G1 X127.987 Y40.126 E1.56214
G1 X127.987 Y13.626 E0.83089
G1 X143.813 Y13.626 E0.49621
G1 X143.813 Y16.796 E0.09939
G1 X142.987 Y17.621 E0.03662
G1 X142.987 Y16.452 E0.03668
G1 X130.813 Y16.452 E0.38171
G1 X130.813 Y29.126 E0.39739
G1 X132.813 Y29.126 E0.06271
G1 X132.813 Y29.952 E0.02589
G1 X130.813 Y29.952 E0.06271
G1 X130.813 Y34.626 E0.14655
G1 X132.813 Y34.626 E0.06271
G1 X132.813 Y35.452 E0.02589
G1 X130.813 Y35.452 E0.06271
G1 X130.813 Y48.126 E0.39739
G1 X142.987 Y48.126 E0.38171
G1 X142.987 Y46.956 E0.03668
G1 X143.813 Y47.782 E0.03662
G1 X143.813 Y50.952 E0.09939
G1 X82.650 Y50.952 E1.91774
G1 X38.813 Y94.788 E1.94378
G1 X38.813 Y128.126 E1.04528
G1 X50.813 Y128.126 E0.37625
G1 X50.813 Y130.892 E0.08672
G1 X51.190 Y131.329 F10800.000
G1 F1200.000
G1 X27.610 Y131.329 E0.73933
G1 X27.610 Y90.148 E1.29121
G1 X78.009 Y39.749 E2.23477
G1 X127.610 Y39.749 E1.55521
G1 X127.610 Y13.249 E0.83089
G1 X144.190 Y13.249 E0.51985
G1 X144.190 Y16.952 E0.11611
G1 X142.610 Y18.532 E0.07006
G1 X142.610 Y16.829 E0.05340
G1 X131.190 Y16.829 E0.35807
G1 X131.190 Y28.749 E0.37374
G1 X133.190 Y28.749 E0.06271
G1 X133.190 Y30.329 E0.04954
G1 X131.190 Y30.329 E0.06271
G1 X131.190 Y34.249 E0.12291
G1 X133.190 Y34.249 E0.06271
G1 X133.190 Y35.829 E0.04954
G1 X131.190 Y35.829 E0.06271
G1 X131.190 Y47.749 E0.37374
G1 X142.610 Y47.749 E0.35807
G1 X142.610 Y46.046 E0.05340
G1 X144.190 Y47.626 E0.07006
G1 X144.190 Y51.329 E0.11611
G1 X82.806 Y51.329 E1.92467
G1 X39.190 Y94.944 E1.93398
G1 X39.190 Y127.749 E1.02856
G1 X51.190 Y127.749 E0.37625
G1 X51.190 Y131.269 E0.11037
G1 X50.792 Y131.290 F10800.000
G1 X50.700 Y128.650
G1 F1200.000
G1 X50.459 Y128.409 E0.01070
G1 X49.925 Y128.409 E0.01676
G1 X50.530 Y129.014 E0.02687
G1 X50.530 Y129.548 E0.01676
G1 X49.391 Y128.409 E0.05057
G1 X48.857 Y128.409 E0.01676
G1 X50.530 Y130.082 E0.07427
G1 X50.530 Y130.615 E0.01676
G1 X48.324 Y128.409 E0.09797
G1 X47.790 Y128.409 E0.01676
G1 X50.050 Y130.669 E0.10034
G1 X49.516 Y130.669 E0.01676
G1 X47.256 Y128.409 E0.10034
G1 X46.722 Y128.409 E0.01676
G1 X48.982 Y130.669 E0.10034
G1 X48.448 Y130.669 E0.01676
G1 X46.188 Y128.409 E0.10034
G1 X45.654 Y128.409 E0.01676
G1 X47.914 Y130.669 E0.10034
G1 X47.381 Y130.669 E0.01676
G1 X45.120 Y128.409 E0.10034
G1 X44.586 Y128.409 E0.01676
G1 X46.847 Y130.669 E0.10034
G1 X46.313 Y130.669 E0.01676
G1 X44.052 Y128.409 E0.10034
G1 X43.519 Y128.409 E0.01676
G1 X45.779 Y130.669 E0.10034
G1 X45.245 Y130.669 E0.01676
G1 X42.985 Y128.409 E0.10034
G1 X42.451 Y128.409 E0.01676
G1 X44.711 Y130.669 E0.10034
G1 X44.177 Y130.669 E0.01676
G1 X41.917 Y128.409 E0.10034
G1 X41.383 Y128.409 E0.01676
G1 X43.643 Y130.669 E0.10034
G1 X43.109 Y130.669 E0.01676
G1 X40.849 Y128.409 E0.10034
G1 X40.315 Y128.409 E0.01676
G1 X42.576 Y130.669 E0.10034
G1 X42.042 Y130.669 E0.01676
G1 X39.781 Y128.409 E0.10034
G1 X39.248 Y128.409 E0.01676
G1 X41.508 Y130.669 E0.10034
G1 X40.974 Y130.669 E0.01676
G1 X28.270 Y117.965 E0.56395
G1 X28.270 Y118.499 E0.01676
G1 X40.440 Y130.669 E0.54025
G1 X39.906 Y130.669 E0.01676
G1 X28.270 Y119.033 E0.51655
G1 X28.270 Y119.567 E0.01676
G1 X39.372 Y130.669 E0.49285
G1 X38.838 Y130.669 E0.01676
G1 X28.270 Y120.101 E0.46915
G1 X28.270 Y120.635 E0.01676
G1 X38.304 Y130.669 E0.44545
M73 P0 R245
G1 X37.771 Y130.669 E0.01676
G1 X28.270 Y121.169 E0.42175
G1 X28.270 Y121.702 E0.01676
G1 X37.237 Y130.669 E0.39805
G1 X36.703 Y130.669 E0.01676
G1 X28.270 Y122.236 E0.37434
G1 X28.270 Y122.770 E0.01676
G1 X36.169 Y130.669 E0.35064
G1 X35.635 Y130.669 E0.01676
G1 X28.270 Y123.304 E0.32694
G1 X28.270 Y123.838 E0.01676
G1 X35.101 Y130.669 E0.30324
G1 X34.567 Y130.669 E0.01676
G1 X28.270 Y124.372 E0.27954
G1 X28.270 Y124.906 E0.01676
G1 X34.033 Y130.669 E0.25584
G1 X33.499 Y130.669 E0.01676
G1 X28.270 Y125.440 E0.23214
G1 X28.270 Y125.973 E0.01676
G1 X32.966 Y130.669 E0.20844
G1 X32.432 Y130.669 E0.01676
G1 X28.270 Y126.507 E0.18474
G1 X28.270 Y127.041 E0.01676
G1 X31.898 Y130.669 E0.16104
G1 X31.364 Y130.669 E0.01676
G1 X28.270 Y127.575 E0.13734
G1 X28.270 Y128.109 E0.01676
G1 X30.830 Y130.669 E0.11364
G1 X30.296 Y130.669 E0.01676
G1 X28.270 Y128.643 E0.08994
G1 X28.270 Y129.177 E0.01676
G1 X29.762 Y130.669 E0.06624
G1 X29.228 Y130.669 E0.01676
G1 X28.270 Y129.711 E0.04254
G1 X28.270 Y130.245 E0.01676
G1 X28.864 Y130.839 E0.02637
G1 E-0.80000 F2100.00000
G1 Z0.800 F10800.000
G1 X38.700 Y127.861
G1 Z0.200
G1 E0.80000 F2100.00000
G1 F1200.000
G1 X28.270 Y117.431 E0.46301
G1 X28.270 Y116.897 E0.01676
G1 X38.530 Y127.158 E0.45548
G1 X38.530 Y126.624 E0.01676
G1 X28.270 Y116.364 E0.45548
G1 X28.270 Y115.830 E0.01676
G1 X38.530 Y126.090 E0.45548
G1 X38.530 Y125.556 E0.01676
G1 X28.270 Y115.296 E0.45548
G1 X28.270 Y114.762 E0.01676
G1 X38.530 Y125.022 E0.45548
G1 X38.530 Y124.488 E0.01676
G1 X28.270 Y114.228 E0.45548
G1 X28.270 Y113.694 E0.01676
G1 X38.530 Y123.954 E0.45548
G1 X38.530 Y123.420 E0.01676
G1 X28.270 Y113.160 E0.45548
G1 X28.270 Y112.626 E0.01676
G1 X38.530 Y122.887 E0.45548
G1 X38.530 Y122.353 E0.01676
G1 X28.270 Y112.092 E0.45548
G1 X28.270 Y111.559 E0.01676
G1 X38.530 Y121.819 E0.45548
G1 X38.530 Y121.285 E0.01676
G1 X28.270 Y111.025 E0.45548
G1 X28.270 Y110.491 E0.01676
G1 X38.530 Y120.751 E0.45548
G1 X38.530 Y120.217 E0.01676
G1 X28.270 Y109.957 E0.45548
G1 X28.270 Y109.423 E0.01676
G1 X38.530 Y119.683 E0.45548
G1 X38.530 Y119.149 E0.01676
G1 X28.270 Y108.889 E0.45548
G1 X28.270 Y108.355 E0.01676
G1 X38.530 Y118.615 E0.45548
G1 X38.530 Y118.082 E0.01676
G1 X28.270 Y107.821 E0.45548
G1 X28.270 Y107.287 E0.01676
G1 X38.530 Y117.548 E0.45548
G1 X38.530 Y117.014 E0.01676
G1 X28.270 Y106.754 E0.45548
G1 X28.270 Y106.220 E0.01676
G1 X38.530 Y116.480 E0.45548
G1 X38.530 Y115.946 E0.01676
G1 X28.270 Y105.686 E0.45548
G1 X28.270 Y105.152 E0.01676
G1 X38.530 Y115.412 E0.45548
G1 X38.530 Y114.878 E0.01676
G1 X28.270 Y104.618 E0.45548
G1 X28.270 Y104.084 E0.01676
G1 X38.530 Y114.344 E0.45548
G1 X38.530 Y113.811 E0.01676
G1 X28.270 Y103.550 E0.45548
G1 X28.270 Y103.016 E0.01676
G1 X38.530 Y113.277 E0.45548
G1 X38.530 Y112.743 E0.01676
G1 X28.270 Y102.483 E0.45548
G1 X28.270 Y101.949 E0.01676
G1 X38.530 Y112.209 E0.45548
G1 X38.530 Y111.675 E0.01676
G1 X28.270 Y101.415 E0.45548
G1 X28.270 Y100.881 E0.01676
G1 X38.530 Y111.141 E0.45548
G1 X38.530 Y110.607 E0.01676
G1 X28.270 Y100.347 E0.45548
G1 X28.270 Y99.813 E0.01676
G1 X38.530 Y110.073 E0.45548
G1 X38.530 Y109.539 E0.01676
G1 X28.270 Y99.279 E0.45548
G1 X28.270 Y98.745 E0.01676
G1 X38.530 Y109.006 E0.45548
G1 X38.530 Y108.472 E0.01676
G1 X28.270 Y98.211 E0.45548
G1 X28.270 Y97.678 E0.01676
G1 X38.530 Y107.938 E0.45548
G1 X38.530 Y107.404 E0.01676
G1 X28.270 Y97.144 E0.45548
G1 X28.270 Y96.610 E0.01676
G1 X38.530 Y106.870 E0.45548
G1 X38.530 Y106.336 E0.01676
G1 X28.270 Y96.076 E0.45548
G1 X28.270 Y95.542 E0.01676
G1 X38.530 Y105.802 E0.45548
G1 X38.530 Y105.268 E0.01676
G1 X28.270 Y95.008 E0.45548
G1 X28.270 Y94.474 E0.01676
G1 X38.530 Y104.734 E0.45548
G1 X38.530 Y104.201 E0.01676
G1 X28.270 Y93.940 E0.45548
G1 X28.270 Y93.406 E0.01676
G1 X38.530 Y103.667 E0.45548
G1 X38.530 Y103.133 E0.01676
G1 X28.270 Y92.873 E0.45548
G1 X28.270 Y92.339 E0.01676
G1 X38.530 Y102.599 E0.45548
G1 X38.530 Y102.065 E0.01676
G1 X28.270 Y91.805 E0.45548
G1 X28.270 Y91.271 E0.01676
G1 X38.530 Y101.531 E0.45548
G1 X38.530 Y100.997 E0.01676
G1 X28.270 Y90.737 E0.45548
G1 X28.270 Y90.421 E0.00992
G1 X28.379 Y90.312 E0.00483
G1 X38.530 Y100.463 E0.45065
G1 X38.530 Y99.930 E0.01676
G1 X28.646 Y90.045 E0.43880
G1 X28.913 Y89.778 E0.01185
G1 X38.530 Y99.396 E0.42695
G1 X38.530 Y98.862 E0.01676
G1 X29.180 Y89.511 E0.41510
G1 X29.447 Y89.244 E0.01185
G1 X38.530 Y98.328 E0.40325
G1 X38.530 Y97.794 E0.01676
G1 X29.714 Y88.977 E0.39140
G1 X29.981 Y88.710 E0.01185
G1 X38.530 Y97.260 E0.37955
G1 X38.530 Y96.726 E0.01676
G1 X30.248 Y88.443 E0.36770
G1 X30.515 Y88.176 E0.01185
G1 X38.530 Y96.192 E0.35584
G1 X38.530 Y95.658 E0.01676
G1 X30.782 Y87.910 E0.34399
G1 X31.049 Y87.643 E0.01185
G1 X38.530 Y95.125 E0.33214
G1 X38.530 Y94.671 E0.01424
G1 X38.571 Y94.631 E0.00178
G1 X31.315 Y87.376 E0.32207
G1 X31.582 Y87.109 E0.01185
G1 X38.838 Y94.364 E0.32207
G1 X39.104 Y94.097 E0.01185
G1 X31.849 Y86.842 E0.32207
G1 X32.116 Y86.575 E0.01185
G1 X39.371 Y93.830 E0.32207
G1 X39.638 Y93.563 E0.01185
G1 X32.383 Y86.308 E0.32207
G1 X32.650 Y86.041 E0.01185
G1 X39.905 Y93.296 E0.32207
G1 X40.172 Y93.029 E0.01185
G1 X32.917 Y85.774 E0.32207
G1 X33.184 Y85.507 E0.01185
G1 X40.439 Y92.762 E0.32207
G1 X40.706 Y92.495 E0.01185
G1 X33.451 Y85.240 E0.32207
G1 X33.718 Y84.973 E0.01185
G1 X40.973 Y92.228 E0.32207
G1 X41.240 Y91.961 E0.01185
G1 X33.985 Y84.706 E0.32207
G1 X34.252 Y84.439 E0.01185
G1 X41.507 Y91.694 E0.32207
G1 X41.774 Y91.427 E0.01185
G1 X34.519 Y84.172 E0.32207
M73 P0 R244
G1 X34.786 Y83.905 E0.01185
G1 X42.041 Y91.160 E0.32207
G1 X42.308 Y90.894 E0.01185
G1 X35.053 Y83.638 E0.32207
G1 X35.320 Y83.372 E0.01185
G1 X42.575 Y90.627 E0.32207
G1 X42.842 Y90.360 E0.01185
G1 X35.587 Y83.105 E0.32207
G1 X35.854 Y82.838 E0.01185
G1 X43.109 Y90.093 E0.32207
G1 X43.376 Y89.826 E0.01185
G1 X36.120 Y82.571 E0.32207
G1 X36.387 Y82.304 E0.01185
G1 X43.642 Y89.559 E0.32207
G1 X43.909 Y89.292 E0.01185
G1 X36.654 Y82.037 E0.32207
G1 X36.921 Y81.770 E0.01185
G1 X44.176 Y89.025 E0.32207
G1 X44.443 Y88.758 E0.01185
G1 X37.188 Y81.503 E0.32207
G1 X37.455 Y81.236 E0.01185
G1 X44.710 Y88.491 E0.32207
G1 X44.977 Y88.224 E0.01185
G1 X37.722 Y80.969 E0.32207
G1 X37.989 Y80.702 E0.01185
G1 X45.244 Y87.957 E0.32207
G1 X45.511 Y87.690 E0.01185
G1 X38.256 Y80.435 E0.32207
G1 X38.523 Y80.168 E0.01185
G1 X45.778 Y87.423 E0.32207
G1 X46.045 Y87.156 E0.01185
G1 X38.790 Y79.901 E0.32207
G1 X39.057 Y79.634 E0.01185
G1 X46.312 Y86.889 E0.32207
G1 X46.579 Y86.622 E0.01185
G1 X39.324 Y79.367 E0.32207
G1 X39.591 Y79.100 E0.01185
G1 X46.846 Y86.356 E0.32207
G1 X47.113 Y86.089 E0.01185
G1 X39.858 Y78.833 E0.32207
G1 X40.125 Y78.567 E0.01185
G1 X47.380 Y85.822 E0.32207
G1 X47.647 Y85.555 E0.01185
G1 X40.392 Y78.300 E0.32207
G1 X40.658 Y78.033 E0.01185
G1 X47.914 Y85.288 E0.32207
G1 X48.181 Y85.021 E0.01185
G1 X40.925 Y77.766 E0.32207
G1 X41.192 Y77.499 E0.01185
G1 X48.447 Y84.754 E0.32207
G1 X48.714 Y84.487 E0.01185
G1 X41.459 Y77.232 E0.32207
G1 X41.726 Y76.965 E0.01185
G1 X48.981 Y84.220 E0.32207
G1 X49.248 Y83.953 E0.01185
G1 X41.993 Y76.698 E0.32207
G1 X42.260 Y76.431 E0.01185
G1 X49.515 Y83.686 E0.32207
G1 X49.782 Y83.419 E0.01185
G1 X42.527 Y76.164 E0.32207
G1 X42.794 Y75.897 E0.01185
G1 X50.049 Y83.152 E0.32207
G1 X50.316 Y82.885 E0.01185
G1 X43.061 Y75.630 E0.32207
G1 X43.328 Y75.363 E0.01185
G1 X50.583 Y82.618 E0.32207
G1 X50.850 Y82.351 E0.01185
G1 X43.595 Y75.096 E0.32207
G1 X43.862 Y74.829 E0.01185
G1 X51.117 Y82.084 E0.32207
G1 X51.384 Y81.817 E0.01185
G1 X44.129 Y74.562 E0.32207
G1 X44.396 Y74.295 E0.01185
G1 X51.651 Y81.551 E0.32207
G1 X51.918 Y81.284 E0.01185
G1 X44.663 Y74.029 E0.32207
G1 X44.930 Y73.762 E0.01185
G1 X52.185 Y81.017 E0.32207
G1 X52.452 Y80.750 E0.01185
G1 X45.196 Y73.495 E0.32207
G1 X45.463 Y73.228 E0.01185
G1 X52.719 Y80.483 E0.32207
G1 X52.985 Y80.216 E0.01185
G1 X45.730 Y72.961 E0.32207
G1 X45.997 Y72.694 E0.01185
G1 X53.252 Y79.949 E0.32207
G1 X53.519 Y79.682 E0.01185
G1 X46.264 Y72.427 E0.32207
G1 X46.531 Y72.160 E0.01185
G1 X53.786 Y79.415 E0.32207
G1 X54.053 Y79.148 E0.01185
G1 X46.798 Y71.893 E0.32207
G1 X47.065 Y71.626 E0.01185
G1 X54.320 Y78.881 E0.32207
G1 X54.587 Y78.614 E0.01185
G1 X47.332 Y71.359 E0.32207
G1 X47.599 Y71.092 E0.01185
G1 X54.854 Y78.347 E0.32207
G1 X55.121 Y78.080 E0.01185
G1 X47.866 Y70.825 E0.32207
G1 X48.133 Y70.558 E0.01185
G1 X55.388 Y77.813 E0.32207
G1 X55.655 Y77.546 E0.01185
G1 X48.400 Y70.291 E0.32207
G1 X48.667 Y70.024 E0.01185
G1 X55.922 Y77.279 E0.32207
G1 X56.189 Y77.013 E0.01185
G1 X48.934 Y69.757 E0.32207
G1 X49.201 Y69.490 E0.01185
G1 X56.456 Y76.746 E0.32207
G1 X56.723 Y76.479 E0.01185
G1 X49.468 Y69.224 E0.32207
G1 X49.735 Y68.957 E0.01185
G1 X56.990 Y76.212 E0.32207
G1 X57.257 Y75.945 E0.01185
G1 X50.001 Y68.690 E0.32207
G1 X50.268 Y68.423 E0.01185
G1 X57.523 Y75.678 E0.32207
G1 X57.790 Y75.411 E0.01185
G1 X50.535 Y68.156 E0.32207
G1 X50.802 Y67.889 E0.01185
G1 X58.057 Y75.144 E0.32207
G1 X58.324 Y74.877 E0.01185
G1 X51.069 Y67.622 E0.32207
G1 X51.336 Y67.355 E0.01185
G1 X58.591 Y74.610 E0.32207
G1 X58.858 Y74.343 E0.01185
G1 X51.603 Y67.088 E0.32207
G1 X51.870 Y66.821 E0.01185
G1 X59.125 Y74.076 E0.32207
G1 X59.392 Y73.809 E0.01185
G1 X52.137 Y66.554 E0.32207
G1 X52.404 Y66.287 E0.01185
G1 X59.659 Y73.542 E0.32207
G1 X59.926 Y73.275 E0.01185
G1 X52.671 Y66.020 E0.32207
G1 X52.938 Y65.753 E0.01185
G1 X60.193 Y73.008 E0.32207
G1 X60.460 Y72.741 E0.01185
G1 X53.205 Y65.486 E0.32207
G1 X53.472 Y65.219 E0.01185
G1 X60.727 Y72.474 E0.32207
G1 X60.994 Y72.208 E0.01185
G1 X53.739 Y64.952 E0.32207
G1 X54.006 Y64.686 E0.01185
G1 X61.261 Y71.941 E0.32207
G1 X61.528 Y71.674 E0.01185
G1 X54.273 Y64.419 E0.32207
G1 X54.539 Y64.152 E0.01185
G1 X61.795 Y71.407 E0.32207
G1 X62.062 Y71.140 E0.01185
G1 X54.806 Y63.885 E0.32207
G1 X55.073 Y63.618 E0.01185
G1 X62.328 Y70.873 E0.32207
G1 X62.595 Y70.606 E0.01185
G1 X55.340 Y63.351 E0.32207
G1 X55.607 Y63.084 E0.01185
G1 X62.862 Y70.339 E0.32207
G1 X63.129 Y70.072 E0.01185
G1 X55.874 Y62.817 E0.32207
G1 X56.141 Y62.550 E0.01185
G1 X63.396 Y69.805 E0.32207
G1 X63.663 Y69.538 E0.01185
G1 X56.408 Y62.283 E0.32207
G1 X56.675 Y62.016 E0.01185
G1 X63.930 Y69.271 E0.32207
G1 X64.197 Y69.004 E0.01185
G1 X56.942 Y61.749 E0.32207
G1 X57.209 Y61.482 E0.01185
G1 X64.464 Y68.737 E0.32207
G1 X64.731 Y68.470 E0.01185
G1 X57.476 Y61.215 E0.32207
G1 X57.743 Y60.948 E0.01185
G1 X64.998 Y68.203 E0.32207
G1 X65.265 Y67.936 E0.01185
G1 X58.010 Y60.681 E0.32207
G1 X58.277 Y60.414 E0.01185
G1 X65.532 Y67.670 E0.32207
G1 X65.799 Y67.403 E0.01185
G1 X58.544 Y60.147 E0.32207
G1 X58.811 Y59.881 E0.01185
G1 X66.066 Y67.136 E0.32207
G1 X66.333 Y66.869 E0.01185
G1 X59.078 Y59.614 E0.32207
G1 X59.344 Y59.347 E0.01185
G1 X66.600 Y66.602 E0.32207
G1 X66.866 Y66.335 E0.01185
G1 X59.611 Y59.080 E0.32207
G1 X59.878 Y58.813 E0.01185
G1 X67.133 Y66.068 E0.32207
G1 X67.400 Y65.801 E0.01185
G1 X60.145 Y58.546 E0.32207
G1 X60.412 Y58.279 E0.01185
G1 X67.667 Y65.534 E0.32207
G1 X67.934 Y65.267 E0.01185
G1 X60.679 Y58.012 E0.32207
G1 X60.946 Y57.745 E0.01185
G1 X68.201 Y65.000 E0.32207
G1 X68.468 Y64.733 E0.01185
