; G-Code generated by Simplify3D(R) Version 4.1.2
; Dec 21, 2019 at 3:56:20 PM
; Settings Summary
;   processName,Process1
;   applyToModels,DH sign,DH sign(2),DH sign(3)
;   profileName,Prusa Research Original Prusa i3 MK2 (modified)
;   profileVersion,2019-12-09 09:41:26
;   baseProfile,
;   printMaterial,PLA
;   printQuality,Medium
;   printExtruders,
;   extruderName,Primary Extruder
;   extruderToolheadNumber,0
;   extruderDiameter,0.4
;   extruderAutoWidth,1
;   extruderWidth,0.48
;   extrusionMultiplier,1
;   extruderUseRetract,1
;   extruderRetractionDistance,1.5
;   extruderExtraRestartDistance,0
;   extruderRetractionZLift,0
;   extruderRetractionSpeed,1800
;   extruderUseCoasting,1
;   extruderCoastingDistance,0.2
;   extruderUseWipe,1
;   extruderWipeDistance,2
;   primaryExtruder,0
;   layerHeight,0.2
;   topSolidLayers,3
;   bottomSolidLayers,3
;   perimeterOutlines,2
;   printPerimetersInsideOut,1
;   startPointOption,2
;   startPointOriginX,0
;   startPointOriginY,0
;   sequentialIslands,0
;   spiralVaseMode,0
;   firstLayerHeightPercentage,150
;   firstLayerWidthPercentage,100
;   firstLayerUnderspeed,0.5
;   useRaft,0
;   raftExtruder,0
;   raftTopLayers,2
;   raftBaseLayers,2
;   raftOffset,3
;   raftSeparationDistance,0.14
;   raftTopInfill,100
;   aboveRaftSpeedMultiplier,0.3
;   useSkirt,0
;   skirtExtruder,0
;   skirtLayers,1
;   skirtOutlines,2
;   skirtOffset,4
;   usePrimePillar,0
;   primePillarExtruder,999
;   primePillarWidth,12
;   primePillarLocation,7
;   primePillarSpeedMultiplier,1
;   useOozeShield,0
;   oozeShieldExtruder,999
;   oozeShieldOffset,2
;   oozeShieldOutlines,1
;   oozeShieldSidewallShape,1
;   oozeShieldSidewallAngle,30
;   oozeShieldSpeedMultiplier,1
;   infillExtruder,0
;   internalInfillPattern,Rectilinear
;   externalInfillPattern,Rectilinear
;   infillPercentage,10
;   outlineOverlapPercentage,20
;   infillExtrusionWidthPercentage,100
;   minInfillLength,5
;   infillLayerInterval,1
;   internalInfillAngles,45,-45
;   overlapInternalInfillAngles,0
;   externalInfillAngles,45,-45
;   generateSupport,0
;   supportExtruder,0
;   supportInfillPercentage,50
;   supportExtraInflation,0
;   supportBaseLayers,2
;   denseSupportExtruder,0
;   denseSupportLayers,0
;   denseSupportInfillPercentage,70
;   supportLayerInterval,1
;   supportHorizontalPartOffset,0.3
;   supportUpperSeparationLayers,1
;   supportLowerSeparationLayers,1
;   supportType,0
;   supportGridSpacing,1
;   maxOverhangAngle,45
;   supportAngles,0
;   temperatureName,Primary Extruder,Heated Bed
;   temperatureNumber,0,0
;   temperatureSetpointCount,1,1
;   temperatureSetpointLayers,1,1
;   temperatureSetpointTemperatures,200,60
;   temperatureStabilizeAtStartup,1,1
;   temperatureHeatedBed,0,1
;   fanLayers,1,2
;   fanSpeeds,0,100
;   blipFanToFullPower,0
;   adjustSpeedForCooling,1
;   minSpeedLayerTime,15
;   minCoolingSpeedSlowdown,20
;   increaseFanForCooling,0
;   minFanLayerTime,45
;   maxCoolingFanSpeed,100
;   increaseFanForBridging,0
;   bridgingFanSpeed,100
;   use5D,1
;   relativeEdistances,0
;   allowEaxisZeroing,1
;   independentExtruderAxes,0
;   includeM10123,0
;   stickySupport,1
;   applyToolheadOffsets,0
;   gcodeXoffset,0
;   gcodeYoffset,0
;   gcodeZoffset,0
;   overrideMachineDefinition,1
;   machineTypeOverride,0
;   strokeXoverride,250
;   strokeYoverride,210
;   strokeZoverride,200
;   originOffsetXoverride,0
;   originOffsetYoverride,0
;   originOffsetZoverride,0
;   homeXdirOverride,-1
;   homeYdirOverride,-1
;   homeZdirOverride,-1
;   flipXoverride,1
;   flipYoverride,-1
;   flipZoverride,1
;   toolheadOffsets,0,0|0,0|0,0|0,0|0,0|0,0
;   overrideFirmwareConfiguration,1
;   firmwareTypeOverride,RepRap (Marlin/Repetier/Sprinter)
;   GPXconfigOverride,r2
;   baudRateOverride,250000
;   overridePrinterModels,1
;   printerModelsOverride
;   startingGcode,M115 U3.0.7 ; use the latest firmware version,G28 W ; home all axes without mesh bed leveling,G80 ; run mesh bed leveling routine,G1 Y-3.0 F1000.0 ; prepare to prime,G92 E0 ; reset extrusion distance,G1 X60.0 E9.0  F1000.0 ; priming,G1 X100.0 E12.5  F1000.0 ; priming
;   layerChangeGcode,
;   retractionGcode,
;   toolChangeGcode,
;   endingGcode,M106 S0 ; turn off cooling fan,M104 S0 ; turn off extruder,M140 S0 ; turn off bed,G1 X0 Y200 ; part removal,M84 ; disable motors
;   exportFileFormat,gcode
;   celebration,0
;   celebrationSong,Random Song
;   postProcessing,
;   defaultSpeed,2400
;   outlineUnderspeed,0.8
;   solidInfillUnderspeed,0.8
;   supportUnderspeed,0.8
;   rapidXYspeed,4800
;   rapidZspeed,1002
;   minBridgingArea,50
;   bridgingExtraInflation,0
;   bridgingExtrusionMultiplier,1
;   bridgingSpeedMultiplier,1
;   useFixedBridgingAngle,0
;   fixedBridgingAngle,0
;   applyBridgingToPerimeters,0
;   filamentDiameters,1.75|1.75|1.75|1.75|1.75|1.75
;   filamentPricesPerKg,46|46|46|46|46|46
;   filamentDensities,1.25|1.25|1.25|1.25|1.25|1.25
;   useMinPrintHeight,0
;   minPrintHeight,0
;   useMaxPrintHeight,0
;   maxPrintHeight,0
;   useDiaphragm,0
;   diaphragmLayerInterval,20
;   robustSlicing,1
;   mergeAllIntoSolid,0
;   onlyRetractWhenCrossingOutline,1
;   retractBetweenLayers,1
;   useRetractionMinTravel,0
;   retractionMinTravel,3
;   retractWhileWiping,1
;   onlyWipeOutlines,1
;   avoidCrossingOutline,0
;   maxMovementDetourFactor,3
;   toolChangeRetractionDistance,12
;   toolChangeExtraRestartDistance,-0.5
;   toolChangeRetractionSpeed,600
;   externalThinWallType,0
;   internalThinWallType,2
;   thinWallAllowedOverlapPercentage,25
;   singleExtrusionMinLength,1
;   singleExtrusionMinPrintingWidthPercentage,50
;   singleExtrusionMaxPrintingWidthPercentage,200
;   singleExtrusionEndpointExtension,0.2
;   horizontalSizeCompensation,0
G90
M82
M106 S0
M140 S60
M190 S60
M104 S200 T0
M109 S200 T0
M115 U3.0.7 ; use the latest firmware version
G28 W ; home all axes without mesh bed leveling
G80 ; run mesh bed leveling routine
G1 Y-3.0 F1000.0 ; prepare to prime
G92 E0 ; reset extrusion distance
G1 X60.0 E9.0  F1000.0 ; priming
G1 X100.0 E12.5  F1000.0 ; priming
; process Process1
; layer 1, Z = 0.300
T0
G92 E0.0000
G1 E-1.5000 F1800
; feature inner perimeter
; tool H0.300 W0.480
G1 Z0.300 F1002
G1 X91.970 Y81.220 F4800
G1 E0.0000 F1800
G92 E0.0000
G1 X158.030 Y81.220 E3.9549 F1080
G1 X158.030 Y92.780 E4.6470
G1 X91.970 Y92.780 E8.6019
G1 X91.970 Y81.420 E9.2820
G1 X91.970 Y81.220 F1080
; feature outer perimeter
G1 X91.490 Y80.740 F4800
G92 E0.0000
G1 X158.510 Y80.740 E4.0124 F960
G1 X158.510 Y93.260 E4.7619
G1 X91.490 Y93.260 E8.7743
G1 X91.490 Y80.940 E9.5119
G1 X91.490 Y80.740 F960
G1 X93.490 Y80.740 F960
; feature solid layer
G1 X92.354 Y92.040 F4800
G92 E0.0000
G1 X92.710 Y92.396 E0.0302 F960
G1 X93.389 Y92.396 E0.0708
G1 X92.354 Y91.361 E0.1584
G1 X92.354 Y90.682 E0.1991
G1 X94.068 Y92.396 E0.3442
G1 X94.747 Y92.396 E0.3848
G1 X92.354 Y90.003 E0.5874
G1 X92.354 Y89.325 E0.6280
G1 X95.425 Y92.396 E0.8881
G1 X96.104 Y92.396 E0.9287
G1 X92.354 Y88.646 E1.2462
G1 X92.354 Y87.967 E1.2869
G1 X96.783 Y92.396 E1.6619
G1 X97.462 Y92.396 E1.7025
G1 X92.354 Y87.288 E2.1350
G1 X92.354 Y86.609 E2.1756
G1 X98.141 Y92.396 E2.6656
G1 X98.820 Y92.396 E2.7062
G1 X92.354 Y85.930 E3.2536
G1 X92.354 Y85.252 E3.2943
G1 X99.498 Y92.396 E3.8991
G1 X100.177 Y92.396 E3.9398
G1 X92.354 Y84.573 E4.6021
G1 X92.354 Y83.894 E4.6428
G1 X100.856 Y92.396 E5.3626
G1 X101.535 Y92.396 E5.4033
G1 X92.354 Y83.215 E6.1806
G1 X92.354 Y82.536 E6.2212
G1 X102.214 Y92.396 E7.0560
G1 X102.892 Y92.396 E7.0966
G1 X92.354 Y81.858 E7.9889
G1 X92.354 Y81.604 E8.0041
G1 X92.779 Y81.604 E8.0295
G1 X103.571 Y92.396 E8.9433
G1 X104.250 Y92.396 E8.9839
G1 X93.458 Y81.604 E9.8976
G1 X94.137 Y81.604 E9.9383
G1 X104.929 Y92.396 E10.8520
G1 X105.608 Y92.396 E10.8926
G1 X94.816 Y81.604 E11.8063
G1 X95.495 Y81.604 E11.8470
G1 X106.287 Y92.396 E12.7607
G1 X106.965 Y92.396 E12.8013
G1 X96.173 Y81.604 E13.7151
G1 X96.852 Y81.604 E13.7557
G1 X107.644 Y92.396 E14.6694
G1 X108.323 Y92.396 E14.7101
G1 X97.531 Y81.604 E15.6238
G1 X98.210 Y81.604 E15.6644
G1 X109.002 Y92.396 E16.5781
G1 X109.681 Y92.396 E16.6188
G1 X98.889 Y81.604 E17.5325
G1 X99.568 Y81.604 E17.5731
G1 X110.360 Y92.396 E18.4869
G1 X111.038 Y92.396 E18.5275
G1 X100.246 Y81.604 E19.4412
G1 X100.925 Y81.604 E19.4819
G1 X111.717 Y92.396 E20.3956
G1 X112.396 Y92.396 E20.4362
G1 X101.604 Y81.604 E21.3499
G1 X102.283 Y81.604 E21.3906
G1 X113.075 Y92.396 E22.3043
G1 X113.754 Y92.396 E22.3449
G1 X102.962 Y81.604 E23.2587
G1 X103.640 Y81.604 E23.2993
G1 X114.432 Y92.396 E24.2130
G1 X115.111 Y92.396 E24.2537
G1 X104.319 Y81.604 E25.1674
G1 X104.998 Y81.604 E25.2080
G1 X115.790 Y92.396 E26.1217
G1 X116.469 Y92.396 E26.1624
G1 X105.677 Y81.604 E27.0761
G1 X106.356 Y81.604 E27.1167
G1 X117.148 Y92.396 E28.0305
G1 X117.827 Y92.396 E28.0711
G1 X107.035 Y81.604 E28.9848
G1 X107.713 Y81.604 E29.0255
G1 X118.505 Y92.396 E29.9392
G1 X119.184 Y92.396 E29.9798
G1 X108.392 Y81.604 E30.8936
G1 X109.071 Y81.604 E30.9342
G1 X119.863 Y92.396 E31.8479
G1 X120.542 Y92.396 E31.8886
G1 X109.750 Y81.604 E32.8023
G1 X110.429 Y81.604 E32.8429
G1 X121.221 Y92.396 E33.7566
G1 X121.900 Y92.396 E33.7973
G1 X111.108 Y81.604 E34.7110
G1 X111.786 Y81.604 E34.7516
G1 X122.578 Y92.396 E35.6654
G1 X123.257 Y92.396 E35.7060
G1 X112.465 Y81.604 E36.6197
G1 X113.144 Y81.604 E36.6604
G1 X123.936 Y92.396 E37.5741
G1 X124.615 Y92.396 E37.6147
G1 X113.823 Y81.604 E38.5284
G1 X114.502 Y81.604 E38.5691
G1 X125.294 Y92.396 E39.4828
G1 X125.972 Y92.396 E39.5234
G1 X115.180 Y81.604 E40.4372
G1 X115.859 Y81.604 E40.4778
G1 X126.651 Y92.396 E41.3915
G1 X127.330 Y92.396 E41.4322
G1 X116.538 Y81.604 E42.3459
G1 X117.217 Y81.604 E42.3865
G1 X128.009 Y92.396 E43.3002
G1 X128.688 Y92.396 E43.3409
G1 X117.896 Y81.604 E44.2546
G1 X118.575 Y81.604 E44.2952
G1 X129.367 Y92.396 E45.2090
G1 X130.045 Y92.396 E45.2496
G1 X119.253 Y81.604 E46.1633
G1 X119.932 Y81.604 E46.2040
G1 X130.724 Y92.396 E47.1177
G1 X131.403 Y92.396 E47.1583
G1 X120.611 Y81.604 E48.0720
G1 X121.290 Y81.604 E48.1127
G1 X132.082 Y92.396 E49.0264
G1 X132.761 Y92.396 E49.0670
G1 X121.969 Y81.604 E49.9808
G1 X122.648 Y81.604 E50.0214
G1 X133.440 Y92.396 E50.9351
G1 X134.118 Y92.396 E50.9758
G1 X123.326 Y81.604 E51.8895
G1 X124.005 Y81.604 E51.9301
G1 X134.797 Y92.396 E52.8438
G1 X135.476 Y92.396 E52.8845
G1 X124.684 Y81.604 E53.7982
G1 X125.363 Y81.604 E53.8388
G1 X136.155 Y92.396 E54.7526
G1 X136.834 Y92.396 E54.7932
G1 X126.042 Y81.604 E55.7069
G1 X126.720 Y81.604 E55.7476
G1 X137.512 Y92.396 E56.6613
G1 X138.191 Y92.396 E56.7019
G1 X127.399 Y81.604 E57.6156
G1 X128.078 Y81.604 E57.6563
G1 X138.870 Y92.396 E58.5700
G1 X139.549 Y92.396 E58.6106
G1 X128.757 Y81.604 E59.5244
G1 X129.436 Y81.604 E59.5650
G1 X140.228 Y92.396 E60.4787
G1 X140.907 Y92.396 E60.5194
G1 X130.115 Y81.604 E61.4331
G1 X130.793 Y81.604 E61.4737
G1 X141.585 Y92.396 E62.3875
G1 X142.264 Y92.396 E62.4281
G1 X131.472 Y81.604 E63.3418
G1 X132.151 Y81.604 E63.3825
G1 X142.943 Y92.396 E64.2962
G1 X143.622 Y92.396 E64.3368
G1 X132.830 Y81.604 E65.2505
G1 X133.509 Y81.604 E65.2912
G1 X144.301 Y92.396 E66.2049
G1 X144.979 Y92.396 E66.2455
G1 X134.187 Y81.604 E67.1593
G1 X134.866 Y81.604 E67.1999
G1 X145.658 Y92.396 E68.1136
G1 X146.337 Y92.396 E68.1543
G1 X135.545 Y81.604 E69.0680
G1 X136.224 Y81.604 E69.1086
G1 X147.016 Y92.396 E70.0223
G1 X147.695 Y92.396 E70.0630
G1 X136.903 Y81.604 E70.9767
G1 X137.582 Y81.604 E71.0173
G1 X148.374 Y92.396 E71.9311
G1 X149.052 Y92.396 E71.9717
G1 X138.260 Y81.604 E72.8854
G1 X138.939 Y81.604 E72.9261
G1 X149.731 Y92.396 E73.8398
G1 X150.410 Y92.396 E73.8804
G1 X139.618 Y81.604 E74.7941
G1 X140.297 Y81.604 E74.8348
G1 X151.089 Y92.396 E75.7485
G1 X151.768 Y92.396 E75.7891
G1 X140.976 Y81.604 E76.7029
G1 X141.655 Y81.604 E76.7435
G1 X152.447 Y92.396 E77.6572
G1 X153.125 Y92.396 E77.6979
G1 X142.333 Y81.604 E78.6116
G1 X143.012 Y81.604 E78.6522
G1 X153.804 Y92.396 E79.5659
G1 X154.483 Y92.396 E79.6066
G1 X143.691 Y81.604 E80.5203
G1 X144.370 Y81.604 E80.5609
G1 X155.162 Y92.396 E81.4747
G1 X155.841 Y92.396 E81.5153
G1 X145.049 Y81.604 E82.4290
G1 X145.727 Y81.604 E82.4697
G1 X156.519 Y92.396 E83.3834
G1 X157.198 Y92.396 E83.4240
G1 X146.406 Y81.604 E84.3377
G1 X147.085 Y81.604 E84.3784
G1 X157.646 Y92.165 E85.2725
G1 X157.646 Y91.486 E85.3132
G1 X147.764 Y81.604 E86.1499
G1 X148.443 Y81.604 E86.1905
G1 X157.646 Y90.807 E86.9697
G1 X157.646 Y90.128 E87.0103
G1 X149.122 Y81.604 E87.7321
G1 X149.800 Y81.604 E87.7727
G1 X157.646 Y89.450 E88.4370
G1 X157.646 Y88.771 E88.4776
G1 X150.479 Y81.604 E89.0844
G1 X151.158 Y81.604 E89.1250
G1 X157.646 Y88.092 E89.6743
G1 X157.646 Y87.413 E89.7150
G1 X151.837 Y81.604 E90.2068
G1 X152.516 Y81.604 E90.2475
G1 X157.646 Y86.734 E90.6818
G1 X157.646 Y86.055 E90.7225
G1 X153.195 Y81.604 E91.0994
G1 X153.873 Y81.604 E91.1400
G1 X157.646 Y85.377 E91.4594
G1 X157.646 Y84.698 E91.5001
G1 X154.552 Y81.604 E91.7620
G1 X155.231 Y81.604 E91.8026
G1 X157.646 Y84.019 E92.0071
G1 X157.646 Y83.340 E92.0478
G1 X155.910 Y81.604 E92.1948
G1 X156.589 Y81.604 E92.2354
G1 X157.646 Y82.661 E92.3249
G1 X157.646 Y81.983 E92.3656
G1 X157.409 Y81.745 E92.3856
G1 X157.267 Y81.604 F960
G92 E0.0000
G1 E-1.5000 F1800
; feature inner perimeter
G1 X158.030 Y99.220 F4800
G1 E0.0000 F1800
G92 E0.0000
G1 X158.030 Y110.780 E0.6921 F1080
G1 X91.970 Y110.780 E4.6470
G1 X91.970 Y99.220 E5.3391
G1 X157.830 Y99.220 E9.2820
G1 X158.030 Y99.220 F1080
; feature outer perimeter
G1 X158.510 Y98.740 F4800
G92 E0.0000
G1 X158.510 Y111.260 E0.7496 F960
G1 X91.490 Y111.260 E4.7619
G1 X91.490 Y98.740 E5.5115
G1 X158.310 Y98.740 E9.5119
G1 X158.510 Y98.740 F960
G1 X158.510 Y100.740 F960
; feature solid layer
G1 X157.618 Y99.604 F4800
G92 E0.0000
G1 X157.646 Y99.632 E0.0024 F960
G1 X157.646 Y100.311 E0.0430
G1 X156.939 Y99.604 E0.1028
G1 X156.260 Y99.604 E0.1435
G1 X157.646 Y100.990 E0.2608
G1 X157.646 Y101.668 E0.3014
G1 X155.582 Y99.604 E0.4762
G1 X154.903 Y99.604 E0.5169
G1 X157.646 Y102.347 E0.7491
G1 X157.646 Y103.026 E0.7898
G1 X154.224 Y99.604 E1.0795
G1 X153.545 Y99.604 E1.1201
G1 X157.646 Y103.705 E1.4673
G1 X157.646 Y104.384 E1.5080
G1 X152.866 Y99.604 E1.9127
G1 X152.187 Y99.604 E1.9533
G1 X157.646 Y105.063 E2.4154
G1 X157.646 Y105.741 E2.4561
G1 X151.509 Y99.604 E2.9757
G1 X150.830 Y99.604 E3.0164
G1 X157.646 Y106.420 E3.5935
G1 X157.646 Y107.099 E3.6341
G1 X150.151 Y99.604 E4.2687
G1 X149.472 Y99.604 E4.3093
G1 X157.646 Y107.778 E5.0014
G1 X157.646 Y108.457 E5.0420
G1 X148.793 Y99.604 E5.7915
G1 X148.115 Y99.604 E5.8322
G1 X157.646 Y109.135 E6.6391
G1 X157.646 Y109.814 E6.6798
G1 X147.436 Y99.604 E7.5443
G1 X146.757 Y99.604 E7.5849
G1 X157.549 Y110.396 E8.4986
G1 X156.870 Y110.396 E8.5393
G1 X146.078 Y99.604 E9.4530
G1 X145.399 Y99.604 E9.4936
G1 X156.191 Y110.396 E10.4073
G1 X155.512 Y110.396 E10.4480
G1 X144.720 Y99.604 E11.3617
G1 X144.042 Y99.604 E11.4023
G1 X154.834 Y110.396 E12.3161
G1 X154.155 Y110.396 E12.3567
G1 X143.363 Y99.604 E13.2704
G1 X142.684 Y99.604 E13.3111
G1 X153.476 Y110.396 E14.2248
G1 X152.797 Y110.396 E14.2654
G1 X142.005 Y99.604 E15.1791
G1 X141.326 Y99.604 E15.2198
G1 X152.118 Y110.396 E16.1335
G1 X151.440 Y110.396 E16.1741
G1 X140.648 Y99.604 E17.0879
G1 X139.969 Y99.604 E17.1285
G1 X150.761 Y110.396 E18.0422
G1 X150.082 Y110.396 E18.0829
G1 X139.290 Y99.604 E18.9966
G1 X138.611 Y99.604 E19.0372
G1 X149.403 Y110.396 E19.9509
G1 X148.724 Y110.396 E19.9916
G1 X137.932 Y99.604 E20.9053
G1 X137.253 Y99.604 E20.9459
G1 X148.045 Y110.396 E21.8597
G1 X147.367 Y110.396 E21.9003
G1 X136.575 Y99.604 E22.8140
G1 X135.896 Y99.604 E22.8547
G1 X146.688 Y110.396 E23.7684
G1 X146.009 Y110.396 E23.8090
G1 X135.217 Y99.604 E24.7227
G1 X134.538 Y99.604 E24.7634
G1 X145.330 Y110.396 E25.6771
G1 X144.651 Y110.396 E25.7177
G1 X133.859 Y99.604 E26.6315
G1 X133.180 Y99.604 E26.6721
G1 X143.972 Y110.396 E27.5858
G1 X143.294 Y110.396 E27.6265
G1 X132.502 Y99.604 E28.5402
G1 X131.823 Y99.604 E28.5808
G1 X142.615 Y110.396 E29.4945
G1 X141.936 Y110.396 E29.5352
G1 X131.144 Y99.604 E30.4489
