; generated by PrusaSlicer 2.2.0+win64 on 2020-08-04 at 19:46:57 UTC

; 

; external perimeters extrusion width = 0.45mm
; perimeters extrusion width = 0.45mm
; infill extrusion width = 0.45mm
; solid infill extrusion width = 0.45mm
; top infill extrusion width = 0.40mm
; first layer extrusion width = 0.42mm

M73 P0 R440
M201 X9000 Y9000 Z500 E10000 ; sets maximum accelerations, mm/sec^2
M203 X500 Y500 Z12 E120 ; sets maximum feedrates, mm/sec
M204 P2000 R1500 T2000 ; sets acceleration (P, T) and retract acceleration (R), mm/sec^2
M205 X10.00 Y10.00 Z0.20 E2.50 ; sets the jerk limits, mm/sec
M205 S0 T0 ; sets the minimum extruding and travel feed rate, mm/sec
M107
M862.3 P "MK2S" ; printer model check
M862.1 P0.4 ; nozzle diameter check
M115 U3.2.3 ; tell printer latest fw version
G90 ; use absolute coordinates
M83 ; extruder relative mode
M204 S2000 T1500 ; MK2 firmware only supports the old M204 format
M104 S215 ; set extruder temp
M140 S60 ; set bed temp
M190 S60 ; wait for bed temp
M109 S215 ; wait for extruder temp
G28 W ; home all without mesh bed level
G80 ; mesh bed leveling
G1 Y-3.0 F1000.0 ; go outside print area
G92 E0.0
G1 X60.0 E9.0  F1000.0 ; intro line
M73 P0 R440
G1 X100.0 E12.5 F1000.0 ; intro line
G92 E0.0
G21 ; set units to millimeters
G90 ; use absolute coordinates
M83 ; use relative distances for extrusion
M900 K0.06 ; Filament gcode LA 1.5
M900 K30 ; Filament gcode LA 1.0
;BEFORE_LAYER_CHANGE
G92 E0.0
;0.2


G1 E-0.80000 F2100.00000
G1 Z0.600 F10800.000
;AFTER_LAYER_CHANGE
;0.2
G1 X186.438 Y35.515
G1 Z0.200
G1 E0.80000 F2100.00000
M204 S1000
G1 F1200.000
G1 X234.628 Y35.515 E1.51097
G1 X234.628 Y174.485 E4.35728
G1 X186.438 Y174.485 E1.51097
G1 X186.438 Y35.575 E4.35540
G1 X186.815 Y35.893 F10800.000
G1 F1200.000
G1 X234.251 Y35.893 E1.48733
G1 X234.251 Y174.107 E4.33363
G1 X186.815 Y174.107 E1.48733
G1 X186.815 Y35.953 E4.33175
G1 X186.771 Y35.495 F10800.000
G1 X186.112 Y35.186
G1 F1200.000
G1 X236.463 Y35.186 E1.57872
G1 X236.463 Y174.814 E4.37795
G1 X186.112 Y174.814 E1.57872
G1 X186.112 Y35.246 E4.37607
G1 X185.735 Y34.809 F10800.000
G1 F1200.000
G1 X236.840 Y34.809 E1.60237
M73 P0 R439
G1 X236.840 Y175.191 E4.40160
G1 X185.735 Y175.191 E1.60237
G1 X185.735 Y34.869 E4.39972
G1 X186.103 Y34.967 F10800.000
G1 E-0.80000 F2100.00000
G1 Z0.800 F10800.000
G1 X235.505 Y174.701
G1 Z0.200
G1 E0.80000 F2100.00000
G1 F1200.000
G1 X234.911 Y174.107 E0.02640
G1 X234.911 Y173.573 E0.01679
G1 X235.870 Y174.531 E0.04261
G1 X236.181 Y174.531 E0.00977
G1 X236.181 Y174.308 E0.00702
G1 X234.911 Y173.038 E0.05643
G1 X234.911 Y172.504 E0.01679
G1 X236.181 Y173.774 E0.05643
G1 X236.181 Y173.239 E0.01679
G1 X234.911 Y171.969 E0.05643
G1 X234.911 Y171.435 E0.01679
G1 X236.181 Y172.705 E0.05643
G1 X236.181 Y172.170 E0.01679
G1 X234.911 Y170.900 E0.05643
G1 X234.911 Y170.366 E0.01679
G1 X236.181 Y171.636 E0.05643
G1 X236.181 Y171.101 E0.01679
G1 X234.911 Y169.832 E0.05643
G1 X234.911 Y169.297 E0.01679
G1 X236.181 Y170.567 E0.05643
G1 X236.181 Y170.033 E0.01679
G1 X234.911 Y168.763 E0.05643
G1 X234.911 Y168.228 E0.01679
G1 X236.181 Y169.498 E0.05643
G1 X236.181 Y168.964 E0.01679
G1 X234.911 Y167.694 E0.05643
G1 X234.911 Y167.159 E0.01679
G1 X236.181 Y168.429 E0.05643
G1 X236.181 Y167.895 E0.01679
G1 X234.911 Y166.625 E0.05643
G1 X234.911 Y166.091 E0.01679
G1 X236.181 Y167.360 E0.05643
G1 X236.181 Y166.826 E0.01679
G1 X234.911 Y165.556 E0.05643
G1 X234.911 Y165.022 E0.01679
G1 X236.181 Y166.292 E0.05643
G1 X236.181 Y165.757 E0.01679
G1 X234.911 Y164.487 E0.05643
G1 X234.911 Y163.953 E0.01679
G1 X236.181 Y165.223 E0.05643
G1 X236.181 Y164.688 E0.01679
G1 X234.911 Y163.419 E0.05643
G1 X234.911 Y162.884 E0.01679
G1 X236.181 Y164.154 E0.05643
G1 X236.181 Y163.620 E0.01679
G1 X234.911 Y162.350 E0.05643
G1 X234.911 Y161.815 E0.01679
G1 X236.181 Y163.085 E0.05643
G1 X236.181 Y162.551 E0.01679
G1 X234.911 Y161.281 E0.05643
G1 X234.911 Y160.746 E0.01679
G1 X236.181 Y162.016 E0.05643
G1 X236.181 Y161.482 E0.01679
G1 X234.911 Y160.212 E0.05643
G1 X234.911 Y159.678 E0.01679
G1 X236.181 Y160.947 E0.05643
G1 X236.181 Y160.413 E0.01679
G1 X234.911 Y159.143 E0.05643
G1 X234.911 Y158.609 E0.01679
G1 X236.181 Y159.879 E0.05643
G1 X236.181 Y159.344 E0.01679
G1 X234.911 Y158.074 E0.05643
G1 X234.911 Y157.540 E0.01679
G1 X236.181 Y158.810 E0.05643
G1 X236.181 Y158.275 E0.01679
G1 X234.911 Y157.006 E0.05643
G1 X234.911 Y156.471 E0.01679
G1 X236.181 Y157.741 E0.05643
G1 X236.181 Y157.207 E0.01679
G1 X234.911 Y155.937 E0.05643
G1 X234.911 Y155.402 E0.01679
G1 X236.181 Y156.672 E0.05643
G1 X236.181 Y156.138 E0.01679
G1 X234.911 Y154.868 E0.05643
G1 X234.911 Y154.333 E0.01679
G1 X236.181 Y155.603 E0.05643
G1 X236.181 Y155.069 E0.01679
G1 X234.911 Y153.799 E0.05643
G1 X234.911 Y153.265 E0.01679
G1 X236.181 Y154.534 E0.05643
G1 X236.181 Y154.000 E0.01679
G1 X234.911 Y152.730 E0.05643
G1 X234.911 Y152.196 E0.01679
G1 X236.181 Y153.466 E0.05643
G1 X236.181 Y152.931 E0.01679
G1 X234.911 Y151.661 E0.05643
G1 X234.911 Y151.127 E0.01679
G1 X236.181 Y152.397 E0.05643
G1 X236.181 Y151.862 E0.01679
G1 X234.911 Y150.592 E0.05643
G1 X234.911 Y150.058 E0.01679
G1 X236.181 Y151.328 E0.05643
G1 X236.181 Y150.793 E0.01679
G1 X234.911 Y149.524 E0.05643
G1 X234.911 Y148.989 E0.01679
G1 X236.181 Y150.259 E0.05643
G1 X236.181 Y149.725 E0.01679
G1 X234.911 Y148.455 E0.05643
G1 X234.911 Y147.920 E0.01679
G1 X236.181 Y149.190 E0.05643
G1 X236.181 Y148.656 E0.01679
G1 X234.911 Y147.386 E0.05643
G1 X234.911 Y146.852 E0.01679
G1 X236.181 Y148.121 E0.05643
G1 X236.181 Y147.587 E0.01679
G1 X234.911 Y146.317 E0.05643
G1 X234.911 Y145.783 E0.01679
G1 X236.181 Y147.053 E0.05643
G1 X236.181 Y146.518 E0.01679
G1 X234.911 Y145.248 E0.05643
G1 X234.911 Y144.714 E0.01679
G1 X236.181 Y145.984 E0.05643
G1 X236.181 Y145.449 E0.01679
G1 X234.911 Y144.179 E0.05643
G1 X234.911 Y143.645 E0.01679
G1 X236.181 Y144.915 E0.05643
G1 X236.181 Y144.380 E0.01679
G1 X234.911 Y143.111 E0.05643
G1 X234.911 Y142.576 E0.01679
G1 X236.181 Y143.846 E0.05643
G1 X236.181 Y143.312 E0.01679
G1 X234.911 Y142.042 E0.05643
G1 X234.911 Y141.507 E0.01679
G1 X236.181 Y142.777 E0.05643
G1 X236.181 Y142.243 E0.01679
G1 X234.911 Y140.973 E0.05643
G1 X234.911 Y140.438 E0.01679
G1 X236.181 Y141.708 E0.05643
G1 X236.181 Y141.174 E0.01679
G1 X234.911 Y139.904 E0.05643
G1 X234.911 Y139.370 E0.01679
G1 X236.181 Y140.639 E0.05643
G1 X236.181 Y140.105 E0.01679
G1 X234.911 Y138.835 E0.05643
G1 X234.911 Y138.301 E0.01679
G1 X236.181 Y139.571 E0.05643
G1 X236.181 Y139.036 E0.01679
G1 X234.911 Y137.766 E0.05643
G1 X234.911 Y137.232 E0.01679
G1 X236.181 Y138.502 E0.05643
G1 X236.181 Y137.967 E0.01679
G1 X234.911 Y136.698 E0.05643
G1 X234.911 Y136.163 E0.01679
G1 X236.181 Y137.433 E0.05643
G1 X236.181 Y136.899 E0.01679
G1 X234.911 Y135.629 E0.05643
G1 X234.911 Y135.094 E0.01679
G1 X236.181 Y136.364 E0.05643
G1 X236.181 Y135.830 E0.01679
G1 X234.911 Y134.560 E0.05643
G1 X234.911 Y134.025 E0.01679
G1 X236.181 Y135.295 E0.05643
G1 X236.181 Y134.761 E0.01679
G1 X234.911 Y133.491 E0.05643
G1 X234.911 Y132.957 E0.01679
G1 X236.181 Y134.226 E0.05643
G1 X236.181 Y133.692 E0.01679
G1 X234.911 Y132.422 E0.05643
G1 X234.911 Y131.888 E0.01679
G1 X236.181 Y133.158 E0.05643
G1 X236.181 Y132.623 E0.01679
G1 X234.911 Y131.353 E0.05643
G1 X234.911 Y130.819 E0.01679
G1 X236.181 Y132.089 E0.05643
G1 X236.181 Y131.554 E0.01679
G1 X234.911 Y130.285 E0.05643
G1 X234.911 Y129.750 E0.01679
G1 X236.181 Y131.020 E0.05643
G1 X236.181 Y130.486 E0.01679
G1 X234.911 Y129.216 E0.05643
G1 X234.911 Y128.681 E0.01679
G1 X236.181 Y129.951 E0.05643
G1 X236.181 Y129.417 E0.01679
G1 X234.911 Y128.147 E0.05643
G1 X234.911 Y127.612 E0.01679
G1 X236.181 Y128.882 E0.05643
G1 X236.181 Y128.348 E0.01679
G1 X234.911 Y127.078 E0.05643
G1 X234.911 Y126.544 E0.01679
G1 X236.181 Y127.813 E0.05643
G1 X236.181 Y127.279 E0.01679
G1 X234.911 Y126.009 E0.05643
G1 X234.911 Y125.475 E0.01679
G1 X236.181 Y126.745 E0.05643
G1 X236.181 Y126.210 E0.01679
G1 X234.911 Y124.940 E0.05643
G1 X234.911 Y124.406 E0.01679
G1 X236.181 Y125.676 E0.05643
G1 X236.181 Y125.141 E0.01679
G1 X234.911 Y123.871 E0.05643
G1 X234.911 Y123.337 E0.01679
G1 X236.181 Y124.607 E0.05643
G1 X236.181 Y124.072 E0.01679
G1 X234.911 Y122.803 E0.05643
G1 X234.911 Y122.268 E0.01679
G1 X236.181 Y123.538 E0.05643
G1 X236.181 Y123.004 E0.01679
G1 X234.911 Y121.734 E0.05643
G1 X234.911 Y121.199 E0.01679
G1 X236.181 Y122.469 E0.05643
G1 X236.181 Y121.935 E0.01679
G1 X234.911 Y120.665 E0.05643
G1 X234.911 Y120.131 E0.01679
G1 X236.181 Y121.400 E0.05643
G1 X236.181 Y120.866 E0.01679
G1 X234.911 Y119.596 E0.05643
G1 X234.911 Y119.062 E0.01679
G1 X236.181 Y120.332 E0.05643
G1 X236.181 Y119.797 E0.01679
G1 X234.911 Y118.527 E0.05643
G1 X234.911 Y117.993 E0.01679
G1 X236.181 Y119.263 E0.05643
G1 X236.181 Y118.728 E0.01679
G1 X234.911 Y117.458 E0.05643
G1 X234.911 Y116.924 E0.01679
G1 X236.181 Y118.194 E0.05643
G1 X236.181 Y117.659 E0.01679
G1 X234.911 Y116.390 E0.05643
G1 X234.911 Y115.855 E0.01679
G1 X236.181 Y117.125 E0.05643
G1 X236.181 Y116.591 E0.01679
G1 X234.911 Y115.321 E0.05643
G1 X234.911 Y114.786 E0.01679
G1 X236.181 Y116.056 E0.05643
G1 X236.181 Y115.522 E0.01679
G1 X234.911 Y114.252 E0.05643
G1 X234.911 Y113.717 E0.01679
G1 X236.181 Y114.987 E0.05643
G1 X236.181 Y114.453 E0.01679
G1 X234.911 Y113.183 E0.05643
G1 X234.911 Y112.649 E0.01679
G1 X236.181 Y113.918 E0.05643
G1 X236.181 Y113.384 E0.01679
G1 X234.911 Y112.114 E0.05643
G1 X234.911 Y111.580 E0.01679
G1 X236.181 Y112.850 E0.05643
G1 X236.181 Y112.315 E0.01679
G1 X234.911 Y111.045 E0.05643
G1 X234.911 Y110.511 E0.01679
G1 X236.181 Y111.781 E0.05643
G1 X236.181 Y111.246 E0.01679
G1 X234.911 Y109.977 E0.05643
G1 X234.911 Y109.442 E0.01679
G1 X236.181 Y110.712 E0.05643
G1 X236.181 Y110.178 E0.01679
G1 X234.911 Y108.908 E0.05643
G1 X234.911 Y108.373 E0.01679
G1 X236.181 Y109.643 E0.05643
G1 X236.181 Y109.109 E0.01679
G1 X234.911 Y107.839 E0.05643
G1 X234.911 Y107.304 E0.01679
G1 X236.181 Y108.574 E0.05643
G1 X236.181 Y108.040 E0.01679
G1 X234.911 Y106.770 E0.05643
G1 X234.911 Y106.236 E0.01679
G1 X236.181 Y107.505 E0.05643
G1 X236.181 Y106.971 E0.01679
G1 X234.911 Y105.701 E0.05643
G1 X234.911 Y105.167 E0.01679
G1 X236.181 Y106.437 E0.05643
G1 X236.181 Y105.902 E0.01679
G1 X234.911 Y104.632 E0.05643
G1 X234.911 Y104.098 E0.01679
G1 X236.181 Y105.368 E0.05643
G1 X236.181 Y104.833 E0.01679
G1 X234.911 Y103.564 E0.05643
G1 X234.911 Y103.029 E0.01679
G1 X236.181 Y104.299 E0.05643
G1 X236.181 Y103.765 E0.01679
G1 X234.911 Y102.495 E0.05643
G1 X234.911 Y101.960 E0.01679
G1 X236.181 Y103.230 E0.05643
G1 X236.181 Y102.696 E0.01679
G1 X234.911 Y101.426 E0.05643
G1 X234.911 Y100.891 E0.01679
G1 X236.181 Y102.161 E0.05643
G1 X236.181 Y101.627 E0.01679
G1 X234.911 Y100.357 E0.05643
G1 X234.911 Y99.823 E0.01679
G1 X236.181 Y101.092 E0.05643
G1 X236.181 Y100.558 E0.01679
G1 X234.911 Y99.288 E0.05643
G1 X234.911 Y98.754 E0.01679
G1 X236.181 Y100.024 E0.05643
G1 X236.181 Y99.489 E0.01679
G1 X234.911 Y98.219 E0.05643
G1 X234.911 Y97.685 E0.01679
G1 X236.181 Y98.955 E0.05643
G1 X236.181 Y98.420 E0.01679
G1 X234.911 Y97.150 E0.05643
G1 X234.911 Y96.616 E0.01679
G1 X236.181 Y97.886 E0.05643
G1 X236.181 Y97.351 E0.01679
G1 X234.911 Y96.082 E0.05643
G1 X234.911 Y95.547 E0.01679
G1 X236.181 Y96.817 E0.05643
G1 X236.181 Y96.283 E0.01679
G1 X234.911 Y95.013 E0.05643
G1 X234.911 Y94.478 E0.01679
G1 X236.181 Y95.748 E0.05643
G1 X236.181 Y95.214 E0.01679
G1 X234.911 Y93.944 E0.05643
G1 X234.911 Y93.410 E0.01679
G1 X236.181 Y94.679 E0.05643
G1 X236.181 Y94.145 E0.01679
G1 X234.911 Y92.875 E0.05643
G1 X234.911 Y92.341 E0.01679
G1 X236.181 Y93.611 E0.05643
G1 X236.181 Y93.076 E0.01679
G1 X234.911 Y91.806 E0.05643
G1 X234.911 Y91.272 E0.01679
G1 X236.181 Y92.542 E0.05643
G1 X236.181 Y92.007 E0.01679
G1 X234.911 Y90.737 E0.05643
G1 X234.911 Y90.203 E0.01679
G1 X236.181 Y91.473 E0.05643
G1 X236.181 Y90.938 E0.01679
G1 X234.911 Y89.669 E0.05643
G1 X234.911 Y89.134 E0.01679
G1 X236.181 Y90.404 E0.05643
G1 X236.181 Y89.870 E0.01679
G1 X234.911 Y88.600 E0.05643
G1 X234.911 Y88.065 E0.01679
G1 X236.181 Y89.335 E0.05643
G1 X236.181 Y88.801 E0.01679
G1 X234.911 Y87.531 E0.05643
G1 X234.911 Y86.996 E0.01679
G1 X236.181 Y88.266 E0.05643
G1 X236.181 Y87.732 E0.01679
G1 X234.911 Y86.462 E0.05643
G1 X234.911 Y85.928 E0.01679
G1 X236.181 Y87.197 E0.05643
G1 X236.181 Y86.663 E0.01679
G1 X234.911 Y85.393 E0.05643
G1 X234.911 Y84.859 E0.01679
G1 X236.181 Y86.129 E0.05643
G1 X236.181 Y85.594 E0.01679
G1 X234.911 Y84.324 E0.05643
G1 X234.911 Y83.790 E0.01679
G1 X236.181 Y85.060 E0.05643
G1 X236.181 Y84.525 E0.01679
G1 X234.911 Y83.256 E0.05643
G1 X234.911 Y82.721 E0.01679
G1 X236.181 Y83.991 E0.05643
G1 X236.181 Y83.457 E0.01679
G1 X234.911 Y82.187 E0.05643
G1 X234.911 Y81.652 E0.01679
G1 X236.181 Y82.922 E0.05643
G1 X236.181 Y82.388 E0.01679
G1 X234.911 Y81.118 E0.05643
G1 X234.911 Y80.583 E0.01679
G1 X236.181 Y81.853 E0.05643
G1 X236.181 Y81.319 E0.01679
G1 X234.911 Y80.049 E0.05643
G1 X234.911 Y79.515 E0.01679
G1 X236.181 Y80.784 E0.05643
G1 X236.181 Y80.250 E0.01679
G1 X234.911 Y78.980 E0.05643
G1 X234.911 Y78.446 E0.01679
G1 X236.181 Y79.716 E0.05643
G1 X236.181 Y79.181 E0.01679
G1 X234.911 Y77.911 E0.05643
G1 X234.911 Y77.377 E0.01679
G1 X236.181 Y78.647 E0.05643
G1 X236.181 Y78.112 E0.01679
G1 X234.911 Y76.843 E0.05643
G1 X234.911 Y76.308 E0.01679
G1 X236.181 Y77.578 E0.05643
G1 X236.181 Y77.044 E0.01679
G1 X234.911 Y75.774 E0.05643
G1 X234.911 Y75.239 E0.01679
G1 X236.181 Y76.509 E0.05643
G1 X236.181 Y75.975 E0.01679
G1 X234.911 Y74.705 E0.05643
G1 X234.911 Y74.170 E0.01679
G1 X236.181 Y75.440 E0.05643
G1 X236.181 Y74.906 E0.01679
G1 X234.911 Y73.636 E0.05643
G1 X234.911 Y73.102 E0.01679
G1 X236.181 Y74.371 E0.05643
G1 X236.181 Y73.837 E0.01679
G1 X234.911 Y72.567 E0.05643
G1 X234.911 Y72.033 E0.01679
G1 X236.181 Y73.303 E0.05643
G1 X236.181 Y72.768 E0.01679
G1 X234.911 Y71.498 E0.05643
G1 X234.911 Y70.964 E0.01679
G1 X236.181 Y72.234 E0.05643
G1 X236.181 Y71.699 E0.01679
G1 X234.911 Y70.429 E0.05643
G1 X234.911 Y69.895 E0.01679
G1 X236.181 Y71.165 E0.05643
G1 X236.181 Y70.630 E0.01679
G1 X234.911 Y69.361 E0.05643
G1 X234.911 Y68.826 E0.01679
G1 X236.181 Y70.096 E0.05643
G1 X236.181 Y69.562 E0.01679
G1 X234.911 Y68.292 E0.05643
G1 X234.911 Y67.757 E0.01679
G1 X236.181 Y69.027 E0.05643
G1 X236.181 Y68.493 E0.01679
G1 X234.911 Y67.223 E0.05643
G1 X234.911 Y66.689 E0.01679
G1 X236.181 Y67.958 E0.05643
G1 X236.181 Y67.424 E0.01679
G1 X234.911 Y66.154 E0.05643
G1 X234.911 Y65.620 E0.01679
G1 X236.181 Y66.890 E0.05643
G1 X236.181 Y66.355 E0.01679
G1 X234.911 Y65.085 E0.05643
G1 X234.911 Y64.551 E0.01679
G1 X236.181 Y65.821 E0.05643
G1 X236.181 Y65.286 E0.01679
G1 X234.911 Y64.016 E0.05643
G1 X234.911 Y63.482 E0.01679
G1 X236.181 Y64.752 E0.05643
G1 X236.181 Y64.217 E0.01679
G1 X234.911 Y62.948 E0.05643
G1 X234.911 Y62.413 E0.01679
G1 X236.181 Y63.683 E0.05643
G1 X236.181 Y63.149 E0.01679
G1 X234.911 Y61.879 E0.05643
G1 X234.911 Y61.344 E0.01679
G1 X236.181 Y62.614 E0.05643
G1 X236.181 Y62.080 E0.01679
G1 X234.911 Y60.810 E0.05643
G1 X234.911 Y60.275 E0.01679
G1 X236.181 Y61.545 E0.05643
G1 X236.181 Y61.011 E0.01679
G1 X234.911 Y59.741 E0.05643
G1 X234.911 Y59.207 E0.01679
G1 X236.181 Y60.476 E0.05643
G1 X236.181 Y59.942 E0.01679
G1 X234.911 Y58.672 E0.05643
G1 X234.911 Y58.138 E0.01679
G1 X236.181 Y59.408 E0.05643
G1 X236.181 Y58.873 E0.01679
G1 X234.911 Y57.603 E0.05643
G1 X234.911 Y57.069 E0.01679
G1 X236.181 Y58.339 E0.05643
G1 X236.181 Y57.804 E0.01679
G1 X234.911 Y56.535 E0.05643
G1 X234.911 Y56.000 E0.01679
G1 X236.181 Y57.270 E0.05643
G1 X236.181 Y56.736 E0.01679
G1 X234.911 Y55.466 E0.05643
G1 X234.911 Y54.931 E0.01679
G1 X236.181 Y56.201 E0.05643
G1 X236.181 Y55.667 E0.01679
G1 X234.911 Y54.397 E0.05643
G1 X234.911 Y53.862 E0.01679
G1 X236.181 Y55.132 E0.05643
G1 X236.181 Y54.598 E0.01679
G1 X234.911 Y53.328 E0.05643
G1 X234.911 Y52.794 E0.01679
G1 X236.181 Y54.063 E0.05643
G1 X236.181 Y53.529 E0.01679
G1 X234.911 Y52.259 E0.05643
G1 X234.911 Y51.725 E0.01679
