; generated by PrusaSlicer 2.2.0+win64 on 2020-08-04 at 19:47:44 UTC

; 

; external perimeters extrusion width = 0.45mm
; perimeters extrusion width = 0.45mm
; infill extrusion width = 0.45mm
; solid infill extrusion width = 0.45mm
; top infill extrusion width = 0.40mm
; first layer extrusion width = 0.42mm

M73 P0 R553
M201 X9000 Y9000 Z500 E10000 ; sets maximum accelerations, mm/sec^2
M203 X500 Y500 Z12 E120 ; sets maximum feedrates, mm/sec
M204 P2000 R1500 T2000 ; sets acceleration (P, T) and retract acceleration (R), mm/sec^2
M205 X10.00 Y10.00 Z0.20 E2.50 ; sets the jerk limits, mm/sec
M205 S0 T0 ; sets the minimum extruding and travel feed rate, mm/sec
M107
M862.3 P "MK2S" ; printer model check
M862.1 P0.4 ; nozzle diameter check
M115 U3.2.3 ; tell printer latest fw version
G90 ; use absolute coordinates
M83 ; extruder relative mode
M204 S2000 T1500 ; MK2 firmware only supports the old M204 format
M104 S215 ; set extruder temp
M140 S60 ; set bed temp
M190 S60 ; wait for bed temp
M109 S215 ; wait for extruder temp
G28 W ; home all without mesh bed level
G80 ; mesh bed leveling
G1 Y-3.0 F1000.0 ; go outside print area
G92 E0.0
G1 X60.0 E9.0  F1000.0 ; intro line
M73 P0 R552
G1 X100.0 E12.5 F1000.0 ; intro line
G92 E0.0
G21 ; set units to millimeters
G90 ; use absolute coordinates
M83 ; use relative distances for extrusion
M900 K0.06 ; Filament gcode LA 1.5
M900 K30 ; Filament gcode LA 1.0
;BEFORE_LAYER_CHANGE
G92 E0.0
;0.2


G1 E-0.80000 F2100.00000
G1 Z0.600 F10800.000
;AFTER_LAYER_CHANGE
;0.2
G1 X54.106 Y153.486
G1 Z0.200
G1 E0.80000 F2100.00000
M204 S1000
G1 F1200.000
G1 X193.075 Y153.486 E4.35728
G1 X193.075 Y201.676 E1.51097
G1 X54.106 Y201.676 E4.35728
G1 X54.106 Y153.546 E1.50909
G1 X54.483 Y153.863 F10800.000
G1 F1200.000
G1 X192.698 Y153.863 E4.33363
G1 X192.698 Y201.299 E1.48733
G1 X54.483 Y201.299 E4.33363
G1 X54.483 Y153.923 E1.48545
G1 X54.323 Y153.496 F10800.000
G1 X53.777 Y153.160
G1 F1200.000
G1 X193.405 Y153.160 E4.37795
G1 X193.405 Y203.511 E1.57872
G1 X53.777 Y203.511 E4.37795
G1 X53.777 Y153.220 E1.57684
M73 P0 R551
G1 X53.400 Y152.783 F10800.000
G1 F1200.000
G1 X193.782 Y152.783 E4.40160
G1 X193.782 Y203.888 E1.60237
G1 X53.400 Y203.888 E4.40160
G1 X53.400 Y152.843 E1.60049
G1 X53.797 Y152.830 F10800.000
G1 E-0.80000 F2100.00000
G1 Z0.800 F10800.000
G1 X193.292 Y202.553
G1 Z0.200
G1 E0.80000 F2100.00000
G1 F1200.000
G1 X192.698 Y201.959 E0.02641
G1 X192.163 Y201.959 E0.01679
G1 X193.122 Y202.918 E0.04262
G1 X193.122 Y203.229 E0.00977
G1 X192.899 Y203.229 E0.00703
G1 X191.629 Y201.959 E0.05643
G1 X191.094 Y201.959 E0.01679
G1 X192.364 Y203.229 E0.05643
G1 X191.830 Y203.229 E0.01679
G1 X190.560 Y201.959 E0.05643
G1 X190.026 Y201.959 E0.01679
G1 X191.295 Y203.229 E0.05643
G1 X190.761 Y203.229 E0.01679
G1 X189.491 Y201.959 E0.05643
G1 X188.957 Y201.959 E0.01679
G1 X190.227 Y203.229 E0.05643
G1 X189.692 Y203.229 E0.01679
G1 X188.422 Y201.959 E0.05643
G1 X187.888 Y201.959 E0.01679
G1 X189.158 Y203.229 E0.05643
G1 X188.623 Y203.229 E0.01679
G1 X187.353 Y201.959 E0.05643
G1 X186.819 Y201.959 E0.01679
G1 X188.089 Y203.229 E0.05643
G1 X187.554 Y203.229 E0.01679
G1 X186.285 Y201.959 E0.05643
G1 X185.750 Y201.959 E0.01679
G1 X187.020 Y203.229 E0.05643
G1 X186.486 Y203.229 E0.01679
G1 X185.216 Y201.959 E0.05643
G1 X184.681 Y201.959 E0.01679
G1 X185.951 Y203.229 E0.05643
G1 X185.417 Y203.229 E0.01679
G1 X184.147 Y201.959 E0.05643
G1 X183.613 Y201.959 E0.01679
G1 X184.882 Y203.229 E0.05643
G1 X184.348 Y203.229 E0.01679
G1 X183.078 Y201.959 E0.05643
G1 X182.544 Y201.959 E0.01679
G1 X183.814 Y203.229 E0.05643
G1 X183.279 Y203.229 E0.01679
G1 X182.009 Y201.959 E0.05643
G1 X181.475 Y201.959 E0.01679
G1 X182.745 Y203.229 E0.05643
G1 X182.210 Y203.229 E0.01679
G1 X180.940 Y201.959 E0.05643
G1 X180.406 Y201.959 E0.01679
G1 X181.676 Y203.229 E0.05643
G1 X181.141 Y203.229 E0.01679
G1 X179.872 Y201.959 E0.05643
G1 X179.337 Y201.959 E0.01679
G1 X180.607 Y203.229 E0.05643
G1 X180.073 Y203.229 E0.01679
G1 X178.803 Y201.959 E0.05643
G1 X178.268 Y201.959 E0.01679
G1 X179.538 Y203.229 E0.05643
G1 X179.004 Y203.229 E0.01679
G1 X177.734 Y201.959 E0.05643
G1 X177.199 Y201.959 E0.01679
G1 X178.469 Y203.229 E0.05643
G1 X177.935 Y203.229 E0.01679
G1 X176.665 Y201.959 E0.05643
G1 X176.131 Y201.959 E0.01679
G1 X177.400 Y203.229 E0.05643
G1 X176.866 Y203.229 E0.01679
G1 X175.596 Y201.959 E0.05643
G1 X175.062 Y201.959 E0.01679
G1 X176.332 Y203.229 E0.05643
G1 X175.797 Y203.229 E0.01679
G1 X174.527 Y201.959 E0.05643
G1 X173.993 Y201.959 E0.01679
G1 X175.263 Y203.229 E0.05643
G1 X174.728 Y203.229 E0.01679
G1 X173.459 Y201.959 E0.05643
G1 X172.924 Y201.959 E0.01679
G1 X174.194 Y203.229 E0.05643
G1 X173.660 Y203.229 E0.01679
G1 X172.390 Y201.959 E0.05643
G1 X171.855 Y201.959 E0.01679
G1 X173.125 Y203.229 E0.05643
G1 X172.591 Y203.229 E0.01679
G1 X171.321 Y201.959 E0.05643
G1 X170.786 Y201.959 E0.01679
G1 X172.056 Y203.229 E0.05643
G1 X171.522 Y203.229 E0.01679
G1 X170.252 Y201.959 E0.05643
G1 X169.718 Y201.959 E0.01679
G1 X170.987 Y203.229 E0.05643
G1 X170.453 Y203.229 E0.01679
G1 X169.183 Y201.959 E0.05643
G1 X168.649 Y201.959 E0.01679
G1 X169.919 Y203.229 E0.05643
G1 X169.384 Y203.229 E0.01679
G1 X168.114 Y201.959 E0.05643
G1 X167.580 Y201.959 E0.01679
G1 X168.850 Y203.229 E0.05643
G1 X168.315 Y203.229 E0.01679
G1 X167.045 Y201.959 E0.05643
G1 X166.511 Y201.959 E0.01679
G1 X167.781 Y203.229 E0.05643
G1 X167.247 Y203.229 E0.01679
G1 X165.977 Y201.959 E0.05643
G1 X165.442 Y201.959 E0.01679
G1 X166.712 Y203.229 E0.05643
G1 X166.178 Y203.229 E0.01679
G1 X164.908 Y201.959 E0.05643
G1 X164.373 Y201.959 E0.01679
G1 X165.643 Y203.229 E0.05643
G1 X165.109 Y203.229 E0.01679
G1 X163.839 Y201.959 E0.05643
G1 X163.305 Y201.959 E0.01679
G1 X164.574 Y203.229 E0.05643
G1 X164.040 Y203.229 E0.01679
G1 X162.770 Y201.959 E0.05643
G1 X162.236 Y201.959 E0.01679
G1 X163.506 Y203.229 E0.05643
G1 X162.971 Y203.229 E0.01679
G1 X161.701 Y201.959 E0.05643
G1 X161.167 Y201.959 E0.01679
G1 X162.437 Y203.229 E0.05643
G1 X161.902 Y203.229 E0.01679
G1 X160.632 Y201.959 E0.05643
G1 X160.098 Y201.959 E0.01679
G1 X161.368 Y203.229 E0.05643
G1 X160.833 Y203.229 E0.01679
G1 X159.564 Y201.959 E0.05643
G1 X159.029 Y201.959 E0.01679
G1 X160.299 Y203.229 E0.05643
G1 X159.765 Y203.229 E0.01679
G1 X158.495 Y201.959 E0.05643
G1 X157.960 Y201.959 E0.01679
G1 X159.230 Y203.229 E0.05643
G1 X158.696 Y203.229 E0.01679
G1 X157.426 Y201.959 E0.05643
G1 X156.892 Y201.959 E0.01679
G1 X158.161 Y203.229 E0.05643
G1 X157.627 Y203.229 E0.01679
G1 X156.357 Y201.959 E0.05643
G1 X155.823 Y201.959 E0.01679
G1 X157.093 Y203.229 E0.05643
G1 X156.558 Y203.229 E0.01679
G1 X155.288 Y201.959 E0.05643
G1 X154.754 Y201.959 E0.01679
G1 X156.024 Y203.229 E0.05643
G1 X155.489 Y203.229 E0.01679
G1 X154.219 Y201.959 E0.05643
G1 X153.685 Y201.959 E0.01679
G1 X154.955 Y203.229 E0.05643
G1 X154.420 Y203.229 E0.01679
G1 X153.151 Y201.959 E0.05643
G1 X152.616 Y201.959 E0.01679
G1 X153.886 Y203.229 E0.05643
G1 X153.352 Y203.229 E0.01679
G1 X152.082 Y201.959 E0.05643
G1 X151.547 Y201.959 E0.01679
G1 X152.817 Y203.229 E0.05643
G1 X152.283 Y203.229 E0.01679
G1 X151.013 Y201.959 E0.05643
G1 X150.478 Y201.959 E0.01679
G1 X151.748 Y203.229 E0.05643
G1 X151.214 Y203.229 E0.01679
G1 X149.944 Y201.959 E0.05643
G1 X149.410 Y201.959 E0.01679
G1 X150.679 Y203.229 E0.05643
G1 X150.145 Y203.229 E0.01679
G1 X148.875 Y201.959 E0.05643
G1 X148.341 Y201.959 E0.01679
G1 X149.611 Y203.229 E0.05643
G1 X149.076 Y203.229 E0.01679
G1 X147.806 Y201.959 E0.05643
G1 X147.272 Y201.959 E0.01679
G1 X148.542 Y203.229 E0.05643
G1 X148.007 Y203.229 E0.01679
G1 X146.738 Y201.959 E0.05643
G1 X146.203 Y201.959 E0.01679
G1 X147.473 Y203.229 E0.05643
G1 X146.939 Y203.229 E0.01679
G1 X145.669 Y201.959 E0.05643
G1 X145.134 Y201.959 E0.01679
G1 X146.404 Y203.229 E0.05643
G1 X145.870 Y203.229 E0.01679
G1 X144.600 Y201.959 E0.05643
G1 X144.065 Y201.959 E0.01679
G1 X145.335 Y203.229 E0.05643
G1 X144.801 Y203.229 E0.01679
G1 X143.531 Y201.959 E0.05643
G1 X142.997 Y201.959 E0.01679
G1 X144.266 Y203.229 E0.05643
G1 X143.732 Y203.229 E0.01679
G1 X142.462 Y201.959 E0.05643
G1 X141.928 Y201.959 E0.01679
G1 X143.198 Y203.229 E0.05643
G1 X142.663 Y203.229 E0.01679
G1 X141.393 Y201.959 E0.05643
G1 X140.859 Y201.959 E0.01679
G1 X142.129 Y203.229 E0.05643
G1 X141.594 Y203.229 E0.01679
G1 X140.325 Y201.959 E0.05643
G1 X139.790 Y201.959 E0.01679
G1 X141.060 Y203.229 E0.05643
G1 X140.526 Y203.229 E0.01679
G1 X139.256 Y201.959 E0.05643
G1 X138.721 Y201.959 E0.01679
G1 X139.991 Y203.229 E0.05643
G1 X139.457 Y203.229 E0.01679
G1 X138.187 Y201.959 E0.05643
G1 X137.652 Y201.959 E0.01679
G1 X138.922 Y203.229 E0.05643
G1 X138.388 Y203.229 E0.01679
G1 X137.118 Y201.959 E0.05643
G1 X136.584 Y201.959 E0.01679
G1 X137.853 Y203.229 E0.05643
G1 X137.319 Y203.229 E0.01679
G1 X136.049 Y201.959 E0.05643
G1 X135.515 Y201.959 E0.01679
G1 X136.785 Y203.229 E0.05643
G1 X136.250 Y203.229 E0.01679
G1 X134.980 Y201.959 E0.05643
G1 X134.446 Y201.959 E0.01679
G1 X135.716 Y203.229 E0.05643
G1 X135.181 Y203.229 E0.01679
G1 X133.911 Y201.959 E0.05643
G1 X133.377 Y201.959 E0.01679
G1 X134.647 Y203.229 E0.05643
G1 X134.112 Y203.229 E0.01679
G1 X132.843 Y201.959 E0.05643
G1 X132.308 Y201.959 E0.01679
G1 X133.578 Y203.229 E0.05643
G1 X133.044 Y203.229 E0.01679
G1 X131.774 Y201.959 E0.05643
G1 X131.239 Y201.959 E0.01679
G1 X132.509 Y203.229 E0.05643
G1 X131.975 Y203.229 E0.01679
G1 X130.705 Y201.959 E0.05643
G1 X130.171 Y201.959 E0.01679
G1 X131.440 Y203.229 E0.05643
G1 X130.906 Y203.229 E0.01679
G1 X129.636 Y201.959 E0.05643
G1 X129.102 Y201.959 E0.01679
G1 X130.372 Y203.229 E0.05643
G1 X129.837 Y203.229 E0.01679
G1 X128.567 Y201.959 E0.05643
G1 X128.033 Y201.959 E0.01679
G1 X129.303 Y203.229 E0.05643
G1 X128.768 Y203.229 E0.01679
G1 X127.498 Y201.959 E0.05643
G1 X126.964 Y201.959 E0.01679
G1 X128.234 Y203.229 E0.05643
G1 X127.699 Y203.229 E0.01679
G1 X126.430 Y201.959 E0.05643
G1 X125.895 Y201.959 E0.01679
G1 X127.165 Y203.229 E0.05643
G1 X126.631 Y203.229 E0.01679
G1 X125.361 Y201.959 E0.05643
G1 X124.826 Y201.959 E0.01679
G1 X126.096 Y203.229 E0.05643
G1 X125.562 Y203.229 E0.01679
G1 X124.292 Y201.959 E0.05643
G1 X123.757 Y201.959 E0.01679
G1 X125.027 Y203.229 E0.05643
G1 X124.493 Y203.229 E0.01679
G1 X123.223 Y201.959 E0.05643
G1 X122.689 Y201.959 E0.01679
G1 X123.958 Y203.229 E0.05643
G1 X123.424 Y203.229 E0.01679
G1 X122.154 Y201.959 E0.05643
G1 X121.620 Y201.959 E0.01679
G1 X122.890 Y203.229 E0.05643
G1 X122.355 Y203.229 E0.01679
G1 X121.085 Y201.959 E0.05643
G1 X120.551 Y201.959 E0.01679
G1 X121.821 Y203.229 E0.05643
G1 X121.286 Y203.229 E0.01679
G1 X120.017 Y201.959 E0.05643
G1 X119.482 Y201.959 E0.01679
G1 X120.752 Y203.229 E0.05643
G1 X120.218 Y203.229 E0.01679
G1 X118.948 Y201.959 E0.05643
G1 X118.413 Y201.959 E0.01679
G1 X119.683 Y203.229 E0.05643
G1 X119.149 Y203.229 E0.01679
G1 X117.879 Y201.959 E0.05643
G1 X117.344 Y201.959 E0.01679
G1 X118.614 Y203.229 E0.05643
G1 X118.080 Y203.229 E0.01679
G1 X116.810 Y201.959 E0.05643
G1 X116.276 Y201.959 E0.01679
G1 X117.545 Y203.229 E0.05643
G1 X117.011 Y203.229 E0.01679
G1 X115.741 Y201.959 E0.05643
G1 X115.207 Y201.959 E0.01679
G1 X116.477 Y203.229 E0.05643
G1 X115.942 Y203.229 E0.01679
G1 X114.672 Y201.959 E0.05643
G1 X114.138 Y201.959 E0.01679
G1 X115.408 Y203.229 E0.05643
G1 X114.873 Y203.229 E0.01679
G1 X113.604 Y201.959 E0.05643
G1 X113.069 Y201.959 E0.01679
G1 X114.339 Y203.229 E0.05643
G1 X113.805 Y203.229 E0.01679
G1 X112.535 Y201.959 E0.05643
G1 X112.000 Y201.959 E0.01679
G1 X113.270 Y203.229 E0.05643
G1 X112.736 Y203.229 E0.01679
G1 X111.466 Y201.959 E0.05643
G1 X110.931 Y201.959 E0.01679
G1 X112.201 Y203.229 E0.05643
G1 X111.667 Y203.229 E0.01679
G1 X110.397 Y201.959 E0.05643
G1 X109.863 Y201.959 E0.01679
G1 X111.132 Y203.229 E0.05643
G1 X110.598 Y203.229 E0.01679
G1 X109.328 Y201.959 E0.05643
G1 X108.794 Y201.959 E0.01679
G1 X110.064 Y203.229 E0.05643
G1 X109.529 Y203.229 E0.01679
G1 X108.259 Y201.959 E0.05643
G1 X107.725 Y201.959 E0.01679
G1 X108.995 Y203.229 E0.05643
G1 X108.460 Y203.229 E0.01679
G1 X107.190 Y201.959 E0.05643
G1 X106.656 Y201.959 E0.01679
G1 X107.926 Y203.229 E0.05643
G1 X107.391 Y203.229 E0.01679
G1 X106.122 Y201.959 E0.05643
G1 X105.587 Y201.959 E0.01679
G1 X106.857 Y203.229 E0.05643
G1 X106.323 Y203.229 E0.01679
G1 X105.053 Y201.959 E0.05643
G1 X104.518 Y201.959 E0.01679
G1 X105.788 Y203.229 E0.05643
G1 X105.254 Y203.229 E0.01679
G1 X103.984 Y201.959 E0.05643
G1 X103.450 Y201.959 E0.01679
G1 X104.719 Y203.229 E0.05643
G1 X104.185 Y203.229 E0.01679
G1 X102.915 Y201.959 E0.05643
G1 X102.381 Y201.959 E0.01679
G1 X103.651 Y203.229 E0.05643
G1 X103.116 Y203.229 E0.01679
G1 X101.846 Y201.959 E0.05643
G1 X101.312 Y201.959 E0.01679
G1 X102.582 Y203.229 E0.05643
G1 X102.047 Y203.229 E0.01679
G1 X100.777 Y201.959 E0.05643
G1 X100.243 Y201.959 E0.01679
G1 X101.513 Y203.229 E0.05643
G1 X100.978 Y203.229 E0.01679
G1 X99.709 Y201.959 E0.05643
G1 X99.174 Y201.959 E0.01679
G1 X100.444 Y203.229 E0.05643
G1 X99.910 Y203.229 E0.01679
G1 X98.640 Y201.959 E0.05643
G1 X98.105 Y201.959 E0.01679
G1 X99.375 Y203.229 E0.05643
G1 X98.841 Y203.229 E0.01679
G1 X97.571 Y201.959 E0.05643
G1 X97.036 Y201.959 E0.01679
G1 X98.306 Y203.229 E0.05643
G1 X97.772 Y203.229 E0.01679
G1 X96.502 Y201.959 E0.05643
G1 X95.968 Y201.959 E0.01679
G1 X97.237 Y203.229 E0.05643
G1 X96.703 Y203.229 E0.01679
G1 X95.433 Y201.959 E0.05643
G1 X94.899 Y201.959 E0.01679
G1 X96.169 Y203.229 E0.05643
G1 X95.634 Y203.229 E0.01679
G1 X94.364 Y201.959 E0.05643
G1 X93.830 Y201.959 E0.01679
G1 X95.100 Y203.229 E0.05643
G1 X94.565 Y203.229 E0.01679
G1 X93.296 Y201.959 E0.05643
G1 X92.761 Y201.959 E0.01679
G1 X94.031 Y203.229 E0.05643
G1 X93.497 Y203.229 E0.01679
G1 X92.227 Y201.959 E0.05643
G1 X91.692 Y201.959 E0.01679
G1 X92.962 Y203.229 E0.05643
G1 X92.428 Y203.229 E0.01679
G1 X91.158 Y201.959 E0.05643
G1 X90.623 Y201.959 E0.01679
G1 X91.893 Y203.229 E0.05643
G1 X91.359 Y203.229 E0.01679
G1 X90.089 Y201.959 E0.05643
G1 X89.555 Y201.959 E0.01679
G1 X90.824 Y203.229 E0.05643
G1 X90.290 Y203.229 E0.01679
G1 X89.020 Y201.959 E0.05643
G1 X88.486 Y201.959 E0.01679
G1 X89.756 Y203.229 E0.05643
G1 X89.221 Y203.229 E0.01679
G1 X87.951 Y201.959 E0.05643
G1 X87.417 Y201.959 E0.01679
G1 X88.687 Y203.229 E0.05643
G1 X88.152 Y203.229 E0.01679
G1 X86.883 Y201.959 E0.05643
G1 X86.348 Y201.959 E0.01679
G1 X87.618 Y203.229 E0.05643
G1 X87.084 Y203.229 E0.01679
G1 X85.814 Y201.959 E0.05643
G1 X85.279 Y201.959 E0.01679
G1 X86.549 Y203.229 E0.05643
G1 X86.015 Y203.229 E0.01679
G1 X84.745 Y201.959 E0.05643
G1 X84.210 Y201.959 E0.01679
G1 X85.480 Y203.229 E0.05643
G1 X84.946 Y203.229 E0.01679
G1 X83.676 Y201.959 E0.05643
G1 X83.142 Y201.959 E0.01679
G1 X84.411 Y203.229 E0.05643
G1 X83.877 Y203.229 E0.01679
G1 X82.607 Y201.959 E0.05643
G1 X82.073 Y201.959 E0.01679
G1 X83.343 Y203.229 E0.05643
G1 X82.808 Y203.229 E0.01679
G1 X81.538 Y201.959 E0.05643
G1 X81.004 Y201.959 E0.01679
G1 X82.274 Y203.229 E0.05643
G1 X81.739 Y203.229 E0.01679
G1 X80.469 Y201.959 E0.05643
G1 X79.935 Y201.959 E0.01679
G1 X81.205 Y203.229 E0.05643
G1 X80.670 Y203.229 E0.01679
G1 X79.401 Y201.959 E0.05643
G1 X78.866 Y201.959 E0.01679
G1 X80.136 Y203.229 E0.05643
G1 X79.602 Y203.229 E0.01679
G1 X78.332 Y201.959 E0.05643
G1 X77.797 Y201.959 E0.01679
G1 X79.067 Y203.229 E0.05643
G1 X78.533 Y203.229 E0.01679
G1 X77.263 Y201.959 E0.05643
G1 X76.729 Y201.959 E0.01679
G1 X77.998 Y203.229 E0.05643
G1 X77.464 Y203.229 E0.01679
G1 X76.194 Y201.959 E0.05643
G1 X75.660 Y201.959 E0.01679
G1 X76.930 Y203.229 E0.05643
G1 X76.395 Y203.229 E0.01679
G1 X75.125 Y201.959 E0.05643
G1 X74.591 Y201.959 E0.01679
G1 X75.861 Y203.229 E0.05643
G1 X75.326 Y203.229 E0.01679
G1 X74.056 Y201.959 E0.05643
G1 X73.522 Y201.959 E0.01679
G1 X74.792 Y203.229 E0.05643
G1 X74.257 Y203.229 E0.01679
G1 X72.988 Y201.959 E0.05643
G1 X72.453 Y201.959 E0.01679
G1 X73.723 Y203.229 E0.05643
G1 X73.189 Y203.229 E0.01679
G1 X71.919 Y201.959 E0.05643
G1 X71.384 Y201.959 E0.01679
G1 X72.654 Y203.229 E0.05643
G1 X72.120 Y203.229 E0.01679
