; generated by Slic3r Prusa Edition 1.42.0-alpha3+ on 2019-05-07 at 09:35:56

; 

; external perimeters extrusion width = 0.45mm
; perimeters extrusion width = 0.45mm
; infill extrusion width = 0.45mm
; solid infill extrusion width = 0.45mm
; top infill extrusion width = 0.45mm
; first layer extrusion width = 0.42mm

M201 X9000 Y9000 Z500 E10000 ; sets maximum accelerations, mm/sec^2
M203 X500 Y500 Z12 E120 ; sets maximum feedrates, mm/sec
M204 P2000 R1500 T2000 ; sets acceleration (P, T) and retract acceleration (R), mm/sec^2
M205 X10.00 Y10.00 Z0.20 E2.50 ; sets the jerk limits, mm/sec
M205 S0 T0 ; sets the minimum extruding and travel feed rate, mm/sec
M107
M115 U3.1.0 ; tell printer latest fw version
M83  ; extruder relative mode
M204 S2000 T1500 ; MK2 firmware only supports the old M204 format
M104 S215 ; set extruder temp
M140 S60 ; set bed temp
M190 S60 ; wait for bed temp
M109 S215 ; wait for extruder temp
G28 W ; home all without mesh bed level
G80 ; mesh bed leveling
G1 Y-3.0 F1000.0 ; go outside print area
G92 E0.0
G1 X60.0 E9.0  F1000.0 ; intro line
G1 X100.0 E12.5  F1000.0 ; intro line
G92 E0.0
M900 K30; Filament gcode
G21 ; set units to millimeters
G90 ; use absolute coordinates
M83 ; use relative distances for extrusion
;BEFORE_LAYER_CHANGE
G92 E0.0
;0.2


G1 E-0.80000 F2100.00000
G1 Z0.600 F10800.000
;AFTER_LAYER_CHANGE
;0.2
G1 X101.080 Y79.577
G1 Z0.200
G1 E0.80000 F2100.00000
M204 S1000
G1 F1200
G1 X101.618 Y79.104 E0.02247
G1 X102.278 Y78.832 E0.02236
G1 X121.599 Y74.823 E0.61871
G1 X147.231 Y74.811 E0.80368
G1 X148.054 Y74.973 E0.02631
G1 X148.756 Y75.433 E0.02631
G1 X149.233 Y76.123 E0.02631
G1 X149.415 Y76.939 E0.02620
G1 X149.416 Y133.019 E1.75835
G1 X149.285 Y133.746 E0.02315
G1 X148.920 Y134.387 E0.02315
G1 X148.193 Y134.965 E0.02911
G1 X147.292 Y135.188 E0.02911
G1 X121.657 Y135.183 E0.80378
G1 X102.302 Y131.174 E0.61974
G1 X101.819 Y131.006 E0.01601
G1 X101.386 Y130.730 E0.01612
G1 X101.049 Y130.385 E0.01510
G1 X100.798 Y129.979 E0.01498
G1 X100.640 Y129.528 E0.01498
G1 X100.584 Y129.050 E0.01510
G1 X100.584 Y80.942 E1.50840
G1 X100.716 Y80.215 E0.02315
G1 X101.050 Y79.629 E0.02116
; PURGING FINISHED
G1 F8640
G1 X101.618 Y79.104 E-0.17865
G1 X102.278 Y78.832 E-0.16467
G1 X104.044 Y78.465 E-0.41668
G1 E-0.04000 F2100.00000
G1 Z0.800 F10800.000
G1 X122.412 Y77.587
G1 Z0.200
G1 E0.80000 F2100.00000
G1 F1200
G1 X146.640 Y77.587 E0.75968
G1 X146.640 Y132.413 E1.71906
G1 X122.412 Y132.413 E0.75968
G1 X122.412 Y77.647 E1.71718
G1 X122.035 Y77.209 F10800.000
G1 F1200
G1 X147.018 Y77.209 E0.78332
G1 X147.018 Y132.791 E1.74270
G1 X122.035 Y132.791 E0.78332
G1 X122.035 Y77.269 E1.74082
G1 X122.406 Y77.359 F10800.000
G1 F8640
G1 X125.326 Y77.262 E-0.76000
G1 E-0.04000 F2100.00000
G1 Z0.800 F10800.000
G1 X146.527 Y78.465
G1 Z0.200
G1 E0.80000 F2100.00000
G1 F1200
G1 X145.932 Y77.869 E0.02650
G1 X145.397 Y77.869 E0.01684
G1 X146.358 Y78.830 E0.04277
G1 X146.358 Y79.366 E0.01684
G1 X144.861 Y77.869 E0.06659
G1 X144.326 Y77.869 E0.01684
G1 X146.358 Y79.901 E0.09041
G1 X146.358 Y80.436 E0.01684
G1 X143.791 Y77.869 E0.11423
G1 X143.256 Y77.869 E0.01684
G1 X146.358 Y80.971 E0.13805
G1 X146.358 Y81.507 E0.01684
G1 X142.720 Y77.869 E0.16187
G1 X142.185 Y77.869 E0.01684
G1 X146.358 Y82.042 E0.18569
G1 X146.358 Y82.577 E0.01684
G1 X141.650 Y77.869 E0.20951
G1 X141.115 Y77.869 E0.01684
G1 X146.358 Y83.112 E0.23333
G1 X146.358 Y83.647 E0.01684
G1 X140.580 Y77.869 E0.25715
G1 X140.044 Y77.869 E0.01684
G1 X146.358 Y84.183 E0.28097
G1 X146.358 Y84.718 E0.01684
G1 X139.509 Y77.869 E0.30479
G1 X138.974 Y77.869 E0.01684
G1 X146.358 Y85.253 E0.32861
G1 X146.358 Y85.788 E0.01684
G1 X138.439 Y77.869 E0.35243
G1 X137.903 Y77.869 E0.01684
G1 X146.358 Y86.324 E0.37625
G1 X146.358 Y86.859 E0.01684
G1 X137.368 Y77.869 E0.40007
G1 X136.833 Y77.869 E0.01684
G1 X146.358 Y87.394 E0.42389
G1 X146.358 Y87.929 E0.01684
G1 X136.298 Y77.869 E0.44771
G1 X135.762 Y77.869 E0.01684
G1 X146.358 Y88.465 E0.47153
G1 X146.358 Y89.000 E0.01684
G1 X135.227 Y77.869 E0.49535
G1 X134.692 Y77.869 E0.01684
G1 X146.358 Y89.535 E0.51917
G1 X146.358 Y90.070 E0.01684
G1 X134.157 Y77.869 E0.54299
G1 X133.622 Y77.869 E0.01684
G1 X146.358 Y90.605 E0.56681
G1 X146.358 Y91.141 E0.01684
G1 X133.086 Y77.869 E0.59063
G1 X132.551 Y77.869 E0.01684
G1 X146.358 Y91.676 E0.61445
G1 X146.358 Y92.211 E0.01684
G1 X132.016 Y77.869 E0.63827
G1 X131.481 Y77.869 E0.01684
G1 X146.358 Y92.746 E0.66209
G1 X146.358 Y93.282 E0.01684
G1 X130.945 Y77.869 E0.68591
G1 X130.410 Y77.869 E0.01684
G1 X146.358 Y93.817 E0.70973
G1 X146.358 Y94.352 E0.01684
G1 X129.875 Y77.869 E0.73355
G1 X129.340 Y77.869 E0.01684
G1 X146.358 Y94.887 E0.75737
G1 X146.358 Y95.423 E0.01684
G1 X128.804 Y77.869 E0.78119
G1 X128.269 Y77.869 E0.01684
G1 X146.358 Y95.958 E0.80501
G1 X146.358 Y96.493 E0.01684
G1 X127.734 Y77.869 E0.82883
G1 X127.199 Y77.869 E0.01684
G1 X146.358 Y97.028 E0.85265
G1 X146.358 Y97.563 E0.01684
G1 X126.664 Y77.869 E0.87647
G1 X126.128 Y77.869 E0.01684
G1 X146.358 Y98.099 E0.90029
G1 X146.358 Y98.634 E0.01684
G1 X125.593 Y77.869 E0.92411
G1 X125.058 Y77.869 E0.01684
G1 X146.358 Y99.169 E0.94793
G1 X146.358 Y99.704 E0.01684
G1 X124.523 Y77.869 E0.97175
G1 X123.987 Y77.869 E0.01684
G1 X146.358 Y100.240 E0.99557
G1 X146.358 Y100.775 E0.01684
G1 X123.452 Y77.869 E1.01939
G1 X122.917 Y77.869 E0.01684
G1 X146.358 Y101.310 E1.04322
G1 X146.358 Y101.845 E0.01684
G1 X122.694 Y78.182 E1.05312
G1 X122.694 Y78.717 E0.01684
G1 X146.358 Y102.380 E1.05312
G1 X146.358 Y102.916 E0.01684
G1 X122.694 Y79.252 E1.05312
G1 X122.694 Y79.788 E0.01684
G1 X146.358 Y103.451 E1.05312
G1 X146.358 Y103.986 E0.01684
G1 X122.694 Y80.323 E1.05312
G1 X122.694 Y80.858 E0.01684
G1 X146.358 Y104.521 E1.05312
G1 X146.358 Y105.057 E0.01684
G1 X122.694 Y81.393 E1.05312
G1 X122.694 Y81.929 E0.01684
G1 X146.358 Y105.592 E1.05312
G1 X146.358 Y106.127 E0.01684
G1 X122.694 Y82.464 E1.05312
G1 X122.694 Y82.999 E0.01684
G1 X146.358 Y106.662 E1.05312
G1 X146.358 Y107.198 E0.01684
G1 X122.694 Y83.534 E1.05312
G1 X122.694 Y84.070 E0.01684
G1 X146.358 Y107.733 E1.05312
G1 X146.358 Y108.268 E0.01684
G1 X122.694 Y84.605 E1.05312
G1 X122.694 Y85.140 E0.01684
G1 X146.358 Y108.803 E1.05312
G1 X146.358 Y109.338 E0.01684
G1 X122.694 Y85.675 E1.05312
G1 X122.694 Y86.210 E0.01684
G1 X146.358 Y109.874 E1.05312
G1 X146.358 Y110.409 E0.01684
G1 X122.694 Y86.746 E1.05312
G1 X122.694 Y87.281 E0.01684
G1 X146.358 Y110.944 E1.05312
G1 X146.358 Y111.479 E0.01684
G1 X122.694 Y87.816 E1.05312
G1 X122.694 Y88.351 E0.01684
G1 X146.358 Y112.015 E1.05312
G1 X146.358 Y112.550 E0.01684
G1 X122.694 Y88.887 E1.05312
G1 X122.694 Y89.422 E0.01684
G1 X146.358 Y113.085 E1.05312
G1 X146.358 Y113.620 E0.01684
G1 X122.694 Y89.957 E1.05312
G1 X122.694 Y90.492 E0.01684
G1 X146.358 Y114.156 E1.05312
G1 X146.358 Y114.691 E0.01684
G1 X122.694 Y91.028 E1.05312
G1 X122.694 Y91.563 E0.01684
G1 X146.358 Y115.226 E1.05312
G1 X146.358 Y115.761 E0.01684
G1 X122.694 Y92.098 E1.05312
G1 X122.694 Y92.633 E0.01684
G1 X146.358 Y116.296 E1.05312
G1 X146.358 Y116.832 E0.01684
G1 X122.694 Y93.168 E1.05312
G1 X122.694 Y93.704 E0.01684
G1 X146.358 Y117.367 E1.05312
G1 X146.358 Y117.902 E0.01684
G1 X122.694 Y94.239 E1.05312
G1 X122.694 Y94.774 E0.01684
G1 X146.358 Y118.437 E1.05312
G1 X146.358 Y118.973 E0.01684
G1 X122.694 Y95.309 E1.05312
G1 X122.694 Y95.845 E0.01684
G1 X146.358 Y119.508 E1.05312
G1 X146.358 Y120.043 E0.01684
G1 X122.694 Y96.380 E1.05312
G1 X122.694 Y96.915 E0.01684
G1 X146.358 Y120.578 E1.05312
G1 X146.358 Y121.113 E0.01684
G1 X122.694 Y97.450 E1.05312
G1 X122.694 Y97.986 E0.01684
G1 X146.358 Y121.649 E1.05312
G1 X146.358 Y122.184 E0.01684
G1 X122.694 Y98.521 E1.05312
G1 X122.694 Y99.056 E0.01684
G1 X146.358 Y122.719 E1.05312
G1 X146.358 Y123.254 E0.01684
G1 X122.694 Y99.591 E1.05312
G1 X122.694 Y100.126 E0.01684
G1 X146.358 Y123.790 E1.05312
G1 X146.358 Y124.325 E0.01684
G1 X122.694 Y100.662 E1.05312
G1 X122.694 Y101.197 E0.01684
G1 X146.358 Y124.860 E1.05312
G1 X146.358 Y125.395 E0.01684
G1 X122.694 Y101.732 E1.05312
G1 X122.694 Y102.267 E0.01684
G1 X146.358 Y125.931 E1.05312
G1 X146.358 Y126.466 E0.01684
G1 X122.694 Y102.803 E1.05312
G1 X122.694 Y103.338 E0.01684
G1 X146.358 Y127.001 E1.05312
G1 X146.358 Y127.536 E0.01684
G1 X122.694 Y103.873 E1.05312
G1 X122.694 Y104.408 E0.01684
G1 X146.358 Y128.071 E1.05312
G1 X146.358 Y128.607 E0.01684
G1 X122.694 Y104.943 E1.05312
G1 X122.694 Y105.479 E0.01684
G1 X146.358 Y129.142 E1.05312
G1 X146.358 Y129.677 E0.01684
G1 X122.694 Y106.014 E1.05312
G1 X122.694 Y106.549 E0.01684
G1 X146.358 Y130.212 E1.05312
G1 X146.358 Y130.748 E0.01684
G1 X122.694 Y107.084 E1.05312
G1 X122.694 Y107.620 E0.01684
G1 X146.358 Y131.283 E1.05312
G1 X146.358 Y131.818 E0.01684
G1 X122.694 Y108.155 E1.05312
G1 X122.694 Y108.690 E0.01684
G1 X146.135 Y132.131 E1.04321
G1 X145.600 Y132.131 E0.01684
G1 X122.694 Y109.225 E1.01939
G1 X122.694 Y109.761 E0.01684
G1 X145.065 Y132.131 E0.99557
G1 X144.529 Y132.131 E0.01684
G1 X122.694 Y110.296 E0.97175
G1 X122.694 Y110.831 E0.01684
G1 X143.994 Y132.131 E0.94793
G1 X143.459 Y132.131 E0.01684
G1 X122.694 Y111.366 E0.92411
G1 X122.694 Y111.901 E0.01684
G1 X142.924 Y132.131 E0.90029
G1 X142.388 Y132.131 E0.01684
G1 X122.694 Y112.437 E0.87647
G1 X122.694 Y112.972 E0.01684
G1 X141.853 Y132.131 E0.85265
G1 X141.318 Y132.131 E0.01684
G1 X122.694 Y113.507 E0.82883
G1 X122.694 Y114.042 E0.01684
G1 X140.783 Y132.131 E0.80501
G1 X140.247 Y132.131 E0.01684
G1 X122.694 Y114.578 E0.78119
G1 X122.694 Y115.113 E0.01684
G1 X139.712 Y132.131 E0.75737
G1 X139.177 Y132.131 E0.01684
G1 X122.694 Y115.648 E0.73355
G1 X122.694 Y116.183 E0.01684
G1 X138.642 Y132.131 E0.70973
G1 X138.107 Y132.131 E0.01684
G1 X122.694 Y116.719 E0.68591
G1 X122.694 Y117.254 E0.01684
G1 X137.571 Y132.131 E0.66209
G1 X137.036 Y132.131 E0.01684
G1 X122.694 Y117.789 E0.63827
G1 X122.694 Y118.324 E0.01684
G1 X136.501 Y132.131 E0.61445
G1 X135.966 Y132.131 E0.01684
G1 X122.694 Y118.859 E0.59063
G1 X122.694 Y119.395 E0.01684
G1 X135.430 Y132.131 E0.56681
G1 X134.895 Y132.131 E0.01684
G1 X122.694 Y119.930 E0.54299
G1 X122.694 Y120.465 E0.01684
G1 X134.360 Y132.131 E0.51917
G1 X133.825 Y132.131 E0.01684
G1 X122.694 Y121.000 E0.49535
G1 X122.694 Y121.536 E0.01684
G1 X133.290 Y132.131 E0.47153
G1 X132.754 Y132.131 E0.01684
G1 X122.694 Y122.071 E0.44771
G1 X122.694 Y122.606 E0.01684
G1 X132.219 Y132.131 E0.42389
G1 X131.684 Y132.131 E0.01684
G1 X122.694 Y123.141 E0.40007
G1 X122.694 Y123.676 E0.01684
G1 X131.149 Y132.131 E0.37625
G1 X130.613 Y132.131 E0.01684
G1 X122.694 Y124.212 E0.35243
G1 X122.694 Y124.747 E0.01684
G1 X130.078 Y132.131 E0.32861
G1 X129.543 Y132.131 E0.01684
G1 X122.694 Y125.282 E0.30479
G1 X122.694 Y125.817 E0.01684
G1 X129.008 Y132.131 E0.28097
G1 X128.472 Y132.131 E0.01684
G1 X122.694 Y126.353 E0.25715
G1 X122.694 Y126.888 E0.01684
G1 X127.937 Y132.131 E0.23333
G1 X127.402 Y132.131 E0.01684
G1 X122.694 Y127.423 E0.20951
G1 X122.694 Y127.958 E0.01684
G1 X126.867 Y132.131 E0.18569
G1 X126.332 Y132.131 E0.01684
G1 X122.694 Y128.494 E0.16187
G1 X122.694 Y129.029 E0.01684
G1 X125.796 Y132.131 E0.13805
G1 X125.261 Y132.131 E0.01684
G1 X122.694 Y129.564 E0.11423
G1 X122.694 Y130.099 E0.01684
G1 X124.726 Y132.131 E0.09041
G1 X124.191 Y132.131 E0.01684
G1 X122.694 Y130.634 E0.06659
G1 X122.694 Y131.170 E0.01684
G1 X123.655 Y132.131 E0.04277
G1 X123.120 Y132.131 E0.01684
G1 X122.525 Y131.535 E0.02650
G1 F8640
G1 X123.120 Y132.131 E-0.19443
G1 X123.655 Y132.131 E-0.12359
G1 X122.694 Y131.170 E-0.31380
G1 X122.694 Y130.634 E-0.12359
G1 X122.709 Y130.649 E-0.00460
G1 E-0.04000 F2100.00000
G1 Z0.800 F10800.000
G1 X115.237 Y128.449
G1 Z0.200
G1 E0.80000 F2100.00000
G1 F1200
G1 X103.360 Y128.449 E0.37242
G1 X103.360 Y81.551 E1.47047
G1 X115.237 Y81.551 E0.37242
G1 X115.237 Y128.389 E1.46859
G1 X115.615 Y128.826 F10800.000
G1 F1200
G1 X102.982 Y128.826 E0.39607
G1 X102.982 Y81.174 E1.49411
G1 X115.615 Y81.174 E0.39607
G1 X115.615 Y128.766 E1.49223
G1 X115.252 Y128.657 F10800.000
G1 F8640
G1 X112.323 Y128.782 E-0.76000
G1 E-0.04000 F2100.00000
G1 Z0.800 F10800.000
G1 X103.473 Y127.570
G1 Z0.200
G1 E0.80000 F2100.00000
G1 F1200
G1 X104.069 Y128.166 E0.02657
G1 X104.605 Y128.166 E0.01688
G1 X103.642 Y127.204 E0.04287
G1 X103.642 Y126.668 E0.01688
G1 X105.141 Y128.166 E0.06674
G1 X105.676 Y128.166 E0.01688
G1 X103.642 Y126.133 E0.09061
G1 X103.642 Y125.597 E0.01688
G1 X106.212 Y128.166 E0.11448
G1 X106.748 Y128.166 E0.01688
G1 X103.642 Y125.061 E0.13835
G1 X103.642 Y124.525 E0.01688
G1 X107.284 Y128.166 E0.16222
G1 X107.819 Y128.166 E0.01688
G1 X103.642 Y123.989 E0.18609
G1 X103.642 Y123.454 E0.01688
G1 X108.355 Y128.166 E0.20995
G1 X108.891 Y128.166 E0.01688
G1 X103.642 Y122.918 E0.23382
G1 X103.642 Y122.382 E0.01688
G1 X109.427 Y128.166 E0.25769
G1 X109.962 Y128.166 E0.01688
G1 X103.642 Y121.846 E0.28156
G1 X103.642 Y121.311 E0.01688
G1 X110.498 Y128.166 E0.30543
G1 X111.034 Y128.166 E0.01688
G1 X103.642 Y120.775 E0.32930
G1 X103.642 Y120.239 E0.01688
G1 X111.570 Y128.166 E0.35317
G1 X112.106 Y128.166 E0.01688
G1 X103.642 Y119.703 E0.37703
G1 X103.642 Y119.167 E0.01688
G1 X112.641 Y128.166 E0.40090
G1 X113.177 Y128.166 E0.01688
G1 X103.642 Y118.632 E0.42477
G1 X103.642 Y118.096 E0.01688
G1 X113.713 Y128.166 E0.44864
G1 X114.249 Y128.166 E0.01688
G1 X103.642 Y117.560 E0.47251
G1 X103.642 Y117.024 E0.01688
G1 X114.784 Y128.166 E0.49638
G1 X114.955 Y128.166 E0.00536
G1 X114.955 Y127.801 E0.01151
G1 X103.642 Y116.489 E0.50396
G1 X103.642 Y115.953 E0.01688
G1 X114.955 Y127.265 E0.50396
G1 X114.955 Y126.729 E0.01688
G1 X103.642 Y115.417 E0.50396
G1 X103.642 Y114.881 E0.01688
G1 X114.955 Y126.194 E0.50396
G1 X114.955 Y125.658 E0.01688
G1 X103.642 Y114.345 E0.50396
G1 X103.642 Y113.810 E0.01688
G1 X114.955 Y125.122 E0.50396
G1 X114.955 Y124.586 E0.01688
G1 X103.642 Y113.274 E0.50396
G1 X103.642 Y112.738 E0.01688
G1 X114.955 Y124.051 E0.50396
G1 X114.955 Y123.515 E0.01688
G1 X103.642 Y112.202 E0.50396
G1 X103.642 Y111.667 E0.01688
G1 X114.955 Y122.979 E0.50396
G1 X114.955 Y122.443 E0.01688
G1 X103.642 Y111.131 E0.50396
G1 X103.642 Y110.595 E0.01688
G1 X114.955 Y121.907 E0.50396
G1 X114.955 Y121.372 E0.01688
G1 X103.642 Y110.059 E0.50396
G1 X103.642 Y109.524 E0.01688
G1 X114.955 Y120.836 E0.50396
G1 X114.955 Y120.300 E0.01688
G1 X103.642 Y108.988 E0.50396
G1 X103.642 Y108.452 E0.01688
G1 X114.955 Y119.764 E0.50396
G1 X114.955 Y119.229 E0.01688
G1 X103.642 Y107.916 E0.50396
G1 X103.642 Y107.380 E0.01688
G1 X114.955 Y118.693 E0.50396
G1 X114.955 Y118.157 E0.01688
G1 X103.642 Y106.845 E0.50396
G1 X103.642 Y106.309 E0.01688
G1 X114.955 Y117.621 E0.50396
G1 X114.955 Y117.085 E0.01688
G1 X103.642 Y105.773 E0.50396
G1 X103.642 Y105.237 E0.01688
G1 X114.955 Y116.550 E0.50396
G1 X114.955 Y116.014 E0.01688
G1 X103.642 Y104.702 E0.50396
G1 X103.642 Y104.166 E0.01688
G1 X114.955 Y115.478 E0.50396
G1 X114.955 Y114.942 E0.01688
G1 X103.642 Y103.630 E0.50396
G1 X103.642 Y103.094 E0.01688
G1 X114.955 Y114.407 E0.50396
G1 X114.955 Y113.871 E0.01688
G1 X103.642 Y102.558 E0.50396
G1 X103.642 Y102.023 E0.01688
G1 X114.955 Y113.335 E0.50396
G1 X114.955 Y112.799 E0.01688
G1 X103.642 Y101.487 E0.50396
G1 X103.642 Y100.951 E0.01688
G1 X114.955 Y112.264 E0.50396
G1 X114.955 Y111.728 E0.01688
G1 X103.642 Y100.415 E0.50396
G1 X103.642 Y99.880 E0.01688
G1 X114.955 Y111.192 E0.50396
G1 X114.955 Y110.656 E0.01688
G1 X103.642 Y99.344 E0.50396
G1 X103.642 Y98.808 E0.01688
G1 X114.955 Y110.120 E0.50396
G1 X114.955 Y109.585 E0.01688
G1 X103.642 Y98.272 E0.50396
G1 X103.642 Y97.737 E0.01688
G1 X114.955 Y109.049 E0.50396
G1 X114.955 Y108.513 E0.01688
G1 X103.642 Y97.201 E0.50396
G1 X103.642 Y96.665 E0.01688
G1 X114.955 Y107.977 E0.50396
G1 X114.955 Y107.442 E0.01688
G1 X103.642 Y96.129 E0.50396
G1 X103.642 Y95.593 E0.01688
G1 X114.955 Y106.906 E0.50396
G1 X114.955 Y106.370 E0.01688
G1 X103.642 Y95.058 E0.50396
G1 X103.642 Y94.522 E0.01688
G1 X114.955 Y105.834 E0.50396
G1 X114.955 Y105.298 E0.01688
G1 X103.642 Y93.986 E0.50396
G1 X103.642 Y93.450 E0.01688
G1 X114.955 Y104.763 E0.50396
