; generated by Slic3r Prusa Edition 1.42.0-alpha3+ on 2019-04-19 at 15:12:03

; 

; external perimeters extrusion width = 0.40mm
; perimeters extrusion width = 0.40mm
; infill extrusion width = 0.40mm
; solid infill extrusion width = 0.40mm
; top infill extrusion width = 0.40mm
; support material extrusion width = 0.35mm
; first layer extrusion width = 0.40mm

M201 X9000 Y9000 Z500 E10000 ; sets maximum accelerations, mm/sec^2
M203 X500 Y500 Z12 E120 ; sets maximum feedrates, mm/sec
M204 P2000 R1500 T2000 ; sets acceleration (P, T) and retract acceleration (R), mm/sec^2
M205 X10.00 Y10.00 Z0.20 E2.50 ; sets the jerk limits, mm/sec
M205 S0 T0 ; sets the minimum extruding and travel feed rate, mm/sec
M107
M115 U3.1.0 ; tell printer latest fw version
M83  ; extruder relative mode
M204 S2000 T1500 ; MK2 firmware only supports the old M204 format
M104 S215 ; set extruder temp
M140 S60 ; set bed temp
M190 S60 ; wait for bed temp
M109 S215 ; wait for extruder temp
G28 W ; home all without mesh bed level
G80 ; mesh bed leveling
G1 Y-3.0 F1000.0 ; go outside print area
G92 E0.0
G1 X60.0 E9.0  F1000.0 ; intro line
G1 X100.0 E12.5  F1000.0 ; intro line
G92 E0.0
M900 K30; Filament gcode
G21 ; set units to millimeters
G90 ; use absolute coordinates
M83 ; use relative distances for extrusion
;BEFORE_LAYER_CHANGE
G92 E0.0
;0.2


G1 E-0.80000 F2100.00000
G1 Z0.600 F10800.000
;AFTER_LAYER_CHANGE
;0.2
; PURGING FINISHED
G1 X119.744 Y100.758
G1 Z0.200
G1 E0.80000 F2100.00000
M204 S1000
G1 F1112
G1 X119.744 Y101.600 E0.02499
G1 F8640
G1 X119.744 Y100.758 E-0.19431
G1 E-0.60569 F2100.00000
G1 Z0.800 F10800.000
G1 X119.630 Y107.814
G1 Z0.200
G1 E0.80000 F2100.00000
G1 F1112
G1 X119.630 Y102.300 E0.14080
G1 X119.835 Y101.790 E0.01401
G1 X120.137 Y101.237 E0.01609
G1 X120.137 Y108.504 E0.18554
G1 X120.418 Y108.964 E0.01376
G1 X120.644 Y109.254 E0.00940
G1 X120.644 Y100.478 E0.22410
G1 X120.732 Y100.353 E0.00389
G1 X121.151 Y99.888 E0.01599
G1 X121.151 Y109.845 E0.25426
G1 X121.505 Y110.206 E0.01289
G1 X121.659 Y110.330 E0.00505
G1 X121.659 Y98.937 E0.29091
G1 X121.785 Y98.841 E0.00406
G1 X122.166 Y98.624 E0.01119
G1 X122.166 Y110.740 E0.30937
G1 X122.673 Y111.060 E0.01531
G1 X122.673 Y98.774 E0.31370
G1 X123.180 Y98.565 E0.01400
G1 X123.180 Y111.334 E0.32604
G1 X123.687 Y111.575 E0.01433
G1 X123.687 Y98.372 E0.33713
G1 X124.194 Y98.237 E0.01339
G1 X124.194 Y112.125 E0.35460
G1 X124.489 Y112.199 E0.00777
G1 X124.701 Y112.224 E0.00546
G1 X124.701 Y98.134 E0.35977
G1 X125.208 Y98.070 E0.01305
G1 X125.208 Y112.284 E0.36292
G1 X125.283 Y112.292 E0.00192
G1 X125.278 Y111.919 E0.00953
G1 X125.715 Y111.913 E0.01117
G1 X125.715 Y98.047 E0.35406
G1 X126.222 Y98.051 E0.01295
G1 X126.222 Y111.906 E0.35377
G1 X126.388 Y111.903 E0.00424
G1 X126.729 Y111.853 E0.00881
G1 X126.729 Y98.104 E0.35106
G1 X127.236 Y98.177 E0.01308
G1 X127.236 Y111.778 E0.34727
G1 X127.743 Y111.642 E0.01341
G1 X127.743 Y98.313 E0.34033
G1 X128.251 Y98.466 E0.01352
G1 X128.251 Y111.486 E0.33245
G1 X128.758 Y111.265 E0.01413
G1 X128.758 Y98.689 E0.32110
G1 X129.056 Y98.820 E0.00831
G1 X129.265 Y98.948 E0.00626
G1 X129.265 Y111.003 E0.30779
G1 X129.772 Y110.696 E0.01512
G1 X129.772 Y99.258 E0.29206
G1 X130.279 Y99.655 E0.01644
G1 X130.279 Y110.297 E0.27173
G1 X130.518 Y110.106 E0.00782
G1 X130.786 Y109.827 E0.00988
G1 X130.786 Y100.121 E0.24783
G1 X131.212 Y100.574 E0.01587
G1 X131.293 Y100.688 E0.00358
G1 X131.293 Y109.255 E0.21873
G1 X131.706 Y108.691 E0.01783
G1 X131.800 Y108.517 E0.00506
G1 X131.800 Y101.421 E0.18120
G1 X132.198 Y102.180 E0.02190
G1 X132.307 Y102.485 E0.00825
G1 X132.307 Y107.851 E0.13701
G1 X132.599 Y107.168 F10800.000
G1 F1112
G1 X132.599 Y108.722 E0.04613
G1 X133.313 Y107.613 F10800.000
G1 F1112
G1 X133.313 Y102.790 E0.14321
G1 X132.977 Y101.852 E0.02958
G1 X132.599 Y101.131 E0.02419
G1 X132.599 Y102.315 E0.03517
G1 X132.503 Y102.047 E0.00846
G1 X132.041 Y101.166 E0.02954
G1 X131.885 Y100.947 E0.00799
G1 X131.885 Y99.836 E0.03298
G1 X131.171 Y100.281 F10800.000
G1 F1112
G1 X131.171 Y99.311 E0.02880
G1 X130.457 Y98.729 E0.02735
G1 X130.457 Y99.372 E0.01908
G1 X130.041 Y99.034 E0.01591
G1 X129.743 Y98.851 E0.01038
G1 X129.743 Y98.451 E0.01189
G1 F8640
G1 X129.743 Y98.851 E-0.09244
G1 X130.041 Y99.034 E-0.08075
G1 X130.457 Y99.372 E-0.12372
G1 X130.457 Y98.729 E-0.14841
G1 X131.171 Y99.311 E-0.21266
G1 X131.171 Y99.752 E-0.10202
G1 E-0.04000 F2100.00000
G1 Z0.800 F10800.000
G1 X134.028 Y100.758
G1 Z0.200
G1 E0.80000 F2100.00000
G1 F1112
G1 X134.028 Y102.728 E0.05849
G1 F8640
G1 X134.028 Y100.758 E-0.45485
G1 E-0.34515 F2100.00000
G1 Z0.800 F10800.000
G1 X134.028 Y107.200
G1 Z0.200
G1 E0.80000 F2100.00000
G1 F1112
G1 X134.028 Y108.722 E0.04519
G1 F8640
G1 X134.028 Y107.200 E-0.35144
G1 E-0.44856 F2100.00000
G1 Z0.800 F10800.000
G1 X131.171 Y110.830
G1 Z0.200
G1 E0.80000 F2100.00000
G1 F1112
G1 X131.171 Y109.906 E0.02744
G1 X130.742 Y110.352 E0.01837
G1 X130.457 Y110.580 E0.01086
G1 X130.457 Y111.029 E0.01333
G1 F8640
G1 X130.457 Y110.580 E-0.10370
G1 X130.742 Y110.352 E-0.08443
G1 X131.171 Y109.906 E-0.14286
G1 X131.171 Y110.830 E-0.21343
G1 E-0.25558 F2100.00000
G1 Z0.800 F10800.000
G1 X119.744 Y108.722
G1 Z0.200
G1 E0.80000 F2100.00000
G1 F1112
G1 X119.744 Y108.139 E0.01731
M106 S255
;BEFORE_LAYER_CHANGE
G92 E0.0
;0.3


G1 F8640
G1 X119.744 Y108.722 E-0.13463
G1 E-0.66537 F2100.00000
G1 Z0.800 F10800.000
;AFTER_LAYER_CHANGE
;0.3
; PURGING FINISHED
G1 X119.630 Y107.814
G1 Z0.300
G1 E0.80000 F2100.00000
G1 F900
G1 X119.630 Y102.299 E0.07532
G1 X119.835 Y101.790 E0.00750
G1 X120.137 Y101.237 E0.00861
G1 X120.137 Y108.504 E0.09925
G1 X120.418 Y108.964 E0.00736
G1 X120.644 Y109.254 E0.00503
G1 X120.644 Y100.478 E0.11988
G1 X120.732 Y100.353 E0.00208
G1 X121.151 Y99.888 E0.00856
G1 X121.151 Y109.845 E0.13602
G1 X121.505 Y110.206 E0.00689
G1 X121.659 Y110.330 E0.00270
G1 X121.659 Y98.937 E0.15562
G1 X121.785 Y98.841 E0.00217
G1 X122.166 Y98.624 E0.00599
G1 X122.166 Y110.740 E0.16550
G1 X122.673 Y111.060 E0.00819
G1 X122.673 Y105.894 E0.07057
G1 X123.180 Y105.894 E0.00693
G1 X123.180 Y111.334 E0.07432
G1 X123.687 Y111.575 E0.00767
G1 X123.687 Y105.894 E0.07760
G1 X124.194 Y105.894 E0.00693
G1 X124.194 Y112.125 E0.08511
G1 X124.489 Y112.199 E0.00415
G1 X124.701 Y112.224 E0.00292
G1 X124.701 Y108.201 E0.05496
G1 X125.208 Y108.201 E0.00693
G1 X125.208 Y112.284 E0.05577
G1 X125.283 Y112.292 E0.00103
G1 X125.278 Y111.919 E0.00510
G1 X125.715 Y111.913 E0.00598
G1 X125.715 Y108.201 E0.05070
G1 X126.222 Y108.201 E0.00693
G1 X126.222 Y111.906 E0.05061
G1 X126.388 Y111.903 E0.00227
G1 X126.729 Y111.853 E0.00471
G1 X126.729 Y108.201 E0.04989
G1 X127.236 Y108.201 E0.00693
G1 X127.236 Y111.778 E0.04886
G1 X127.743 Y111.642 E0.00717
G1 X127.743 Y108.201 E0.04700
G1 X128.251 Y108.201 E0.00693
G1 X128.251 Y111.486 E0.04488
G1 X128.758 Y111.265 E0.00756
G1 X128.758 Y108.201 E0.04185
G1 X129.137 Y108.201 E0.00519
G1 X129.137 Y105.894 E0.03151
G1 X129.265 Y105.894 E0.00174
G1 X129.265 Y111.003 E0.06978
G1 X129.772 Y110.697 E0.00809
G1 X129.772 Y105.894 E0.06560
G1 X130.279 Y105.894 E0.00693
G1 X130.279 Y110.297 E0.06015
G1 X130.518 Y110.106 E0.00418
G1 X130.786 Y109.827 E0.00528
G1 X130.786 Y105.894 E0.05373
G1 X131.293 Y105.894 E0.00693
G1 X131.293 Y109.255 E0.04591
G1 X131.706 Y108.691 E0.00954
G1 X131.800 Y108.517 E0.00271
G1 X131.800 Y101.421 E0.09693
G1 X132.198 Y102.180 E0.01172
G1 X132.307 Y102.485 E0.00441
G1 X132.307 Y107.851 E0.07330
G1 F8640
G1 X132.307 Y104.559 E-0.76000
G1 E-0.04000 F2100.00000
G1 Z0.900 F10800.000
G1 X131.293 Y103.725
G1 Z0.300
G1 E0.80000 F2100.00000
G1 F900
G1 X131.293 Y100.688 E0.04148
G1 X131.212 Y100.574 E0.00191
G1 X130.786 Y100.121 E0.00849
G1 X130.786 Y103.587 E0.04734
G1 X130.279 Y103.587 E0.00693
G1 X130.279 Y99.655 E0.05370
G1 X129.772 Y99.258 E0.00879
G1 X129.772 Y103.587 E0.05912
G1 X129.265 Y103.587 E0.00693
G1 X129.265 Y98.948 E0.06335
G1 X129.056 Y98.820 E0.00335
G1 X128.758 Y98.689 E0.00445
G1 X128.758 Y101.280 E0.03538
G1 X128.251 Y101.280 E0.00693
G1 X128.251 Y98.466 E0.03843
G1 X127.743 Y98.313 E0.00723
G1 X127.743 Y101.280 E0.04052
G1 X127.236 Y101.280 E0.00693
G1 X127.236 Y98.177 E0.04237
G1 X126.729 Y98.104 E0.00700
G1 X126.729 Y101.280 E0.04337
G1 X126.222 Y101.280 E0.00693
G1 X126.222 Y98.051 E0.04410
G1 X125.715 Y98.047 E0.00693
G1 X125.715 Y101.280 E0.04416
G1 X125.208 Y101.280 E0.00693
G1 X125.208 Y98.070 E0.04384
G1 X124.701 Y98.134 E0.00698
G1 X124.701 Y101.280 E0.04296
G1 X124.523 Y101.280 E0.00243
G1 X124.523 Y103.587 E0.03151
G1 X124.194 Y103.587 E0.00450
G1 X124.194 Y98.237 E0.07307
G1 X123.687 Y98.372 E0.00717
G1 X123.687 Y103.587 E0.07123
G1 X123.180 Y103.587 E0.00693
G1 X123.180 Y98.565 E0.06859
G1 X122.673 Y98.774 E0.00749
G1 X122.673 Y103.725 E0.06762
;BEFORE_LAYER_CHANGE
G92 E0.0
;0.4


G1 F8640
G1 X122.673 Y100.433 E-0.76000
G1 E-0.04000 F2100.00000
G1 Z0.900 F10800.000
;AFTER_LAYER_CHANGE
;0.4
; PURGING FINISHED
G1 X125.766 Y112.906
G1 Z0.400
G1 E0.80000 F2100.00000
M204 S800
G1 F900
G1 X125.446 Y112.867 E0.00958
G1 F1500
G1 X126.399 Y112.854 E0.04730
G1 X126.369 Y112.856 E0.00148
G1 F900
G1 X125.826 Y112.901 E0.01618
M204 S1000
G1 F8640
G1 X125.446 Y112.867 E-0.08808
G1 E-0.71192 F2100.00000
G1 Z1.000 F10800.000
G1 X124.229 Y112.721
G1 Z0.400
G1 E0.80000 F2100.00000
M204 S800
G1 F900
G1 X124.003 Y112.647 E0.00706
G1 X124.356 Y112.737 E0.01082
G1 X124.288 Y112.728 E0.00203
M204 S1000
G1 X124.406 Y112.562 F10800.000
G1 F8640
G1 X124.003 Y112.647 E-0.06854
G1 X124.356 Y112.737 E-0.08417
G1 X124.288 Y112.728 E-0.01579
G1 E-0.63149 F2100.00000
G1 Z1.000 F10800.000
G1 X133.674 Y103.389
G1 Z0.400
G1 E0.80000 F2100.00000
M204 S800
G1 F900
G1 X133.716 Y103.811 E0.01259
G1 F1200
G1 X133.750 Y104.149 E0.01690
G1 F900
G1 X133.832 Y104.966 E0.02436
G1 X133.726 Y106.023 E0.03156
G1 F1200
G1 X133.710 Y106.179 E0.00777
G1 F900
G1 X133.674 Y106.542 E0.01083
G1 X133.513 Y107.064 E0.01621
G1 F1200
G1 X133.390 Y107.461 E0.02064
G1 F900
G1 X133.206 Y108.054 E0.01843
G1 X132.450 Y109.441 E0.04690
G1 X132.067 Y109.897 E0.01769
G1 F1200
G1 X131.824 Y110.186 E0.01876
G1 F900
G1 X131.437 Y110.648 E0.01788
G1 X130.209 Y111.629 E0.04666
G1 X129.674 Y111.905 E0.01787
G1 F1200
G1 X129.354 Y112.070 E0.01788
G1 F900
G1 X128.816 Y112.347 E0.01795
G1 X127.316 Y112.777 E0.04636
G1 X126.689 Y112.830 E0.01866
G1 F1200
G1 X126.596 Y112.837 E0.00464
G1 X127.535 Y112.699 E0.04709
G1 X128.537 Y112.411 E0.05178
G1 X129.490 Y111.995 E0.05157
G1 X130.379 Y111.458 E0.05156
G1 X131.193 Y110.808 E0.05173
G1 X131.919 Y110.051 E0.05204
G1 X132.544 Y109.198 E0.05249
G1 X133.055 Y108.258 E0.05311
G1 X133.437 Y107.241 E0.05393
G1 X133.679 Y106.160 E0.05496
G1 X133.768 Y105.036 E0.05596
G1 X133.698 Y103.909 E0.05605
G1 X133.474 Y102.820 E0.05520
G1 X133.105 Y101.789 E0.05431
G1 X132.604 Y100.832 E0.05363
G1 X131.982 Y99.961 E0.05313
G1 X131.254 Y99.186 E0.05279
G1 X130.431 Y98.518 E0.05258
G1 X129.529 Y97.966 E0.05251
G1 X128.559 Y97.539 E0.05259
G1 X127.535 Y97.245 E0.05286
G1 X126.472 Y97.091 E0.05335
G1 X125.388 Y97.082 E0.05380
G1 X124.320 Y97.217 E0.05339
G1 X123.511 Y97.431 E0.04157
G1 X123.600 Y97.402 E0.00466
G1 F900
G1 X124.172 Y97.214 E0.01787
G1 X125.720 Y97.029 E0.04629
G1 X126.340 Y97.077 E0.01848
G1 F1200
G1 X126.668 Y97.102 E0.01634
G1 F900
G1 X127.280 Y97.150 E0.01821
G1 X128.791 Y97.576 E0.04661
G1 X129.324 Y97.849 E0.01780
G1 F1200
G1 X129.732 Y98.057 E0.02271
G1 F900
G1 X130.192 Y98.293 E0.01536
G1 X130.442 Y98.492 E0.00948
G1 F1200
G1 X130.701 Y98.698 E0.01642
G1 F900
G1 X131.428 Y99.275 E0.02756
G1 X131.814 Y99.734 E0.01781
G1 F1200
G1 X132.135 Y100.115 E0.02473
G1 F900
G1 X132.446 Y100.485 E0.01435
G1 X132.602 Y100.770 E0.00965
G1 F1200
G1 X132.846 Y101.217 E0.02526
G1 F900
G1 X133.205 Y101.875 E0.02226
G1 X133.398 Y102.497 E0.01933
G1 F1200
G1 X133.541 Y102.959 E0.02401
G1 F900
G1 X133.656 Y103.331 E0.01158
M204 S1000
G1 F8640
G1 X133.716 Y103.811 E-0.11152
G1 E-0.68848 F2100.00000
G1 Z1.000 F10800.000
G1 X121.389 Y98.447
G1 Z0.400
G1 E0.80000 F2100.00000
M204 S800
G1 F900
G1 X121.299 Y98.515 E0.00338
G1 X121.340 Y98.480 E0.00161
M204 S1000
G1 X121.342 Y98.343 F10800.000
G1 F8640
G1 X121.299 Y98.515 E-0.01252
G1 X121.340 Y98.480 E-0.01252
G1 E-0.77497 F2100.00000
G1 Z1.000 F10800.000
G1 X122.697 Y97.698
G1 Z0.400
G1 E0.80000 F2100.00000
M204 S800
G1 F900
G1 X123.126 Y97.558 E0.01340
G1 F1500
G1 X123.149 Y97.550 E0.00121
G1 X122.460 Y97.834 E0.03697
G1 X122.472 Y97.827 E0.00068
G1 F900
G1 X122.645 Y97.728 E0.00591
M204 S1000
;BEFORE_LAYER_CHANGE
G92 E0.0
;0.5


G1 F8640
G1 X123.126 Y97.558 E-0.11779
G1 E-0.68221 F2100.00000
G1 Z1.000 F10800.000
;AFTER_LAYER_CHANGE
;0.5
; PURGING FINISHED
G1 X120.137 Y106.602
G1 Z0.500
G1 E0.80000 F2100.00000
G1 F900
G1 X120.137 Y103.858 E0.07007
G1 X120.173 Y103.618 E0.00618
G1 X120.363 Y102.924 E0.01838
G1 X120.644 Y102.234 E0.01904
G1 X120.644 Y107.546 E0.13565
G1 X120.766 Y107.808 E0.00738
G1 X121.151 Y108.433 E0.01874
G1 X121.151 Y101.377 E0.18017
G1 X121.401 Y101.024 E0.01103
G1 X121.659 Y100.738 E0.00983
G1 X121.659 Y109.257 E0.21752
G1 F8640
G1 X121.659 Y105.965 E-0.76000
G1 E-0.04000 F2100.00000
G1 Z1.100 F10800.000
G1 X132.307 Y106.430
G1 Z0.500
G1 E0.80000 F2100.00000
G1 F900
G1 X132.307 Y104.459 E0.05032
G1 X132.285 Y104.103 E0.00912
G1 X132.100 Y103.202 E0.02349
G1 X131.800 Y102.365 E0.02270
G1 X131.800 Y107.577 E0.13306
G1 X131.753 Y107.701 E0.00340
G1 X131.293 Y108.531 E0.02422
G1 X131.293 Y105.894 E0.06734
G1 X130.786 Y105.894 E0.01295
G1 X130.786 Y109.214 E0.08478
G1 X130.519 Y109.492 E0.00983
G1 X130.279 Y109.707 E0.00824
G1 X130.279 Y105.894 E0.09736
G1 X129.772 Y105.894 E0.01295
G1 X129.772 Y110.064 E0.10648
G1 X129.498 Y110.249 E0.00842
G1 X129.265 Y110.364 E0.00665
G1 X129.265 Y105.894 E0.11414
G1 X129.137 Y105.894 E0.00325
G1 X129.137 Y108.201 E0.05891
G1 X128.758 Y108.201 E0.00969
G1 X128.758 Y110.615 E0.06164
G1 X128.739 Y110.624 E0.00053
G1 X128.251 Y110.789 E0.01316
G1 X128.251 Y108.201 E0.06609
G1 X127.743 Y108.201 E0.01295
G1 X127.743 Y110.932 E0.06974
G1 X127.236 Y111.031 E0.01319
G1 X127.236 Y108.201 E0.07228
G1 X126.729 Y108.201 E0.01295
G1 X126.729 Y111.077 E0.07345
G1 X126.222 Y111.099 E0.01296
G1 X126.222 Y108.201 E0.07400
G1 X125.715 Y108.201 E0.01295
G1 X125.715 Y111.065 E0.07313
G1 X125.474 Y111.049 E0.00616
G1 X125.208 Y110.996 E0.00693
G1 X125.208 Y108.201 E0.07138
G1 X124.701 Y108.201 E0.01295
G1 X124.701 Y110.897 E0.06883
G1 X124.194 Y110.732 E0.01361
G1 X124.194 Y105.894 E0.12354
G1 X123.687 Y105.894 E0.01295
G1 X123.687 Y110.529 E0.11835
G1 X123.180 Y110.277 E0.01445
G1 X123.180 Y105.894 E0.11192
G1 X122.673 Y105.894 E0.01295
G1 X122.673 Y109.957 E0.10375
G1 X122.166 Y109.555 E0.01652
G1 X122.166 Y100.238 E0.23791
G1 X122.468 Y99.973 E0.01027
G1 X122.673 Y99.833 E0.00632
G1 X122.673 Y103.587 E0.09583
G1 X123.180 Y103.587 E0.01295
G1 X123.180 Y99.500 E0.10434
G1 X123.687 Y99.241 E0.01454
G1 X123.687 Y103.587 E0.11095
G1 X124.194 Y103.587 E0.01295
G1 X124.194 Y99.040 E0.11610
G1 X124.602 Y98.894 E0.01105
G1 X124.701 Y98.873 E0.00260
G1 X124.701 Y101.280 E0.06146
G1 X125.208 Y101.280 E0.01295
G1 X125.208 Y98.764 E0.06423
G1 X125.441 Y98.714 E0.00609
G1 X125.715 Y98.693 E0.00701
G1 X125.715 Y101.280 E0.06605
G1 X126.222 Y101.280 E0.01295
G1 X126.222 Y98.653 E0.06705
G1 X126.729 Y98.671 E0.01296
G1 X126.729 Y101.280 E0.06660
G1 X127.236 Y101.280 E0.01295
G1 X127.236 Y98.708 E0.06566
G1 X127.743 Y98.810 E0.01321
G1 X127.743 Y101.280 E0.06305
G1 X128.251 Y101.280 E0.01295
G1 X128.251 Y98.943 E0.05966
G1 X128.758 Y99.153 E0.01402
G1 X128.758 Y101.280 E0.05429
G1 X129.137 Y101.280 E0.00969
G1 X129.137 Y103.587 E0.05891
G1 X129.265 Y103.587 E0.00325
G1 X129.265 Y99.450 E0.10563
G1 X129.584 Y99.645 E0.00954
G1 X129.772 Y99.798 E0.00619
G1 X129.772 Y103.587 E0.09675
G1 X130.279 Y103.587 E0.01295
G1 X130.279 Y100.214 E0.08612
G1 X130.786 Y100.753 E0.01891
G1 X130.786 Y103.587 E0.07235
G1 X131.293 Y103.587 E0.01295
G1 X131.293 Y101.199 E0.06096
;BEFORE_LAYER_CHANGE
G92 E0.0
;0.6


G1 F8640
G1 X131.293 Y103.587 E-0.55126
G1 X130.786 Y103.587 E-0.11709
