; generated by Slic3r Prusa Edition 1.42.0-alpha3+ on 2019-04-19 at 15:14:15

; 

; external perimeters extrusion width = 0.40mm
; perimeters extrusion width = 0.40mm
; infill extrusion width = 0.40mm
; solid infill extrusion width = 0.40mm
; top infill extrusion width = 0.40mm
; first layer extrusion width = 0.40mm

M201 X9000 Y9000 Z500 E10000 ; sets maximum accelerations, mm/sec^2
M203 X500 Y500 Z12 E120 ; sets maximum feedrates, mm/sec
M204 P2000 R1500 T2000 ; sets acceleration (P, T) and retract acceleration (R), mm/sec^2
M205 X10.00 Y10.00 Z0.20 E2.50 ; sets the jerk limits, mm/sec
M205 S0 T0 ; sets the minimum extruding and travel feed rate, mm/sec
M107
M115 U3.1.0 ; tell printer latest fw version
M83  ; extruder relative mode
M204 S2000 T1500 ; MK2 firmware only supports the old M204 format
M104 S215 ; set extruder temp
M140 S60 ; set bed temp
M190 S60 ; wait for bed temp
M109 S215 ; wait for extruder temp
G28 W ; home all without mesh bed level
G80 ; mesh bed leveling
G1 Y-3.0 F1000.0 ; go outside print area
G92 E0.0
G1 X60.0 E9.0  F1000.0 ; intro line
G1 X100.0 E12.5  F1000.0 ; intro line
G92 E0.0
M900 K30; Filament gcode
G21 ; set units to millimeters
G90 ; use absolute coordinates
M83 ; use relative distances for extrusion
;BEFORE_LAYER_CHANGE
G92 E0.0
;0.2


G1 E-0.80000 F2100.00000
G1 Z0.600 F10800.000
;AFTER_LAYER_CHANGE
;0.2
; PURGING FINISHED
G1 X120.336 Y104.315
G1 Z0.200
G1 E0.80000 F2100.00000
M204 S1000
G1 F1200
G1 X122.440 Y102.589 E0.08080
G1 X124.841 Y101.306 E0.08082
G1 X127.476 Y100.513 E0.08171
G1 X130.153 Y100.249 E0.07985
G1 X132.861 Y100.516 E0.08080
G1 X135.465 Y101.306 E0.08080
G1 X137.865 Y102.589 E0.08080
G1 X139.969 Y104.315 E0.08080
G1 X141.696 Y106.419 E0.08080
G1 X142.978 Y108.819 E0.08080
G1 X143.768 Y111.423 E0.08080
G1 X144.035 Y114.132 E0.08080
G1 X143.768 Y116.840 E0.08080
G1 X142.978 Y119.444 E0.08080
G1 X141.696 Y121.844 E0.08080
G1 X139.969 Y123.948 E0.08080
G1 X137.865 Y125.674 E0.08080
G1 X135.465 Y126.957 E0.08080
G1 X132.861 Y127.747 E0.08080
G1 X130.153 Y128.014 E0.08080
G1 X127.444 Y127.747 E0.08080
G1 X124.840 Y126.957 E0.08080
G1 X122.440 Y125.675 E0.08080
G1 X120.336 Y123.948 E0.08080
G1 X118.610 Y121.844 E0.08080
G1 X117.327 Y119.444 E0.08080
G1 X116.537 Y116.840 E0.08080
G1 X116.270 Y114.132 E0.08080
G1 X116.537 Y111.423 E0.08080
G1 X117.327 Y108.819 E0.08080
G1 X118.610 Y106.419 E0.08080
G1 X120.298 Y104.362 E0.07902
G1 X120.590 Y104.569 F10800.000
G1 F1200
G1 X122.639 Y102.887 E0.07871
G1 X124.978 Y101.637 E0.07872
G1 X127.546 Y100.865 E0.07963
G1 X130.153 Y100.608 E0.07778
G1 X132.791 Y100.868 E0.07871
G1 X135.328 Y101.638 E0.07871
G1 X137.666 Y102.887 E0.07871
G1 X139.715 Y104.569 E0.07871
G1 X141.397 Y106.618 E0.07871
G1 X142.647 Y108.956 E0.07871
G1 X143.416 Y111.493 E0.07871
G1 X143.676 Y114.132 E0.07871
G1 X143.416 Y116.770 E0.07871
G1 X142.647 Y119.307 E0.07871
G1 X141.397 Y121.645 E0.07871
G1 X139.715 Y123.694 E0.07871
G1 X137.666 Y125.376 E0.07871
G1 X135.328 Y126.626 E0.07871
G1 X132.791 Y127.395 E0.07871
G1 X130.153 Y127.655 E0.07871
G1 X127.514 Y127.395 E0.07871
G1 X124.978 Y126.626 E0.07871
G1 X122.639 Y125.376 E0.07871
G1 X120.590 Y123.694 E0.07871
G1 X118.908 Y121.645 E0.07871
G1 X117.659 Y119.307 E0.07871
G1 X116.889 Y116.770 E0.07871
G1 X116.629 Y114.132 E0.07871
G1 X116.889 Y111.493 E0.07871
G1 X117.659 Y108.956 E0.07871
G1 X118.908 Y106.618 E0.07871
G1 X120.552 Y104.615 E0.07693
G1 X120.487 Y104.183 F10800.000
G1 F8640
G1 X122.639 Y102.887 E-0.62574
G1 X123.152 Y102.613 E-0.13426
G1 E-0.04000 F2100.00000
G1 Z0.800 F10800.000
G1 X119.385 Y103.580
G1 Z0.200
G1 E0.80000 F2100.00000
G1 F1200
G1 X119.482 Y103.461 E0.00456
G1 X121.769 Y101.585 E0.08783
G1 X124.378 Y100.190 E0.08783
G1 X127.209 Y99.331 E0.08783
G1 X130.162 Y99.042 E0.08810
G1 X133.097 Y99.331 E0.08756
G1 X135.928 Y100.190 E0.08783
G1 X138.536 Y101.585 E0.08783
G1 X140.823 Y103.461 E0.08783
G1 X142.700 Y105.748 E0.08783
G1 X144.094 Y108.357 E0.08783
G1 X144.953 Y111.188 E0.08783
G1 X145.243 Y114.132 E0.08783
G1 X144.953 Y117.076 E0.08783
G1 X144.094 Y119.906 E0.08783
G1 X142.700 Y122.515 E0.08783
G1 X140.823 Y124.802 E0.08783
G1 X138.536 Y126.679 E0.08783
G1 X135.928 Y128.073 E0.08783
G1 X133.097 Y128.932 E0.08783
G1 X130.153 Y129.222 E0.08783
G1 X127.209 Y128.932 E0.08783
G1 X124.378 Y128.073 E0.08783
G1 X121.769 Y126.679 E0.08783
G1 X119.482 Y124.802 E0.08783
G1 X117.606 Y122.515 E0.08783
G1 X116.211 Y119.907 E0.08783
G1 X115.352 Y117.076 E0.08783
G1 X115.062 Y114.132 E0.08783
G1 X115.352 Y111.188 E0.08783
G1 X116.211 Y108.357 E0.08783
G1 X117.606 Y105.748 E0.08783
G1 X119.347 Y103.626 E0.08149
G1 X119.109 Y103.353 F10800.000
G1 F1200
G1 X119.229 Y103.208 E0.00560
G1 X121.570 Y101.286 E0.08992
G1 X124.241 Y99.859 E0.08992
G1 X127.139 Y98.980 E0.08992
G1 X130.162 Y98.684 E0.09019
G1 X133.167 Y98.979 E0.08965
G1 X136.065 Y99.859 E0.08992
G1 X138.736 Y101.286 E0.08992
G1 X141.077 Y103.208 E0.08992
G1 X142.998 Y105.549 E0.08992
G1 X144.426 Y108.220 E0.08992
G1 X145.305 Y111.118 E0.08992
G1 X145.602 Y114.132 E0.08992
G1 X145.305 Y117.146 E0.08992
G1 X144.426 Y120.044 E0.08992
G1 X142.998 Y122.715 E0.08992
G1 X141.077 Y125.056 E0.08992
G1 X138.736 Y126.977 E0.08992
G1 X136.065 Y128.405 E0.08992
G1 X133.167 Y129.284 E0.08992
G1 X130.153 Y129.581 E0.08992
G1 X127.139 Y129.284 E0.08992
G1 X124.241 Y128.405 E0.08992
G1 X121.570 Y126.977 E0.08992
G1 X119.229 Y125.056 E0.08992
G1 X117.307 Y122.715 E0.08992
G1 X115.880 Y120.044 E0.08992
G1 X115.001 Y117.146 E0.08992
G1 X114.704 Y114.132 E0.08992
G1 X115.001 Y111.118 E0.08992
G1 X115.880 Y108.220 E0.08992
G1 X117.307 Y105.549 E0.08992
G1 X119.071 Y103.400 E0.08254
G1 X119.296 Y103.378 F10800.000
G1 F8640
G1 X119.229 Y103.208 E-0.05743
G1 X121.570 Y101.286 E-0.69930
G1 X121.582 Y101.280 E-0.00327
G1 E-0.04000 F2100.00000
G1 Z0.800 F10800.000
G1 X117.408 Y119.823
G1 Z0.200
G1 E0.80000 F2100.00000
G1 F1200
G1 X116.055 Y118.470 E0.05682
G1 X115.835 Y117.745 E0.02250
G1 X116.835 Y118.745 E0.04199
G1 X116.615 Y118.020 E0.02250
G1 X115.616 Y117.021 E0.04196
G1 X115.561 Y116.461 E0.01672
G1 X116.395 Y117.295 E0.03504
G1 X116.273 Y116.893 E0.01249
G1 X116.249 Y116.643 E0.00744
G1 X115.506 Y115.900 E0.03120
G1 X115.451 Y115.340 E0.01672
G1 X116.193 Y116.083 E0.03120
G1 X116.138 Y115.523 E0.01672
G1 X115.395 Y114.780 E0.03120
G1 X115.340 Y114.220 E0.01672
G1 X116.083 Y114.962 E0.03120
G1 X116.028 Y114.402 E0.01672
G1 X115.370 Y113.744 E0.02764
G1 X115.415 Y113.284 E0.01372
G1 X116.025 Y113.894 E0.02560
G1 X116.070 Y113.434 E0.01372
G1 X115.460 Y112.824 E0.02560
G1 X115.506 Y112.365 E0.01372
G1 X116.115 Y112.974 E0.02560
G1 X116.161 Y112.514 E0.01372
G1 X115.551 Y111.905 E0.02560
G1 X115.596 Y111.445 E0.01372
G1 X116.206 Y112.055 E0.02560
G1 X116.251 Y111.595 E0.01372
G1 X115.682 Y111.025 E0.02392
G1 X115.799 Y110.638 E0.01203
G1 X116.334 Y111.172 E0.02244
G1 X116.451 Y110.785 E0.01203
G1 X115.917 Y110.250 E0.02244
G1 X116.034 Y109.863 E0.01203
G1 X116.569 Y110.397 E0.02244
G1 X116.686 Y110.009 E0.01203
G1 X116.152 Y109.475 E0.02244
G1 X116.269 Y109.088 E0.01203
G1 X116.804 Y109.622 E0.02244
G1 X116.921 Y109.234 E0.01203
G1 X116.387 Y108.700 E0.02244
G1 X116.460 Y108.460 E0.00745
G1 X116.527 Y108.335 E0.00422
G1 X117.039 Y108.847 E0.02151
G1 X117.078 Y108.716 E0.00405
G1 X117.195 Y108.498 E0.00735
G1 X116.703 Y108.006 E0.02068
G1 X116.879 Y107.676 E0.01108
G1 X117.371 Y108.169 E0.02068
G1 X117.547 Y107.840 E0.01108
G1 X117.055 Y107.347 E0.02068
G1 X117.230 Y107.018 E0.01108
G1 X117.723 Y107.511 E0.02068
G1 X117.899 Y107.181 E0.01108
G1 X117.406 Y106.689 E0.02068
G1 X117.582 Y106.360 E0.01108
G1 X118.075 Y106.852 E0.02068
G1 X118.251 Y106.523 E0.01108
G1 X117.758 Y106.031 E0.02068
G1 X117.829 Y105.898 E0.00448
G1 X117.965 Y105.732 E0.00635
G1 X118.439 Y106.206 E0.01989
G1 X118.666 Y105.928 E0.01066
G1 X118.193 Y105.455 E0.01989
G1 X118.420 Y105.177 E0.01066
G1 X118.894 Y105.651 E0.01989
G1 X119.122 Y105.374 E0.01066
G1 X118.648 Y104.900 E0.01989
G1 X118.876 Y104.623 E0.01066
G1 X119.349 Y105.096 E0.01989
G1 X119.577 Y104.819 E0.01066
G1 X119.103 Y104.345 E0.01989
G1 X119.331 Y104.068 E0.01066
G1 X119.805 Y104.541 E0.01989
G1 X120.032 Y104.264 E0.01066
G1 X119.559 Y103.790 E0.01989
G1 X119.673 Y103.652 E0.00533
G1 X119.811 Y103.538 E0.00533
G1 X120.285 Y104.011 E0.01989
G1 X120.562 Y103.784 E0.01066
G1 X120.089 Y103.310 E0.01989
G1 X120.366 Y103.082 E0.01066
G1 X120.840 Y103.556 E0.01989
G1 X121.117 Y103.328 E0.01066
G1 X120.644 Y102.855 E0.01989
G1 X120.921 Y102.627 E0.01066
G1 X121.395 Y103.101 E0.01989
G1 X121.672 Y102.873 E0.01066
G1 X121.198 Y102.399 E0.01989
G1 X121.476 Y102.172 E0.01066
G1 X121.949 Y102.645 E0.01989
G1 X122.227 Y102.418 E0.01066
G1 X121.753 Y101.944 E0.01989
G1 X121.919 Y101.808 E0.00635
G1 X122.052 Y101.737 E0.00448
G1 X122.544 Y102.230 E0.02068
G1 X122.873 Y102.054 E0.01108
G1 X122.381 Y101.561 E0.02068
G1 X122.710 Y101.385 E0.01108
G1 X123.202 Y101.878 E0.02068
G1 X123.531 Y101.702 E0.01108
G1 X123.039 Y101.209 E0.02068
G1 X123.368 Y101.034 E0.01108
G1 X123.861 Y101.526 E0.02068
G1 X124.190 Y101.350 E0.01108
G1 X123.697 Y100.858 E0.02068
G1 X124.026 Y100.682 E0.01108
G1 X124.519 Y101.174 E0.02068
G1 X124.738 Y101.057 E0.00738
G1 X124.868 Y101.018 E0.00403
G1 X124.356 Y100.506 E0.02151
G1 X124.481 Y100.439 E0.00422
G1 X124.721 Y100.366 E0.00745
G1 X125.256 Y100.901 E0.02248
G1 X125.644 Y100.784 E0.01204
G1 X125.109 Y100.248 E0.02251
G1 X125.496 Y100.131 E0.01203
G1 X126.033 Y100.668 E0.02254
G1 X126.421 Y100.551 E0.01204
G1 X125.884 Y100.013 E0.02257
G1 X126.271 Y99.896 E0.01203
G1 X126.809 Y100.434 E0.02260
G1 X127.198 Y100.317 E0.01204
G1 X126.659 Y99.778 E0.02264
G1 X127.046 Y99.661 E0.01203
G1 X127.616 Y100.230 E0.02392
G1 X128.076 Y100.185 E0.01372
G1 X127.466 Y99.575 E0.02560
G1 X127.926 Y99.530 E0.01373
G1 X128.535 Y100.140 E0.02559
G1 X128.995 Y100.094 E0.01372
G1 X128.386 Y99.485 E0.02558
G1 X128.846 Y99.440 E0.01373
G1 X129.455 Y100.049 E0.02557
G1 X129.915 Y100.004 E0.01372
G1 X129.306 Y99.395 E0.02556
G1 X129.766 Y99.350 E0.01373
G1 X130.423 Y100.007 E0.02758
G1 X130.983 Y100.062 E0.01672
G1 X130.240 Y99.319 E0.03120
G1 X130.801 Y99.374 E0.01672
G1 X131.544 Y100.117 E0.03120
G1 X132.104 Y100.172 E0.01672
G1 X131.361 Y99.430 E0.03120
G1 X131.921 Y99.485 E0.01672
G1 X132.664 Y100.228 E0.03120
G1 X132.914 Y100.252 E0.00744
G1 X133.316 Y100.374 E0.01248
G1 X132.482 Y99.540 E0.03504
G1 X133.042 Y99.595 E0.01672
G1 X134.041 Y100.594 E0.04196
G1 X134.766 Y100.814 E0.02250
G1 X133.766 Y99.814 E0.04199
G1 X134.491 Y100.034 E0.02250
G1 X135.844 Y101.387 E0.05681
G1 F8640
G1 X134.491 Y100.034 E-0.44173
G1 X133.766 Y99.814 E-0.17494
G1 X134.205 Y100.253 E-0.14333
G1 E-0.04000 F2100.00000
G1 Z0.800 F10800.000
G1 X136.693 Y100.721
G1 Z0.200
G1 E0.80000 F2100.00000
G1 F1200
G1 X143.564 Y107.592 E0.28857
G1 F8640
G1 X141.236 Y105.264 E-0.76000
G1 E-0.04000 F2100.00000
G1 Z0.800 F10800.000
G1 X144.051 Y108.584
G1 Z0.200
G1 E0.80000 F2100.00000
G1 F1200
G1 X141.596 Y106.128 E0.10314
G1 F8640
G1 X143.923 Y108.456 E-0.76000
G1 E-0.04000 F2100.00000
G1 Z0.800 F10800.000
G1 X142.317 Y107.355
G1 Z0.200
G1 E0.80000 F2100.00000
G1 F1200
G1 X144.271 Y109.309 E0.08206
G1 X144.491 Y110.034 F10800.000
G1 F1200
G1 X143.250 Y108.794 E0.05211
G1 X143.470 Y109.519 E0.02250
G1 X144.470 Y110.518 E0.04199
G1 X144.689 Y111.243 E0.02247
G1 X143.690 Y110.244 E0.04196
G1 X143.910 Y110.969 E0.02250
G1 X144.745 Y111.803 E0.03504
G1 X144.800 Y112.363 E0.01672
G1 X144.057 Y111.620 E0.03120
G1 X144.112 Y112.181 E0.01672
G1 X144.855 Y112.923 E0.03120
G1 X144.910 Y113.484 E0.01672
G1 X144.167 Y112.741 E0.03120
G1 X144.222 Y113.301 E0.01672
G1 X144.965 Y114.044 E0.03120
G1 X144.974 Y114.132 E0.00262
G1 X144.936 Y114.520 E0.01157
G1 X144.278 Y113.861 E0.02764
G1 X144.304 Y114.132 E0.00807
G1 X144.281 Y114.370 E0.00710
G1 X144.890 Y114.979 E0.02560
G1 X144.845 Y115.439 E0.01372
G1 X144.235 Y114.829 E0.02560
G1 X144.190 Y115.289 E0.01372
G1 X144.800 Y115.899 E0.02560
G1 X144.755 Y116.359 E0.01372
G1 X144.145 Y115.749 E0.02560
G1 X144.100 Y116.209 E0.01372
G1 X144.709 Y116.819 E0.02560
G1 X144.689 Y117.023 E0.00611
G1 X144.624 Y117.238 E0.00667
G1 X144.054 Y116.669 E0.02392
G1 X144.032 Y116.893 E0.00668
G1 X143.972 Y117.091 E0.00617
G1 X144.506 Y117.626 E0.02244
G1 X144.389 Y118.013 E0.01203
G1 X143.854 Y117.479 E0.02244
G1 X143.737 Y117.867 E0.01203
G1 X144.271 Y118.401 E0.02244
G1 X144.154 Y118.788 E0.01203
G1 X143.619 Y118.254 E0.02244
G1 X143.502 Y118.642 E0.01203
G1 X144.036 Y119.176 E0.02244
G1 X143.919 Y119.563 E0.01203
G1 X143.384 Y119.029 E0.02244
G1 X143.267 Y119.417 E0.01203
G1 X143.779 Y119.929 E0.02151
G1 X143.603 Y120.258 E0.01108
G1 X143.110 Y119.765 E0.02068
G1 X142.934 Y120.095 E0.01108
G1 X143.427 Y120.587 E0.02068
G1 X143.251 Y120.916 E0.01108
G1 X142.758 Y120.424 E0.02068
G1 X142.583 Y120.753 E0.01108
G1 X143.075 Y121.245 E0.02068
G1 X142.899 Y121.575 E0.01108
G1 X142.407 Y121.082 E0.02068
G1 X142.231 Y121.411 E0.01108
G1 X142.723 Y121.904 E0.02068
G1 X142.547 Y122.233 E0.01108
G1 X142.055 Y121.740 E0.02068
G1 X141.919 Y121.994 E0.00853
G1 X141.867 Y122.058 E0.00245
G1 X142.340 Y122.531 E0.01989
G1 X142.113 Y122.809 E0.01066
G1 X141.639 Y122.335 E0.01989
G1 X141.412 Y122.613 E0.01066
G1 X141.885 Y123.086 E0.01989
G1 X141.657 Y123.363 E0.01066
G1 X141.184 Y122.890 E0.01989
G1 X140.956 Y123.167 E0.01066
G1 X141.430 Y123.641 E0.01989
G1 X141.202 Y123.918 E0.01066
G1 X140.729 Y123.445 E0.01989
G1 X140.501 Y123.722 E0.01066
G1 X140.974 Y124.196 E0.01989
G1 X140.747 Y124.473 E0.01066
G1 X140.273 Y124.000 E0.01989
G1 X140.159 Y124.138 E0.00533
G1 X140.021 Y124.252 E0.00533
G1 X140.494 Y124.726 E0.01989
G1 X140.217 Y124.953 E0.01066
G1 X139.743 Y124.480 E0.01989
G1 X139.466 Y124.708 E0.01066
G1 X139.939 Y125.181 E0.01989
G1 X139.662 Y125.409 E0.01066
G1 X139.188 Y124.935 E0.01989
G1 X138.911 Y125.163 E0.01066
G1 X139.384 Y125.636 E0.01989
G1 X139.107 Y125.864 E0.01066
G1 X138.634 Y125.391 E0.01989
G1 X138.356 Y125.618 E0.01066
G1 X138.830 Y126.092 E0.01989
G1 X138.552 Y126.319 E0.01066
G1 X138.079 Y125.846 E0.01989
G1 X138.015 Y125.898 E0.00245
G1 X137.761 Y126.034 E0.00854
G1 X138.254 Y126.526 E0.02068
G1 X137.925 Y126.702 E0.01108
G1 X137.432 Y126.210 E0.02068
G1 X137.103 Y126.386 E0.01108
G1 X137.596 Y126.878 E0.02068
G1 X137.266 Y127.054 E0.01108
G1 X136.774 Y126.562 E0.02068
G1 X136.445 Y126.737 E0.01108
G1 X136.937 Y127.230 E0.02068
G1 X136.608 Y127.406 E0.01108
G1 X136.116 Y126.913 E0.02068
G1 X135.786 Y127.089 E0.01108
G1 X136.279 Y127.582 E0.02068
G1 X135.950 Y127.758 E0.01108
G1 X135.438 Y127.246 E0.02151
G1 X135.050 Y127.363 E0.01203
G1 X135.584 Y127.898 E0.02244
G1 X135.197 Y128.015 E0.01203
G1 X134.663 Y127.481 E0.02244
G1 X134.275 Y127.598 E0.01203
G1 X134.809 Y128.133 E0.02244
G1 X134.422 Y128.250 E0.01203
G1 X133.887 Y127.716 E0.02244
G1 X133.500 Y127.833 E0.01203
G1 X134.034 Y128.368 E0.02244
G1 X133.647 Y128.485 E0.01203
G1 X133.112 Y127.951 E0.02244
G1 X132.914 Y128.011 E0.00617
G1 X132.690 Y128.033 E0.00668
G1 X133.259 Y128.603 E0.02392
G1 X133.044 Y128.668 E0.00667
G1 X132.840 Y128.688 E0.00611
G1 X132.230 Y128.079 E0.02560
G1 X131.770 Y128.124 E0.01372
G1 X132.380 Y128.734 E0.02560
G1 X131.920 Y128.779 E0.01372
G1 X131.310 Y128.169 E0.02560
G1 X130.850 Y128.214 E0.01372
G1 X131.460 Y128.824 E0.02560
G1 X131.000 Y128.869 E0.01372
G1 X130.391 Y128.260 E0.02560
G1 X130.153 Y128.283 E0.00710
G1 X129.882 Y128.257 E0.00807
G1 X130.540 Y128.915 E0.02764
G1 X130.153 Y128.953 E0.01157
G1 X130.065 Y128.944 E0.00262
G1 X129.322 Y128.201 E0.03120
G1 X128.762 Y128.146 E0.01672
G1 X129.505 Y128.889 E0.03120
G1 X128.944 Y128.834 E0.01672
G1 X128.202 Y128.091 E0.03120
G1 X127.641 Y128.036 E0.01672
G1 X128.384 Y128.779 E0.03120
G1 X127.824 Y128.724 E0.01672
G1 X126.990 Y127.889 E0.03504
G1 X126.264 Y127.669 E0.02250
G1 X127.264 Y128.668 E0.04196
G1 X126.539 Y128.449 E0.02248
G1 X125.539 Y127.449 E0.04199
G1 X124.814 Y127.229 E0.02250
G1 X125.814 Y128.229 E0.04199
G1 X125.089 Y128.009 E0.02250
G1 X123.376 Y126.296 E0.07194
