; generated by PrusaSlicer 2.1.0+ on 2019-09-20 at 18:01:42 UTC

; 

; external perimeters extrusion width = 0.45mm
; perimeters extrusion width = 0.45mm
; infill extrusion width = 0.45mm
; solid infill extrusion width = 0.45mm
; top infill extrusion width = 0.40mm
; support material extrusion width = 0.35mm
; first layer extrusion width = 0.42mm

M73 P0 R84
M201 X9000 Y9000 Z500 E10000 ; sets maximum accelerations, mm/sec^2
M203 X500 Y500 Z12 E120 ; sets maximum feedrates, mm/sec
M204 P2000 R1500 T2000 ; sets acceleration (P, T) and retract acceleration (R), mm/sec^2
M205 X10.00 Y10.00 Z0.20 E2.50 ; sets the jerk limits, mm/sec
M205 S0 T0 ; sets the minimum extruding and travel feed rate, mm/sec
M107
M862.3 P "MK2S" ; printer model check
M862.1 P0.4 ; nozzle diameter check
M115 U3.2.3 ; tell printer latest fw version
G90 ; use absolute coordinates
M83 ; extruder relative mode
M204 S2000 T1500 ; MK2 firmware only supports the old M204 format
M104 S230 ; set extruder temp
M140 S60 ; set bed temp
M190 S60 ; wait for bed temp
M109 S230 ; wait for extruder temp
G28 W ; home all without mesh bed level
G80 ; mesh bed leveling
G1 Y-3.0 F1000.0 ; go outside print area
G92 E0.0
G1 X60.0 E9.0  F1000.0 ; intro line
M73 P0 R84
G1 X100.0 E12.5 F1000.0 ; intro line
G92 E0.0
G21 ; set units to millimeters
G90 ; use absolute coordinates
M83 ; use relative distances for extrusion
M900 K30 ; Filament gcode
;BEFORE_LAYER_CHANGE
G92 E0.0
;0.2


G1 E-0.80000 F2100.00000
G1 Z0.600 F10800.000
;AFTER_LAYER_CHANGE
;0.2
G1 X133.799 Y84.514
G1 Z0.200
G1 E0.80000 F2100.00000
M204 S1000
G1 F1200
G1 X134.610 Y85.029 E0.03010
G1 X135.175 Y85.809 E0.03022
G1 X135.413 Y86.739 E0.03010
G1 X135.418 Y121.766 E1.09825
G1 X135.247 Y122.675 E0.02900
G1 X134.894 Y123.308 E0.02275
G1 X134.380 Y123.815 E0.02263
G1 X133.746 Y124.159 E0.02263
G1 X133.040 Y124.313 E0.02263
G1 X119.977 Y124.319 E0.40960
G1 X118.158 Y124.124 E0.05734
G1 X117.604 Y123.979 E0.01795
G1 X117.116 Y123.729 E0.01721
G1 X116.689 Y123.377 E0.01734
G1 X116.347 Y122.943 E0.01734
G1 X116.107 Y122.445 E0.01734
G1 X114.513 Y115.614 E0.21992
G1 X114.451 Y115.108 E0.01598
G1 X114.453 Y107.516 E0.23807
G1 X115.272 Y98.370 E0.28790
G1 X115.403 Y97.805 E0.01820
G1 X116.884 Y93.818 E0.13334
G1 X117.140 Y93.323 E0.01746
G1 X122.453 Y85.430 E0.29834
G1 X122.811 Y85.019 E0.01709
G1 X123.248 Y84.692 E0.01709
G1 X123.834 Y84.437 E0.02005
G1 X124.461 Y84.335 E0.01992
G1 X132.857 Y84.333 E0.26324
G1 X133.740 Y84.503 E0.02821
G1 X133.666 Y84.867 F10800.000
G1 F1200
G1 X134.360 Y85.312 E0.02586
G1 X134.840 Y85.983 E0.02586
G1 X135.038 Y86.780 E0.02574
G1 X135.041 Y121.761 E1.09683
G1 X134.893 Y122.547 E0.02507
G1 X134.589 Y123.086 E0.01942
G1 X134.146 Y123.519 E0.01942
G1 X133.600 Y123.811 E0.01942
G1 X132.990 Y123.938 E0.01953
G1 X119.988 Y123.942 E0.40767
G1 X118.217 Y123.751 E0.05584
G1 X117.731 Y123.624 E0.01578
G1 X117.307 Y123.403 E0.01498
G1 X116.944 Y123.098 E0.01487
G1 X116.654 Y122.722 E0.01487
G1 X116.452 Y122.290 E0.01498
G1 X114.827 Y115.085 E0.23158
G1 X114.829 Y107.536 E0.23668
G1 X115.647 Y98.412 E0.28723
G1 X115.759 Y97.929 E0.01555
G1 X117.238 Y93.948 E0.13315
G1 X117.457 Y93.527 E0.01487
G1 X122.760 Y85.649 E0.29777
G1 X123.069 Y85.294 E0.01475
G1 X123.443 Y85.015 E0.01464
G1 X123.945 Y84.797 E0.01714
G1 X124.485 Y84.711 E0.01714
G1 X132.856 Y84.710 E0.26249
G1 X133.607 Y84.855 E0.02398
G1 F8640
G1 X134.360 Y85.312 E-0.20336
G1 X134.840 Y85.983 E-0.19042
G1 X135.038 Y86.780 E-0.18959
G1 X135.038 Y87.544 E-0.17663
G1 E-0.04000 F2100.00000
G1 Z0.800 F10800.000
G1 X123.803 Y94.571
G1 Z0.200
G1 E0.80000 F2100.00000
G1 F1200
G1 X123.803 Y96.647 E0.06507
G1 X124.185 Y96.300 E0.01617
G1 X124.557 Y96.023 E0.01455
G1 X124.557 Y86.899 E0.28610
G1 X125.311 Y86.899 E0.02365
G1 X125.311 Y95.537 E0.27085
G1 X126.065 Y95.164 E0.02638
G1 X126.065 Y86.899 E0.25915
G1 X126.820 Y86.899 E0.02365
G1 X126.820 Y94.887 E0.25048
G1 X127.574 Y94.698 E0.02438
G1 X127.574 Y86.899 E0.24455
G1 X128.328 Y86.899 E0.02365
G1 X128.328 Y94.589 E0.24111
G1 X129.082 Y94.558 E0.02367
G1 X129.082 Y86.899 E0.24016
G1 X129.836 Y86.899 E0.02365
G1 X129.836 Y109.297 E0.70230
G1 X129.082 Y111.016 F10800.000
G1 F1200
G1 X129.082 Y110.160 E0.02683
G1 X128.328 Y110.130 E0.02366
G1 X128.318 Y110.819 E0.02159
G1 X127.574 Y110.691 E0.02368
G1 X127.574 Y109.990 E0.02199
G1 X126.820 Y109.839 E0.02412
G1 X126.820 Y110.536 E0.02185
G1 X126.065 Y110.233 E0.02548
G1 X126.065 Y109.533 E0.02194
G1 X125.311 Y109.206 E0.02577
G1 X125.311 Y109.910 E0.02206
G1 X125.103 Y109.801 E0.00737
G1 X124.557 Y109.437 E0.02057
G1 X124.557 Y108.703 E0.02303
G1 X124.135 Y108.416 E0.01600
G1 X123.803 Y108.084 E0.01473
G1 X123.803 Y108.788 E0.02208
G1 X123.195 Y108.204 E0.02642
G1 X123.177 Y108.176 E0.00105
G1 X123.547 Y107.927 E0.01399
G1 X123.275 Y107.679 E0.01155
G1 X122.678 Y106.767 E0.03419
G1 X122.524 Y107.027 E0.00950
G1 X122.295 Y106.945 E0.00764
G1 X122.295 Y107.291 E0.01084
G1 F8640
G1 X122.295 Y106.945 E-0.07985
G1 X122.524 Y107.027 E-0.05630
G1 X122.678 Y106.767 E-0.06997
G1 X123.275 Y107.679 E-0.25181
G1 X123.547 Y107.927 E-0.08504
G1 X123.177 Y108.176 E-0.10304
G1 X123.195 Y108.204 E-0.00776
G1 X123.527 Y108.523 E-0.10623
G1 E-0.04000 F2100.00000
G1 Z0.800 F10800.000
G1 X122.307 Y105.988
G1 Z0.200
G1 E0.80000 F2100.00000
G1 F1200
G1 X122.307 Y105.410 E0.01474
G1 F8640
G1 X122.307 Y105.988 E-0.13332
G1 E-0.66668 F2100.00000
G1 Z0.800 F10800.000
G1 X120.786 Y106.717
G1 Z0.200
G1 E0.80000 F2100.00000
G1 F1200
G1 X120.786 Y109.470 E0.07028
G1 X121.293 Y109.470 E0.01295
G1 X121.293 Y106.856 E0.06675
G1 X121.800 Y106.856 E0.01295
G1 X121.800 Y109.470 E0.06675
G1 X122.093 Y109.470 E0.00748
G1 X122.093 Y110.777 E0.03337
G1 X122.307 Y110.777 E0.00547
G1 X122.307 Y107.532 E0.08284
G1 X122.435 Y107.645 E0.00435
G1 X122.666 Y107.384 E0.00891
G1 X122.815 Y107.606 E0.00680
G1 X122.815 Y110.777 E0.08097
G1 X123.322 Y110.777 E0.01295
G1 X123.322 Y108.790 E0.05072
G1 X123.829 Y109.297 E0.01831
G1 X123.829 Y112.084 E0.07115
G1 X124.336 Y112.084 E0.01295
G1 X124.336 Y109.701 E0.06085
G1 X124.843 Y110.039 E0.01557
G1 X124.843 Y112.084 E0.05220
G1 X125.350 Y112.084 E0.01295
G1 X125.350 Y110.314 E0.04519
G1 X125.857 Y110.518 E0.01395
G1 X125.857 Y112.084 E0.03999
G1 X126.364 Y112.084 E0.01295
G1 X126.364 Y110.721 E0.03479
G1 X126.724 Y110.866 E0.00991
G1 X126.871 Y110.900 E0.00385
G1 X126.871 Y112.084 E0.03022
G1 X127.378 Y112.084 E0.01295
G1 X127.378 Y111.001 E0.02765
G1 X127.885 Y111.097 E0.01318
G1 X127.885 Y112.084 E0.02519
G1 X128.392 Y112.084 E0.01295
G1 X128.392 Y111.164 E0.02350
G1 X128.899 Y111.182 E0.01296
G1 X128.899 Y112.084 E0.02304
G1 X129.407 Y112.084 E0.01295
G1 X129.407 Y111.005 E0.02755
G1 X129.562 Y110.854 E0.00553
G1 X129.562 Y110.488 E0.00936
G1 X129.592 Y110.459 E0.00106
G1 X129.592 Y109.470 E0.02526
G1 X129.914 Y109.470 E0.00820
G1 X129.914 Y112.222 E0.07028
G1 F8640
G1 X129.914 Y109.470 E-0.63554
G1 X129.592 Y109.470 E-0.07418
G1 X129.592 Y109.687 E-0.05028
G1 E-0.04000 F2100.00000
G1 Z0.800 F10800.000
G1 X129.082 Y104.577
G1 Z0.200
G1 E0.80000 F2100.00000
G1 F1200
G1 X129.082 Y98.845 E0.17972
G1 X128.468 Y98.767 E0.01941
G1 X128.328 Y98.781 E0.00441
G1 X128.328 Y104.452 E0.17782
G1 X127.918 Y104.412 E0.01292
G1 X127.574 Y104.307 E0.01127
G1 X127.574 Y98.926 E0.16874
G1 X127.383 Y98.984 E0.00625
G1 X126.890 Y99.247 E0.01752
G1 X126.820 Y99.305 E0.00287
G1 X126.820 Y103.928 E0.14496
G1 X126.458 Y103.632 E0.01465
G1 X126.104 Y103.200 E0.01752
G1 X126.065 Y103.128 E0.00257
G1 X126.065 Y99.813 E0.10393
G1 F8640
G1 X126.065 Y103.104 E-0.76000
G1 E-0.04000 F2100.00000
G1 Z0.800 F10800.000
G1 X123.803 Y98.522
G1 Z0.200
G1 E0.80000 F2100.00000
G1 F1200
G1 X123.803 Y101.319 E0.08771
G1 X123.049 Y103.415 E0.06986
G1 X123.049 Y94.741 E0.27198
G1 X122.295 Y94.741 E0.02365
G1 X122.295 Y105.206 E0.32813
G1 X121.751 Y105.206 E0.01704
G1 X121.751 Y106.513 E0.04098
G1 X121.540 Y106.513 E0.00661
G1 X121.540 Y94.741 E0.36911
G1 X120.786 Y94.741 E0.02365
G1 X120.786 Y106.513 E0.36911
G1 X120.444 Y106.513 E0.01073
G1 X120.444 Y109.812 E0.10342
G1 X120.786 Y109.812 E0.01073
G1 X120.786 Y121.584 E0.36911
G1 X121.540 Y121.584 E0.02365
G1 X121.540 Y109.812 E0.36911
G1 X121.751 Y109.812 E0.00661
G1 X121.751 Y111.119 E0.04098
G1 X122.295 Y111.119 E0.01704
G1 X122.295 Y121.584 E0.32813
G1 X123.049 Y121.584 E0.02365
G1 X123.049 Y111.119 E0.32813
G1 X123.058 Y112.426 E0.04098
G1 X123.803 Y112.426 E0.02335
G1 X123.803 Y121.584 E0.28715
G1 X124.557 Y121.584 E0.02365
G1 X124.557 Y112.426 E0.28715
G1 X125.311 Y112.426 E0.02365
G1 X125.311 Y121.584 E0.28715
G1 X126.065 Y121.584 E0.02365
G1 X126.065 Y112.426 E0.28715
G1 X126.820 Y112.426 E0.02365
G1 X126.820 Y121.584 E0.28715
G1 X127.574 Y121.584 E0.02365
G1 X127.574 Y112.426 E0.28715
G1 X128.328 Y112.426 E0.02365
G1 X128.328 Y121.584 E0.28715
G1 X129.082 Y121.584 E0.02365
G1 X129.082 Y112.426 E0.28715
G1 X129.836 Y112.426 E0.02365
G1 X129.836 Y121.584 E0.28715
G1 X130.590 Y121.584 E0.02365
G1 X130.590 Y86.899 E1.08754
G1 X131.344 Y86.899 E0.02365
G1 X131.344 Y121.584 E1.08754
G1 X132.099 Y121.584 E0.02365
G1 X132.099 Y86.899 E1.08754
G1 X132.853 Y86.899 E0.02365
G1 X132.853 Y121.754 E1.09286
G1 X120.032 Y121.754 F10800.000
G1 F1200
G1 X120.032 Y94.741 E0.84697
G1 X119.278 Y94.741 E0.02365
G1 X119.278 Y121.584 E0.84165
G1 X118.524 Y121.584 E0.02365
G1 X118.524 Y98.662 E0.71870
G1 X117.821 Y98.662 E0.02203
G1 X117.821 Y107.812 E0.28688
G1 X117.770 Y107.812 E0.00162
G1 X117.770 Y115.049 E0.22691
G1 X117.015 Y115.049 E0.02365
G1 X117.015 Y107.642 E0.23223
G1 F8640
G1 X117.015 Y110.934 E-0.76000
G1 E-0.04000 F2100.00000
G1 Z0.800 F10800.000
G1 X128.408 Y109.132
G1 Z0.200
G1 E0.80000 F2100.00000
G1 F1200
G1 X127.103 Y108.876 E0.04172
G1 X125.809 Y108.336 E0.04395
G1 X124.787 Y107.653 E0.03856
G1 X123.856 Y106.727 E0.04114
G1 X123.248 Y105.819 E0.03430
G1 X124.649 Y101.922 E0.12985
G1 X124.697 Y102.385 E0.01460
G1 X124.912 Y103.092 E0.02317
G1 X125.268 Y103.759 E0.02370
G1 X125.747 Y104.343 E0.02370
G1 X126.332 Y104.822 E0.02370
G1 X126.998 Y105.179 E0.02370
G1 X127.722 Y105.398 E0.02370
G1 X128.538 Y105.466 E0.02568
G1 X128.614 Y109.140 E0.11523
G1 X128.468 Y109.134 E0.00457
G1 F8640
G1 X127.103 Y108.876 E-0.32092
G1 X125.809 Y108.336 E-0.32366
G1 X125.394 Y108.058 E-0.11542
G1 E-0.04000 F2100.00000
G1 Z0.800 F10800.000
G1 X125.520 Y99.168
G1 Z0.200
G1 E0.80000 F2100.00000
G1 F1200
G1 X124.173 Y97.695 E0.06257
G1 X124.343 Y97.507 E0.00794
G1 X124.828 Y97.068 E0.02052
G1 X125.331 Y96.695 E0.01965
G1 X125.916 Y96.341 E0.02142
G1 X126.506 Y96.062 E0.02048
G1 X127.122 Y95.842 E0.02052
G1 X127.757 Y95.683 E0.02052
G1 X128.402 Y95.587 E0.02044
G1 X128.627 Y95.578 E0.00706
G1 X128.627 Y97.779 E0.06900
G1 X128.482 Y97.760 E0.00458
G1 X127.722 Y97.835 E0.02396
G1 X126.998 Y98.055 E0.02370
G1 X126.330 Y98.412 E0.02374
G1 X125.737 Y98.903 E0.02418
G1 X125.558 Y99.122 E0.00885
G1 F8640
G1 X124.173 Y97.695 E-0.45902
G1 X124.343 Y97.507 E-0.05846
G1 X124.828 Y97.068 E-0.15109
G1 X125.146 Y96.832 E-0.09143
G1 E-0.04000 F2100.00000
G1 Z0.800 F10800.000
G1 X128.364 Y109.508
G1 Z0.200
G1 E0.80000 F2100.00000
G1 F1200
G1 X126.993 Y109.239 E0.04383
G1 X125.630 Y108.670 E0.04630
G1 X124.547 Y107.946 E0.04085
G1 X123.564 Y106.968 E0.04346
G1 X122.828 Y105.870 E0.04144
G1 X125.174 Y99.349 E0.21730
G1 X123.663 Y97.696 E0.07021
G1 X124.076 Y97.241 E0.01928
G1 X124.589 Y96.776 E0.02168
G1 X125.121 Y96.381 E0.02079
G1 X125.737 Y96.009 E0.02258
G1 X126.362 Y95.713 E0.02167
G1 X127.013 Y95.480 E0.02168
G1 X127.684 Y95.312 E0.02168
G1 X128.367 Y95.211 E0.02165
G1 X129.004 Y95.185 E0.02000
G1 X129.004 Y98.207 E0.09473
G1 X128.477 Y98.140 E0.01666
G1 X127.795 Y98.207 E0.02146
G1 X127.143 Y98.405 E0.02137
G1 X126.542 Y98.726 E0.02138
G1 X126.005 Y99.171 E0.02185
G1 X125.583 Y99.685 E0.02087
G1 X125.262 Y100.286 E0.02137
G1 X125.064 Y100.938 E0.02137
G1 X124.997 Y101.617 E0.02138
G1 X125.069 Y102.310 E0.02185
G1 X125.262 Y102.947 E0.02087
G1 X125.583 Y103.548 E0.02137
G1 X126.015 Y104.075 E0.02137
G1 X126.542 Y104.507 E0.02137
G1 X127.143 Y104.829 E0.02137
G1 X127.795 Y105.026 E0.02137
G1 X128.474 Y105.093 E0.02137
G1 X128.906 Y105.050 E0.01363
G1 X128.999 Y109.533 E0.14057
G1 X128.424 Y109.510 E0.01804
G1 X128.057 Y109.252 F10800.000
G1 F8640
G1 X126.993 Y109.239 E-0.33647
G1 X125.630 Y108.670 E-0.34093
G1 X125.333 Y108.471 E-0.08259
G1 E-0.04000 F2100.00000
G1 Z0.800 F10800.000
G1 X126.686 Y108.580
G1 Z0.200
G1 E0.80000 F2100.00000
G1 F1200
G1 X123.648 Y105.541 E0.14225
G1 X123.797 Y105.127 E0.01457
G1 X127.296 Y108.626 E0.16379
G1 X127.996 Y108.763 E0.02363
G1 X123.946 Y104.713 E0.18961
G1 X124.095 Y104.299 E0.01457
G1 X128.318 Y108.522 E0.19773
G1 X128.306 Y107.947 E0.01904
G1 X124.244 Y103.885 E0.19020
G1 X124.393 Y103.471 E0.01457
G1 X128.295 Y107.372 E0.18267
G1 X128.283 Y106.798 E0.01904
G1 X126.942 Y105.457 E0.06276
G1 X127.731 Y105.682 E0.02715
G1 X128.444 Y106.396 E0.03340
G1 F8640
G1 X127.731 Y105.682 E-0.23295
G1 X126.942 Y105.457 E-0.18935
G1 X127.976 Y106.491 E-0.33769
G1 E-0.04000 F2100.00000
G1 Z0.800 F10800.000
G1 X125.612 Y108.068
G1 Z0.200
G1 E0.80000 F2100.00000
G1 F1200
G1 X123.427 Y105.883 E0.10227
G1 F8640
G1 X125.612 Y108.068 E-0.71335
G1 E-0.08665 F2100.00000
G1 Z0.800 F10800.000
G1 X124.648 Y102.950
G1 Z0.200
G1 E0.80000 F2100.00000
G1 F1200
G1 X124.581 Y102.788 E0.00117
G1 X124.582 Y102.716 E0.00048
G1 X124.813 Y101.752 F10800.000
G1 F1200
G1 X124.687 Y101.615 E0.00299
G1 X124.769 Y101.252 E0.00598
G1 X124.908 Y100.719 E0.00267
G1 X125.146 Y100.053 F10800.000
G1 F1200
G1 X125.258 Y99.801 E0.00203
G1 X125.375 Y99.539 E0.00311
G1 X125.463 Y99.385 E0.00237
G1 X125.633 Y98.852 F10800.000
G1 F1200
G1 X124.397 Y97.616 E0.05957
G1 X124.699 Y97.338 F10800.000
G1 F1200
G1 X125.825 Y98.463 E0.05427
G1 X126.142 Y98.201 E0.01404
G1 X125.134 Y97.193 E0.04858
G1 X125.467 Y96.946 E0.01413
G1 X126.514 Y97.993 E0.05047
G1 X126.892 Y97.791 E0.01461
G1 X125.827 Y96.726 E0.05137
G1 X126.200 Y96.520 E0.01455
G1 X127.337 Y97.656 E0.05480
G1 X127.666 Y97.556 E0.01173
G1 X127.803 Y97.543 E0.00470
G1 X126.594 Y96.333 E0.05831
G1 X127.019 Y96.179 E0.01543
G1 X128.331 Y97.491 E0.06326
G1 X128.344 Y97.490 E0.00044
G1 X128.344 Y96.924 E0.01929
G1 X127.467 Y96.047 E0.04229
G1 X127.941 Y95.941 E0.01656
G1 X128.514 Y96.514 E0.02761
M106 S255
;BEFORE_LAYER_CHANGE
G92 E0.0
;0.3


G1 F8640
G1 X127.941 Y95.941 E-0.18698
G1 X127.467 Y96.047 E-0.11217
G1 X128.344 Y96.924 E-0.28641
G1 X128.344 Y97.490 E-0.13064
G1 X128.331 Y97.491 E-0.00297
G1 X128.206 Y97.366 E-0.04083
G1 E-0.04000 F2100.00000
G1 Z0.800 F10800.000
;AFTER_LAYER_CHANGE
;0.3
G1 X130.074 Y97.706
G1 Z0.300
G1 E0.80000 F2100.00000
G1 F900
G1 X129.592 Y97.706 E0.00658
G1 X129.592 Y98.616 E0.01243
G1 X129.336 Y98.842 E0.00467
G1 X128.468 Y98.732 E0.01194
G1 X127.911 Y98.787 E0.00765
G1 X127.370 Y98.951 E0.00773
G1 X127.253 Y99.013 E0.00180
G1 X129.936 Y99.013 E0.03664
G1 X129.936 Y100.320 E0.01785
G1 X125.911 Y100.320 E0.05498
G1 X125.808 Y100.512 E0.00298
G1 X125.644 Y101.054 E0.00773
G1 X125.589 Y101.617 E0.00773
G1 X129.936 Y101.627 E0.05938
M73 P1 R83
G1 X129.936 Y102.934 E0.01785
G1 X125.922 Y102.934 E0.05482
G1 X126.075 Y103.219 E0.00442
G1 X126.434 Y103.657 E0.00773
G1 X126.871 Y104.016 E0.00773
G1 X127.293 Y104.241 E0.00655
G1 X129.936 Y104.241 E0.03609
G1 X129.936 Y105.548 E0.01785
G1 X129.367 Y105.548 E0.00776
G1 F8640
G1 X129.936 Y105.548 E-0.13125
G1 X129.936 Y104.241 E-0.30181
G1 X128.520 Y104.241 E-0.32695
G1 E-0.04000 F2100.00000
G1 Z0.900 F10800.000
G1 X122.936 Y104.241
G1 Z0.300
G1 E0.80000 F2100.00000
G1 F900
G1 X120.786 Y104.241 E0.02936
G1 X120.786 Y102.934 E0.01785
G1 X123.259 Y102.934 E0.03378
G1 X123.729 Y101.627 E0.01897
G1 X120.786 Y101.627 E0.04020
G1 X122.093 Y101.627 E0.01785
G1 X122.093 Y100.320 E0.01785
G1 X124.199 Y100.320 E0.02877
G1 X124.500 Y99.484 E0.01214
G1 X124.070 Y99.013 E0.00871
G1 X122.093 Y99.013 E0.02700
G1 X122.093 Y97.706 E0.01785
G1 X123.146 Y97.706 E0.01438
G1 F8640
G1 X122.093 Y97.706 E-0.24302
G1 X122.093 Y99.013 E-0.30181
