; generated by PrusaSlicer 2.1.1+win64 on 2020-05-27 at 19:05:43 UTC

; 

; external perimeters extrusion width = 0.45mm
; perimeters extrusion width = 0.45mm
; infill extrusion width = 0.45mm
; solid infill extrusion width = 0.45mm
; top infill extrusion width = 0.40mm
; support material extrusion width = 0.35mm
; first layer extrusion width = 0.42mm

M73 P0 R209
M201 X9000 Y9000 Z500 E10000 ; sets maximum accelerations, mm/sec^2
M203 X500 Y500 Z12 E120 ; sets maximum feedrates, mm/sec
M204 P2000 R1500 T2000 ; sets acceleration (P, T) and retract acceleration (R), mm/sec^2
M205 X10.00 Y10.00 Z0.20 E2.50 ; sets the jerk limits, mm/sec
M205 S0 T0 ; sets the minimum extruding and travel feed rate, mm/sec
M107
M862.3 P "MK2S" ; printer model check
M862.1 P0.4 ; nozzle diameter check
M115 U3.2.3 ; tell printer latest fw version
G90 ; use absolute coordinates
M83 ; extruder relative mode
M204 S2000 T1500 ; MK2 firmware only supports the old M204 format
M104 S215 ; set extruder temp
M140 S60 ; set bed temp
M190 S60 ; wait for bed temp
M109 S215 ; wait for extruder temp
G28 W ; home all without mesh bed level
G80 ; mesh bed leveling
G1 Y-3.0 F1000.0 ; go outside print area
G92 E0.0
G1 X60.0 E9.0  F1000.0 ; intro line
M73 P0 R209
G1 X100.0 E12.5 F1000.0 ; intro line
G92 E0.0
G21 ; set units to millimeters
G90 ; use absolute coordinates
M83 ; use relative distances for extrusion
M900 K30 ; Filament gcode
;BEFORE_LAYER_CHANGE
G92 E0.0
;0.2


G1 E-0.80000 F2100.00000
G1 Z0.600 F10800.000
;AFTER_LAYER_CHANGE
;0.2
G1 X74.899 Y100.766
G1 Z0.200
G1 E0.80000 F2100.00000
M204 S1000
G1 F1200
G1 X82.475 Y93.191 E0.33592
G1 X83.008 Y93.724 E0.02365
G1 X75.552 Y101.180 E0.33060
G1 X76.086 Y101.713 E0.02365
G1 X83.541 Y94.257 E0.33060
G1 X83.578 Y94.294 E0.00162
G1 X85.209 Y92.662 E0.07234
G1 X85.706 Y93.159 E0.02203
G1 X76.619 Y102.246 E0.40294
G1 X77.152 Y102.780 E0.02365
G1 X86.239 Y93.692 E0.40294
G1 X86.772 Y94.226 E0.02365
G1 X77.685 Y103.313 E0.40294
G1 X77.753 Y103.381 E0.00302
G1 X76.122 Y105.012 E0.07234
G1 X76.587 Y105.477 E0.02063
G1 X88.937 Y93.128 E0.54761
G1 X89.470 Y93.661 E0.02365
G1 X77.121 Y106.011 E0.54761
G1 X77.654 Y106.544 E0.02365
G1 X90.004 Y94.194 E0.54761
G1 X90.537 Y94.727 E0.02365
G1 X76.556 Y108.709 E0.61995
G1 X77.089 Y109.242 E0.02365
G1 X91.070 Y95.261 E0.61995
G1 X91.603 Y95.794 E0.02365
G1 X77.622 Y109.775 E0.61995
G1 X78.156 Y110.308 E0.02365
G1 X92.137 Y96.327 E0.61995
G1 X92.670 Y96.861 E0.02365
G1 X78.569 Y110.962 E0.62527
G1 E-0.80000 F2100.00000
G1 Z0.800 F10800.000
G1 X89.831 Y115.698
G1 Z0.200
G1 E0.80000 F2100.00000
G1 F1200
G1 X97.703 Y107.826 E0.34906
G1 X96.768 Y107.694 E0.02960
G1 X89.417 Y115.045 E0.32593
G1 X88.884 Y114.511 E0.02365
G1 X95.930 Y107.465 E0.31243
G1 X95.419 Y107.283 E0.01701
G1 X95.165 Y107.164 E0.00880
G1 X86.719 Y115.610 E0.37450
G1 X86.186 Y115.076 E0.02365
G1 X94.474 Y106.788 E0.36750
G1 X93.835 Y106.361 E0.02411
G1 X85.653 Y114.543 E0.36279
G1 X85.209 Y114.099 E0.01967
G1 X83.578 Y115.731 E0.07234
G1 X83.488 Y115.641 E0.00397
G1 X93.245 Y105.884 E0.43264
G1 X92.712 Y105.351 E0.02365
G1 X82.955 Y115.108 E0.43264
G1 X82.422 Y114.575 E0.02365
G1 X92.232 Y104.765 E0.43499
G1 X91.804 Y104.125 E0.02411
G1 X81.888 Y114.041 E0.43969
G1 X81.355 Y113.508 E0.02365
G1 X91.442 Y103.421 E0.44727
G1 X91.130 Y102.667 E0.02559
G1 X80.822 Y112.975 E0.45706
G1 X80.289 Y112.441 E0.02365
G1 X90.918 Y101.812 E0.47131
G1 X90.765 Y101.044 E0.02456
G1 X90.756 Y100.907 E0.00430
G1 X79.755 Y111.908 E0.48780
G1 X79.222 Y111.375 E0.02365
G1 X93.203 Y97.394 E0.61995
G1 X93.737 Y97.927 E0.02365
G1 X92.071 Y99.592 E0.07383
G1 X93.138 Y99.592 E0.03344
G1 X94.270 Y98.460 E0.05019
G1 X94.803 Y98.994 E0.02365
G1 X94.205 Y99.592 E0.02654
G1 X95.271 Y99.592 E0.03344
G1 X95.456 Y99.407 E0.00822
G1 E-0.80000 F2100.00000
G1 Z0.800 F10800.000
G1 X104.960 Y106.968
G1 Z0.200
G1 E0.80000 F2100.00000
G1 F1200
G1 X112.025 Y99.902 E0.31328
G1 X111.492 Y99.369 E0.02365
G1 X104.456 Y106.405 E0.31198
G1 X103.830 Y105.964 E0.02400
G1 X110.959 Y98.836 E0.31609
G1 X110.426 Y98.303 E0.02365
G1 X105.106 Y103.622 E0.23587
G1 X105.323 Y103.161 E0.01598
G1 X105.565 Y102.484 E0.02253
G1 X105.696 Y101.965 E0.01678
G1 X109.892 Y97.769 E0.18605
G1 X109.359 Y97.236 E0.02365
G1 X105.872 Y100.724 E0.15464
G1 X105.904 Y99.915 E0.02536
G1 X105.762 Y99.767 E0.00645
G1 X108.826 Y96.703 E0.13587
G1 X108.293 Y96.170 E0.02365
G1 X104.870 Y99.592 E0.15176
G1 X103.803 Y99.592 E0.03344
G1 X107.759 Y95.636 E0.17541
G1 X107.226 Y95.103 E0.02365
G1 X102.737 Y99.592 E0.19906
G1 X101.670 Y99.592 E0.03344
G1 X106.813 Y94.450 E0.22802
G1 E-0.80000 F2100.00000
G1 Z0.800 F10800.000
G1 X97.676 Y106.710
G1 Z0.200
G1 E0.80000 F2100.00000
G1 F1200
G1 X97.048 Y106.617 E0.01991
G1 X96.432 Y106.463 E0.01991
G1 X95.834 Y106.249 E0.01991
G1 X95.273 Y105.983 E0.01946
G1 X94.206 Y105.271 E0.04022
G1 X93.309 Y104.374 E0.03976
G1 X92.605 Y103.319 E0.03976
G1 X92.119 Y102.148 E0.03976
G1 X91.870 Y100.892 E0.04014
G1 X91.862 Y100.705 E0.00587
G1 X104.758 Y100.705 E0.40435
G1 X104.750 Y100.900 E0.00610
G1 X104.657 Y101.533 E0.02006
G1 X104.503 Y102.148 E0.01990
G1 X104.289 Y102.746 E0.01991
G1 X104.018 Y103.320 E0.01991
G1 X103.691 Y103.865 E0.01991
G1 X103.313 Y104.375 E0.01991
G1 X102.886 Y104.846 E0.01991
G1 X102.416 Y105.272 E0.01991
G1 X101.906 Y105.651 E0.01991
G1 X101.361 Y105.977 E0.01991
G1 X100.787 Y106.249 E0.01991
G1 X100.189 Y106.463 E0.01991
G1 X99.573 Y106.617 E0.01991
G1 X98.945 Y106.710 E0.01991
G1 X98.310 Y106.741 E0.01991
G1 X97.736 Y106.713 E0.01803
G1 X97.639 Y107.086 F10800.000
G1 F1200
G1 X96.974 Y106.987 E0.02107
G1 X96.322 Y106.824 E0.02107
G1 X95.689 Y106.597 E0.02107
G1 X95.086 Y106.312 E0.02091
G1 X93.966 Y105.564 E0.04225
G1 X93.016 Y104.614 E0.04209
G1 X92.271 Y103.498 E0.04209
G1 X91.757 Y102.258 E0.04209
G1 X91.494 Y100.937 E0.04223
G1 X91.470 Y100.328 E0.01910
G1 X105.151 Y100.328 E0.42897
G1 X105.126 Y100.935 E0.01904
G1 X105.028 Y101.606 E0.02127
G1 X104.864 Y102.258 E0.02107
G1 X104.638 Y102.891 E0.02107
G1 X104.351 Y103.498 E0.02107
G1 X104.005 Y104.075 E0.02107
G1 X103.605 Y104.615 E0.02107
G1 X103.153 Y105.113 E0.02107
G1 X102.655 Y105.564 E0.02107
G1 X102.115 Y105.965 E0.02107
G1 X101.539 Y106.310 E0.02107
G1 X100.931 Y106.597 E0.02107
G1 X100.298 Y106.824 E0.02107
G1 X99.646 Y106.987 E0.02107
G1 X98.982 Y107.086 E0.02107
G1 X98.310 Y107.119 E0.02107
G1 X97.699 Y107.089 E0.01919
G1 X97.474 Y106.721 F10800.000
G1 X95.024 Y105.681
G1 F1200
G1 X92.899 Y103.556 E0.09686
G1 X92.385 Y102.494 F10800.000
G1 F1200
G1 X95.821 Y105.930 E0.15659
G1 X96.514 Y106.192 E0.02388
G1 X96.670 Y106.231 E0.00519
G1 X92.363 Y101.924 E0.19632
G1 X92.227 Y101.240 E0.02249
G1 X97.366 Y106.378 E0.23423
G1 X97.704 Y106.428 E0.01102
G1 X97.977 Y106.442 E0.00883
G1 X92.524 Y100.988 E0.24860
G1 X93.072 Y100.988 E0.01767
G1 X98.531 Y106.447 E0.24885
G1 X98.917 Y106.428 E0.01245
G1 X99.042 Y106.410 E0.00407
G1 X93.620 Y100.988 E0.24714
G1 X94.168 Y100.988 E0.01767
G1 X99.519 Y106.339 E0.24391
G1 X99.958 Y106.229 E0.01457
G1 X94.717 Y100.988 E0.23890
G1 X95.265 Y100.988 E0.01767
G1 X100.373 Y106.096 E0.23286
G1 X100.769 Y105.944 E0.01368
G1 X95.813 Y100.988 E0.22592
G1 X96.361 Y100.988 E0.01767
G1 X101.141 Y105.768 E0.21790
G1 X101.491 Y105.570 E0.01296
G1 X96.909 Y100.988 E0.20884
G1 X97.458 Y100.988 E0.01767
G1 X101.827 Y105.357 E0.19916
G1 X102.141 Y105.124 E0.01263
G1 X98.006 Y100.988 E0.18852
G1 X98.554 Y100.988 E0.01767
G1 X102.437 Y104.871 E0.17701
G1 X102.721 Y104.607 E0.01250
G1 X99.102 Y100.988 E0.16496
G1 X99.650 Y100.988 E0.01767
G1 X102.982 Y104.319 E0.15185
G1 X103.227 Y104.016 E0.01256
G1 X100.199 Y100.988 E0.13804
G1 X100.747 Y100.988 E0.01767
G1 X103.460 Y103.701 E0.12367
G1 X103.665 Y103.358 E0.01288
G1 X101.295 Y100.988 E0.10804
G1 X101.843 Y100.988 E0.01767
G1 X103.856 Y103.001 E0.09175
G1 X104.031 Y102.628 E0.01328
G1 X102.391 Y100.988 E0.07474
G1 X102.940 Y100.988 E0.01767
G1 X104.176 Y102.224 E0.05634
G1 X104.299 Y101.799 E0.01426
G1 X103.488 Y100.988 E0.03697
G1 X104.036 Y100.988 E0.01767
G1 X104.548 Y101.500 E0.02333
G1 E-0.80000 F2100.00000
G1 Z0.800 F10800.000
G1 X130.512 Y105.912
G1 Z0.200
G1 E0.80000 F2100.00000
G1 F1200
G1 X129.513 Y105.893 E0.03132
G1 X128.582 Y105.850 E0.02921
G1 X127.767 Y105.768 E0.02570
G1 X127.124 Y105.631 E0.02060
G1 X126.626 Y105.443 E0.01669
G1 X126.251 Y105.215 E0.01376
G1 X125.987 Y104.984 E0.01101
G1 X125.783 Y104.765 E0.00938
G1 X125.615 Y104.531 E0.00902
G1 X125.476 Y104.275 E0.00913
G1 X125.298 Y103.768 E0.01686
G1 X125.176 Y103.173 E0.01902
G1 X125.132 Y102.826 E0.01097
G1 X125.084 Y102.088 E0.02320
G1 X125.066 Y101.163 E0.02900
G1 X125.067 Y98.942 E0.06964
G1 X125.095 Y97.923 E0.03197
G1 X125.146 Y97.398 E0.01651
G1 X125.229 Y96.880 E0.01646
G1 X125.341 Y96.352 E0.01693
G1 X125.513 Y95.804 E0.01801
G1 X125.657 Y95.489 E0.01084
G1 X126.010 Y94.942 E0.02042
G1 X126.420 Y94.450 E0.02007
G1 X126.959 Y93.879 E0.02464
G1 X127.124 Y93.647 E0.00891
G1 X127.221 Y93.392 E0.00855
G1 X127.310 Y92.880 E0.01630
G1 X127.384 Y92.618 E0.00855
G1 X127.522 Y92.329 E0.01003
G1 X127.727 Y92.055 E0.01072
G1 X127.968 Y91.803 E0.01094
G1 X128.473 Y91.393 E0.02040
G1 X128.758 Y91.206 E0.01069
G1 X129.313 Y90.921 E0.01957
G1 X129.946 Y90.691 E0.02111
G1 X130.334 Y90.591 E0.01255
G1 X130.771 Y90.511 E0.01393
G1 X131.277 Y90.453 E0.01597
G1 X131.864 Y90.419 E0.01844
G1 X132.927 Y90.405 E0.03333
G1 X135.698 Y90.448 E0.08690
G1 X137.388 Y90.525 E0.05305
G1 X138.882 Y90.663 E0.04703
G1 X140.665 Y90.886 E0.05635
G1 X141.092 Y93.135 E0.07176
G1 X141.246 Y94.210 E0.03406
G1 X141.293 Y94.807 E0.01876
G1 X141.300 Y95.428 E0.01949
G1 X141.256 Y96.071 E0.02019
G1 X141.161 Y96.725 E0.02072
G1 X141.015 Y97.387 E0.02127
G1 X140.820 Y98.056 E0.02183
G1 X140.575 Y98.726 E0.02239
G1 X140.287 Y99.383 E0.02247
G1 X139.962 Y100.009 E0.02214
G1 X139.603 Y100.593 E0.02148
G1 X138.501 Y102.060 E0.05752
G1 X139.091 Y101.918 E0.01904
G1 X139.621 Y101.691 E0.01806
G1 X140.236 Y101.341 E0.02218
G1 X140.891 Y100.890 E0.02492
G1 X141.546 Y100.360 E0.02645
G1 X142.172 Y99.766 E0.02703
G1 X142.737 Y99.127 E0.02675
G1 X143.213 Y98.461 E0.02567
G1 X143.580 Y97.777 E0.02434
G1 X143.856 Y97.080 E0.02349
G1 X144.049 Y96.385 E0.02261
G1 X144.170 Y95.708 E0.02157
G1 X144.230 Y95.061 E0.02037
G1 X144.246 Y94.470 E0.01855
G1 X144.218 Y93.235 E0.03872
G1 X144.350 Y91.946 E0.04063
G1 X146.115 Y93.103 E0.06616
G1 X146.577 Y93.455 E0.01821
G1 X147.001 Y93.844 E0.01803
G1 X147.358 Y94.274 E0.01753
G1 X147.643 Y94.722 E0.01664
G1 X147.863 Y95.174 E0.01577
G1 X148.026 Y95.619 E0.01486
G1 X148.140 Y96.048 E0.01391
G1 X148.214 Y96.472 E0.01352
G1 X148.263 Y97.251 E0.02445
G1 X148.238 Y98.001 E0.02353
G1 X148.151 Y98.903 E0.02842
G1 X148.096 Y99.188 E0.00911
G1 X147.999 Y99.484 E0.00975
G1 X147.851 Y99.795 E0.01079
G1 X147.644 Y100.135 E0.01249
G1 X147.378 Y100.512 E0.01447
G1 X146.689 Y101.348 E0.03396
G1 X145.789 Y102.295 E0.04097
G1 X144.331 Y103.683 E0.06313
G1 X143.847 Y104.102 E0.02007
G1 X143.363 Y104.482 E0.01927
G1 X142.870 Y104.816 E0.01868
G1 X142.368 Y105.091 E0.01795
G1 X141.864 Y105.309 E0.01723
G1 X141.358 Y105.477 E0.01670
G1 X140.853 Y105.602 E0.01633
G1 X140.339 Y105.694 E0.01637
G1 X139.236 Y105.801 E0.03474
G1 X137.009 Y105.882 E0.06987
G1 X133.418 Y105.922 E0.11262
G1 X130.572 Y105.913 E0.08924
G1 X130.516 Y105.535 F10800.000
G1 F1200
G1 X129.525 Y105.516 E0.03107
G1 X128.610 Y105.473 E0.02874
G1 X127.825 Y105.395 E0.02473
G1 X127.231 Y105.268 E0.01905
G1 X126.792 Y105.102 E0.01472
G1 X126.475 Y104.910 E0.01162
G1 X126.250 Y104.713 E0.00937
G1 X126.075 Y104.525 E0.00806
G1 X125.935 Y104.331 E0.00751
G1 X125.822 Y104.122 E0.00743
G1 X125.662 Y103.667 E0.01513
G1 X125.548 Y103.112 E0.01776
G1 X125.508 Y102.790 E0.01016
G1 X125.461 Y102.072 E0.02258
G1 X125.443 Y101.159 E0.02862
G1 X125.444 Y98.947 E0.06936
G1 X125.471 Y97.946 E0.03140
G1 X125.520 Y97.446 E0.01574
G1 X125.599 Y96.949 E0.01580
G1 X125.706 Y96.448 E0.01606
G1 X125.866 Y95.940 E0.01670
G1 X125.989 Y95.671 E0.00926
G1 X126.314 Y95.166 E0.01885
G1 X126.702 Y94.701 E0.01897
G1 X127.244 Y94.126 E0.02478
G1 X127.464 Y93.814 E0.01198
G1 X127.587 Y93.493 E0.01076
G1 X127.678 Y92.964 E0.01683
G1 X127.738 Y92.751 E0.00693
G1 X127.846 Y92.525 E0.00785
G1 X128.015 Y92.300 E0.00883
G1 X128.224 Y92.081 E0.00948
G1 X128.696 Y91.698 E0.01907
G1 X128.949 Y91.532 E0.00946
G1 X129.464 Y91.267 E0.01819
G1 X130.058 Y91.052 E0.01979
G1 X130.415 Y90.959 E0.01156
G1 X130.826 Y90.884 E0.01311
G1 X131.309 Y90.829 E0.01523
G1 X131.877 Y90.796 E0.01784
G1 X132.926 Y90.782 E0.03291
G1 X135.686 Y90.825 E0.08655
G1 X137.362 Y90.901 E0.05260
G1 X138.841 Y91.038 E0.04656
G1 X140.346 Y91.226 E0.04755
G1 X140.720 Y93.197 E0.06289
G1 X140.871 Y94.252 E0.03341
G1 X140.916 Y94.824 E0.01799
G1 X140.923 Y95.418 E0.01863
G1 X140.880 Y96.031 E0.01926
G1 X140.789 Y96.657 E0.01985
G1 X140.650 Y97.294 E0.02044
G1 X140.461 Y97.938 E0.02103
G1 X140.225 Y98.586 E0.02162
G1 X139.946 Y99.220 E0.02172
G1 X139.633 Y99.824 E0.02133
G1 X139.291 Y100.381 E0.02050
G1 X138.346 Y101.639 E0.04933
G1 X138.211 Y101.916 E0.00966
G1 X138.201 Y102.123 E0.00650
G1 X138.273 Y102.265 E0.00499
G1 X138.439 Y102.364 E0.00607
G1 X138.747 Y102.389 E0.00969
G1 X139.211 Y102.277 E0.01494
G1 X139.789 Y102.029 E0.01973
G1 X140.436 Y101.661 E0.02335
G1 X141.116 Y101.192 E0.02589
G1 X141.795 Y100.643 E0.02737
G1 X142.443 Y100.028 E0.02802
G1 X143.032 Y99.362 E0.02788
G1 X143.534 Y98.661 E0.02704
G1 X143.923 Y97.936 E0.02579
G1 X144.214 Y97.200 E0.02480
G1 X144.417 Y96.469 E0.02379
G1 X144.544 Y95.759 E0.02263
G1 X144.606 Y95.084 E0.02126
G1 X144.623 Y94.471 E0.01923
G1 X144.595 Y93.250 E0.03827
G1 X144.662 Y92.601 E0.02045
G1 X145.897 Y93.411 E0.04631
G1 X146.335 Y93.744 E0.01725
G1 X146.727 Y94.104 E0.01668
G1 X147.053 Y94.496 E0.01598
G1 X147.313 Y94.906 E0.01523
G1 X147.516 Y95.322 E0.01450
G1 X147.666 Y95.733 E0.01372
G1 X147.772 Y96.129 E0.01285
G1 X147.839 Y96.517 E0.01235
G1 X147.886 Y97.256 E0.02323
G1 X147.862 Y97.976 E0.02258
G1 X147.777 Y98.849 E0.02750
G1 X147.730 Y99.094 E0.00782
G1 X147.648 Y99.344 E0.00823
G1 X147.519 Y99.615 E0.00942
G1 X147.328 Y99.928 E0.01149
G1 X147.078 Y100.283 E0.01362
G1 X146.406 Y101.098 E0.03310
G1 X145.522 Y102.028 E0.04025
G1 X144.077 Y103.404 E0.06255
G1 X143.607 Y103.811 E0.01950
G1 X143.141 Y104.177 E0.01857
G1 X142.673 Y104.494 E0.01771
G1 X142.202 Y104.752 E0.01684
G1 X141.729 Y104.957 E0.01616
G1 X141.254 Y105.115 E0.01572
G1 X140.774 Y105.233 E0.01548
G1 X140.288 Y105.320 E0.01550
G1 X139.211 Y105.425 E0.03391
G1 X137.000 Y105.505 E0.06936
G1 X133.416 Y105.545 E0.11238
G1 X130.576 Y105.536 E0.08906
G1 X130.312 Y105.879 F10800.000
G1 E-0.80000 F2100.00000
G1 Z0.800 F10800.000
G1 X151.233 Y142.199
G1 Z0.200
G1 E0.80000 F2100.00000
G1 F1200
G1 X152.736 Y138.681 E0.11995
G1 X153.032 Y137.380 E0.04184
G1 X153.123 Y135.414 E0.06169
G1 X152.927 Y132.459 E0.09286
G1 X152.359 Y128.166 E0.13578
G1 X151.578 Y123.243 E0.15628
G1 X150.743 Y118.398 E0.15414
G1 X149.540 Y111.811 E0.20996
G1 X149.257 Y110.393 E0.04533
G1 X149.082 Y109.686 E0.02283
G1 X148.814 Y109.086 E0.02060
G1 X148.637 Y108.783 E0.01101
G1 X148.434 Y108.494 E0.01108
G1 X148.196 Y108.215 E0.01149
G1 X147.919 Y107.948 E0.01207
G1 X147.335 Y107.503 E0.02302
G1 X146.713 Y107.134 E0.02267
G1 X146.103 Y106.842 E0.02121
G1 X145.292 Y106.536 E0.02719
G1 X144.595 Y106.340 E0.02268
G1 X144.084 Y106.260 E0.01624
G1 X143.381 Y106.232 E0.02205
G1 X142.455 Y106.266 E0.02906
G1 X141.923 Y106.312 E0.01674
G1 X140.159 Y106.530 E0.05572
G1 X139.442 Y106.587 E0.02257
G1 X137.652 Y106.627 E0.05612
G1 X124.567 Y106.511 E0.41030
G1 X123.718 Y106.461 E0.02664
G1 X123.596 Y106.431 E0.00396
G1 X123.408 Y106.343 E0.00649
G1 X123.247 Y106.214 E0.00648
G1 X123.188 Y106.142 E0.00290
G1 X123.101 Y105.927 E0.00728
G1 X123.119 Y105.698 E0.00720
G1 X123.371 Y104.978 E0.02392
G1 X123.500 Y104.446 E0.01718
G1 X123.553 Y104.115 E0.01052
G1 X123.640 Y103.027 E0.03421
G1 X123.636 Y101.546 E0.04643
G1 X123.520 Y99.039 E0.07868
G1 X123.413 Y97.650 E0.04369
