; generated by PrusaSlicer 2.2.0+win64 on 2021-01-29 at 19:01:43 UTC

; 

; external perimeters extrusion width = 0.60mm
; perimeters extrusion width = 0.43mm
; infill extrusion width = 0.45mm
; solid infill extrusion width = 0.70mm
; top infill extrusion width = 0.43mm
; first layer extrusion width = 0.42mm

M73 P0 R21
M201 X9000 Y9000 Z500 E10000 ; sets maximum accelerations, mm/sec^2
M203 X500 Y500 Z12 E120 ; sets maximum feedrates, mm/sec
M204 P2000 R1500 T2000 ; sets acceleration (P, T) and retract acceleration (R), mm/sec^2
M205 X10.00 Y10.00 Z0.20 E2.50 ; sets the jerk limits, mm/sec
M205 S0 T0 ; sets the minimum extruding and travel feed rate, mm/sec
M107
M862.3 P "MK2S" ; printer model check
M862.1 P0.4 ; nozzle diameter check
M115 U3.2.3 ; tell printer latest fw version
G90 ; use absolute coordinates
M83 ; extruder relative mode
M204 S2000 T1500 ; MK2 firmware only supports the old M204 format
M104 S215 ; set extruder temp
M140 S60 ; set bed temp
M190 S60 ; wait for bed temp
M109 S215 ; wait for extruder temp
G28 W ; home all without mesh bed level
G80 ; mesh bed leveling
G1 Y-3.0 F1000.0 ; go outside print area
G92 E0.0
G1 X60.0 E9.0  F1000.0 ; intro line
M73 P0 R21
G1 X100.0 E12.5 F1000.0 ; intro line
G92 E0.0
G21 ; set units to millimeters
G90 ; use absolute coordinates
M83 ; use relative distances for extrusion
M900 K0.05 ; Filament gcode LA 1.5
M900 K30 ; Filament gcode LA 1.0
;BEFORE_LAYER_CHANGE
G92 E0.0
;0.2


G1 E-0.80000 F2100.00000
G1 Z0.600 F10800.000
;AFTER_LAYER_CHANGE
;0.2
G1 X98.931 Y68.638
G1 Z0.200
G1 E0.80000 F2100.00000
M204 S1000
G1 F1200.000
G1 X99.213 Y68.024 E0.02119
G1 X99.583 Y67.581 E0.01811
G1 X100.052 Y67.238 E0.01823
G1 X100.587 Y67.020 E0.01811
G1 X101.159 Y66.938 E0.01811
G1 X148.794 Y66.937 E1.49358
G1 X149.689 Y67.114 E0.02860
G1 X150.452 Y67.614 E0.02860
G1 X150.969 Y68.362 E0.02849
G1 X151.167 Y69.252 E0.02860
G1 X151.168 Y140.697 E2.24011
G1 X151.069 Y141.362 E0.02107
G1 X150.787 Y141.976 E0.02119
G1 X150.414 Y142.422 E0.01823
G1 X149.941 Y142.766 E0.01835
G1 X149.398 Y142.984 E0.01835
G1 X148.822 Y143.063 E0.01823
G1 X101.190 Y143.063 E1.49346
G1 X100.526 Y142.963 E0.02107
G1 X99.919 Y142.682 E0.02095
G1 X99.471 Y142.307 E0.01835
G1 X99.127 Y141.833 E0.01835
G1 X98.910 Y141.290 E0.01835
G1 X98.832 Y140.710 E0.01835
G1 X98.832 Y69.303 E2.23892
G1 X98.922 Y68.697 E0.01919
; printing object Diffuser.STL id:1 copy 1
G1 E-0.80000 F2100.00000
G1 Z0.800 F10800.000
G1 X101.996 Y121.682
G1 Z0.200
G1 E0.80000 F2100.00000
G1 F1200.000
G1 X121.213 Y121.682 E0.60252
G1 X121.213 Y139.899 E0.57116
G1 X101.996 Y139.899 E0.60252
G1 X101.996 Y121.742 E0.56928
G1 X101.619 Y121.305 F10800.000
G1 F1200.000
G1 X121.590 Y121.305 E0.62616
G1 X121.590 Y140.276 E0.59481
G1 X101.619 Y140.276 E0.62616
G1 X101.619 Y121.365 E0.59293
G1 X102.007 Y121.406 F10800.000
G1 E-0.80000 F2100.00000
G1 Z0.800 F10800.000
G1 X121.100 Y122.563
G1 Z0.200
G1 E0.80000 F2100.00000
G1 F1200.000
G1 X120.502 Y121.965 E0.02671
G1 X119.965 Y121.965 E0.01696
G1 X120.930 Y122.931 E0.04312
G1 X120.930 Y123.468 E0.01696
G1 X119.427 Y121.965 E0.06710
G1 X118.890 Y121.965 E0.01696
G1 X120.930 Y124.005 E0.09108
G1 X120.930 Y124.542 E0.01696
G1 X118.353 Y121.965 E0.11506
G1 X117.816 Y121.965 E0.01696
G1 X120.930 Y125.079 E0.13905
G1 X120.930 Y125.616 E0.01696
G1 X117.279 Y121.965 E0.16303
G1 X116.742 Y121.965 E0.01696
G1 X120.930 Y126.153 E0.18701
G1 X120.930 Y126.690 E0.01696
G1 X116.205 Y121.965 E0.21099
G1 X115.668 Y121.965 E0.01696
G1 X120.930 Y127.227 E0.23497
G1 X120.930 Y127.764 E0.01696
G1 X115.131 Y121.965 E0.25895
G1 X114.594 Y121.965 E0.01696
G1 X120.930 Y128.301 E0.28293
G1 X120.930 Y128.838 E0.01696
G1 X114.057 Y121.965 E0.30692
G1 X113.520 Y121.965 E0.01696
G1 X120.930 Y129.375 E0.33090
G1 X120.930 Y129.912 E0.01696
G1 X112.983 Y121.965 E0.35488
G1 X112.446 Y121.965 E0.01696
G1 X120.930 Y130.449 E0.37886
G1 X120.930 Y130.986 E0.01696
G1 X111.909 Y121.965 E0.40284
G1 X111.372 Y121.965 E0.01696
G1 X120.930 Y131.523 E0.42682
G1 X120.930 Y132.060 E0.01696
G1 X110.835 Y121.965 E0.45081
G1 X110.298 Y121.965 E0.01696
G1 X120.930 Y132.597 E0.47479
G1 X120.930 Y133.135 E0.01696
G1 X109.761 Y121.965 E0.49877
G1 X109.224 Y121.965 E0.01696
G1 X120.930 Y133.672 E0.52275
G1 X120.930 Y134.209 E0.01696
G1 X108.687 Y121.965 E0.54673
G1 X108.150 Y121.965 E0.01696
G1 X120.930 Y134.746 E0.57071
G1 X120.930 Y135.283 E0.01696
G1 X107.613 Y121.965 E0.59470
G1 X107.076 Y121.965 E0.01696
G1 X120.930 Y135.820 E0.61868
G1 X120.930 Y136.357 E0.01696
G1 X106.539 Y121.965 E0.64266
G1 X106.001 Y121.965 E0.01696
G1 X120.930 Y136.894 E0.66664
G1 X120.930 Y137.431 E0.01696
G1 X105.464 Y121.965 E0.69062
G1 X104.927 Y121.965 E0.01696
G1 X120.930 Y137.968 E0.71460
G1 X120.930 Y138.505 E0.01696
G1 X104.390 Y121.965 E0.73859
G1 X103.853 Y121.965 E0.01696
G1 X120.930 Y139.042 E0.76257
G1 X120.930 Y139.579 E0.01696
G1 X103.316 Y121.965 E0.78655
G1 X102.779 Y121.965 E0.01696
G1 X120.430 Y139.616 E0.78820
G1 X119.893 Y139.616 E0.01696
G1 X102.279 Y122.002 E0.78654
G1 X102.279 Y122.539 E0.01696
G1 X119.356 Y139.616 E0.76256
G1 X118.819 Y139.616 E0.01696
G1 X102.279 Y123.076 E0.73858
G1 X102.279 Y123.613 E0.01696
G1 X118.282 Y139.616 E0.71460
G1 X117.745 Y139.616 E0.01696
G1 X102.279 Y124.150 E0.69062
G1 X102.279 Y124.687 E0.01696
G1 X117.208 Y139.616 E0.66664
G1 X116.671 Y139.616 E0.01696
G1 X102.279 Y125.225 E0.64265
G1 X102.279 Y125.762 E0.01696
G1 X116.134 Y139.616 E0.61867
G1 X115.597 Y139.616 E0.01696
G1 X102.279 Y126.299 E0.59469
G1 X102.279 Y126.836 E0.01696
G1 X115.060 Y139.616 E0.57071
G1 X114.523 Y139.616 E0.01696
G1 X102.279 Y127.373 E0.54673
M73 P4 R20
G1 X102.279 Y127.910 E0.01696
G1 X113.986 Y139.616 E0.52275
G1 X113.449 Y139.616 E0.01696
G1 X102.279 Y128.447 E0.49876
G1 X102.279 Y128.984 E0.01696
G1 X112.911 Y139.616 E0.47478
G1 X112.374 Y139.616 E0.01696
G1 X102.279 Y129.521 E0.45080
G1 X102.279 Y130.058 E0.01696
G1 X111.837 Y139.616 E0.42682
G1 X111.300 Y139.616 E0.01696
G1 X102.279 Y130.595 E0.40284
G1 X102.279 Y131.132 E0.01696
G1 X110.763 Y139.616 E0.37886
G1 X110.226 Y139.616 E0.01696
G1 X102.279 Y131.669 E0.35487
G1 X102.279 Y132.206 E0.01696
G1 X109.689 Y139.616 E0.33089
G1 X109.152 Y139.616 E0.01696
G1 X102.279 Y132.743 E0.30691
G1 X102.279 Y133.280 E0.01696
G1 X108.615 Y139.616 E0.28293
G1 X108.078 Y139.616 E0.01696
G1 X102.279 Y133.817 E0.25895
G1 X102.279 Y134.354 E0.01696
G1 X107.541 Y139.616 E0.23497
G1 X107.004 Y139.616 E0.01696
G1 X102.279 Y134.891 E0.21099
G1 X102.279 Y135.428 E0.01696
G1 X106.467 Y139.616 E0.18700
G1 X105.930 Y139.616 E0.01696
G1 X102.279 Y135.965 E0.16302
G1 X102.279 Y136.502 E0.01696
G1 X105.393 Y139.616 E0.13904
G1 X104.856 Y139.616 E0.01696
G1 X102.279 Y137.039 E0.11506
G1 X102.279 Y137.576 E0.01696
G1 X104.319 Y139.616 E0.09108
G1 X103.782 Y139.616 E0.01696
G1 X102.279 Y138.113 E0.06710
G1 X102.279 Y138.651 E0.01696
G1 X103.245 Y139.616 E0.04311
G1 X102.708 Y139.616 E0.01696
G1 X102.110 Y139.018 E0.02671
; stop printing object Diffuser.STL id:1 copy 1
; printing object Diffuser.STL id:0 copy 0
G1 E-0.80000 F2100.00000
G1 Z0.800 F10800.000
G1 X102.110 Y114.108
G1 Z0.200
G1 E0.80000 F2100.00000
G1 F1200.000
G1 X101.996 Y114.108 E0.00355
G1 X101.996 Y95.892 E0.57116
G1 X121.213 Y95.892 E0.60252
G1 X121.213 Y114.108 E0.57116
G1 X102.170 Y114.108 E0.59709
G1 X101.619 Y114.485 F10800.000
G1 F1200.000
G1 X101.619 Y95.515 E0.59481
G1 X121.590 Y95.515 E0.62616
G1 X121.590 Y114.485 E0.59481
G1 X101.679 Y114.485 E0.62428
G1 X101.726 Y114.100 F10800.000
G1 E-0.80000 F2100.00000
G1 Z0.800 F10800.000
G1 X121.100 Y96.773
G1 Z0.200
G1 E0.80000 F2100.00000
G1 F1200.000
G1 X120.502 Y96.175 E0.02671
G1 X119.965 Y96.175 E0.01696
G1 X120.930 Y97.140 E0.04312
G1 X120.930 Y97.677 E0.01696
G1 X119.427 Y96.175 E0.06710
G1 X118.890 Y96.175 E0.01696
G1 X120.930 Y98.214 E0.09108
G1 X120.930 Y98.751 E0.01696
G1 X118.353 Y96.175 E0.11506
G1 X117.816 Y96.175 E0.01696
G1 X120.930 Y99.288 E0.13905
G1 X120.930 Y99.825 E0.01696
G1 X117.279 Y96.175 E0.16303
G1 X116.742 Y96.175 E0.01696
G1 X120.930 Y100.362 E0.18701
G1 X120.930 Y100.899 E0.01696
G1 X116.205 Y96.175 E0.21099
G1 X115.668 Y96.175 E0.01696
G1 X120.930 Y101.437 E0.23497
G1 X120.930 Y101.974 E0.01696
G1 X115.131 Y96.175 E0.25895
G1 X114.594 Y96.175 E0.01696
G1 X120.930 Y102.511 E0.28293
G1 X120.930 Y103.048 E0.01696
G1 X114.057 Y96.175 E0.30692
G1 X113.520 Y96.175 E0.01696
G1 X120.930 Y103.585 E0.33090
G1 X120.930 Y104.122 E0.01696
G1 X112.983 Y96.175 E0.35488
G1 X112.446 Y96.175 E0.01696
G1 X120.930 Y104.659 E0.37886
G1 X120.930 Y105.196 E0.01696
G1 X111.909 Y96.175 E0.40284
G1 X111.372 Y96.175 E0.01696
G1 X120.930 Y105.733 E0.42682
G1 X120.930 Y106.270 E0.01696
G1 X110.835 Y96.175 E0.45081
G1 X110.298 Y96.175 E0.01696
G1 X120.930 Y106.807 E0.47479
G1 X120.930 Y107.344 E0.01696
G1 X109.761 Y96.175 E0.49877
G1 X109.224 Y96.175 E0.01696
G1 X120.930 Y107.881 E0.52275
G1 X120.930 Y108.418 E0.01696
G1 X108.687 Y96.175 E0.54673
G1 X108.150 Y96.175 E0.01696
G1 X120.930 Y108.955 E0.57071
G1 X120.930 Y109.492 E0.01696
G1 X107.613 Y96.175 E0.59470
G1 X107.076 Y96.175 E0.01696
G1 X120.930 Y110.029 E0.61868
G1 X120.930 Y110.566 E0.01696
G1 X106.539 Y96.175 E0.64266
G1 X106.001 Y96.175 E0.01696
G1 X120.930 Y111.103 E0.66664
G1 X120.930 Y111.640 E0.01696
G1 X105.464 Y96.175 E0.69062
G1 X104.927 Y96.175 E0.01696
G1 X120.930 Y112.177 E0.71460
G1 X120.930 Y112.714 E0.01696
G1 X104.390 Y96.175 E0.73859
G1 X103.853 Y96.175 E0.01696
G1 X120.930 Y113.251 E0.76257
G1 X120.930 Y113.788 E0.01696
G1 X103.316 Y96.175 E0.78655
G1 X102.779 Y96.175 E0.01696
G1 X120.430 Y113.825 E0.78820
G1 X119.893 Y113.825 E0.01696
G1 X102.279 Y96.212 E0.78654
G1 X102.279 Y96.749 E0.01696
G1 X119.356 Y113.825 E0.76256
G1 X118.819 Y113.825 E0.01696
G1 X102.279 Y97.286 E0.73858
G1 X102.279 Y97.823 E0.01696
G1 X118.282 Y113.825 E0.71460
G1 X117.745 Y113.825 E0.01696
G1 X102.279 Y98.360 E0.69062
G1 X102.279 Y98.897 E0.01696
G1 X117.208 Y113.825 E0.66664
G1 X116.671 Y113.825 E0.01696
G1 X102.279 Y99.434 E0.64265
G1 X102.279 Y99.971 E0.01696
G1 X116.134 Y113.825 E0.61867
G1 X115.597 Y113.825 E0.01696
G1 X102.279 Y100.508 E0.59469
G1 X102.279 Y101.045 E0.01696
G1 X115.060 Y113.825 E0.57071
G1 X114.523 Y113.825 E0.01696
G1 X102.279 Y101.582 E0.54673
G1 X102.279 Y102.119 E0.01696
G1 X113.986 Y113.825 E0.52275
G1 X113.449 Y113.825 E0.01696
G1 X102.279 Y102.656 E0.49876
G1 X102.279 Y103.193 E0.01696
G1 X112.911 Y113.825 E0.47478
G1 X112.374 Y113.825 E0.01696
G1 X102.279 Y103.730 E0.45080
G1 X102.279 Y104.267 E0.01696
G1 X111.837 Y113.825 E0.42682
G1 X111.300 Y113.825 E0.01696
G1 X102.279 Y104.804 E0.40284
G1 X102.279 Y105.341 E0.01696
G1 X110.763 Y113.825 E0.37886
G1 X110.226 Y113.825 E0.01696
G1 X102.279 Y105.878 E0.35487
M73 P9 R19
G1 X102.279 Y106.415 E0.01696
G1 X109.689 Y113.825 E0.33089
G1 X109.152 Y113.825 E0.01696
G1 X102.279 Y106.952 E0.30691
G1 X102.279 Y107.490 E0.01696
G1 X108.615 Y113.825 E0.28293
G1 X108.078 Y113.825 E0.01696
G1 X102.279 Y108.027 E0.25895
G1 X102.279 Y108.564 E0.01696
G1 X107.541 Y113.825 E0.23497
G1 X107.004 Y113.825 E0.01696
G1 X102.279 Y109.101 E0.21099
G1 X102.279 Y109.638 E0.01696
G1 X106.467 Y113.825 E0.18700
G1 X105.930 Y113.825 E0.01696
G1 X102.279 Y110.175 E0.16302
G1 X102.279 Y110.712 E0.01696
G1 X105.393 Y113.825 E0.13904
G1 X104.856 Y113.825 E0.01696
G1 X102.279 Y111.249 E0.11506
G1 X102.279 Y111.786 E0.01696
G1 X104.319 Y113.825 E0.09108
G1 X103.782 Y113.825 E0.01696
G1 X102.279 Y112.323 E0.06710
G1 X102.279 Y112.860 E0.01696
G1 X103.245 Y113.825 E0.04311
G1 X102.708 Y113.825 E0.01696
G1 X102.110 Y113.227 E0.02671
; stop printing object Diffuser.STL id:0 copy 0
; printing object Diffuser.STL id:0 copy 1
G1 E-0.80000 F2100.00000
G1 Z0.800 F10800.000
G1 X102.110 Y88.318
G1 Z0.200
G1 E0.80000 F2100.00000
G1 F1200.000
G1 X101.996 Y88.318 E0.00355
G1 X101.996 Y70.101 E0.57116
G1 X121.213 Y70.101 E0.60252
G1 X121.213 Y88.318 E0.57116
G1 X102.170 Y88.318 E0.59709
G1 X101.619 Y88.695 F10800.000
G1 F1200.000
G1 X101.619 Y69.724 E0.59481
G1 X121.590 Y69.724 E0.62616
G1 X121.590 Y88.695 E0.59481
G1 X101.679 Y88.695 E0.62428
G1 X101.726 Y88.309 F10800.000
G1 E-0.80000 F2100.00000
G1 Z0.800 F10800.000
G1 X121.100 Y70.982
G1 Z0.200
G1 E0.80000 F2100.00000
G1 F1200.000
G1 X120.502 Y70.384 E0.02671
G1 X119.965 Y70.384 E0.01696
G1 X120.930 Y71.350 E0.04312
G1 X120.930 Y71.887 E0.01696
G1 X119.427 Y70.384 E0.06710
G1 X118.890 Y70.384 E0.01696
G1 X120.930 Y72.424 E0.09108
G1 X120.930 Y72.961 E0.01696
G1 X118.353 Y70.384 E0.11506
G1 X117.816 Y70.384 E0.01696
G1 X120.930 Y73.498 E0.13905
G1 X120.930 Y74.035 E0.01696
G1 X117.279 Y70.384 E0.16303
G1 X116.742 Y70.384 E0.01696
G1 X120.930 Y74.572 E0.18701
G1 X120.930 Y75.109 E0.01696
G1 X116.205 Y70.384 E0.21099
G1 X115.668 Y70.384 E0.01696
G1 X120.930 Y75.646 E0.23497
G1 X120.930 Y76.183 E0.01696
G1 X115.131 Y70.384 E0.25895
G1 X114.594 Y70.384 E0.01696
G1 X120.930 Y76.720 E0.28293
G1 X120.930 Y77.257 E0.01696
G1 X114.057 Y70.384 E0.30692
G1 X113.520 Y70.384 E0.01696
G1 X120.930 Y77.794 E0.33090
G1 X120.930 Y78.331 E0.01696
G1 X112.983 Y70.384 E0.35488
G1 X112.446 Y70.384 E0.01696
G1 X120.930 Y78.868 E0.37886
G1 X120.930 Y79.405 E0.01696
G1 X111.909 Y70.384 E0.40284
G1 X111.372 Y70.384 E0.01696
G1 X120.930 Y79.942 E0.42682
G1 X120.930 Y80.479 E0.01696
G1 X110.835 Y70.384 E0.45081
G1 X110.298 Y70.384 E0.01696
G1 X120.930 Y81.016 E0.47479
G1 X120.930 Y81.553 E0.01696
G1 X109.761 Y70.384 E0.49877
G1 X109.224 Y70.384 E0.01696
G1 X120.930 Y82.090 E0.52275
G1 X120.930 Y82.627 E0.01696
G1 X108.687 Y70.384 E0.54673
G1 X108.150 Y70.384 E0.01696
G1 X120.930 Y83.164 E0.57071
G1 X120.930 Y83.702 E0.01696
G1 X107.613 Y70.384 E0.59470
G1 X107.076 Y70.384 E0.01696
G1 X120.930 Y84.239 E0.61868
G1 X120.930 Y84.776 E0.01696
G1 X106.539 Y70.384 E0.64266
G1 X106.001 Y70.384 E0.01696
G1 X120.930 Y85.313 E0.66664
G1 X120.930 Y85.850 E0.01696
G1 X105.464 Y70.384 E0.69062
G1 X104.927 Y70.384 E0.01696
G1 X120.930 Y86.387 E0.71460
G1 X120.930 Y86.924 E0.01696
G1 X104.390 Y70.384 E0.73859
G1 X103.853 Y70.384 E0.01696
G1 X120.930 Y87.461 E0.76257
G1 X120.930 Y87.998 E0.01696
G1 X103.316 Y70.384 E0.78655
G1 X102.779 Y70.384 E0.01696
G1 X120.430 Y88.035 E0.78820
G1 X119.893 Y88.035 E0.01696
G1 X102.279 Y70.421 E0.78654
G1 X102.279 Y70.958 E0.01696
G1 X119.356 Y88.035 E0.76256
G1 X118.819 Y88.035 E0.01696
G1 X102.279 Y71.495 E0.73858
G1 X102.279 Y72.032 E0.01696
G1 X118.282 Y88.035 E0.71460
G1 X117.745 Y88.035 E0.01696
G1 X102.279 Y72.569 E0.69062
G1 X102.279 Y73.106 E0.01696
G1 X117.208 Y88.035 E0.66664
G1 X116.671 Y88.035 E0.01696
G1 X102.279 Y73.643 E0.64265
G1 X102.279 Y74.180 E0.01696
G1 X116.134 Y88.035 E0.61867
G1 X115.597 Y88.035 E0.01696
G1 X102.279 Y74.717 E0.59469
G1 X102.279 Y75.254 E0.01696
G1 X115.060 Y88.035 E0.57071
G1 X114.523 Y88.035 E0.01696
G1 X102.279 Y75.791 E0.54673
G1 X102.279 Y76.329 E0.01696
G1 X113.986 Y88.035 E0.52275
G1 X113.449 Y88.035 E0.01696
G1 X102.279 Y76.866 E0.49876
G1 X102.279 Y77.403 E0.01696
G1 X112.911 Y88.035 E0.47478
G1 X112.374 Y88.035 E0.01696
G1 X102.279 Y77.940 E0.45080
G1 X102.279 Y78.477 E0.01696
G1 X111.837 Y88.035 E0.42682
G1 X111.300 Y88.035 E0.01696
G1 X102.279 Y79.014 E0.40284
G1 X102.279 Y79.551 E0.01696
G1 X110.763 Y88.035 E0.37886
G1 X110.226 Y88.035 E0.01696
G1 X102.279 Y80.088 E0.35487
G1 X102.279 Y80.625 E0.01696
G1 X109.689 Y88.035 E0.33089
G1 X109.152 Y88.035 E0.01696
G1 X102.279 Y81.162 E0.30691
G1 X102.279 Y81.699 E0.01696
G1 X108.615 Y88.035 E0.28293
G1 X108.078 Y88.035 E0.01696
G1 X102.279 Y82.236 E0.25895
G1 X102.279 Y82.773 E0.01696
G1 X107.541 Y88.035 E0.23497
G1 X107.004 Y88.035 E0.01696
G1 X102.279 Y83.310 E0.21099
G1 X102.279 Y83.847 E0.01696
G1 X106.467 Y88.035 E0.18700
G1 X105.930 Y88.035 E0.01696
G1 X102.279 Y84.384 E0.16302
G1 X102.279 Y84.921 E0.01696
G1 X105.393 Y88.035 E0.13904
G1 X104.856 Y88.035 E0.01696
G1 X102.279 Y85.458 E0.11506
G1 X102.279 Y85.995 E0.01696
G1 X104.319 Y88.035 E0.09108
G1 X103.782 Y88.035 E0.01696
G1 X102.279 Y86.532 E0.06710
G1 X102.279 Y87.069 E0.01696
