; generated by PrusaSlicer 2.2.0+win64 on 2021-01-29 at 19:01:02 UTC

; 

; external perimeters extrusion width = 0.60mm
; perimeters extrusion width = 0.43mm
; infill extrusion width = 0.45mm
; solid infill extrusion width = 0.70mm
; top infill extrusion width = 0.43mm
; first layer extrusion width = 0.42mm

M73 P0 R167
M201 X9000 Y9000 Z500 E10000 ; sets maximum accelerations, mm/sec^2
M203 X500 Y500 Z12 E120 ; sets maximum feedrates, mm/sec
M204 P2000 R1500 T2000 ; sets acceleration (P, T) and retract acceleration (R), mm/sec^2
M205 X10.00 Y10.00 Z0.20 E2.50 ; sets the jerk limits, mm/sec
M205 S0 T0 ; sets the minimum extruding and travel feed rate, mm/sec
M107
M862.3 P "MK2S" ; printer model check
M862.1 P0.4 ; nozzle diameter check
M115 U3.2.3 ; tell printer latest fw version
G90 ; use absolute coordinates
M83 ; extruder relative mode
M204 S2000 T1500 ; MK2 firmware only supports the old M204 format
M104 S215 ; set extruder temp
M140 S60 ; set bed temp
M190 S60 ; wait for bed temp
M109 S215 ; wait for extruder temp
G28 W ; home all without mesh bed level
G80 ; mesh bed leveling
G1 Y-3.0 F1000.0 ; go outside print area
G92 E0.0
G1 X60.0 E9.0  F1000.0 ; intro line
M73 P0 R167
G1 X100.0 E12.5 F1000.0 ; intro line
G92 E0.0
G21 ; set units to millimeters
G90 ; use absolute coordinates
M83 ; use relative distances for extrusion
M900 K0.05 ; Filament gcode LA 1.5
M900 K30 ; Filament gcode LA 1.0
;BEFORE_LAYER_CHANGE
G92 E0.0
;0.2


G1 E-0.80000 F2100.00000
G1 Z0.600 F10800.000
;AFTER_LAYER_CHANGE
;0.2
G1 X31.950 Y4.176
G1 Z0.200
G1 E0.80000 F2100.00000
M204 S1000
G1 F1200.000
G1 X32.222 Y3.570 E0.02083
G1 X32.598 Y3.112 E0.01858
G1 X33.076 Y2.761 E0.01858
G1 X33.625 Y2.540 E0.01858
G1 X34.213 Y2.461 E0.01858
G1 X162.190 Y2.461 E4.01263
G1 X163.060 Y2.627 E0.02778
G1 X163.809 Y3.101 E0.02778
G1 X190.628 Y28.918 E1.16721
G1 X191.009 Y29.396 E0.01917
G1 X217.962 Y94.193 E2.20040
G1 X218.121 Y94.772 E0.01882
G1 X218.144 Y114.899 E0.63109
G1 X218.077 Y115.457 E0.01763
G1 X191.254 Y205.842 E2.95611
G1 X190.987 Y206.430 E0.02024
G1 X190.611 Y206.888 E0.01858
G1 X190.130 Y207.241 E0.01870
G1 X189.576 Y207.462 E0.01870
G1 X188.989 Y207.539 E0.01858
G1 X34.229 Y207.539 E4.85238
G1 X33.571 Y207.446 E0.02083
G1 X32.965 Y207.173 E0.02083
G1 X32.507 Y206.797 E0.01858
G1 X32.155 Y206.316 E0.01870
G1 X31.933 Y205.762 E0.01870
G1 X31.856 Y205.171 E0.01870
G1 X31.856 Y4.834 E6.28143
G1 X31.941 Y4.236 E0.01895
; printing object Diffuser.STL id:14 copy 0
G1 E-0.80000 F2100.00000
G1 Z0.800 F10800.000
G1 X88.601 Y5.625
G1 Z0.200
G1 E0.80000 F2100.00000
G1 F1200.000
G1 X107.818 Y5.625 E0.60252
G1 X107.818 Y23.841 E0.57116
G1 X88.601 Y23.841 E0.60252
G1 X88.601 Y5.685 E0.56928
G1 X88.224 Y5.248 F10800.000
G1 F1200.000
G1 X108.195 Y5.248 E0.62616
G1 X108.195 Y24.218 E0.59481
G1 X88.224 Y24.218 E0.62616
G1 X88.224 Y5.308 E0.59293
G1 X88.611 Y5.348 F10800.000
G1 E-0.80000 F2100.00000
G1 Z0.800 F10800.000
G1 X107.705 Y6.506
G1 Z0.200
G1 E0.80000 F2100.00000
G1 F1200.000
G1 X107.106 Y5.908 E0.02671
G1 X106.569 Y5.908 E0.01696
G1 X107.535 Y6.873 E0.04312
G1 X107.535 Y7.410 E0.01696
G1 X106.032 Y5.908 E0.06710
G1 X105.495 Y5.908 E0.01696
G1 X107.535 Y7.947 E0.09108
G1 X107.535 Y8.484 E0.01696
G1 X104.958 Y5.908 E0.11506
G1 X104.421 Y5.908 E0.01696
G1 X107.535 Y9.021 E0.13905
G1 X107.535 Y9.558 E0.01696
G1 X103.884 Y5.908 E0.16303
G1 X103.347 Y5.908 E0.01696
G1 X107.535 Y10.095 E0.18701
G1 X107.535 Y10.632 E0.01696
G1 X102.810 Y5.908 E0.21099
G1 X102.273 Y5.908 E0.01696
G1 X107.535 Y11.169 E0.23497
G1 X107.535 Y11.706 E0.01696
G1 X101.736 Y5.908 E0.25895
G1 X101.199 Y5.908 E0.01696
G1 X107.535 Y12.244 E0.28293
G1 X107.535 Y12.781 E0.01696
G1 X100.662 Y5.908 E0.30692
G1 X100.125 Y5.908 E0.01696
G1 X107.535 Y13.318 E0.33090
G1 X107.535 Y13.855 E0.01696
G1 X99.588 Y5.908 E0.35488
G1 X99.051 Y5.908 E0.01696
G1 X107.535 Y14.392 E0.37886
G1 X107.535 Y14.929 E0.01696
G1 X98.514 Y5.908 E0.40284
G1 X97.977 Y5.908 E0.01696
G1 X107.535 Y15.466 E0.42682
G1 X107.535 Y16.003 E0.01696
G1 X97.440 Y5.908 E0.45081
G1 X96.903 Y5.908 E0.01696
G1 X107.535 Y16.540 E0.47479
G1 X107.535 Y17.077 E0.01696
G1 X96.365 Y5.908 E0.49877
G1 X95.828 Y5.908 E0.01696
G1 X107.535 Y17.614 E0.52275
G1 X107.535 Y18.151 E0.01696
G1 X95.291 Y5.908 E0.54673
G1 X94.754 Y5.908 E0.01696
G1 X107.535 Y18.688 E0.57071
G1 X107.535 Y19.225 E0.01696
M73 P0 R166
G1 X94.217 Y5.908 E0.59470
G1 X93.680 Y5.908 E0.01696
G1 X107.535 Y19.762 E0.61868
G1 X107.535 Y20.299 E0.01696
G1 X93.143 Y5.908 E0.64266
G1 X92.606 Y5.908 E0.01696
G1 X107.535 Y20.836 E0.66664
G1 X107.535 Y21.373 E0.01696
G1 X92.069 Y5.908 E0.69062
G1 X91.532 Y5.908 E0.01696
G1 X107.535 Y21.910 E0.71460
G1 X107.535 Y22.447 E0.01696
G1 X90.995 Y5.908 E0.73859
G1 X90.458 Y5.908 E0.01696
G1 X107.535 Y22.984 E0.76257
G1 X107.535 Y23.521 E0.01696
G1 X89.921 Y5.908 E0.78655
G1 X89.384 Y5.908 E0.01696
G1 X107.035 Y23.558 E0.78820
G1 X106.498 Y23.558 E0.01696
G1 X88.884 Y5.945 E0.78654
G1 X88.884 Y6.482 E0.01696
G1 X105.961 Y23.558 E0.76256
G1 X105.424 Y23.558 E0.01696
G1 X88.884 Y7.019 E0.73858
G1 X88.884 Y7.556 E0.01696
G1 X104.887 Y23.558 E0.71460
G1 X104.350 Y23.558 E0.01696
G1 X88.884 Y8.093 E0.69062
G1 X88.884 Y8.630 E0.01696
G1 X103.813 Y23.558 E0.66664
G1 X103.275 Y23.558 E0.01696
G1 X88.884 Y9.167 E0.64265
G1 X88.884 Y9.704 E0.01696
G1 X102.738 Y23.558 E0.61867
G1 X102.201 Y23.558 E0.01696
G1 X88.884 Y10.241 E0.59469
G1 X88.884 Y10.778 E0.01696
G1 X101.664 Y23.558 E0.57071
G1 X101.127 Y23.558 E0.01696
G1 X88.884 Y11.315 E0.54673
G1 X88.884 Y11.852 E0.01696
G1 X100.590 Y23.558 E0.52275
G1 X100.053 Y23.558 E0.01696
G1 X88.884 Y12.389 E0.49876
G1 X88.884 Y12.926 E0.01696
G1 X99.516 Y23.558 E0.47478
G1 X98.979 Y23.558 E0.01696
G1 X88.884 Y13.463 E0.45080
G1 X88.884 Y14.000 E0.01696
G1 X98.442 Y23.558 E0.42682
G1 X97.905 Y23.558 E0.01696
G1 X88.884 Y14.537 E0.40284
G1 X88.884 Y15.074 E0.01696
G1 X97.368 Y23.558 E0.37886
G1 X96.831 Y23.558 E0.01696
G1 X88.884 Y15.611 E0.35487
G1 X88.884 Y16.148 E0.01696
G1 X96.294 Y23.558 E0.33089
G1 X95.757 Y23.558 E0.01696
G1 X88.884 Y16.685 E0.30691
G1 X88.884 Y17.222 E0.01696
G1 X95.220 Y23.558 E0.28293
G1 X94.683 Y23.558 E0.01696
G1 X88.884 Y17.760 E0.25895
G1 X88.884 Y18.297 E0.01696
G1 X94.146 Y23.558 E0.23497
G1 X93.609 Y23.558 E0.01696
G1 X88.884 Y18.834 E0.21099
G1 X88.884 Y19.371 E0.01696
G1 X93.072 Y23.558 E0.18700
G1 X92.535 Y23.558 E0.01696
G1 X88.884 Y19.908 E0.16302
G1 X88.884 Y20.445 E0.01696
G1 X91.998 Y23.558 E0.13904
G1 X91.461 Y23.558 E0.01696
G1 X88.884 Y20.982 E0.11506
G1 X88.884 Y21.519 E0.01696
G1 X90.924 Y23.558 E0.09108
G1 X90.387 Y23.558 E0.01696
G1 X88.884 Y22.056 E0.06710
G1 X88.884 Y22.593 E0.01696
G1 X89.849 Y23.558 E0.04311
G1 X89.312 Y23.558 E0.01696
G1 X88.714 Y22.960 E0.02671
; stop printing object Diffuser.STL id:14 copy 0
; printing object Diffuser.STL id:11 copy 1
G1 E-0.80000 F2100.00000
G1 Z0.800 F10800.000
G1 X88.714 Y31.415
G1 Z0.200
G1 E0.80000 F2100.00000
G1 F1200.000
G1 X107.818 Y31.415 E0.59897
G1 X107.818 Y49.632 E0.57116
G1 X88.601 Y49.632 E0.60252
G1 X88.601 Y31.415 E0.57116
G1 X88.654 Y31.415 E0.00167
G1 X88.224 Y31.038 F10800.000
G1 F1200.000
G1 X108.195 Y31.038 E0.62616
G1 X108.195 Y50.009 E0.59481
G1 X88.224 Y50.009 E0.62616
G1 X88.224 Y31.098 E0.59293
G1 X88.611 Y31.138 F10800.000
G1 E-0.80000 F2100.00000
G1 Z0.800 F10800.000
G1 X107.705 Y32.296
G1 Z0.200
G1 E0.80000 F2100.00000
G1 F1200.000
G1 X107.106 Y31.698 E0.02671
G1 X106.569 Y31.698 E0.01696
G1 X107.535 Y32.664 E0.04312
G1 X107.535 Y33.201 E0.01696
G1 X106.032 Y31.698 E0.06710
G1 X105.495 Y31.698 E0.01696
G1 X107.535 Y33.738 E0.09108
G1 X107.535 Y34.275 E0.01696
G1 X104.958 Y31.698 E0.11506
G1 X104.421 Y31.698 E0.01696
G1 X107.535 Y34.812 E0.13905
G1 X107.535 Y35.349 E0.01696
G1 X103.884 Y31.698 E0.16303
G1 X103.347 Y31.698 E0.01696
G1 X107.535 Y35.886 E0.18701
G1 X107.535 Y36.423 E0.01696
G1 X102.810 Y31.698 E0.21099
G1 X102.273 Y31.698 E0.01696
G1 X107.535 Y36.960 E0.23497
G1 X107.535 Y37.497 E0.01696
G1 X101.736 Y31.698 E0.25895
G1 X101.199 Y31.698 E0.01696
G1 X107.535 Y38.034 E0.28293
G1 X107.535 Y38.571 E0.01696
G1 X100.662 Y31.698 E0.30692
G1 X100.125 Y31.698 E0.01696
G1 X107.535 Y39.108 E0.33090
G1 X107.535 Y39.645 E0.01696
G1 X99.588 Y31.698 E0.35488
G1 X99.051 Y31.698 E0.01696
G1 X107.535 Y40.182 E0.37886
G1 X107.535 Y40.719 E0.01696
G1 X98.514 Y31.698 E0.40284
G1 X97.977 Y31.698 E0.01696
G1 X107.535 Y41.256 E0.42682
G1 X107.535 Y41.793 E0.01696
G1 X97.440 Y31.698 E0.45081
G1 X96.903 Y31.698 E0.01696
G1 X107.535 Y42.330 E0.47479
G1 X107.535 Y42.867 E0.01696
G1 X96.365 Y31.698 E0.49877
G1 X95.828 Y31.698 E0.01696
G1 X107.535 Y43.405 E0.52275
G1 X107.535 Y43.942 E0.01696
G1 X95.291 Y31.698 E0.54673
G1 X94.754 Y31.698 E0.01696
G1 X107.535 Y44.479 E0.57071
G1 X107.535 Y45.016 E0.01696
G1 X94.217 Y31.698 E0.59470
G1 X93.680 Y31.698 E0.01696
G1 X107.535 Y45.553 E0.61868
G1 X107.535 Y46.090 E0.01696
G1 X93.143 Y31.698 E0.64266
G1 X92.606 Y31.698 E0.01696
G1 X107.535 Y46.627 E0.66664
G1 X107.535 Y47.164 E0.01696
G1 X92.069 Y31.698 E0.69062
G1 X91.532 Y31.698 E0.01696
G1 X107.535 Y47.701 E0.71460
M73 P1 R165
G1 X107.535 Y48.238 E0.01696
G1 X90.995 Y31.698 E0.73859
G1 X90.458 Y31.698 E0.01696
G1 X107.535 Y48.775 E0.76257
G1 X107.535 Y49.312 E0.01696
G1 X89.921 Y31.698 E0.78655
G1 X89.384 Y31.698 E0.01696
G1 X107.035 Y49.349 E0.78820
G1 X106.498 Y49.349 E0.01696
G1 X88.884 Y31.735 E0.78654
G1 X88.884 Y32.272 E0.01696
G1 X105.961 Y49.349 E0.76256
G1 X105.424 Y49.349 E0.01696
G1 X88.884 Y32.809 E0.73858
G1 X88.884 Y33.346 E0.01696
G1 X104.887 Y49.349 E0.71460
G1 X104.350 Y49.349 E0.01696
G1 X88.884 Y33.883 E0.69062
G1 X88.884 Y34.420 E0.01696
G1 X103.813 Y49.349 E0.66664
G1 X103.275 Y49.349 E0.01696
G1 X88.884 Y34.957 E0.64265
G1 X88.884 Y35.494 E0.01696
G1 X102.738 Y49.349 E0.61867
G1 X102.201 Y49.349 E0.01696
G1 X88.884 Y36.032 E0.59469
G1 X88.884 Y36.569 E0.01696
G1 X101.664 Y49.349 E0.57071
G1 X101.127 Y49.349 E0.01696
G1 X88.884 Y37.106 E0.54673
G1 X88.884 Y37.643 E0.01696
G1 X100.590 Y49.349 E0.52275
G1 X100.053 Y49.349 E0.01696
G1 X88.884 Y38.180 E0.49876
G1 X88.884 Y38.717 E0.01696
G1 X99.516 Y49.349 E0.47478
G1 X98.979 Y49.349 E0.01696
G1 X88.884 Y39.254 E0.45080
G1 X88.884 Y39.791 E0.01696
G1 X98.442 Y49.349 E0.42682
G1 X97.905 Y49.349 E0.01696
G1 X88.884 Y40.328 E0.40284
G1 X88.884 Y40.865 E0.01696
G1 X97.368 Y49.349 E0.37886
G1 X96.831 Y49.349 E0.01696
G1 X88.884 Y41.402 E0.35487
G1 X88.884 Y41.939 E0.01696
G1 X96.294 Y49.349 E0.33089
G1 X95.757 Y49.349 E0.01696
G1 X88.884 Y42.476 E0.30691
G1 X88.884 Y43.013 E0.01696
G1 X95.220 Y49.349 E0.28293
G1 X94.683 Y49.349 E0.01696
G1 X88.884 Y43.550 E0.25895
G1 X88.884 Y44.087 E0.01696
G1 X94.146 Y49.349 E0.23497
G1 X93.609 Y49.349 E0.01696
G1 X88.884 Y44.624 E0.21099
G1 X88.884 Y45.161 E0.01696
G1 X93.072 Y49.349 E0.18700
G1 X92.535 Y49.349 E0.01696
G1 X88.884 Y45.698 E0.16302
G1 X88.884 Y46.235 E0.01696
G1 X91.998 Y49.349 E0.13904
G1 X91.461 Y49.349 E0.01696
G1 X88.884 Y46.772 E0.11506
G1 X88.884 Y47.309 E0.01696
G1 X90.924 Y49.349 E0.09108
G1 X90.387 Y49.349 E0.01696
G1 X88.884 Y47.846 E0.06710
G1 X88.884 Y48.383 E0.01696
G1 X89.849 Y49.349 E0.04311
G1 X89.312 Y49.349 E0.01696
G1 X88.714 Y48.751 E0.02671
; stop printing object Diffuser.STL id:11 copy 1
; printing object Diffuser.STL id:6 copy 1
G1 E-0.80000 F2100.00000
G1 Z0.800 F10800.000
G1 X88.714 Y57.206
G1 Z0.200
G1 E0.80000 F2100.00000
G1 F1200.000
G1 X107.818 Y57.206 E0.59897
G1 X107.818 Y75.422 E0.57116
G1 X88.601 Y75.422 E0.60252
G1 X88.601 Y57.206 E0.57116
G1 X88.654 Y57.206 E0.00167
G1 X88.224 Y56.829 F10800.000
G1 F1200.000
G1 X108.195 Y56.829 E0.62616
G1 X108.195 Y75.799 E0.59481
G1 X88.224 Y75.799 E0.62616
G1 X88.224 Y56.889 E0.59293
G1 X88.611 Y56.929 F10800.000
G1 E-0.80000 F2100.00000
G1 Z0.800 F10800.000
G1 X107.705 Y58.087
G1 Z0.200
G1 E0.80000 F2100.00000
G1 F1200.000
G1 X107.106 Y57.489 E0.02671
G1 X106.569 Y57.489 E0.01696
G1 X107.535 Y58.454 E0.04312
G1 X107.535 Y58.991 E0.01696
G1 X106.032 Y57.489 E0.06710
G1 X105.495 Y57.489 E0.01696
G1 X107.535 Y59.528 E0.09108
G1 X107.535 Y60.065 E0.01696
G1 X104.958 Y57.489 E0.11506
G1 X104.421 Y57.489 E0.01696
G1 X107.535 Y60.602 E0.13905
G1 X107.535 Y61.139 E0.01696
G1 X103.884 Y57.489 E0.16303
G1 X103.347 Y57.489 E0.01696
G1 X107.535 Y61.677 E0.18701
G1 X107.535 Y62.214 E0.01696
G1 X102.810 Y57.489 E0.21099
G1 X102.273 Y57.489 E0.01696
G1 X107.535 Y62.751 E0.23497
G1 X107.535 Y63.288 E0.01696
G1 X101.736 Y57.489 E0.25895
G1 X101.199 Y57.489 E0.01696
G1 X107.535 Y63.825 E0.28293
G1 X107.535 Y64.362 E0.01696
G1 X100.662 Y57.489 E0.30692
G1 X100.125 Y57.489 E0.01696
G1 X107.535 Y64.899 E0.33090
G1 X107.535 Y65.436 E0.01696
G1 X99.588 Y57.489 E0.35488
G1 X99.051 Y57.489 E0.01696
G1 X107.535 Y65.973 E0.37886
G1 X107.535 Y66.510 E0.01696
G1 X98.514 Y57.489 E0.40284
G1 X97.977 Y57.489 E0.01696
G1 X107.535 Y67.047 E0.42682
G1 X107.535 Y67.584 E0.01696
G1 X97.440 Y57.489 E0.45081
G1 X96.902 Y57.489 E0.01696
G1 X107.535 Y68.121 E0.47479
G1 X107.535 Y68.658 E0.01696
G1 X96.365 Y57.489 E0.49877
G1 X95.828 Y57.489 E0.01696
G1 X107.535 Y69.195 E0.52275
G1 X107.535 Y69.732 E0.01696
G1 X95.291 Y57.489 E0.54673
G1 X94.754 Y57.489 E0.01696
G1 X107.535 Y70.269 E0.57071
G1 X107.535 Y70.806 E0.01696
G1 X94.217 Y57.489 E0.59470
G1 X93.680 Y57.489 E0.01696
G1 X107.535 Y71.343 E0.61868
G1 X107.535 Y71.880 E0.01696
G1 X93.143 Y57.489 E0.64266
G1 X92.606 Y57.489 E0.01696
G1 X107.535 Y72.417 E0.66664
G1 X107.535 Y72.954 E0.01696
G1 X92.069 Y57.489 E0.69062
G1 X91.532 Y57.489 E0.01696
G1 X107.535 Y73.491 E0.71460
G1 X107.535 Y74.028 E0.01696
G1 X90.995 Y57.489 E0.73859
G1 X90.458 Y57.489 E0.01696
G1 X107.535 Y74.566 E0.76257
G1 X107.535 Y75.103 E0.01696
G1 X89.921 Y57.489 E0.78655
G1 X89.384 Y57.489 E0.01696
G1 X107.035 Y75.140 E0.78820
G1 X106.498 Y75.140 E0.01696
G1 X88.884 Y57.526 E0.78654
M73 P1 R164
G1 X88.884 Y58.063 E0.01696
G1 X105.961 Y75.140 E0.76256
G1 X105.424 Y75.140 E0.01696
G1 X88.884 Y58.600 E0.73858
G1 X88.884 Y59.137 E0.01696
G1 X104.887 Y75.140 E0.71460
G1 X104.350 Y75.140 E0.01696
G1 X88.884 Y59.674 E0.69062
G1 X88.884 Y60.211 E0.01696
G1 X103.813 Y75.140 E0.66664
G1 X103.275 Y75.140 E0.01696
G1 X88.884 Y60.748 E0.64265
G1 X88.884 Y61.285 E0.01696
G1 X102.738 Y75.140 E0.61867
G1 X102.201 Y75.140 E0.01696
G1 X88.884 Y61.822 E0.59469
G1 X88.884 Y62.359 E0.01696
G1 X101.664 Y75.140 E0.57071
G1 X101.127 Y75.140 E0.01696
G1 X88.884 Y62.896 E0.54673
G1 X88.884 Y63.433 E0.01696
G1 X100.590 Y75.140 E0.52275
G1 X100.053 Y75.140 E0.01696
G1 X88.884 Y63.970 E0.49876
G1 X88.884 Y64.507 E0.01696
G1 X99.516 Y75.140 E0.47478
G1 X98.979 Y75.140 E0.01696
G1 X88.884 Y65.044 E0.45080
G1 X88.884 Y65.581 E0.01696
G1 X98.442 Y75.140 E0.42682
G1 X97.905 Y75.140 E0.01696
G1 X88.884 Y66.118 E0.40284
G1 X88.884 Y66.655 E0.01696
G1 X97.368 Y75.140 E0.37886
G1 X96.831 Y75.140 E0.01696
G1 X88.884 Y67.193 E0.35487
G1 X88.884 Y67.730 E0.01696
G1 X96.294 Y75.140 E0.33089
G1 X95.757 Y75.140 E0.01696
G1 X88.884 Y68.267 E0.30691
G1 X88.884 Y68.804 E0.01696
G1 X95.220 Y75.140 E0.28293
G1 X94.683 Y75.140 E0.01696
G1 X88.884 Y69.341 E0.25895
G1 X88.884 Y69.878 E0.01696
G1 X94.146 Y75.140 E0.23497
G1 X93.609 Y75.140 E0.01696
G1 X88.884 Y70.415 E0.21099
G1 X88.884 Y70.952 E0.01696
G1 X93.072 Y75.140 E0.18700
G1 X92.535 Y75.140 E0.01696
G1 X88.884 Y71.489 E0.16302
G1 X88.884 Y72.026 E0.01696
G1 X91.998 Y75.140 E0.13904
G1 X91.461 Y75.140 E0.01696
G1 X88.884 Y72.563 E0.11506
G1 X88.884 Y73.100 E0.01696
G1 X90.924 Y75.140 E0.09108
G1 X90.387 Y75.140 E0.01696
G1 X88.884 Y73.637 E0.06710
G1 X88.884 Y74.174 E0.01696
G1 X89.849 Y75.140 E0.04311
G1 X89.312 Y75.140 E0.01696
G1 X88.714 Y74.541 E0.02671
; stop printing object Diffuser.STL id:6 copy 1
; printing object Diffuser.STL id:0 copy 1
G1 E-0.80000 F2100.00000
G1 Z0.800 F10800.000
G1 X88.714 Y82.996
G1 Z0.200
G1 E0.80000 F2100.00000
G1 F1200.000
G1 X107.818 Y82.996 E0.59897
G1 X107.818 Y101.213 E0.57116
G1 X88.601 Y101.213 E0.60252
G1 X88.601 Y82.996 E0.57116
G1 X88.654 Y82.996 E0.00167
