; generated by PrusaSlicer 2.2.0+win64 on 2021-01-29 at 19:01:35 UTC

; 

; external perimeters extrusion width = 0.60mm
; perimeters extrusion width = 0.43mm
; infill extrusion width = 0.45mm
; solid infill extrusion width = 0.70mm
; top infill extrusion width = 0.43mm
; first layer extrusion width = 0.42mm

M73 P0 R42
M201 X9000 Y9000 Z500 E10000 ; sets maximum accelerations, mm/sec^2
M203 X500 Y500 Z12 E120 ; sets maximum feedrates, mm/sec
M204 P2000 R1500 T2000 ; sets acceleration (P, T) and retract acceleration (R), mm/sec^2
M205 X10.00 Y10.00 Z0.20 E2.50 ; sets the jerk limits, mm/sec
M205 S0 T0 ; sets the minimum extruding and travel feed rate, mm/sec
M107
M862.3 P "MK2S" ; printer model check
M862.1 P0.4 ; nozzle diameter check
M115 U3.2.3 ; tell printer latest fw version
G90 ; use absolute coordinates
M83 ; extruder relative mode
M204 S2000 T1500 ; MK2 firmware only supports the old M204 format
M104 S215 ; set extruder temp
M140 S60 ; set bed temp
M190 S60 ; wait for bed temp
M109 S215 ; wait for extruder temp
G28 W ; home all without mesh bed level
G80 ; mesh bed leveling
G1 Y-3.0 F1000.0 ; go outside print area
G92 E0.0
G1 X60.0 E9.0  F1000.0 ; intro line
M73 P0 R42
G1 X100.0 E12.5 F1000.0 ; intro line
G92 E0.0
G21 ; set units to millimeters
G90 ; use absolute coordinates
M83 ; use relative distances for extrusion
M900 K0.05 ; Filament gcode LA 1.5
M900 K30 ; Filament gcode LA 1.0
;BEFORE_LAYER_CHANGE
G92 E0.0
;0.2


G1 E-0.80000 F2100.00000
G1 Z0.600 F10800.000
;AFTER_LAYER_CHANGE
;0.2
G1 X85.560 Y55.663
G1 Z0.200
G1 E0.80000 F2100.00000
M204 S1000
G1 F1200.000
G1 X85.909 Y54.997 E0.02355
G1 X86.281 Y54.602 E0.01704
G1 X86.734 Y54.301 E0.01704
G1 X87.243 Y54.111 E0.01704
G1 X87.783 Y54.042 E0.01704
G1 X162.190 Y54.042 E2.33298
G1 X163.088 Y54.220 E0.02872
G1 X163.853 Y54.724 E0.02872
G1 X164.370 Y55.480 E0.02872
G1 X164.563 Y56.376 E0.02872
G1 X164.563 Y153.593 E3.04816
G1 X164.440 Y154.337 E0.02367
G1 X164.091 Y155.003 E0.02355
G1 X163.716 Y155.401 E0.01716
G1 X163.259 Y155.702 E0.01716
G1 X162.745 Y155.891 E0.01716
G1 X162.202 Y155.958 E0.01716
G1 X87.799 Y155.958 E2.33286
G1 X87.058 Y155.835 E0.02355
G1 X86.393 Y155.486 E0.02355
G1 X85.995 Y155.111 E0.01716
G1 X85.693 Y154.654 E0.01716
G1 X85.503 Y154.137 E0.01728
G1 X85.437 Y153.594 E0.01716
G1 X85.437 Y56.407 E3.04721
G1 X85.551 Y55.722 E0.02178
; printing object Diffuser.STL id:2 copy 2
G1 E-0.80000 F2100.00000
G1 Z0.800 F10800.000
G1 X88.601 Y134.578
G1 Z0.200
G1 E0.80000 F2100.00000
G1 F1200.000
G1 X107.818 Y134.578 E0.60252
G1 X107.818 Y152.794 E0.57116
G1 X88.601 Y152.794 E0.60252
G1 X88.601 Y134.638 E0.56928
G1 X88.224 Y134.201 F10800.000
G1 F1200.000
G1 X108.195 Y134.201 E0.62616
G1 X108.195 Y153.171 E0.59481
G1 X88.224 Y153.171 E0.62616
G1 X88.224 Y134.261 E0.59293
G1 X88.611 Y134.301 F10800.000
G1 E-0.80000 F2100.00000
G1 Z0.800 F10800.000
G1 X107.705 Y135.459
G1 Z0.200
G1 E0.80000 F2100.00000
G1 F1200.000
G1 X107.106 Y134.860 E0.02671
G1 X106.569 Y134.860 E0.01696
G1 X107.535 Y135.826 E0.04312
G1 X107.535 Y136.363 E0.01696
G1 X106.032 Y134.860 E0.06710
G1 X105.495 Y134.860 E0.01696
G1 X107.535 Y136.900 E0.09108
G1 X107.535 Y137.437 E0.01696
G1 X104.958 Y134.860 E0.11506
G1 X104.421 Y134.860 E0.01696
G1 X107.535 Y137.974 E0.13905
G1 X107.535 Y138.511 E0.01696
G1 X103.884 Y134.860 E0.16303
G1 X103.347 Y134.860 E0.01696
G1 X107.535 Y139.048 E0.18701
G1 X107.535 Y139.585 E0.01696
G1 X102.810 Y134.860 E0.21099
G1 X102.273 Y134.860 E0.01696
G1 X107.535 Y140.122 E0.23497
G1 X107.535 Y140.659 E0.01696
G1 X101.736 Y134.860 E0.25895
G1 X101.199 Y134.860 E0.01696
G1 X107.535 Y141.196 E0.28293
G1 X107.535 Y141.734 E0.01696
G1 X100.662 Y134.860 E0.30692
G1 X100.125 Y134.860 E0.01696
G1 X107.535 Y142.271 E0.33090
G1 X107.535 Y142.808 E0.01696
G1 X99.588 Y134.860 E0.35488
G1 X99.051 Y134.860 E0.01696
G1 X107.535 Y143.345 E0.37886
G1 X107.535 Y143.882 E0.01696
G1 X98.514 Y134.860 E0.40284
G1 X97.977 Y134.860 E0.01696
G1 X107.535 Y144.419 E0.42682
G1 X107.535 Y144.956 E0.01696
G1 X97.440 Y134.860 E0.45081
G1 X96.902 Y134.860 E0.01696
G1 X107.535 Y145.493 E0.47479
G1 X107.535 Y146.030 E0.01696
G1 X96.365 Y134.860 E0.49877
G1 X95.828 Y134.860 E0.01696
G1 X107.535 Y146.567 E0.52275
G1 X107.535 Y147.104 E0.01696
G1 X95.291 Y134.860 E0.54673
G1 X94.754 Y134.860 E0.01696
G1 X107.535 Y147.641 E0.57071
G1 X107.535 Y148.178 E0.01696
G1 X94.217 Y134.860 E0.59470
G1 X93.680 Y134.860 E0.01696
G1 X107.535 Y148.715 E0.61868
G1 X107.535 Y149.252 E0.01696
G1 X93.143 Y134.860 E0.64266
G1 X92.606 Y134.860 E0.01696
G1 X107.535 Y149.789 E0.66664
G1 X107.535 Y150.326 E0.01696
G1 X92.069 Y134.860 E0.69062
G1 X91.532 Y134.860 E0.01696
G1 X107.535 Y150.863 E0.71460
G1 X107.535 Y151.400 E0.01696
G1 X90.995 Y134.860 E0.73859
G1 X90.458 Y134.860 E0.01696
G1 X107.535 Y151.937 E0.76257
G1 X107.535 Y152.474 E0.01696
G1 X89.921 Y134.860 E0.78655
G1 X89.384 Y134.860 E0.01696
G1 X107.035 Y152.511 E0.78820
G1 X106.498 Y152.511 E0.01696
G1 X88.884 Y134.898 E0.78654
G1 X88.884 Y135.435 E0.01696
G1 X105.961 Y152.511 E0.76256
G1 X105.424 Y152.511 E0.01696
G1 X88.884 Y135.972 E0.73858
G1 X88.884 Y136.509 E0.01696
G1 X104.887 Y152.511 E0.71460
G1 X104.350 Y152.511 E0.01696
G1 X88.884 Y137.046 E0.69062
G1 X88.884 Y137.583 E0.01696
G1 X103.813 Y152.511 E0.66664
M73 P2 R41
G1 X103.275 Y152.511 E0.01696
G1 X88.884 Y138.120 E0.64265
G1 X88.884 Y138.657 E0.01696
G1 X102.738 Y152.511 E0.61867
G1 X102.201 Y152.511 E0.01696
G1 X88.884 Y139.194 E0.59469
G1 X88.884 Y139.731 E0.01696
G1 X101.664 Y152.511 E0.57071
G1 X101.127 Y152.511 E0.01696
G1 X88.884 Y140.268 E0.54673
G1 X88.884 Y140.805 E0.01696
G1 X100.590 Y152.511 E0.52275
G1 X100.053 Y152.511 E0.01696
G1 X88.884 Y141.342 E0.49876
G1 X88.884 Y141.879 E0.01696
G1 X99.516 Y152.511 E0.47478
G1 X98.979 Y152.511 E0.01696
G1 X88.884 Y142.416 E0.45080
G1 X88.884 Y142.953 E0.01696
G1 X98.442 Y152.511 E0.42682
G1 X97.905 Y152.511 E0.01696
G1 X88.884 Y143.490 E0.40284
G1 X88.884 Y144.027 E0.01696
G1 X97.368 Y152.511 E0.37886
G1 X96.831 Y152.511 E0.01696
G1 X88.884 Y144.564 E0.35487
G1 X88.884 Y145.101 E0.01696
G1 X96.294 Y152.511 E0.33089
G1 X95.757 Y152.511 E0.01696
G1 X88.884 Y145.638 E0.30691
G1 X88.884 Y146.175 E0.01696
G1 X95.220 Y152.511 E0.28293
G1 X94.683 Y152.511 E0.01696
G1 X88.884 Y146.712 E0.25895
G1 X88.884 Y147.249 E0.01696
G1 X94.146 Y152.511 E0.23497
G1 X93.609 Y152.511 E0.01696
G1 X88.884 Y147.787 E0.21099
G1 X88.884 Y148.324 E0.01696
G1 X93.072 Y152.511 E0.18700
G1 X92.535 Y152.511 E0.01696
G1 X88.884 Y148.861 E0.16302
G1 X88.884 Y149.398 E0.01696
G1 X91.998 Y152.511 E0.13904
G1 X91.461 Y152.511 E0.01696
G1 X88.884 Y149.935 E0.11506
G1 X88.884 Y150.472 E0.01696
G1 X90.924 Y152.511 E0.09108
G1 X90.387 Y152.511 E0.01696
G1 X88.884 Y151.009 E0.06710
G1 X88.884 Y151.546 E0.01696
G1 X89.849 Y152.511 E0.04311
G1 X89.312 Y152.511 E0.01696
G1 X88.714 Y151.913 E0.02671
; stop printing object Diffuser.STL id:2 copy 2
; printing object Diffuser.STL id:1 copy 1
G1 E-0.80000 F2100.00000
G1 Z0.800 F10800.000
G1 X88.714 Y127.004
G1 Z0.200
G1 E0.80000 F2100.00000
G1 F1200.000
G1 X88.601 Y127.004 E0.00355
G1 X88.601 Y108.787 E0.57116
G1 X107.818 Y108.787 E0.60252
G1 X107.818 Y127.004 E0.57116
G1 X88.774 Y127.004 E0.59709
G1 X88.224 Y127.381 F10800.000
G1 F1200.000
G1 X88.224 Y108.410 E0.59481
G1 X108.195 Y108.410 E0.62616
G1 X108.195 Y127.381 E0.59481
G1 X88.284 Y127.381 E0.62428
G1 X88.331 Y126.995 F10800.000
G1 E-0.80000 F2100.00000
G1 Z0.800 F10800.000
G1 X107.705 Y109.668
G1 Z0.200
G1 E0.80000 F2100.00000
G1 F1200.000
G1 X107.106 Y109.070 E0.02671
G1 X106.569 Y109.070 E0.01696
G1 X107.535 Y110.035 E0.04312
G1 X107.535 Y110.573 E0.01696
G1 X106.032 Y109.070 E0.06710
G1 X105.495 Y109.070 E0.01696
G1 X107.535 Y111.110 E0.09108
G1 X107.535 Y111.647 E0.01696
G1 X104.958 Y109.070 E0.11506
G1 X104.421 Y109.070 E0.01696
G1 X107.535 Y112.184 E0.13905
G1 X107.535 Y112.721 E0.01696
G1 X103.884 Y109.070 E0.16303
G1 X103.347 Y109.070 E0.01696
G1 X107.535 Y113.258 E0.18701
G1 X107.535 Y113.795 E0.01696
G1 X102.810 Y109.070 E0.21099
G1 X102.273 Y109.070 E0.01696
G1 X107.535 Y114.332 E0.23497
G1 X107.535 Y114.869 E0.01696
G1 X101.736 Y109.070 E0.25895
G1 X101.199 Y109.070 E0.01696
G1 X107.535 Y115.406 E0.28293
G1 X107.535 Y115.943 E0.01696
G1 X100.662 Y109.070 E0.30692
G1 X100.125 Y109.070 E0.01696
G1 X107.535 Y116.480 E0.33090
G1 X107.535 Y117.017 E0.01696
G1 X99.588 Y109.070 E0.35488
G1 X99.051 Y109.070 E0.01696
G1 X107.535 Y117.554 E0.37886
G1 X107.535 Y118.091 E0.01696
G1 X98.514 Y109.070 E0.40284
G1 X97.977 Y109.070 E0.01696
G1 X107.535 Y118.628 E0.42682
G1 X107.535 Y119.165 E0.01696
G1 X97.440 Y109.070 E0.45081
G1 X96.902 Y109.070 E0.01696
G1 X107.535 Y119.702 E0.47479
G1 X107.535 Y120.239 E0.01696
G1 X96.365 Y109.070 E0.49877
G1 X95.828 Y109.070 E0.01696
G1 X107.535 Y120.776 E0.52275
G1 X107.535 Y121.313 E0.01696
G1 X95.291 Y109.070 E0.54673
G1 X94.754 Y109.070 E0.01696
G1 X107.535 Y121.850 E0.57071
G1 X107.535 Y122.387 E0.01696
G1 X94.217 Y109.070 E0.59470
G1 X93.680 Y109.070 E0.01696
G1 X107.535 Y122.924 E0.61868
G1 X107.535 Y123.461 E0.01696
G1 X93.143 Y109.070 E0.64266
G1 X92.606 Y109.070 E0.01696
G1 X107.535 Y123.999 E0.66664
G1 X107.535 Y124.536 E0.01696
G1 X92.069 Y109.070 E0.69062
G1 X91.532 Y109.070 E0.01696
G1 X107.535 Y125.073 E0.71460
G1 X107.535 Y125.610 E0.01696
G1 X90.995 Y109.070 E0.73859
G1 X90.458 Y109.070 E0.01696
G1 X107.535 Y126.147 E0.76257
G1 X107.535 Y126.684 E0.01696
G1 X89.921 Y109.070 E0.78655
G1 X89.384 Y109.070 E0.01696
G1 X107.035 Y126.721 E0.78820
G1 X106.498 Y126.721 E0.01696
G1 X88.884 Y109.107 E0.78654
G1 X88.884 Y109.644 E0.01696
G1 X105.961 Y126.721 E0.76256
G1 X105.424 Y126.721 E0.01696
G1 X88.884 Y110.181 E0.73858
G1 X88.884 Y110.718 E0.01696
G1 X104.887 Y126.721 E0.71460
G1 X104.350 Y126.721 E0.01696
G1 X88.884 Y111.255 E0.69062
G1 X88.884 Y111.792 E0.01696
G1 X103.813 Y126.721 E0.66664
G1 X103.275 Y126.721 E0.01696
G1 X88.884 Y112.329 E0.64265
G1 X88.884 Y112.866 E0.01696
G1 X102.738 Y126.721 E0.61867
G1 X102.201 Y126.721 E0.01696
G1 X88.884 Y113.403 E0.59469
G1 X88.884 Y113.940 E0.01696
G1 X101.664 Y126.721 E0.57071
G1 X101.127 Y126.721 E0.01696
G1 X88.884 Y114.477 E0.54673
G1 X88.884 Y115.014 E0.01696
G1 X100.590 Y126.721 E0.52275
M73 P4 R40
G1 X100.053 Y126.721 E0.01696
G1 X88.884 Y115.551 E0.49876
G1 X88.884 Y116.088 E0.01696
G1 X99.516 Y126.721 E0.47478
G1 X98.979 Y126.721 E0.01696
G1 X88.884 Y116.626 E0.45080
G1 X88.884 Y117.163 E0.01696
G1 X98.442 Y126.721 E0.42682
G1 X97.905 Y126.721 E0.01696
G1 X88.884 Y117.700 E0.40284
G1 X88.884 Y118.237 E0.01696
G1 X97.368 Y126.721 E0.37886
G1 X96.831 Y126.721 E0.01696
G1 X88.884 Y118.774 E0.35487
G1 X88.884 Y119.311 E0.01696
G1 X96.294 Y126.721 E0.33089
G1 X95.757 Y126.721 E0.01696
G1 X88.884 Y119.848 E0.30691
G1 X88.884 Y120.385 E0.01696
G1 X95.220 Y126.721 E0.28293
G1 X94.683 Y126.721 E0.01696
G1 X88.884 Y120.922 E0.25895
G1 X88.884 Y121.459 E0.01696
G1 X94.146 Y126.721 E0.23497
G1 X93.609 Y126.721 E0.01696
G1 X88.884 Y121.996 E0.21099
G1 X88.884 Y122.533 E0.01696
G1 X93.072 Y126.721 E0.18700
G1 X92.535 Y126.721 E0.01696
G1 X88.884 Y123.070 E0.16302
G1 X88.884 Y123.607 E0.01696
G1 X91.998 Y126.721 E0.13904
G1 X91.461 Y126.721 E0.01696
G1 X88.884 Y124.144 E0.11506
G1 X88.884 Y124.681 E0.01696
G1 X90.924 Y126.721 E0.09108
G1 X90.387 Y126.721 E0.01696
G1 X88.884 Y125.218 E0.06710
G1 X88.884 Y125.755 E0.01696
G1 X89.849 Y126.721 E0.04311
G1 X89.312 Y126.721 E0.01696
G1 X88.714 Y126.123 E0.02671
; stop printing object Diffuser.STL id:1 copy 1
; printing object Diffuser.STL id:1 copy 2
G1 E-0.80000 F2100.00000
G1 Z0.800 F10800.000
G1 X88.714 Y101.213
G1 Z0.200
G1 E0.80000 F2100.00000
G1 F1200.000
G1 X88.601 Y101.213 E0.00355
G1 X88.601 Y82.996 E0.57116
G1 X107.818 Y82.996 E0.60252
G1 X107.818 Y101.213 E0.57116
G1 X88.774 Y101.213 E0.59709
G1 X88.224 Y101.590 F10800.000
G1 F1200.000
G1 X88.224 Y82.619 E0.59481
G1 X108.195 Y82.619 E0.62616
G1 X108.195 Y101.590 E0.59481
G1 X88.284 Y101.590 E0.62428
G1 X88.331 Y101.205 F10800.000
G1 E-0.80000 F2100.00000
G1 Z0.800 F10800.000
G1 X107.705 Y83.878
G1 Z0.200
G1 E0.80000 F2100.00000
G1 F1200.000
G1 X107.106 Y83.279 E0.02671
G1 X106.569 Y83.279 E0.01696
G1 X107.535 Y84.245 E0.04312
G1 X107.535 Y84.782 E0.01696
G1 X106.032 Y83.279 E0.06710
G1 X105.495 Y83.279 E0.01696
G1 X107.535 Y85.319 E0.09108
G1 X107.535 Y85.856 E0.01696
G1 X104.958 Y83.279 E0.11506
G1 X104.421 Y83.279 E0.01696
G1 X107.535 Y86.393 E0.13905
G1 X107.535 Y86.930 E0.01696
G1 X103.884 Y83.279 E0.16303
G1 X103.347 Y83.279 E0.01696
G1 X107.535 Y87.467 E0.18701
G1 X107.535 Y88.004 E0.01696
G1 X102.810 Y83.279 E0.21099
G1 X102.273 Y83.279 E0.01696
G1 X107.535 Y88.541 E0.23497
G1 X107.535 Y89.078 E0.01696
G1 X101.736 Y83.279 E0.25895
G1 X101.199 Y83.279 E0.01696
G1 X107.535 Y89.615 E0.28293
G1 X107.535 Y90.152 E0.01696
G1 X100.662 Y83.279 E0.30692
G1 X100.125 Y83.279 E0.01696
G1 X107.535 Y90.689 E0.33090
G1 X107.535 Y91.226 E0.01696
G1 X99.588 Y83.279 E0.35488
G1 X99.051 Y83.279 E0.01696
G1 X107.535 Y91.763 E0.37886
G1 X107.535 Y92.300 E0.01696
G1 X98.514 Y83.279 E0.40284
G1 X97.977 Y83.279 E0.01696
G1 X107.535 Y92.838 E0.42682
G1 X107.535 Y93.375 E0.01696
G1 X97.440 Y83.279 E0.45081
G1 X96.902 Y83.279 E0.01696
G1 X107.535 Y93.912 E0.47479
G1 X107.535 Y94.449 E0.01696
G1 X96.365 Y83.279 E0.49877
G1 X95.828 Y83.279 E0.01696
G1 X107.535 Y94.986 E0.52275
G1 X107.535 Y95.523 E0.01696
G1 X95.291 Y83.279 E0.54673
G1 X94.754 Y83.279 E0.01696
G1 X107.535 Y96.060 E0.57071
G1 X107.535 Y96.597 E0.01696
G1 X94.217 Y83.279 E0.59470
G1 X93.680 Y83.279 E0.01696
G1 X107.535 Y97.134 E0.61868
G1 X107.535 Y97.671 E0.01696
G1 X93.143 Y83.279 E0.64266
G1 X92.606 Y83.279 E0.01696
G1 X107.535 Y98.208 E0.66664
G1 X107.535 Y98.745 E0.01696
G1 X92.069 Y83.279 E0.69062
G1 X91.532 Y83.279 E0.01696
G1 X107.535 Y99.282 E0.71460
G1 X107.535 Y99.819 E0.01696
G1 X90.995 Y83.279 E0.73859
G1 X90.458 Y83.279 E0.01696
G1 X107.535 Y100.356 E0.76257
G1 X107.535 Y100.893 E0.01696
G1 X89.921 Y83.279 E0.78655
G1 X89.384 Y83.279 E0.01696
G1 X107.035 Y100.930 E0.78820
G1 X106.498 Y100.930 E0.01696
G1 X88.884 Y83.316 E0.78654
G1 X88.884 Y83.853 E0.01696
G1 X105.961 Y100.930 E0.76256
G1 X105.424 Y100.930 E0.01696
G1 X88.884 Y84.390 E0.73858
G1 X88.884 Y84.927 E0.01696
G1 X104.887 Y100.930 E0.71460
G1 X104.350 Y100.930 E0.01696
G1 X88.884 Y85.465 E0.69062
G1 X88.884 Y86.002 E0.01696
G1 X103.813 Y100.930 E0.66664
G1 X103.275 Y100.930 E0.01696
G1 X88.884 Y86.539 E0.64265
G1 X88.884 Y87.076 E0.01696
G1 X102.738 Y100.930 E0.61867
G1 X102.201 Y100.930 E0.01696
G1 X88.884 Y87.613 E0.59469
G1 X88.884 Y88.150 E0.01696
G1 X101.664 Y100.930 E0.57071
G1 X101.127 Y100.930 E0.01696
G1 X88.884 Y88.687 E0.54673
G1 X88.884 Y89.224 E0.01696
G1 X100.590 Y100.930 E0.52275
G1 X100.053 Y100.930 E0.01696
G1 X88.884 Y89.761 E0.49876
G1 X88.884 Y90.298 E0.01696
G1 X99.516 Y100.930 E0.47478
G1 X98.979 Y100.930 E0.01696
G1 X88.884 Y90.835 E0.45080
G1 X88.884 Y91.372 E0.01696
G1 X98.442 Y100.930 E0.42682
G1 X97.905 Y100.930 E0.01696
G1 X88.884 Y91.909 E0.40284
G1 X88.884 Y92.446 E0.01696
G1 X97.368 Y100.930 E0.37886
G1 X96.831 Y100.930 E0.01696
G1 X88.884 Y92.983 E0.35487
G1 X88.884 Y93.520 E0.01696
G1 X96.294 Y100.930 E0.33089
G1 X95.757 Y100.930 E0.01696
G1 X88.884 Y94.057 E0.30691
M73 P7 R39
G1 X88.884 Y94.594 E0.01696
G1 X95.220 Y100.930 E0.28293
G1 X94.683 Y100.930 E0.01696
G1 X88.884 Y95.131 E0.25895
G1 X88.884 Y95.668 E0.01696
G1 X94.146 Y100.930 E0.23497
G1 X93.609 Y100.930 E0.01696
G1 X88.884 Y96.205 E0.21099
G1 X88.884 Y96.742 E0.01696
G1 X93.072 Y100.930 E0.18700
G1 X92.535 Y100.930 E0.01696
G1 X88.884 Y97.279 E0.16302
G1 X88.884 Y97.816 E0.01696
G1 X91.998 Y100.930 E0.13904
G1 X91.461 Y100.930 E0.01696
G1 X88.884 Y98.354 E0.11506
G1 X88.884 Y98.891 E0.01696
G1 X90.924 Y100.930 E0.09108
G1 X90.387 Y100.930 E0.01696
G1 X88.884 Y99.428 E0.06710
G1 X88.884 Y99.965 E0.01696
G1 X89.849 Y100.930 E0.04311
G1 X89.312 Y100.930 E0.01696
G1 X88.714 Y100.332 E0.02671
; stop printing object Diffuser.STL id:1 copy 2
