; generated by PrusaSlicer 2.2.0+win64 on 2021-01-29 at 20:02:44 UTC

; 

; external perimeters extrusion width = 0.60mm
; perimeters extrusion width = 0.43mm
; infill extrusion width = 0.45mm
; solid infill extrusion width = 0.70mm
; top infill extrusion width = 0.43mm
; first layer extrusion width = 0.42mm

M73 P0 R45
M201 X9000 Y9000 Z500 E10000 ; sets maximum accelerations, mm/sec^2
M203 X500 Y500 Z12 E120 ; sets maximum feedrates, mm/sec
M204 P2000 R1500 T2000 ; sets acceleration (P, T) and retract acceleration (R), mm/sec^2
M205 X10.00 Y10.00 Z0.20 E2.50 ; sets the jerk limits, mm/sec
M205 S0 T0 ; sets the minimum extruding and travel feed rate, mm/sec
M107
M862.3 P "MK2S" ; printer model check
M862.1 P0.4 ; nozzle diameter check
M115 U3.2.3 ; tell printer latest fw version
G90 ; use absolute coordinates
M83 ; extruder relative mode
M204 S2000 T1500 ; MK2 firmware only supports the old M204 format
M104 S215 ; set extruder temp
M140 S60 ; set bed temp
M190 S60 ; wait for bed temp
M109 S215 ; wait for extruder temp
G28 W ; home all without mesh bed level
G80 ; mesh bed leveling
G1 Y-3.0 F1000.0 ; go outside print area
G92 E0.0
G1 X60.0 E9.0  F1000.0 ; intro line
M73 P0 R45
G1 X100.0 E12.5 F1000.0 ; intro line
G92 E0.0
G21 ; set units to millimeters
G90 ; use absolute coordinates
M83 ; use relative distances for extrusion
M900 K0.05 ; Filament gcode LA 1.5
M900 K30 ; Filament gcode LA 1.0
;BEFORE_LAYER_CHANGE
G92 E0.0
;0.2


G1 E-0.80000 F2100.00000
G1 Z0.600 F10800.000
;AFTER_LAYER_CHANGE
;0.2
G1 X74.076 Y86.793
G1 Z0.200
G1 E0.80000 F2100.00000
M204 S1000
G1 F1200.000
G1 X74.995 Y86.606 E0.02942
G1 X175.004 Y86.606 E3.13570
G1 X175.902 Y86.784 E0.02872
G1 X176.664 Y87.285 E0.02860
G1 X177.181 Y88.037 E0.02860
G1 X177.377 Y88.932 E0.02872
G1 X177.376 Y128.848 E1.25153
G1 X177.257 Y129.513 E0.02119
G1 X176.959 Y130.115 E0.02107
G1 X176.503 Y130.609 E0.02107
G1 X175.924 Y130.958 E0.02119
G1 X175.005 Y131.145 E0.02942
G1 X74.970 Y131.145 E3.13654
G1 X74.291 Y131.037 E0.02154
G1 X73.672 Y130.739 E0.02154
G1 X73.166 Y130.280 E0.02142
G1 X72.810 Y129.692 E0.02154
G1 X72.623 Y128.780 E0.02919
G1 X72.624 Y88.914 E1.24998
G1 X72.740 Y88.245 E0.02130
G1 X73.039 Y87.639 E0.02119
G1 X73.497 Y87.141 E0.02119
G1 X74.024 Y86.824 E0.01931
; printing object Drop Target.STL id:1 copy 0
G1 E-0.80000 F2100.00000
G1 Z0.800 F10800.000
G1 X75.787 Y116.565
G1 Z0.200
G1 E0.80000 F2100.00000
G1 F1200.000
G1 X103.376 Y116.568 E0.86503
G1 X103.590 Y116.597 E0.00678
G1 X103.830 Y116.676 E0.00791
G1 X104.013 Y116.777 E0.00654
G1 X104.159 Y116.893 E0.00585
G1 X104.302 Y117.051 E0.00669
G1 X104.403 Y117.211 E0.00593
G1 X104.483 Y117.399 E0.00641
G1 X104.529 Y117.587 E0.00605
G1 X104.547 Y117.810 E0.00701
G1 X104.552 Y127.981 E0.31891
G1 X97.071 Y127.981 E0.23456
G1 X97.071 Y117.181 E0.33863
G1 X78.879 Y117.181 E0.57040
G1 X78.879 Y127.981 E0.33863
G1 X75.787 Y127.981 E0.09694
G1 X75.787 Y116.625 E0.35604
G1 E-0.80000 F2100.00000
G1 Z0.800 F10800.000
G1 X96.694 Y117.558
G1 Z0.200
G1 E0.80000 F2100.00000
G1 F1200.000
G1 X79.256 Y117.558 E0.54675
G1 X79.256 Y128.358 E0.33863
G1 X75.410 Y128.358 E0.12059
G1 X75.410 Y116.188 E0.38157
G1 X103.401 Y116.191 E0.87765
G1 X103.675 Y116.228 E0.00866
G1 X103.981 Y116.329 E0.01010
G1 X104.223 Y116.462 E0.00865
G1 X104.418 Y116.617 E0.00782
G1 X104.603 Y116.822 E0.00866
G1 X104.738 Y117.035 E0.00789
G1 X104.843 Y117.280 E0.00836
G1 X104.902 Y117.527 E0.00797
G1 X104.924 Y117.795 E0.00841
G1 X104.929 Y128.358 E0.33120
G1 X96.694 Y128.358 E0.25821
G1 X96.694 Y117.618 E0.33675
G1 X96.608 Y117.167 F10800.000
G1 X97.260 Y116.874
G1 F1200.000
G1 X78.690 Y116.873 E0.36747
G1 X78.766 Y117.634 F10800.000
G1 F1200.000
G1 X77.980 Y116.848 E0.03503
G1 X77.444 Y116.848 E0.01691
G1 X78.596 Y118.000 E0.05137
G1 X78.596 Y118.537 E0.01691
G1 X76.908 Y116.848 E0.07528
G1 X76.372 Y116.848 E0.01691
G1 X78.596 Y119.073 E0.09919
G1 X78.596 Y119.609 E0.01691
G1 X76.070 Y117.083 E0.11264
G1 X76.070 Y117.619 E0.01691
G1 X78.596 Y120.145 E0.11264
G1 X78.596 Y120.681 E0.01691
G1 X76.070 Y118.155 E0.11264
G1 X76.070 Y118.691 E0.01691
G1 X78.596 Y121.218 E0.11264
G1 X78.596 Y121.754 E0.01691
G1 X76.070 Y119.228 E0.11264
G1 X76.070 Y119.764 E0.01691
G1 X78.596 Y122.290 E0.11264
G1 X78.596 Y122.826 E0.01691
G1 X76.070 Y120.300 E0.11264
G1 X76.070 Y120.836 E0.01691
G1 X78.596 Y123.363 E0.11264
G1 X78.596 Y123.899 E0.01691
G1 X76.070 Y121.372 E0.11264
G1 X76.070 Y121.909 E0.01691
G1 X78.596 Y124.435 E0.11264
G1 X78.596 Y124.971 E0.01691
G1 X76.070 Y122.445 E0.11264
G1 X76.070 Y122.981 E0.01691
G1 X78.596 Y125.507 E0.11264
G1 X78.596 Y126.044 E0.01691
G1 X76.070 Y123.517 E0.11264
G1 X76.070 Y124.053 E0.01691
G1 X78.596 Y126.580 E0.11264
G1 X78.596 Y127.116 E0.01691
G1 X76.070 Y124.590 E0.11264
G1 X76.070 Y125.126 E0.01691
G1 X78.596 Y127.652 E0.11264
G1 X78.596 Y127.698 E0.00144
G1 X78.106 Y127.698 E0.01546
G1 X76.070 Y125.662 E0.09077
G1 X76.070 Y126.198 E0.01691
G1 X77.569 Y127.698 E0.06686
G1 X77.033 Y127.698 E0.01691
G1 X76.070 Y126.734 E0.04295
G1 X76.070 Y127.271 E0.01691
G1 X76.667 Y127.868 E0.02661
G1 E-0.80000 F2100.00000
G1 Z0.800 F10800.000
G1 X97.958 Y127.868
G1 Z0.200
G1 E0.80000 F2100.00000
G1 F1200.000
G1 X97.354 Y127.264 E0.02717
G1 X97.354 Y126.723 E0.01721
G1 X98.329 Y127.698 E0.04388
G1 X98.870 Y127.698 E0.01721
G1 X97.354 Y126.182 E0.06821
G1 X97.354 Y125.641 E0.01721
G1 X99.411 Y127.698 E0.09255
G1 X99.952 Y127.698 E0.01721
G1 X97.354 Y125.100 E0.11689
G1 X97.354 Y124.559 E0.01721
G1 X100.493 Y127.698 E0.14122
G1 X101.034 Y127.698 E0.01721
G1 X97.354 Y124.018 E0.16556
G1 X97.354 Y123.477 E0.01721
G1 X101.575 Y127.698 E0.18990
G1 X102.116 Y127.698 E0.01721
G1 X97.354 Y122.936 E0.21423
G1 X97.354 Y122.395 E0.01721
G1 X102.657 Y127.698 E0.23857
G1 X103.198 Y127.698 E0.01721
G1 X97.354 Y121.854 E0.26291
G1 X97.354 Y121.313 E0.01721
G1 X103.739 Y127.698 E0.28724
G1 X104.269 Y127.687 E0.01686
G1 X97.354 Y120.772 E0.31107
G1 X97.354 Y120.231 E0.01721
G1 X104.269 Y127.145 E0.31106
G1 X104.268 Y126.604 E0.01722
G1 X97.354 Y119.690 E0.31105
G1 X97.354 Y119.149 E0.01721
G1 X104.268 Y126.063 E0.31104
G1 X104.268 Y125.522 E0.01722
G1 X97.354 Y118.608 E0.31102
G1 X97.354 Y118.067 E0.01721
G1 X104.268 Y124.980 E0.31101
G1 X104.267 Y124.439 E0.01722
G1 X97.354 Y117.526 E0.31100
G1 X97.354 Y117.297 E0.00726
G1 X97.542 Y117.297 E0.00600
G1 X97.542 Y117.173 E0.00395
G1 X104.267 Y123.898 E0.30250
G1 X104.267 Y123.356 E0.01722
G1 X97.761 Y116.850 E0.29267
G1 X98.302 Y116.850 E0.01721
G1 X104.266 Y122.815 E0.26832
G1 X104.266 Y122.274 E0.01722
G1 X98.843 Y116.850 E0.24397
G1 X99.384 Y116.850 E0.01721
G1 X104.266 Y121.733 E0.21962
G1 X104.266 Y121.191 E0.01722
G1 X99.925 Y116.851 E0.19526
G1 X100.466 Y116.851 E0.01721
G1 X104.265 Y120.650 E0.17091
G1 X104.265 Y120.109 E0.01722
G1 X101.007 Y116.851 E0.14656
G1 X101.548 Y116.851 E0.01721
G1 X104.265 Y119.567 E0.12221
G1 X104.264 Y119.026 E0.01722
G1 X102.089 Y116.851 E0.09786
G1 X102.630 Y116.851 E0.01721
G1 X104.264 Y118.485 E0.07351
G1 X104.264 Y117.944 E0.01722
G1 X103.171 Y116.851 E0.04915
G1 X103.527 Y116.874 E0.01133
G1 X103.716 Y116.936 E0.00635
G1 X103.855 Y117.013 E0.00504
G1 X104.401 Y117.540 E0.02414
G1 E-0.80000 F2100.00000
G1 Z0.800 F10800.000
G1 X171.121 Y117.181
G1 Z0.200
G1 E0.80000 F2100.00000
G1 F1200.000
G1 X152.929 Y117.181 E0.57040
G1 X152.929 Y127.981 E0.33863
G1 X121.598 Y127.981 E0.98236
G1 X121.603 Y117.812 E0.31884
G1 X121.632 Y117.531 E0.00884
G1 X121.691 Y117.338 E0.00634
G1 X121.806 Y117.113 E0.00791
G1 X121.933 Y116.951 E0.00646
G1 X122.073 Y116.823 E0.00593
G1 X122.252 Y116.707 E0.00670
G1 X122.425 Y116.633 E0.00591
G1 X122.627 Y116.583 E0.00652
G1 X122.849 Y116.565 E0.00699
G1 X174.213 Y116.565 E1.61047
G1 X174.213 Y127.981 E0.35792
G1 X171.121 Y127.981 E0.09694
G1 X171.121 Y117.241 E0.33675
G1 X170.744 Y117.558 F10800.000
G1 F1200.000
G1 X153.306 Y117.558 E0.54675
G1 X153.306 Y128.358 E0.33863
G1 X121.221 Y128.358 E1.00601
G1 X121.226 Y117.792 E0.33128
G1 X121.261 Y117.457 E0.01057
G1 X121.340 Y117.196 E0.00855
G1 X121.487 Y116.909 E0.01012
G1 X121.656 Y116.694 E0.00856
G1 X121.842 Y116.524 E0.00790
G1 X122.074 Y116.374 E0.00867
G1 X122.305 Y116.274 E0.00788
G1 X122.567 Y116.209 E0.00847
G1 X122.834 Y116.188 E0.00842
G1 X174.590 Y116.188 E1.62276
M73 P2 R44
G1 X174.590 Y128.358 E0.38157
G1 X170.744 Y128.358 E0.12059
G1 X170.744 Y117.618 E0.33675
G1 X170.698 Y117.160 F10800.000
G1 X171.310 Y116.873
G1 F1200.000
G1 X152.740 Y116.873 E0.36803
G1 X152.816 Y117.630 F10800.000
G1 F1200.000
G1 X152.034 Y116.848 E0.03472
G1 X151.500 Y116.848 E0.01676
G1 X152.646 Y117.994 E0.05089
G1 X152.646 Y118.528 E0.01676
G1 X150.966 Y116.848 E0.07460
G1 X150.432 Y116.848 E0.01676
G1 X152.646 Y119.062 E0.09830
G1 X152.646 Y119.596 E0.01676
G1 X149.898 Y116.848 E0.12201
G1 X149.364 Y116.848 E0.01676
G1 X152.646 Y120.130 E0.14571
G1 X152.646 Y120.664 E0.01676
G1 X148.830 Y116.848 E0.16942
G1 X148.296 Y116.848 E0.01676
G1 X152.646 Y121.198 E0.19312
G1 X152.646 Y121.732 E0.01676
G1 X147.762 Y116.848 E0.21683
G1 X147.228 Y116.848 E0.01676
G1 X152.646 Y122.266 E0.24053
G1 X152.646 Y122.800 E0.01676
G1 X146.694 Y116.848 E0.26424
G1 X146.161 Y116.848 E0.01676
G1 X152.646 Y123.334 E0.28794
G1 X152.646 Y123.868 E0.01676
G1 X145.627 Y116.848 E0.31165
G1 X145.093 Y116.848 E0.01676
G1 X152.646 Y124.402 E0.33535
G1 X152.646 Y124.936 E0.01676
G1 X144.559 Y116.848 E0.35906
G1 X144.025 Y116.848 E0.01676
G1 X152.646 Y125.469 E0.38276
G1 X152.646 Y126.003 E0.01676
G1 X143.491 Y116.848 E0.40647
G1 X142.957 Y116.848 E0.01676
G1 X152.646 Y126.537 E0.43017
G1 X152.646 Y127.071 E0.01676
G1 X142.423 Y116.848 E0.45388
G1 X141.889 Y116.848 E0.01676
G1 X152.646 Y127.605 E0.47758
G1 X152.646 Y127.698 E0.00291
G1 X152.205 Y127.698 E0.01385
G1 X141.355 Y116.848 E0.48170
G1 X140.821 Y116.848 E0.01676
G1 X151.671 Y127.698 E0.48170
G1 X151.137 Y127.698 E0.01676
G1 X140.287 Y116.848 E0.48170
G1 X139.753 Y116.848 E0.01676
G1 X150.603 Y127.698 E0.48170
G1 X150.069 Y127.698 E0.01676
G1 X139.219 Y116.848 E0.48170
G1 X138.685 Y116.848 E0.01676
G1 X149.535 Y127.698 E0.48170
G1 X149.001 Y127.698 E0.01676
G1 X138.152 Y116.848 E0.48170
G1 X137.618 Y116.848 E0.01676
G1 X148.467 Y127.698 E0.48170
G1 X147.934 Y127.698 E0.01676
G1 X137.084 Y116.848 E0.48170
G1 X136.550 Y116.848 E0.01676
G1 X147.400 Y127.698 E0.48170
G1 X146.866 Y127.698 E0.01676
G1 X136.016 Y116.848 E0.48170
G1 X135.482 Y116.848 E0.01676
G1 X146.332 Y127.698 E0.48170
G1 X145.798 Y127.698 E0.01676
G1 X134.948 Y116.848 E0.48170
G1 X134.414 Y116.848 E0.01676
G1 X145.264 Y127.698 E0.48170
G1 X144.730 Y127.698 E0.01676
G1 X133.880 Y116.848 E0.48170
G1 X133.346 Y116.848 E0.01676
G1 X144.196 Y127.698 E0.48170
G1 X143.662 Y127.698 E0.01676
G1 X132.812 Y116.848 E0.48170
G1 X132.278 Y116.848 E0.01676
G1 X143.128 Y127.698 E0.48170
G1 X142.594 Y127.698 E0.01676
G1 X131.744 Y116.848 E0.48170
G1 X131.210 Y116.848 E0.01676
G1 X142.060 Y127.698 E0.48170
G1 X141.526 Y127.698 E0.01676
G1 X130.676 Y116.848 E0.48170
G1 X130.143 Y116.848 E0.01676
G1 X140.992 Y127.698 E0.48170
G1 X140.458 Y127.698 E0.01676
G1 X129.609 Y116.848 E0.48170
G1 X129.075 Y116.848 E0.01676
G1 X139.925 Y127.698 E0.48170
G1 X139.391 Y127.698 E0.01676
G1 X128.541 Y116.848 E0.48170
G1 X128.007 Y116.848 E0.01676
G1 X138.857 Y127.698 E0.48170
G1 X138.323 Y127.698 E0.01676
G1 X127.473 Y116.848 E0.48170
G1 X126.939 Y116.848 E0.01676
G1 X137.789 Y127.698 E0.48170
G1 X137.255 Y127.698 E0.01676
G1 X126.405 Y116.848 E0.48170
G1 X125.871 Y116.848 E0.01676
G1 X136.721 Y127.698 E0.48170
G1 X136.187 Y127.698 E0.01676
G1 X125.337 Y116.848 E0.48170
G1 X124.803 Y116.848 E0.01676
G1 X135.653 Y127.698 E0.48170
G1 X135.119 Y127.698 E0.01676
G1 X124.269 Y116.848 E0.48170
G1 X123.735 Y116.848 E0.01676
G1 X134.585 Y127.698 E0.48170
G1 X134.051 Y127.698 E0.01676
G1 X123.201 Y116.848 E0.48170
G1 X122.682 Y116.862 E0.01632
G1 X133.517 Y127.698 E0.48107
G1 X132.983 Y127.698 E0.01676
G1 X122.299 Y117.014 E0.47434
G1 X122.142 Y117.144 E0.00642
G1 X122.036 Y117.285 E0.00552
G1 X132.449 Y127.698 E0.46231
G1 X131.916 Y127.698 E0.01676
G1 X121.901 Y117.683 E0.44461
G1 X121.886 Y118.202 E0.01630
G1 X131.382 Y127.698 E0.42157
G1 X130.848 Y127.698 E0.01676
G1 X121.886 Y118.736 E0.39788
G1 X121.885 Y119.270 E0.01675
G1 X130.314 Y127.698 E0.37419
G1 X129.780 Y127.698 E0.01676
G1 X121.885 Y119.803 E0.35050
G1 X121.885 Y120.337 E0.01675
G1 X129.246 Y127.698 E0.32680
G1 X128.712 Y127.698 E0.01676
G1 X121.885 Y120.871 E0.30311
G1 X121.884 Y121.404 E0.01675
G1 X128.178 Y127.698 E0.27942
G1 X127.644 Y127.698 E0.01676
G1 X121.884 Y121.938 E0.25573
G1 X121.884 Y122.472 E0.01675
G1 X127.110 Y127.698 E0.23203
G1 X126.576 Y127.698 E0.01676
G1 X121.883 Y123.005 E0.20834
G1 X121.883 Y123.539 E0.01675
G1 X126.042 Y127.698 E0.18465
G1 X125.508 Y127.698 E0.01676
G1 X121.883 Y124.072 E0.16096
G1 X121.883 Y124.606 E0.01675
G1 X124.974 Y127.698 E0.13726
G1 X124.441 Y127.698 E0.01676
G1 X121.882 Y125.140 E0.11357
G1 X121.882 Y125.673 E0.01675
G1 X123.907 Y127.698 E0.08988
G1 X123.373 Y127.698 E0.01676
G1 X121.882 Y126.207 E0.06619
G1 X121.882 Y126.741 E0.01675
G1 X122.839 Y127.698 E0.04250
G1 X122.305 Y127.698 E0.01676
G1 X121.712 Y127.105 E0.02633
G1 E-0.80000 F2100.00000
G1 Z0.800 F10800.000
G1 X172.012 Y127.868
G1 Z0.200
G1 E0.80000 F2100.00000
G1 F1200.000
G1 X171.404 Y127.260 E0.02746
G1 X171.404 Y126.716 E0.01737
G1 X172.385 Y127.698 E0.04436
G1 X172.929 Y127.698 E0.01737
G1 X171.404 Y126.173 E0.06892
G1 X171.404 Y125.629 E0.01737
G1 X173.472 Y127.698 E0.09347
G1 X173.930 Y127.698 E0.01463
G1 X173.930 Y127.612 E0.00274
G1 X171.404 Y125.086 E0.11416
G1 X171.404 Y124.542 E0.01737
G1 X173.930 Y127.069 E0.11416
G1 X173.930 Y126.525 E0.01737
G1 X171.404 Y123.999 E0.11416
G1 X171.404 Y123.456 E0.01737
G1 X173.930 Y125.982 E0.11416
G1 X173.930 Y125.438 E0.01737
G1 X171.404 Y122.912 E0.11416
G1 X171.404 Y122.369 E0.01737
G1 X173.930 Y124.895 E0.11416
G1 X173.930 Y124.351 E0.01737
G1 X171.404 Y121.825 E0.11416
G1 X171.404 Y121.282 E0.01737
G1 X173.930 Y123.808 E0.11416
G1 X173.930 Y123.264 E0.01737
G1 X171.404 Y120.738 E0.11416
G1 X171.404 Y120.195 E0.01737
G1 X173.930 Y122.721 E0.11416
G1 X173.930 Y122.178 E0.01737
G1 X171.404 Y119.651 E0.11416
G1 X171.404 Y119.108 E0.01737
G1 X173.930 Y121.634 E0.11416
G1 X173.930 Y121.091 E0.01737
G1 X171.404 Y118.564 E0.11416
G1 X171.404 Y118.021 E0.01737
G1 X173.930 Y120.547 E0.11416
G1 X173.930 Y120.004 E0.01737
G1 X171.404 Y117.477 E0.11416
G1 X171.404 Y117.296 E0.00578
G1 X171.592 Y117.296 E0.00602
G1 X171.592 Y117.122 E0.00556
G1 X173.930 Y119.460 E0.10564
G1 X173.930 Y118.917 E0.01737
G1 X171.862 Y116.848 E0.09348
G1 X172.405 Y116.848 E0.01737
G1 X173.930 Y118.373 E0.06892
G1 X173.930 Y117.830 E0.01737
G1 X172.948 Y116.848 E0.04436
G1 X173.492 Y116.848 E0.01737
G1 X174.100 Y117.456 E0.02747
; stop printing object Drop Target.STL id:1 copy 0
; printing object Drop Target.STL id:0 copy 0
G1 E-0.80000 F2100.00000
G1 Z0.800 F10800.000
G1 X104.552 Y101.213
G1 Z0.200
G1 E0.80000 F2100.00000
G1 F1200.000
G1 X97.071 Y101.213 E0.23456
G1 X97.071 Y90.413 E0.33863
G1 X78.879 Y90.413 E0.57040
G1 X78.879 Y101.213 E0.33863
G1 X75.787 Y101.213 E0.09694
G1 X75.787 Y89.798 E0.35792
G1 X103.376 Y89.800 E0.86503
G1 X103.590 Y89.829 E0.00678
G1 X103.830 Y89.908 E0.00791
G1 X104.013 Y90.009 E0.00654
G1 X104.159 Y90.125 E0.00585
G1 X104.302 Y90.284 E0.00669
G1 X104.403 Y90.443 E0.00593
G1 X104.483 Y90.631 E0.00641
G1 X104.529 Y90.819 E0.00605
G1 X104.547 Y91.042 E0.00701
G1 X104.552 Y101.153 E0.31703
M73 P4 R43
G1 E-0.80000 F2100.00000
G1 Z0.800 F10800.000
G1 X96.694 Y90.790
G1 Z0.200
G1 E0.80000 F2100.00000
G1 F1200.000
G1 X79.256 Y90.790 E0.54675
G1 X79.256 Y101.590 E0.33863
G1 X75.410 Y101.590 E0.12059
G1 X75.410 Y89.420 E0.38157
G1 X103.401 Y89.423 E0.87765
G1 X103.675 Y89.460 E0.00866
G1 X103.981 Y89.561 E0.01010
G1 X104.223 Y89.694 E0.00865
G1 X104.418 Y89.850 E0.00782
G1 X104.603 Y90.055 E0.00866
G1 X104.738 Y90.267 E0.00789
G1 X104.843 Y90.512 E0.00836
G1 X104.902 Y90.759 E0.00797
G1 X104.924 Y91.027 E0.00841
