; generated by PrusaSlicer 2.2.0+win64 on 2021-01-29 at 20:03:04 UTC

; 

; external perimeters extrusion width = 0.60mm
; perimeters extrusion width = 0.43mm
; infill extrusion width = 0.45mm
; solid infill extrusion width = 0.70mm
; top infill extrusion width = 0.43mm
; first layer extrusion width = 0.42mm

M73 P0 R180
M201 X9000 Y9000 Z500 E10000 ; sets maximum accelerations, mm/sec^2
M203 X500 Y500 Z12 E120 ; sets maximum feedrates, mm/sec
M204 P2000 R1500 T2000 ; sets acceleration (P, T) and retract acceleration (R), mm/sec^2
M205 X10.00 Y10.00 Z0.20 E2.50 ; sets the jerk limits, mm/sec
M205 S0 T0 ; sets the minimum extruding and travel feed rate, mm/sec
M107
M862.3 P "MK2S" ; printer model check
M862.1 P0.4 ; nozzle diameter check
M115 U3.2.3 ; tell printer latest fw version
G90 ; use absolute coordinates
M83 ; extruder relative mode
M204 S2000 T1500 ; MK2 firmware only supports the old M204 format
M104 S215 ; set extruder temp
M140 S60 ; set bed temp
M190 S60 ; wait for bed temp
M109 S215 ; wait for extruder temp
G28 W ; home all without mesh bed level
G80 ; mesh bed leveling
G1 Y-3.0 F1000.0 ; go outside print area
G92 E0.0
G1 X60.0 E9.0  F1000.0 ; intro line
M73 P0 R180
G1 X100.0 E12.5 F1000.0 ; intro line
G92 E0.0
G21 ; set units to millimeters
G90 ; use absolute coordinates
M83 ; use relative distances for extrusion
M900 K0.05 ; Filament gcode LA 1.5
M900 K30 ; Filament gcode LA 1.0
;BEFORE_LAYER_CHANGE
G92 E0.0
;0.2


G1 E-0.80000 F2100.00000
G1 Z0.600 F10800.000
;AFTER_LAYER_CHANGE
;0.2
G1 X20.438 Y60.423
G1 Z0.200
G1 E0.80000 F2100.00000
M204 S1000
G1 F1200.000
G1 X20.999 Y60.059 E0.02095
G1 X21.485 Y59.894 E0.01609
G1 X21.995 Y59.838 E0.01609
G1 X228.004 Y59.838 E6.45926
G1 X228.906 Y60.017 E0.02884
G1 X229.675 Y60.528 E0.02896
G1 X230.190 Y61.290 E0.02884
G1 X230.377 Y62.191 E0.02884
G1 X230.377 Y155.570 E2.92783
G1 X230.275 Y156.226 E0.02083
G1 X229.994 Y156.829 E0.02083
G1 X229.559 Y157.330 E0.02083
G1 X229.001 Y157.692 E0.02083
G1 X228.515 Y157.856 E0.01609
G1 X228.005 Y157.913 E0.01609
G1 X21.989 Y157.913 E6.45950
G1 X21.324 Y157.814 E0.02107
G1 X20.716 Y157.536 E0.02095
G1 X20.210 Y157.100 E0.02095
G1 X19.844 Y156.537 E0.02107
G1 X19.679 Y156.051 E0.01609
G1 X19.623 Y155.540 E0.01609
G1 X19.623 Y62.188 E2.92699
G1 X19.724 Y61.528 E0.02095
G1 X20.003 Y60.925 E0.02083
G1 X20.399 Y60.468 E0.01895
; printing object Drop Target.STL id:1 copy 0
G1 E-0.80000 F2100.00000
G1 Z0.800 F10800.000
G1 X22.787 Y143.333
G1 Z0.200
G1 E0.80000 F2100.00000
G1 F1200.000
G1 X50.376 Y143.336 E0.86503
G1 X50.590 Y143.365 E0.00678
G1 X50.830 Y143.444 E0.00791
G1 X51.013 Y143.545 E0.00654
G1 X51.159 Y143.661 E0.00585
G1 X51.302 Y143.819 E0.00669
G1 X51.403 Y143.979 E0.00593
G1 X51.483 Y144.167 E0.00641
G1 X51.529 Y144.354 E0.00605
G1 X51.547 Y144.577 E0.00701
G1 X51.552 Y154.748 E0.31891
G1 X44.071 Y154.748 E0.23456
G1 X44.071 Y143.948 E0.33863
G1 X25.879 Y143.948 E0.57040
G1 X25.879 Y154.748 E0.33863
G1 X22.787 Y154.748 E0.09694
G1 X22.787 Y143.393 E0.35604
G1 E-0.80000 F2100.00000
G1 Z0.800 F10800.000
G1 X43.694 Y144.326
G1 Z0.200
G1 E0.80000 F2100.00000
G1 F1200.000
G1 X26.256 Y144.326 E0.54675
G1 X26.256 Y155.126 E0.33863
G1 X22.410 Y155.126 E0.12059
G1 X22.410 Y142.956 E0.38157
G1 X50.401 Y142.959 E0.87765
G1 X50.675 Y142.996 E0.00866
G1 X50.981 Y143.096 E0.01010
G1 X51.223 Y143.230 E0.00865
G1 X51.418 Y143.385 E0.00782
G1 X51.603 Y143.590 E0.00866
G1 X51.738 Y143.802 E0.00789
G1 X51.843 Y144.048 E0.00836
G1 X51.902 Y144.295 E0.00797
G1 X51.924 Y144.562 E0.00841
G1 X51.929 Y155.126 E0.33120
G1 X43.694 Y155.126 E0.25821
G1 X43.694 Y144.386 E0.33675
G1 X43.608 Y143.935 F10800.000
G1 X44.260 Y143.642
G1 F1200.000
G1 X25.690 Y143.641 E0.36747
G1 X25.766 Y144.402 F10800.000
G1 F1200.000
G1 X24.980 Y143.616 E0.03503
G1 X24.444 Y143.616 E0.01691
G1 X25.596 Y144.768 E0.05137
G1 X25.596 Y145.304 E0.01691
G1 X23.908 Y143.616 E0.07528
G1 X23.372 Y143.616 E0.01691
G1 X25.596 Y145.841 E0.09919
G1 X25.596 Y146.377 E0.01691
G1 X23.070 Y143.850 E0.11264
G1 X23.070 Y144.387 E0.01691
G1 X25.596 Y146.913 E0.11264
G1 X25.596 Y147.449 E0.01691
G1 X23.070 Y144.923 E0.11264
G1 X23.070 Y145.459 E0.01691
G1 X25.596 Y147.985 E0.11264
G1 X25.596 Y148.522 E0.01691
G1 X23.070 Y145.995 E0.11264
G1 X23.070 Y146.532 E0.01691
G1 X25.596 Y149.058 E0.11264
G1 X25.596 Y149.594 E0.01691
G1 X23.070 Y147.068 E0.11264
G1 X23.070 Y147.604 E0.01691
G1 X25.596 Y150.130 E0.11264
G1 X25.596 Y150.666 E0.01691
G1 X23.070 Y148.140 E0.11264
G1 X23.070 Y148.676 E0.01691
G1 X25.596 Y151.203 E0.11264
G1 X25.596 Y151.739 E0.01691
G1 X23.070 Y149.213 E0.11264
G1 X23.070 Y149.749 E0.01691
G1 X25.596 Y152.275 E0.11264
G1 X25.596 Y152.811 E0.01691
G1 X23.070 Y150.285 E0.11264
G1 X23.070 Y150.821 E0.01691
G1 X25.596 Y153.348 E0.11264
G1 X25.596 Y153.884 E0.01691
G1 X23.070 Y151.357 E0.11264
G1 X23.070 Y151.894 E0.01691
G1 X25.596 Y154.420 E0.11264
G1 X25.596 Y154.466 E0.00144
G1 X25.106 Y154.466 E0.01546
G1 X23.070 Y152.430 E0.09077
G1 X23.070 Y152.966 E0.01691
G1 X24.569 Y154.466 E0.06686
G1 X24.033 Y154.466 E0.01691
G1 X23.070 Y153.502 E0.04295
G1 X23.070 Y154.038 E0.01691
G1 X23.667 Y154.635 E0.02661
G1 E-0.80000 F2100.00000
G1 Z0.800 F10800.000
G1 X44.958 Y154.635
G1 Z0.200
G1 E0.80000 F2100.00000
G1 F1200.000
G1 X44.354 Y154.031 E0.02717
G1 X44.354 Y153.490 E0.01721
G1 X45.329 Y154.466 E0.04388
G1 X45.870 Y154.466 E0.01721
G1 X44.354 Y152.949 E0.06821
G1 X44.354 Y152.408 E0.01721
G1 X46.411 Y154.466 E0.09255
G1 X46.952 Y154.466 E0.01721
G1 X44.354 Y151.867 E0.11689
G1 X44.354 Y151.326 E0.01721
G1 X47.493 Y154.466 E0.14122
G1 X48.034 Y154.466 E0.01721
G1 X44.354 Y150.785 E0.16556
G1 X44.354 Y150.244 E0.01721
G1 X48.575 Y154.466 E0.18990
G1 X49.116 Y154.466 E0.01721
G1 X44.354 Y149.703 E0.21423
G1 X44.354 Y149.162 E0.01721
G1 X49.657 Y154.466 E0.23857
G1 X50.198 Y154.466 E0.01721
G1 X44.354 Y148.621 E0.26291
G1 X44.354 Y148.080 E0.01721
G1 X50.739 Y154.466 E0.28724
G1 X51.269 Y154.454 E0.01686
G1 X44.354 Y147.539 E0.31107
G1 X44.354 Y146.998 E0.01721
G1 X51.269 Y153.913 E0.31106
G1 X51.268 Y153.372 E0.01722
G1 X44.354 Y146.457 E0.31105
G1 X44.354 Y145.916 E0.01721
G1 X51.268 Y152.831 E0.31104
G1 X51.268 Y152.289 E0.01722
G1 X44.354 Y145.375 E0.31102
G1 X44.354 Y144.834 E0.01721
G1 X51.268 Y151.748 E0.31101
G1 X51.267 Y151.207 E0.01722
G1 X44.354 Y144.293 E0.31100
G1 X44.354 Y144.065 E0.00726
G1 X44.542 Y144.065 E0.00600
G1 X44.542 Y143.941 E0.00395
G1 X51.267 Y150.665 E0.30250
G1 X51.267 Y150.124 E0.01722
G1 X44.761 Y143.618 E0.29267
G1 X45.302 Y143.618 E0.01721
G1 X51.266 Y149.583 E0.26832
M73 P0 R179
G1 X51.266 Y149.042 E0.01722
G1 X45.843 Y143.618 E0.24397
G1 X46.384 Y143.618 E0.01721
G1 X51.266 Y148.500 E0.21962
G1 X51.266 Y147.959 E0.01722
G1 X46.925 Y143.618 E0.19526
G1 X47.466 Y143.618 E0.01721
G1 X51.265 Y147.418 E0.17091
G1 X51.265 Y146.876 E0.01722
G1 X48.007 Y143.618 E0.14656
G1 X48.548 Y143.618 E0.01721
G1 X51.265 Y146.335 E0.12221
G1 X51.264 Y145.794 E0.01722
G1 X49.089 Y143.618 E0.09786
G1 X49.630 Y143.619 E0.01721
G1 X51.264 Y145.253 E0.07351
G1 X51.264 Y144.711 E0.01722
G1 X50.171 Y143.619 E0.04915
G1 X50.527 Y143.642 E0.01133
G1 X50.716 Y143.704 E0.00635
G1 X50.855 Y143.781 E0.00504
G1 X51.401 Y144.308 E0.02414
G1 E-0.80000 F2100.00000
G1 Z0.800 F10800.000
G1 X118.121 Y143.948
G1 Z0.200
G1 E0.80000 F2100.00000
G1 F1200.000
G1 X99.929 Y143.948 E0.57040
G1 X99.929 Y154.748 E0.33863
G1 X68.598 Y154.748 E0.98236
G1 X68.603 Y144.579 E0.31884
G1 X68.632 Y144.299 E0.00884
G1 X68.691 Y144.105 E0.00634
G1 X68.806 Y143.881 E0.00791
G1 X68.933 Y143.719 E0.00646
G1 X69.073 Y143.591 E0.00593
G1 X69.252 Y143.475 E0.00670
G1 X69.425 Y143.401 E0.00591
G1 X69.627 Y143.351 E0.00652
G1 X69.849 Y143.333 E0.00699
G1 X121.213 Y143.333 E1.61047
G1 X121.213 Y154.748 E0.35792
G1 X118.121 Y154.748 E0.09694
G1 X118.121 Y144.008 E0.33675
G1 X117.744 Y144.326 F10800.000
G1 F1200.000
G1 X100.306 Y144.326 E0.54675
G1 X100.306 Y155.126 E0.33863
G1 X68.221 Y155.126 E1.00601
G1 X68.226 Y144.560 E0.33128
G1 X68.261 Y144.225 E0.01057
G1 X68.340 Y143.964 E0.00855
G1 X68.487 Y143.677 E0.01012
G1 X68.656 Y143.462 E0.00856
G1 X68.842 Y143.292 E0.00790
G1 X69.074 Y143.141 E0.00867
G1 X69.305 Y143.042 E0.00788
G1 X69.567 Y142.977 E0.00847
G1 X69.834 Y142.956 E0.00842
G1 X121.590 Y142.956 E1.62276
G1 X121.590 Y155.126 E0.38157
G1 X117.744 Y155.126 E0.12059
G1 X117.744 Y144.386 E0.33675
G1 X117.698 Y143.928 F10800.000
G1 X118.310 Y143.641
G1 F1200.000
G1 X99.740 Y143.641 E0.36803
G1 X99.816 Y144.398 F10800.000
G1 F1200.000
G1 X99.034 Y143.616 E0.03472
G1 X98.500 Y143.616 E0.01676
G1 X99.646 Y144.762 E0.05089
G1 X99.646 Y145.296 E0.01676
G1 X97.966 Y143.616 E0.07460
G1 X97.432 Y143.616 E0.01676
G1 X99.646 Y145.830 E0.09830
G1 X99.646 Y146.364 E0.01676
G1 X96.898 Y143.616 E0.12201
G1 X96.364 Y143.616 E0.01676
G1 X99.646 Y146.898 E0.14571
G1 X99.646 Y147.432 E0.01676
G1 X95.830 Y143.616 E0.16942
G1 X95.296 Y143.616 E0.01676
G1 X99.646 Y147.966 E0.19312
G1 X99.646 Y148.500 E0.01676
G1 X94.762 Y143.616 E0.21683
G1 X94.228 Y143.616 E0.01676
G1 X99.646 Y149.034 E0.24053
G1 X99.646 Y149.568 E0.01676
G1 X93.694 Y143.616 E0.26424
G1 X93.161 Y143.616 E0.01676
G1 X99.646 Y150.101 E0.28794
G1 X99.646 Y150.635 E0.01676
G1 X92.627 Y143.616 E0.31165
G1 X92.093 Y143.616 E0.01676
G1 X99.646 Y151.169 E0.33535
G1 X99.646 Y151.703 E0.01676
G1 X91.559 Y143.616 E0.35906
G1 X91.025 Y143.616 E0.01676
G1 X99.646 Y152.237 E0.38276
G1 X99.646 Y152.771 E0.01676
G1 X90.491 Y143.616 E0.40647
G1 X89.957 Y143.616 E0.01676
G1 X99.646 Y153.305 E0.43017
G1 X99.646 Y153.839 E0.01676
G1 X89.423 Y143.616 E0.45388
G1 X88.889 Y143.616 E0.01676
G1 X99.646 Y154.373 E0.47758
G1 X99.646 Y154.466 E0.00291
G1 X99.205 Y154.466 E0.01385
G1 X88.355 Y143.616 E0.48170
G1 X87.821 Y143.616 E0.01676
G1 X98.671 Y154.466 E0.48170
G1 X98.137 Y154.466 E0.01676
G1 X87.287 Y143.616 E0.48170
G1 X86.753 Y143.616 E0.01676
G1 X97.603 Y154.466 E0.48170
G1 X97.069 Y154.466 E0.01676
G1 X86.219 Y143.616 E0.48170
G1 X85.685 Y143.616 E0.01676
G1 X96.535 Y154.466 E0.48170
G1 X96.001 Y154.466 E0.01676
G1 X85.152 Y143.616 E0.48170
G1 X84.618 Y143.616 E0.01676
G1 X95.467 Y154.466 E0.48170
G1 X94.934 Y154.466 E0.01676
G1 X84.084 Y143.616 E0.48170
G1 X83.550 Y143.616 E0.01676
G1 X94.400 Y154.466 E0.48170
G1 X93.866 Y154.466 E0.01676
G1 X83.016 Y143.616 E0.48170
G1 X82.482 Y143.616 E0.01676
G1 X93.332 Y154.466 E0.48170
G1 X92.798 Y154.466 E0.01676
G1 X81.948 Y143.616 E0.48170
G1 X81.414 Y143.616 E0.01676
G1 X92.264 Y154.466 E0.48170
G1 X91.730 Y154.466 E0.01676
G1 X80.880 Y143.616 E0.48170
G1 X80.346 Y143.616 E0.01676
G1 X91.196 Y154.466 E0.48170
G1 X90.662 Y154.466 E0.01676
G1 X79.812 Y143.616 E0.48170
G1 X79.278 Y143.616 E0.01676
G1 X90.128 Y154.466 E0.48170
G1 X89.594 Y154.466 E0.01676
G1 X78.744 Y143.616 E0.48170
G1 X78.210 Y143.616 E0.01676
G1 X89.060 Y154.466 E0.48170
G1 X88.526 Y154.466 E0.01676
G1 X77.676 Y143.616 E0.48170
G1 X77.143 Y143.616 E0.01676
G1 X87.992 Y154.466 E0.48170
G1 X87.458 Y154.466 E0.01676
G1 X76.609 Y143.616 E0.48170
G1 X76.075 Y143.616 E0.01676
G1 X86.925 Y154.466 E0.48170
G1 X86.391 Y154.466 E0.01676
G1 X75.541 Y143.616 E0.48170
G1 X75.007 Y143.616 E0.01676
G1 X85.857 Y154.466 E0.48170
G1 X85.323 Y154.466 E0.01676
G1 X74.473 Y143.616 E0.48170
G1 X73.939 Y143.616 E0.01676
G1 X84.789 Y154.466 E0.48170
G1 X84.255 Y154.466 E0.01676
G1 X73.405 Y143.616 E0.48170
G1 X72.871 Y143.616 E0.01676
G1 X83.721 Y154.466 E0.48170
G1 X83.187 Y154.466 E0.01676
G1 X72.337 Y143.616 E0.48170
G1 X71.803 Y143.616 E0.01676
G1 X82.653 Y154.466 E0.48170
G1 X82.119 Y154.466 E0.01676
G1 X71.269 Y143.616 E0.48170
G1 X70.735 Y143.616 E0.01676
G1 X81.585 Y154.466 E0.48170
G1 X81.051 Y154.466 E0.01676
G1 X70.201 Y143.616 E0.48170
G1 X69.682 Y143.630 E0.01632
G1 X80.517 Y154.466 E0.48107
G1 X79.983 Y154.466 E0.01676
G1 X69.299 Y143.782 E0.47434
G1 X69.142 Y143.912 E0.00642
G1 X69.036 Y144.052 E0.00552
G1 X79.449 Y154.466 E0.46231
G1 X78.916 Y154.466 E0.01676
G1 X68.901 Y144.451 E0.44461
G1 X68.886 Y144.970 E0.01630
G1 X78.382 Y154.466 E0.42157
G1 X77.848 Y154.466 E0.01676
G1 X68.886 Y145.504 E0.39788
M73 P1 R178
G1 X68.885 Y146.037 E0.01675
G1 X77.314 Y154.466 E0.37419
G1 X76.780 Y154.466 E0.01676
G1 X68.885 Y146.571 E0.35050
G1 X68.885 Y147.105 E0.01675
G1 X76.246 Y154.466 E0.32680
G1 X75.712 Y154.466 E0.01676
G1 X68.885 Y147.638 E0.30311
G1 X68.884 Y148.172 E0.01675
G1 X75.178 Y154.466 E0.27942
G1 X74.644 Y154.466 E0.01676
G1 X68.884 Y148.706 E0.25573
G1 X68.884 Y149.239 E0.01675
G1 X74.110 Y154.466 E0.23203
G1 X73.576 Y154.466 E0.01676
G1 X68.883 Y149.773 E0.20834
G1 X68.883 Y150.307 E0.01675
G1 X73.042 Y154.466 E0.18465
G1 X72.508 Y154.466 E0.01676
G1 X68.883 Y150.840 E0.16096
G1 X68.883 Y151.374 E0.01675
G1 X71.974 Y154.466 E0.13726
G1 X71.441 Y154.466 E0.01676
G1 X68.882 Y151.908 E0.11357
G1 X68.882 Y152.441 E0.01675
G1 X70.907 Y154.466 E0.08988
G1 X70.373 Y154.466 E0.01676
G1 X68.882 Y152.975 E0.06619
G1 X68.882 Y153.508 E0.01675
G1 X69.839 Y154.466 E0.04250
G1 X69.305 Y154.466 E0.01676
G1 X68.712 Y153.873 E0.02633
G1 E-0.80000 F2100.00000
G1 Z0.800 F10800.000
G1 X119.012 Y154.635
G1 Z0.200
G1 E0.80000 F2100.00000
G1 F1200.000
G1 X118.404 Y154.028 E0.02746
G1 X118.404 Y153.484 E0.01737
G1 X119.385 Y154.466 E0.04436
G1 X119.929 Y154.466 E0.01737
G1 X118.404 Y152.941 E0.06892
G1 X118.404 Y152.397 E0.01737
G1 X120.472 Y154.466 E0.09347
G1 X120.930 Y154.466 E0.01463
G1 X120.930 Y154.380 E0.00274
G1 X118.404 Y151.854 E0.11416
G1 X118.404 Y151.310 E0.01737
G1 X120.930 Y153.837 E0.11416
G1 X120.930 Y153.293 E0.01737
G1 X118.404 Y150.767 E0.11416
G1 X118.404 Y150.223 E0.01737
G1 X120.930 Y152.750 E0.11416
G1 X120.930 Y152.206 E0.01737
G1 X118.404 Y149.680 E0.11416
G1 X118.404 Y149.136 E0.01737
G1 X120.930 Y151.663 E0.11416
G1 X120.930 Y151.119 E0.01737
G1 X118.404 Y148.593 E0.11416
G1 X118.404 Y148.049 E0.01737
G1 X120.930 Y150.576 E0.11416
G1 X120.930 Y150.032 E0.01737
G1 X118.404 Y147.506 E0.11416
G1 X118.404 Y146.962 E0.01737
G1 X120.930 Y149.489 E0.11416
G1 X120.930 Y148.945 E0.01737
G1 X118.404 Y146.419 E0.11416
G1 X118.404 Y145.875 E0.01737
G1 X120.930 Y148.402 E0.11416
G1 X120.930 Y147.858 E0.01737
G1 X118.404 Y145.332 E0.11416
G1 X118.404 Y144.789 E0.01737
G1 X120.930 Y147.315 E0.11416
G1 X120.930 Y146.771 E0.01737
G1 X118.404 Y144.245 E0.11416
G1 X118.404 Y144.064 E0.00578
G1 X118.592 Y144.064 E0.00602
G1 X118.592 Y143.890 E0.00556
G1 X120.930 Y146.228 E0.10564
G1 X120.930 Y145.684 E0.01737
G1 X118.862 Y143.616 E0.09348
G1 X119.405 Y143.616 E0.01737
G1 X120.930 Y145.141 E0.06892
G1 X120.930 Y144.597 E0.01737
G1 X119.948 Y143.616 E0.04436
G1 X120.492 Y143.616 E0.01737
G1 X121.100 Y144.224 E0.02747
; stop printing object Drop Target.STL id:1 copy 0
; printing object Drop Target.STL id:0 copy 0
G1 E-0.80000 F2100.00000
G1 Z0.800 F10800.000
G1 X51.552 Y127.981
G1 Z0.200
G1 E0.80000 F2100.00000
G1 F1200.000
G1 X44.071 Y127.981 E0.23456
G1 X44.071 Y117.181 E0.33863
G1 X25.879 Y117.181 E0.57040
G1 X25.879 Y127.981 E0.33863
G1 X22.787 Y127.981 E0.09694
G1 X22.787 Y116.565 E0.35792
G1 X50.376 Y116.568 E0.86503
G1 X50.590 Y116.597 E0.00678
G1 X50.830 Y116.676 E0.00791
G1 X51.013 Y116.777 E0.00654
G1 X51.159 Y116.893 E0.00585
G1 X51.302 Y117.051 E0.00669
G1 X51.403 Y117.211 E0.00593
G1 X51.483 Y117.399 E0.00641
G1 X51.529 Y117.587 E0.00605
G1 X51.547 Y117.810 E0.00701
G1 X51.552 Y127.921 E0.31703
G1 E-0.80000 F2100.00000
G1 Z0.800 F10800.000
G1 X43.694 Y117.558
G1 Z0.200
G1 E0.80000 F2100.00000
G1 F1200.000
G1 X26.256 Y117.558 E0.54675
G1 X26.256 Y128.358 E0.33863
G1 X22.410 Y128.358 E0.12059
G1 X22.410 Y116.188 E0.38157
G1 X50.401 Y116.191 E0.87765
G1 X50.675 Y116.228 E0.00866
G1 X50.981 Y116.329 E0.01010
G1 X51.223 Y116.462 E0.00865
G1 X51.418 Y116.617 E0.00782
G1 X51.603 Y116.822 E0.00866
G1 X51.738 Y117.035 E0.00789
G1 X51.843 Y117.280 E0.00836
G1 X51.902 Y117.527 E0.00797
G1 X51.924 Y117.795 E0.00841
G1 X51.929 Y128.358 E0.33120
G1 X43.694 Y128.358 E0.25821
G1 X43.694 Y117.618 E0.33675
G1 X43.608 Y117.167 F10800.000
G1 X44.260 Y116.874
G1 F1200.000
