; generated by PrusaSlicer 2.2.0+win64 on 2021-01-29 at 20:02:55 UTC

; 

; external perimeters extrusion width = 0.60mm
; perimeters extrusion width = 0.43mm
; infill extrusion width = 0.45mm
; solid infill extrusion width = 0.70mm
; top infill extrusion width = 0.43mm
; first layer extrusion width = 0.42mm

M73 P0 R90
M201 X9000 Y9000 Z500 E10000 ; sets maximum accelerations, mm/sec^2
M203 X500 Y500 Z12 E120 ; sets maximum feedrates, mm/sec
M204 P2000 R1500 T2000 ; sets acceleration (P, T) and retract acceleration (R), mm/sec^2
M205 X10.00 Y10.00 Z0.20 E2.50 ; sets the jerk limits, mm/sec
M205 S0 T0 ; sets the minimum extruding and travel feed rate, mm/sec
M107
M862.3 P "MK2S" ; printer model check
M862.1 P0.4 ; nozzle diameter check
M115 U3.2.3 ; tell printer latest fw version
G90 ; use absolute coordinates
M83 ; extruder relative mode
M204 S2000 T1500 ; MK2 firmware only supports the old M204 format
M104 S215 ; set extruder temp
M140 S60 ; set bed temp
M190 S60 ; wait for bed temp
M109 S215 ; wait for extruder temp
G28 W ; home all without mesh bed level
G80 ; mesh bed leveling
G1 Y-3.0 F1000.0 ; go outside print area
G92 E0.0
G1 X60.0 E9.0  F1000.0 ; intro line
M73 P0 R90
G1 X100.0 E12.5 F1000.0 ; intro line
G92 E0.0
G21 ; set units to millimeters
G90 ; use absolute coordinates
M83 ; use relative distances for extrusion
M900 K0.05 ; Filament gcode LA 1.5
M900 K30 ; Filament gcode LA 1.0
;BEFORE_LAYER_CHANGE
G92 E0.0
;0.2


G1 E-0.80000 F2100.00000
G1 Z0.600 F10800.000
;AFTER_LAYER_CHANGE
;0.2
G1 X72.814 Y61.281
G1 Z0.200
G1 E0.80000 F2100.00000
M204 S1000
G1 F1200.000
G1 X73.357 Y60.497 E0.02989
G1 X74.107 Y60.012 E0.02802
G1 X74.984 Y59.838 E0.02802
G1 X175.004 Y59.838 E3.13606
G1 X175.906 Y60.017 E0.02884
G1 X176.670 Y60.523 E0.02872
G1 X177.185 Y61.280 E0.02872
G1 X177.377 Y62.176 E0.02872
G1 X177.377 Y155.555 E2.92783
G1 X177.183 Y156.477 E0.02954
G1 X176.643 Y157.253 E0.02966
G1 X175.893 Y157.739 E0.02802
G1 X175.016 Y157.913 E0.02802
G1 X75.000 Y157.913 E3.13594
G1 X74.066 Y157.721 E0.02989
G1 X73.282 Y157.179 E0.02989
G1 X72.797 Y156.428 E0.02802
G1 X72.623 Y155.552 E0.02802
G1 X72.623 Y62.215 E2.92651
G1 X72.802 Y61.340 E0.02801
; printing object Drop Target.STL id:3 copy 0
G1 X75.787 Y63.030 F10800.000
G1 F1200.000
G1 X103.376 Y63.033 E0.86503
G1 X103.590 Y63.061 E0.00678
G1 X103.830 Y63.140 E0.00791
G1 X104.013 Y63.241 E0.00654
G1 X104.159 Y63.358 E0.00585
G1 X104.302 Y63.516 E0.00669
G1 X104.403 Y63.676 E0.00593
G1 X104.483 Y63.864 E0.00641
G1 X104.529 Y64.051 E0.00605
G1 X104.547 Y64.274 E0.00701
G1 X104.552 Y74.445 E0.31891
G1 X97.071 Y74.445 E0.23456
G1 X97.071 Y63.645 E0.33863
G1 X78.879 Y63.645 E0.57040
G1 X78.879 Y74.445 E0.33863
G1 X75.787 Y74.445 E0.09694
G1 X75.787 Y63.090 E0.35604
G1 E-0.80000 F2100.00000
G1 Z0.800 F10800.000
G1 X96.694 Y64.022
G1 Z0.200
G1 E0.80000 F2100.00000
G1 F1200.000
G1 X79.256 Y64.022 E0.54675
G1 X79.256 Y74.822 E0.33863
G1 X75.410 Y74.822 E0.12059
G1 X75.410 Y62.653 E0.38157
G1 X103.401 Y62.655 E0.87765
G1 X103.675 Y62.692 E0.00866
G1 X103.981 Y62.793 E0.01010
G1 X104.223 Y62.926 E0.00865
G1 X104.418 Y63.082 E0.00782
G1 X104.603 Y63.287 E0.00866
G1 X104.738 Y63.499 E0.00789
G1 X104.843 Y63.744 E0.00836
G1 X104.902 Y63.991 E0.00797
G1 X104.924 Y64.259 E0.00841
G1 X104.929 Y74.822 E0.33120
G1 X96.694 Y74.822 E0.25821
G1 X96.694 Y64.082 E0.33675
G1 X96.608 Y63.632 F10800.000
G1 X97.260 Y63.339
G1 F1200.000
G1 X78.690 Y63.338 E0.36747
G1 X78.766 Y64.098 F10800.000
G1 F1200.000
G1 X77.980 Y63.313 E0.03503
G1 X77.444 Y63.313 E0.01691
G1 X78.596 Y64.465 E0.05137
G1 X78.596 Y65.001 E0.01691
G1 X76.908 Y63.313 E0.07528
G1 X76.372 Y63.313 E0.01691
G1 X78.596 Y65.537 E0.09919
G1 X78.596 Y66.074 E0.01691
G1 X76.070 Y63.547 E0.11264
G1 X76.070 Y64.083 E0.01691
G1 X78.596 Y66.610 E0.11264
G1 X78.596 Y67.146 E0.01691
G1 X76.070 Y64.620 E0.11264
G1 X76.070 Y65.156 E0.01691
G1 X78.596 Y67.682 E0.11264
G1 X78.596 Y68.218 E0.01691
G1 X76.070 Y65.692 E0.11264
G1 X76.070 Y66.228 E0.01691
G1 X78.596 Y68.755 E0.11264
G1 X78.596 Y69.291 E0.01691
G1 X76.070 Y66.764 E0.11264
G1 X76.070 Y67.301 E0.01691
G1 X78.596 Y69.827 E0.11264
G1 X78.596 Y70.363 E0.01691
G1 X76.070 Y67.837 E0.11264
G1 X76.070 Y68.373 E0.01691
G1 X78.596 Y70.899 E0.11264
G1 X78.596 Y71.436 E0.01691
G1 X76.070 Y68.909 E0.11264
G1 X76.070 Y69.445 E0.01691
G1 X78.596 Y71.972 E0.11264
G1 X78.596 Y72.508 E0.01691
G1 X76.070 Y69.982 E0.11264
G1 X76.070 Y70.518 E0.01691
G1 X78.596 Y73.044 E0.11264
G1 X78.596 Y73.580 E0.01691
G1 X76.070 Y71.054 E0.11264
G1 X76.070 Y71.590 E0.01691
G1 X78.596 Y74.117 E0.11264
G1 X78.596 Y74.162 E0.00144
G1 X78.106 Y74.162 E0.01546
G1 X76.070 Y72.127 E0.09077
G1 X76.070 Y72.663 E0.01691
G1 X77.569 Y74.162 E0.06686
G1 X77.033 Y74.162 E0.01691
G1 X76.070 Y73.199 E0.04295
G1 X76.070 Y73.735 E0.01691
G1 X76.667 Y74.332 E0.02661
G1 E-0.80000 F2100.00000
G1 Z0.800 F10800.000
G1 X97.958 Y74.332
G1 Z0.200
G1 E0.80000 F2100.00000
G1 F1200.000
G1 X97.354 Y73.728 E0.02717
G1 X97.354 Y73.187 E0.01721
G1 X98.329 Y74.162 E0.04388
G1 X98.870 Y74.162 E0.01721
G1 X97.354 Y72.646 E0.06821
G1 X97.354 Y72.105 E0.01721
G1 X99.411 Y74.162 E0.09255
G1 X99.952 Y74.162 E0.01721
G1 X97.354 Y71.564 E0.11689
G1 X97.354 Y71.023 E0.01721
G1 X100.493 Y74.162 E0.14122
G1 X101.034 Y74.162 E0.01721
G1 X97.354 Y70.482 E0.16556
G1 X97.354 Y69.941 E0.01721
G1 X101.575 Y74.162 E0.18990
G1 X102.116 Y74.162 E0.01721
G1 X97.354 Y69.400 E0.21423
G1 X97.354 Y68.859 E0.01721
G1 X102.657 Y74.162 E0.23857
G1 X103.198 Y74.162 E0.01721
G1 X97.354 Y68.318 E0.26291
G1 X97.354 Y67.777 E0.01721
G1 X103.739 Y74.162 E0.28724
G1 X104.269 Y74.151 E0.01686
G1 X97.354 Y67.236 E0.31107
G1 X97.354 Y66.695 E0.01721
G1 X104.269 Y73.610 E0.31106
G1 X104.268 Y73.069 E0.01722
G1 X97.354 Y66.154 E0.31105
G1 X97.354 Y65.613 E0.01721
G1 X104.268 Y72.527 E0.31104
G1 X104.268 Y71.986 E0.01722
G1 X97.354 Y65.072 E0.31102
G1 X97.354 Y64.531 E0.01721
G1 X104.268 Y71.445 E0.31101
G1 X104.267 Y70.903 E0.01722
G1 X97.354 Y63.990 E0.31100
G1 X97.354 Y63.762 E0.00726
G1 X97.542 Y63.762 E0.00600
G1 X97.542 Y63.637 E0.00395
G1 X104.267 Y70.362 E0.30250
G1 X104.267 Y69.821 E0.01722
G1 X97.761 Y63.315 E0.29267
G1 X98.302 Y63.315 E0.01721
G1 X104.266 Y69.280 E0.26832
G1 X104.266 Y68.738 E0.01722
G1 X98.843 Y63.315 E0.24397
G1 X99.384 Y63.315 E0.01721
G1 X104.266 Y68.197 E0.21962
G1 X104.266 Y67.656 E0.01722
G1 X99.925 Y63.315 E0.19526
G1 X100.466 Y63.315 E0.01721
G1 X104.265 Y67.114 E0.17091
G1 X104.265 Y66.573 E0.01722
G1 X101.007 Y63.315 E0.14656
G1 X101.548 Y63.315 E0.01721
G1 X104.265 Y66.032 E0.12221
G1 X104.264 Y65.491 E0.01722
G1 X102.089 Y63.315 E0.09786
G1 X102.630 Y63.315 E0.01721
G1 X104.264 Y64.949 E0.07351
G1 X104.264 Y64.408 E0.01722
G1 X103.171 Y63.315 E0.04915
G1 X103.527 Y63.338 E0.01133
G1 X103.716 Y63.401 E0.00635
G1 X103.855 Y63.477 E0.00504
G1 X104.401 Y64.004 E0.02414
G1 E-0.80000 F2100.00000
G1 Z0.800 F10800.000
G1 X171.121 Y63.645
G1 Z0.200
G1 E0.80000 F2100.00000
G1 F1200.000
G1 X152.929 Y63.645 E0.57040
G1 X152.929 Y74.445 E0.33863
G1 X121.598 Y74.445 E0.98236
G1 X121.603 Y64.276 E0.31884
G1 X121.632 Y63.996 E0.00884
G1 X121.691 Y63.802 E0.00634
G1 X121.806 Y63.578 E0.00791
G1 X121.933 Y63.415 E0.00646
G1 X122.073 Y63.288 E0.00593
G1 X122.252 Y63.172 E0.00670
G1 X122.425 Y63.097 E0.00591
G1 X122.627 Y63.047 E0.00652
G1 X122.849 Y63.030 E0.00699
G1 X174.213 Y63.030 E1.61047
G1 X174.213 Y74.445 E0.35792
G1 X171.121 Y74.445 E0.09694
G1 X171.121 Y63.705 E0.33675
G1 X170.744 Y64.022 F10800.000
G1 F1200.000
G1 X153.306 Y64.022 E0.54675
M73 P1 R89
G1 X153.306 Y74.822 E0.33863
G1 X121.221 Y74.822 E1.00601
G1 X121.226 Y64.257 E0.33128
G1 X121.261 Y63.921 E0.01057
G1 X121.340 Y63.660 E0.00855
G1 X121.487 Y63.374 E0.01012
G1 X121.656 Y63.158 E0.00856
G1 X121.842 Y62.988 E0.00790
G1 X122.074 Y62.838 E0.00867
G1 X122.305 Y62.739 E0.00788
G1 X122.567 Y62.674 E0.00847
G1 X122.834 Y62.653 E0.00842
G1 X174.590 Y62.653 E1.62276
G1 X174.590 Y74.822 E0.38157
G1 X170.744 Y74.822 E0.12059
G1 X170.744 Y64.082 E0.33675
G1 X170.698 Y63.625 F10800.000
G1 X171.310 Y63.337
G1 F1200.000
G1 X152.740 Y63.337 E0.36803
G1 X152.816 Y64.095 F10800.000
G1 F1200.000
G1 X152.034 Y63.313 E0.03472
G1 X151.500 Y63.313 E0.01676
G1 X152.646 Y64.459 E0.05089
G1 X152.646 Y64.993 E0.01676
G1 X150.966 Y63.313 E0.07460
G1 X150.432 Y63.313 E0.01676
G1 X152.646 Y65.527 E0.09830
G1 X152.646 Y66.061 E0.01676
G1 X149.898 Y63.313 E0.12201
G1 X149.364 Y63.313 E0.01676
G1 X152.646 Y66.595 E0.14571
G1 X152.646 Y67.129 E0.01676
G1 X148.830 Y63.313 E0.16942
G1 X148.296 Y63.313 E0.01676
G1 X152.646 Y67.662 E0.19312
G1 X152.646 Y68.196 E0.01676
G1 X147.762 Y63.313 E0.21683
G1 X147.228 Y63.313 E0.01676
G1 X152.646 Y68.730 E0.24053
G1 X152.646 Y69.264 E0.01676
G1 X146.694 Y63.313 E0.26424
G1 X146.161 Y63.313 E0.01676
G1 X152.646 Y69.798 E0.28794
G1 X152.646 Y70.332 E0.01676
G1 X145.627 Y63.313 E0.31165
G1 X145.093 Y63.313 E0.01676
G1 X152.646 Y70.866 E0.33535
G1 X152.646 Y71.400 E0.01676
G1 X144.559 Y63.313 E0.35906
G1 X144.025 Y63.313 E0.01676
G1 X152.646 Y71.934 E0.38276
G1 X152.646 Y72.468 E0.01676
G1 X143.491 Y63.313 E0.40647
G1 X142.957 Y63.313 E0.01676
G1 X152.646 Y73.002 E0.43017
G1 X152.646 Y73.536 E0.01676
G1 X142.423 Y63.313 E0.45388
G1 X141.889 Y63.313 E0.01676
G1 X152.646 Y74.070 E0.47758
G1 X152.646 Y74.162 E0.00291
G1 X152.205 Y74.162 E0.01385
G1 X141.355 Y63.313 E0.48170
G1 X140.821 Y63.313 E0.01676
G1 X151.671 Y74.162 E0.48170
G1 X151.137 Y74.162 E0.01676
G1 X140.287 Y63.313 E0.48170
G1 X139.753 Y63.313 E0.01676
G1 X150.603 Y74.162 E0.48170
G1 X150.069 Y74.162 E0.01676
G1 X139.219 Y63.313 E0.48170
G1 X138.685 Y63.313 E0.01676
G1 X149.535 Y74.162 E0.48170
G1 X149.001 Y74.162 E0.01676
G1 X138.152 Y63.313 E0.48170
G1 X137.618 Y63.313 E0.01676
G1 X148.467 Y74.162 E0.48170
G1 X147.934 Y74.162 E0.01676
G1 X137.084 Y63.313 E0.48170
G1 X136.550 Y63.313 E0.01676
G1 X147.400 Y74.162 E0.48170
G1 X146.866 Y74.162 E0.01676
G1 X136.016 Y63.313 E0.48170
G1 X135.482 Y63.313 E0.01676
G1 X146.332 Y74.162 E0.48170
G1 X145.798 Y74.162 E0.01676
G1 X134.948 Y63.313 E0.48170
G1 X134.414 Y63.313 E0.01676
G1 X145.264 Y74.162 E0.48170
G1 X144.730 Y74.162 E0.01676
G1 X133.880 Y63.313 E0.48170
G1 X133.346 Y63.313 E0.01676
G1 X144.196 Y74.162 E0.48170
G1 X143.662 Y74.162 E0.01676
G1 X132.812 Y63.313 E0.48170
G1 X132.278 Y63.313 E0.01676
G1 X143.128 Y74.162 E0.48170
G1 X142.594 Y74.162 E0.01676
G1 X131.744 Y63.313 E0.48170
G1 X131.210 Y63.313 E0.01676
G1 X142.060 Y74.162 E0.48170
G1 X141.526 Y74.162 E0.01676
G1 X130.676 Y63.313 E0.48170
G1 X130.143 Y63.313 E0.01676
G1 X140.992 Y74.162 E0.48170
G1 X140.458 Y74.162 E0.01676
G1 X129.609 Y63.313 E0.48170
G1 X129.075 Y63.313 E0.01676
G1 X139.925 Y74.162 E0.48170
G1 X139.391 Y74.162 E0.01676
G1 X128.541 Y63.313 E0.48170
G1 X128.007 Y63.313 E0.01676
G1 X138.857 Y74.162 E0.48170
G1 X138.323 Y74.162 E0.01676
G1 X127.473 Y63.313 E0.48170
G1 X126.939 Y63.313 E0.01676
G1 X137.789 Y74.162 E0.48170
G1 X137.255 Y74.162 E0.01676
G1 X126.405 Y63.313 E0.48170
G1 X125.871 Y63.313 E0.01676
G1 X136.721 Y74.162 E0.48170
G1 X136.187 Y74.162 E0.01676
G1 X125.337 Y63.313 E0.48170
G1 X124.803 Y63.313 E0.01676
G1 X135.653 Y74.162 E0.48170
G1 X135.119 Y74.162 E0.01676
G1 X124.269 Y63.313 E0.48170
G1 X123.735 Y63.313 E0.01676
G1 X134.585 Y74.162 E0.48170
G1 X134.051 Y74.162 E0.01676
G1 X123.201 Y63.313 E0.48170
G1 X122.682 Y63.327 E0.01632
G1 X133.517 Y74.162 E0.48107
G1 X132.983 Y74.162 E0.01676
G1 X122.299 Y63.478 E0.47434
G1 X122.142 Y63.608 E0.00642
G1 X122.036 Y63.749 E0.00552
G1 X132.449 Y74.162 E0.46231
G1 X131.916 Y74.162 E0.01676
G1 X121.901 Y64.148 E0.44461
G1 X121.886 Y64.667 E0.01630
G1 X131.382 Y74.162 E0.42157
G1 X130.848 Y74.162 E0.01676
G1 X121.886 Y65.200 E0.39788
G1 X121.885 Y65.734 E0.01675
G1 X130.314 Y74.162 E0.37419
G1 X129.780 Y74.162 E0.01676
G1 X121.885 Y66.268 E0.35050
G1 X121.885 Y66.801 E0.01675
G1 X129.246 Y74.162 E0.32680
G1 X128.712 Y74.162 E0.01676
G1 X121.885 Y67.335 E0.30311
G1 X121.884 Y67.869 E0.01675
G1 X128.178 Y74.162 E0.27942
G1 X127.644 Y74.162 E0.01676
G1 X121.884 Y68.402 E0.25573
G1 X121.884 Y68.936 E0.01675
G1 X127.110 Y74.162 E0.23203
G1 X126.576 Y74.162 E0.01676
G1 X121.883 Y69.470 E0.20834
G1 X121.883 Y70.003 E0.01675
G1 X126.042 Y74.162 E0.18465
G1 X125.508 Y74.162 E0.01676
G1 X121.883 Y70.537 E0.16096
G1 X121.883 Y71.071 E0.01675
G1 X124.974 Y74.162 E0.13726
G1 X124.441 Y74.162 E0.01676
G1 X121.882 Y71.604 E0.11357
G1 X121.882 Y72.138 E0.01675
G1 X123.907 Y74.162 E0.08988
G1 X123.373 Y74.162 E0.01676
G1 X121.882 Y72.672 E0.06619
G1 X121.882 Y73.205 E0.01675
G1 X122.839 Y74.162 E0.04250
G1 X122.305 Y74.162 E0.01676
G1 X121.712 Y73.569 E0.02633
G1 E-0.80000 F2100.00000
G1 Z0.800 F10800.000
G1 X172.012 Y74.332
G1 Z0.200
G1 E0.80000 F2100.00000
G1 F1200.000
G1 X171.404 Y73.724 E0.02746
G1 X171.404 Y73.181 E0.01737
G1 X172.385 Y74.162 E0.04436
G1 X172.929 Y74.162 E0.01737
G1 X171.404 Y72.637 E0.06892
G1 X171.404 Y72.094 E0.01737
G1 X173.472 Y74.162 E0.09347
G1 X173.930 Y74.162 E0.01463
G1 X173.930 Y74.077 E0.00274
G1 X171.404 Y71.550 E0.11416
G1 X171.404 Y71.007 E0.01737
G1 X173.930 Y73.533 E0.11416
G1 X173.930 Y72.990 E0.01737
G1 X171.404 Y70.463 E0.11416
G1 X171.404 Y69.920 E0.01737
G1 X173.930 Y72.446 E0.11416
G1 X173.930 Y71.903 E0.01737
G1 X171.404 Y69.377 E0.11416
G1 X171.404 Y68.833 E0.01737
G1 X173.930 Y71.359 E0.11416
G1 X173.930 Y70.816 E0.01737
G1 X171.404 Y68.290 E0.11416
G1 X171.404 Y67.746 E0.01737
G1 X173.930 Y70.272 E0.11416
G1 X173.930 Y69.729 E0.01737
G1 X171.404 Y67.203 E0.11416
G1 X171.404 Y66.659 E0.01737
G1 X173.930 Y69.185 E0.11416
G1 X173.930 Y68.642 E0.01737
G1 X171.404 Y66.116 E0.11416
G1 X171.404 Y65.572 E0.01737
G1 X173.930 Y68.099 E0.11416
G1 X173.930 Y67.555 E0.01737
G1 X171.404 Y65.029 E0.11416
G1 X171.404 Y64.485 E0.01737
G1 X173.930 Y67.012 E0.11416
G1 X173.930 Y66.468 E0.01737
G1 X171.404 Y63.942 E0.11416
G1 X171.404 Y63.761 E0.00578
G1 X171.592 Y63.761 E0.00602
G1 X171.592 Y63.587 E0.00556
G1 X173.930 Y65.925 E0.10564
G1 X173.930 Y65.381 E0.01737
G1 X171.862 Y63.313 E0.09348
G1 X172.405 Y63.313 E0.01737
G1 X173.930 Y64.838 E0.06892
G1 X173.930 Y64.294 E0.01737
G1 X172.948 Y63.313 E0.04436
G1 X173.492 Y63.313 E0.01737
G1 X174.100 Y63.920 E0.02747
; stop printing object Drop Target.STL id:3 copy 0
; printing object Drop Target.STL id:2 copy 0
G1 E-0.80000 F2100.00000
G1 Z0.800 F10800.000
G1 X97.071 Y90.413
G1 Z0.200
G1 E0.80000 F2100.00000
M73 P2 R88
G1 F1200.000
G1 X78.879 Y90.413 E0.57040
G1 X78.879 Y101.213 E0.33863
G1 X75.787 Y101.213 E0.09694
G1 X75.787 Y89.798 E0.35792
G1 X103.376 Y89.800 E0.86503
G1 X103.590 Y89.829 E0.00678
G1 X103.830 Y89.908 E0.00791
G1 X104.013 Y90.009 E0.00654
G1 X104.159 Y90.125 E0.00585
G1 X104.302 Y90.284 E0.00669
G1 X104.403 Y90.443 E0.00593
G1 X104.483 Y90.631 E0.00641
G1 X104.529 Y90.819 E0.00605
G1 X104.547 Y91.042 E0.00701
G1 X104.552 Y101.213 E0.31891
G1 X97.071 Y101.213 E0.23456
G1 X97.071 Y90.473 E0.33675
G1 X96.694 Y90.790 F10800.000
G1 F1200.000
G1 X79.256 Y90.790 E0.54675
G1 X79.256 Y101.590 E0.33863
G1 X75.410 Y101.590 E0.12059
G1 X75.410 Y89.420 E0.38157
G1 X103.401 Y89.423 E0.87765
G1 X103.675 Y89.460 E0.00866
G1 X103.981 Y89.561 E0.01010
G1 X104.223 Y89.694 E0.00865
G1 X104.418 Y89.850 E0.00782
G1 X104.603 Y90.055 E0.00866
G1 X104.738 Y90.267 E0.00789
G1 X104.843 Y90.512 E0.00836
G1 X104.902 Y90.759 E0.00797
G1 X104.924 Y91.027 E0.00841
G1 X104.929 Y101.590 E0.33120
G1 X96.694 Y101.590 E0.25821
G1 X96.694 Y90.850 E0.33675
G1 X96.608 Y90.399 F10800.000
G1 X97.260 Y90.106
G1 F1200.000
G1 X78.690 Y90.105 E0.36747
G1 X78.766 Y90.866 F10800.000
G1 F1200.000
G1 X77.980 Y90.081 E0.03503
G1 X77.444 Y90.080 E0.01691
G1 X78.596 Y91.233 E0.05137
G1 X78.596 Y91.769 E0.01691
G1 X76.908 Y90.080 E0.07528
G1 X76.372 Y90.080 E0.01691
G1 X78.596 Y92.305 E0.09919
G1 X78.596 Y92.841 E0.01691
G1 X76.070 Y90.315 E0.11264
G1 X76.070 Y90.851 E0.01691
G1 X78.596 Y93.377 E0.11264
G1 X78.596 Y93.914 E0.01691
G1 X76.070 Y91.387 E0.11264
G1 X76.070 Y91.924 E0.01691
