; generated by PrusaSlicer 2.3.1+win64 on 2021-09-08 at 20:06:02 UTC

; 

; external perimeters extrusion width = 0.45mm
; perimeters extrusion width = 0.45mm
; infill extrusion width = 0.45mm
; solid infill extrusion width = 0.45mm
; top infill extrusion width = 0.40mm
; support material extrusion width = 0.35mm
; first layer extrusion width = 0.42mm

M73 P0 R120
M201 X9000 Y9000 Z500 E10000 ; sets maximum accelerations, mm/sec^2
M203 X500 Y500 Z12 E120 ; sets maximum feedrates, mm/sec
M204 P2000 R1500 T2000 ; sets acceleration (P, T) and retract acceleration (R), mm/sec^2
M205 X10.00 Y10.00 Z0.20 E2.50 ; sets the jerk limits, mm/sec
M205 S0 T0 ; sets the minimum extruding and travel feed rate, mm/sec
M107
;TYPE:Custom
M862.3 P "MK2S" ; printer model check
M862.1 P0.4 ; nozzle diameter check
M115 U3.2.3 ; tell printer latest fw version
G90 ; use absolute coordinates
M83 ; extruder relative mode
M204 S2000 T1500 ; MK2 firmware only supports the old M204 format
M104 S215 ; set extruder temp
M140 S60 ; set bed temp
M190 S60 ; wait for bed temp
M109 S215 ; wait for extruder temp
G28 W ; home all without mesh bed level
G80 ; mesh bed leveling
G1 Y-3.0 F1000.0 ; go outside print area
G92 E0.0
G1 X60.0 E9.0  F1000.0 ; intro line
G1 X100.0 E12.5 F1000.0 ; intro line
G92 E0.0
G21 ; set units to millimeters
G90 ; use absolute coordinates
M83 ; use relative distances for extrusion
M900 K30 ; Filament gcode
;LAYER_CHANGE
;Z:0.2
;HEIGHT:0.2
;BEFORE_LAYER_CHANGE
G92 E0.0
;0.2


G1 E-0.80000 F2100.000
G1 Z0.600 F10800.000
;AFTER_LAYER_CHANGE
;0.2
G1 X75.267 Y153.969
G1 Z0.200
G1 E0.80000 F2100.000
M204 S1000
;TYPE:External perimeter
;WIDTH:0.42
G1 F1200.000
G1 X79.921 Y153.969 E0.14593
G1 X79.921 Y172.943 E0.59492
G1 X70.612 Y172.943 E0.29185
G1 X70.612 Y153.969 E0.59492
G1 X75.207 Y153.969 E0.14404
G1 X75.299 Y153.570 F10800.000
G1 E-0.80000 F2100.000
G1 Z0.800 F10800.000
G1 X75.267 Y173.860
G1 Z0.200
G1 E0.80000 F2100.000
G1 F1200.000
G1 X69.840 Y173.860 E0.17014
G1 X69.840 Y153.052 E0.65242
G1 X80.693 Y153.052 E0.34029
G1 X80.693 Y173.860 E0.65242
G1 X75.327 Y173.860 E0.16826
G1 X74.938 Y173.631 F10800.000
G1 X75.267 Y173.401
;TYPE:Gap fill
;WIDTH:0.564471
G1 F1200.000
G1 X70.424 Y173.401 E0.21001
G1 X70.310 Y173.389 E0.00495
G1 X70.268 Y173.260 E0.00588
;WIDTH:0.438232
G1 X70.226 Y173.132 E0.00446
G1 X70.226 Y157.811 E0.50360
;WIDTH:0.438234
G1 X70.226 Y153.780 E0.13249
;WIDTH:0.480316
G1 X70.247 Y153.716 E0.00247
;WIDTH:0.522395
G1 X70.268 Y153.651 E0.00270
;WIDTH:0.564473
G1 X70.310 Y153.522 E0.00588
G1 X70.424 Y153.510 E0.00495
G1 X80.109 Y153.510 E0.42002
G1 X80.223 Y153.522 E0.00495
G1 X80.265 Y153.651 E0.00588
;WIDTH:0.438236
G1 X80.307 Y153.780 E0.00446
G1 X80.307 Y173.132 E0.63609
;WIDTH:0.480315
G1 X80.286 Y173.196 E0.00247
;WIDTH:0.522393
G1 X80.265 Y173.260 E0.00270
;WIDTH:0.564471
G1 X80.223 Y173.389 E0.00588
G1 X80.109 Y173.401 E0.00495
G1 X75.327 Y173.401 E0.20741
G1 E-0.80000 F2100.000
G1 Z0.800 F10800.000
G1 X75.267 Y143.715
G1 Z0.200
G1 E0.80000 F2100.000
;TYPE:External perimeter
;WIDTH:0.42
G1 F1200.000
G1 X70.612 Y143.715 E0.14593
G1 X70.612 Y124.741 E0.59492
G1 X79.921 Y124.741 E0.29185
G1 X79.921 Y143.715 E0.59492
G1 X75.327 Y143.715 E0.14404
G1 X75.235 Y144.114 F10800.000
G1 X75.267 Y144.632
G1 F1200.000
G1 X69.840 Y144.632 E0.17014
G1 X69.840 Y123.824 E0.65242
G1 X80.693 Y123.824 E0.34029
G1 X80.693 Y144.632 E0.65242
G1 X75.327 Y144.632 E0.16826
G1 X74.938 Y144.403 F10800.000
G1 X75.267 Y144.173
;TYPE:Gap fill
;WIDTH:0.564471
G1 F1200.000
G1 X70.424 Y144.173 E0.21001
G1 X70.310 Y144.162 E0.00495
G1 X70.268 Y144.033 E0.00588
;WIDTH:0.438232
G1 X70.226 Y143.904 E0.00446
G1 X70.226 Y128.583 E0.50360
;WIDTH:0.438234
G1 X70.226 Y124.552 E0.13249
;WIDTH:0.480316
G1 X70.247 Y124.488 E0.00247
;WIDTH:0.522395
G1 X70.268 Y124.423 E0.00270
;WIDTH:0.564473
G1 X70.310 Y124.294 E0.00588
G1 X70.424 Y124.282 E0.00495
G1 X80.109 Y124.282 E0.42002
G1 X80.223 Y124.294 E0.00495
G1 X80.265 Y124.423 E0.00588
;WIDTH:0.438236
G1 X80.307 Y124.552 E0.00446
G1 X80.307 Y143.904 E0.63609
;WIDTH:0.480315
G1 X80.286 Y143.968 E0.00247
;WIDTH:0.522393
G1 X80.265 Y144.033 E0.00270
;WIDTH:0.564471
G1 X80.223 Y144.162 E0.00588
G1 X80.109 Y144.173 E0.00495
G1 X75.327 Y144.173 E0.20741
G1 E-0.80000 F2100.000
G1 Z0.800 F10800.000
G1 X55.994 Y114.487
G1 Z0.200
G1 E0.80000 F2100.000
;TYPE:External perimeter
;WIDTH:0.42
G1 F1200.000
G1 X51.340 Y114.487 E0.14593
G1 X51.340 Y95.513 E0.59492
G1 X60.648 Y95.513 E0.29185
G1 X60.648 Y114.487 E0.59492
G1 X56.054 Y114.487 E0.14404
G1 X55.962 Y114.886 F10800.000
G1 X55.994 Y115.404
G1 F1200.000
G1 X50.567 Y115.404 E0.17014
G1 X50.567 Y94.596 E0.65242
G1 X61.420 Y94.596 E0.34029
G1 X61.420 Y115.404 E0.65242
G1 X56.054 Y115.404 E0.16826
G1 X55.665 Y115.175 F10800.000
G1 X55.994 Y114.946
;TYPE:Gap fill
;WIDTH:0.564475
G1 F1200.000
G1 X51.151 Y114.946 E0.21001
G1 X51.037 Y114.934 E0.00495
G1 X50.995 Y114.805 E0.00588
;WIDTH:0.438232
G1 X50.953 Y114.676 E0.00446
G1 X50.953 Y106.536 E0.26755
;WIDTH:0.438234
G1 X50.953 Y95.324 E0.36853
;WIDTH:0.480312
G1 X50.974 Y95.260 E0.00247
;WIDTH:0.522392
G1 X50.995 Y95.195 E0.00270
;WIDTH:0.564473
G1 X51.037 Y95.066 E0.00588
G1 X51.151 Y95.054 E0.00495
G1 X60.836 Y95.054 E0.42002
G1 X60.950 Y95.066 E0.00495
G1 X60.992 Y95.195 E0.00588
;WIDTH:0.438234
G1 X61.034 Y95.324 E0.00446
G1 X61.034 Y114.676 E0.63609
;WIDTH:0.480314
G1 X61.013 Y114.740 E0.00247
;WIDTH:0.522394
G1 X60.992 Y114.805 E0.00270
;WIDTH:0.564475
G1 X60.950 Y114.934 E0.00588
G1 X60.836 Y114.946 E0.00495
G1 X56.054 Y114.946 E0.20741
G1 E-0.80000 F2100.000
G1 Z0.800 F10800.000
G1 X75.267 Y114.487
G1 Z0.200
G1 E0.80000 F2100.000
;TYPE:External perimeter
;WIDTH:0.42
G1 F1200.000
G1 X70.612 Y114.487 E0.14593
G1 X70.612 Y95.513 E0.59492
G1 X79.921 Y95.513 E0.29185
G1 X79.921 Y114.487 E0.59492
G1 X75.327 Y114.487 E0.14404
G1 X75.235 Y114.886 F10800.000
G1 X75.267 Y115.404
G1 F1200.000
G1 X69.840 Y115.404 E0.17014
G1 X69.840 Y94.596 E0.65242
G1 X80.693 Y94.596 E0.34029
G1 X80.693 Y115.404 E0.65242
G1 X75.327 Y115.404 E0.16826
G1 X74.938 Y115.175 F10800.000
G1 X75.267 Y114.946
;TYPE:Gap fill
;WIDTH:0.564471
G1 F1200.000
G1 X70.424 Y114.946 E0.21001
G1 X70.310 Y114.934 E0.00495
G1 X70.268 Y114.805 E0.00588
;WIDTH:0.438232
G1 X70.226 Y114.676 E0.00446
G1 X70.226 Y99.355 E0.50360
;WIDTH:0.438234
G1 X70.226 Y95.324 E0.13249
;WIDTH:0.480316
G1 X70.247 Y95.260 E0.00247
;WIDTH:0.522395
G1 X70.268 Y95.195 E0.00270
;WIDTH:0.564473
G1 X70.310 Y95.066 E0.00588
G1 X70.424 Y95.054 E0.00495
G1 X80.109 Y95.054 E0.42002
G1 X80.223 Y95.066 E0.00495
G1 X80.265 Y95.195 E0.00588
;WIDTH:0.438236
G1 X80.307 Y95.324 E0.00446
G1 X80.307 Y114.676 E0.63609
;WIDTH:0.480315
G1 X80.286 Y114.740 E0.00247
;WIDTH:0.522393
G1 X80.265 Y114.805 E0.00270
;WIDTH:0.564471
G1 X80.223 Y114.934 E0.00588
G1 X80.109 Y114.946 E0.00495
G1 X75.327 Y114.946 E0.20741
G1 E-0.80000 F2100.000
G1 Z0.800 F10800.000
G1 X75.267 Y85.259
G1 Z0.200
G1 E0.80000 F2100.000
;TYPE:External perimeter
;WIDTH:0.42
G1 F1200.000
G1 X70.612 Y85.259 E0.14593
G1 X70.612 Y66.285 E0.59492
M73 P0 R119
G1 X79.921 Y66.285 E0.29185
G1 X79.921 Y85.259 E0.59492
G1 X75.327 Y85.259 E0.14404
G1 X75.235 Y85.658 F10800.000
G1 X75.267 Y86.176
G1 F1200.000
G1 X69.840 Y86.176 E0.17014
G1 X69.840 Y65.368 E0.65242
G1 X80.693 Y65.368 E0.34029
G1 X80.693 Y86.176 E0.65242
G1 X75.327 Y86.176 E0.16826
G1 X74.938 Y85.947 F10800.000
G1 X75.267 Y85.718
;TYPE:Gap fill
;WIDTH:0.564471
G1 F1200.000
G1 X70.424 Y85.718 E0.21001
G1 X70.310 Y85.706 E0.00495
G1 X70.268 Y85.577 E0.00588
;WIDTH:0.438232
G1 X70.226 Y85.448 E0.00446
G1 X70.226 Y70.127 E0.50360
;WIDTH:0.438234
G1 X70.226 Y66.096 E0.13249
;WIDTH:0.480316
G1 X70.247 Y66.032 E0.00247
;WIDTH:0.522395
G1 X70.268 Y65.967 E0.00270
;WIDTH:0.564473
G1 X70.310 Y65.838 E0.00588
G1 X70.424 Y65.827 E0.00495
G1 X80.109 Y65.827 E0.42002
G1 X80.223 Y65.838 E0.00495
G1 X80.265 Y65.967 E0.00588
;WIDTH:0.438236
G1 X80.307 Y66.096 E0.00446
G1 X80.307 Y85.448 E0.63609
;WIDTH:0.480315
G1 X80.286 Y85.512 E0.00247
;WIDTH:0.522393
G1 X80.265 Y85.577 E0.00270
;WIDTH:0.564471
G1 X80.223 Y85.706 E0.00588
G1 X80.109 Y85.718 E0.00495
G1 X75.327 Y85.718 E0.20741
G1 E-0.80000 F2100.000
G1 Z0.800 F10800.000
G1 X94.540 Y85.259
G1 Z0.200
G1 E0.80000 F2100.000
;TYPE:External perimeter
;WIDTH:0.42
G1 F1200.000
G1 X89.885 Y85.259 E0.14593
G1 X89.885 Y66.285 E0.59492
G1 X99.194 Y66.285 E0.29185
G1 X99.194 Y85.259 E0.59492
G1 X94.600 Y85.259 E0.14404
G1 X94.508 Y85.658 F10800.000
G1 X94.540 Y86.176
G1 F1200.000
G1 X89.113 Y86.176 E0.17014
G1 X89.113 Y65.368 E0.65242
G1 X99.966 Y65.368 E0.34029
G1 X99.966 Y86.176 E0.65242
G1 X94.600 Y86.176 E0.16826
G1 X94.211 Y85.947 F10800.000
G1 X94.540 Y85.718
;TYPE:Gap fill
;WIDTH:0.564475
G1 F1200.000
G1 X89.697 Y85.718 E0.21001
G1 X89.583 Y85.706 E0.00495
G1 X89.541 Y85.577 E0.00588
;WIDTH:0.438232
G1 X89.499 Y85.448 E0.00446
G1 X89.499 Y77.308 E0.26755
;WIDTH:0.438234
G1 X89.499 Y66.096 E0.36853
;WIDTH:0.480312
G1 X89.520 Y66.032 E0.00247
;WIDTH:0.522392
G1 X89.541 Y65.967 E0.00270
;WIDTH:0.564473
G1 X89.583 Y65.838 E0.00588
G1 X89.697 Y65.827 E0.00495
G1 X99.382 Y65.827 E0.42002
G1 X99.496 Y65.838 E0.00495
G1 X99.538 Y65.967 E0.00588
;WIDTH:0.438234
G1 X99.580 Y66.096 E0.00446
G1 X99.580 Y85.448 E0.63609
;WIDTH:0.480314
G1 X99.559 Y85.512 E0.00247
;WIDTH:0.522394
G1 X99.538 Y85.577 E0.00270
;WIDTH:0.564475
G1 X99.496 Y85.706 E0.00588
G1 X99.382 Y85.718 E0.00495
G1 X94.600 Y85.718 E0.20741
G1 E-0.80000 F2100.000
G1 Z0.800 F10800.000
G1 X113.813 Y85.259
G1 Z0.200
G1 E0.80000 F2100.000
;TYPE:External perimeter
;WIDTH:0.42
G1 F1200.000
G1 X109.158 Y85.259 E0.14593
G1 X109.158 Y66.285 E0.59492
G1 X118.467 Y66.285 E0.29185
G1 X118.467 Y85.259 E0.59492
G1 X113.873 Y85.259 E0.14404
G1 X113.781 Y85.658 F10800.000
G1 X113.813 Y86.176
G1 F1200.000
G1 X108.386 Y86.176 E0.17014
G1 X108.386 Y65.368 E0.65242
G1 X119.239 Y65.368 E0.34029
G1 X119.239 Y86.176 E0.65242
G1 X113.873 Y86.176 E0.16826
G1 X113.484 Y85.947 F10800.000
G1 X113.813 Y85.718
;TYPE:Gap fill
;WIDTH:0.564475
G1 F1200.000
G1 X108.970 Y85.718 E0.21001
M73 P1 R119
G1 X108.856 Y85.706 E0.00495
G1 X108.814 Y85.577 E0.00588
;WIDTH:0.438232
G1 X108.772 Y85.448 E0.00446
G1 X108.772 Y77.308 E0.26755
;WIDTH:0.438234
G1 X108.772 Y66.096 E0.36853
;WIDTH:0.480312
G1 X108.793 Y66.032 E0.00247
;WIDTH:0.522392
G1 X108.814 Y65.967 E0.00270
;WIDTH:0.564473
G1 X108.856 Y65.838 E0.00588
G1 X108.970 Y65.827 E0.00495
G1 X118.655 Y65.827 E0.42002
G1 X118.769 Y65.838 E0.00495
G1 X118.811 Y65.967 E0.00588
;WIDTH:0.438234
G1 X118.853 Y66.096 E0.00446
G1 X118.853 Y85.448 E0.63609
;WIDTH:0.480314
G1 X118.832 Y85.512 E0.00247
;WIDTH:0.522394
G1 X118.811 Y85.577 E0.00270
;WIDTH:0.564475
G1 X118.769 Y85.706 E0.00588
G1 X118.655 Y85.718 E0.00495
G1 X113.873 Y85.718 E0.20741
G1 E-0.80000 F2100.000
G1 Z0.800 F10800.000
G1 X133.086 Y85.259
G1 Z0.200
G1 E0.80000 F2100.000
;TYPE:External perimeter
;WIDTH:0.42
G1 F1200.000
G1 X128.431 Y85.259 E0.14593
G1 X128.431 Y66.285 E0.59492
G1 X137.740 Y66.285 E0.29185
G1 X137.740 Y85.259 E0.59492
G1 X133.146 Y85.259 E0.14404
G1 X133.054 Y85.658 F10800.000
G1 X133.086 Y86.176
G1 F1200.000
G1 X127.659 Y86.176 E0.17014
G1 X127.659 Y65.368 E0.65242
G1 X138.512 Y65.368 E0.34029
G1 X138.512 Y86.176 E0.65242
G1 X133.146 Y86.176 E0.16826
G1 X132.757 Y85.947 F10800.000
G1 X133.086 Y85.718
;TYPE:Gap fill
;WIDTH:0.564471
G1 F1200.000
G1 X128.243 Y85.718 E0.21001
G1 X128.129 Y85.706 E0.00495
G1 X128.087 Y85.577 E0.00588
;WIDTH:0.438232
G1 X128.045 Y85.448 E0.00446
G1 X128.045 Y70.127 E0.50360
;WIDTH:0.438234
G1 X128.045 Y66.096 E0.13249
;WIDTH:0.480316
G1 X128.066 Y66.032 E0.00247
;WIDTH:0.522395
G1 X128.087 Y65.967 E0.00270
;WIDTH:0.564473
G1 X128.129 Y65.838 E0.00588
G1 X128.243 Y65.827 E0.00495
G1 X137.928 Y65.827 E0.42002
G1 X138.042 Y65.838 E0.00495
G1 X138.084 Y65.967 E0.00588
;WIDTH:0.438236
G1 X138.126 Y66.096 E0.00446
G1 X138.126 Y85.448 E0.63609
;WIDTH:0.480315
G1 X138.105 Y85.512 E0.00247
;WIDTH:0.522393
G1 X138.084 Y85.577 E0.00270
;WIDTH:0.564471
G1 X138.042 Y85.706 E0.00588
G1 X137.928 Y85.718 E0.00495
G1 X133.146 Y85.718 E0.20741
G1 E-0.80000 F2100.000
G1 Z0.800 F10800.000
G1 X157.336 Y78.613
G1 Z0.200
G1 E0.80000 F2100.000
;TYPE:External perimeter
;WIDTH:0.42
G1 F1200.000
G1 X147.849 Y78.613 E0.29746
G1 X147.849 Y69.305 E0.29185
G1 X166.823 Y69.305 E0.59492
G1 X166.823 Y78.613 E0.29185
G1 X157.396 Y78.613 E0.29558
G1 X157.231 Y78.999 F10800.000
G1 X157.336 Y79.385
G1 F1200.000
G1 X146.932 Y79.385 E0.32621
G1 X146.932 Y68.532 E0.34029
G1 X167.740 Y68.532 E0.65242
G1 X167.740 Y79.385 E0.34029
G1 X157.396 Y79.385 E0.32433
G1 X157.051 Y79.104 F10800.000
G1 X157.336 Y78.999
;TYPE:Gap fill
;WIDTH:0.438234
G1 F1200.000
G1 X147.660 Y78.999 E0.31804
;WIDTH:0.480314
G1 X147.596 Y78.978 E0.00247
;WIDTH:0.522394
G1 X147.531 Y78.957 E0.00270
;WIDTH:0.564474
G1 X147.467 Y78.936 E0.00294
;WIDTH:0.582688
G1 X147.402 Y78.915 E0.00304
G1 X147.391 Y78.801 E0.00512
G1 X147.391 Y69.116 E0.43469
;WIDTH:0.606553
G1 X147.402 Y69.002 E0.00535
;WIDTH:0.564475
G1 X147.531 Y68.960 E0.00588
;WIDTH:0.438233
G1 X147.660 Y68.918 E0.00446
G1 X167.012 Y68.918 E0.63609
;WIDTH:0.480312
G1 X167.076 Y68.939 E0.00247
;WIDTH:0.522392
G1 X167.141 Y68.960 E0.00270
;WIDTH:0.564473
G1 X167.270 Y69.002 E0.00588
G1 X167.282 Y69.116 E0.00495
G1 X167.282 Y78.801 E0.42002
G1 X167.270 Y78.915 E0.00495
G1 X167.141 Y78.957 E0.00588
;WIDTH:0.438234
G1 X167.012 Y78.999 E0.00446
G1 X157.396 Y78.999 E0.31607
G1 E-0.80000 F2100.000
G1 Z0.800 F10800.000
G1 X161.441 Y102.178
G1 Z0.200
G1 E0.80000 F2100.000
;TYPE:External perimeter
;WIDTH:0.42
G1 F1200.000
G1 X154.672 Y101.956 E0.21236
G1 X155.102 Y88.598 E0.41907
G1 X161.887 Y88.820 E0.21285
G1 X161.443 Y102.118 E0.41716
G1 X161.490 Y102.575 F10800.000
G1 X162.050 Y102.923
G1 F1200.000
G1 X154.015 Y102.660 E0.25208
G1 X154.491 Y87.851 E0.46456
G1 X162.544 Y88.116 E0.25263
G1 X162.052 Y102.863 E0.46266
G1 X161.680 Y102.771 F10800.000
G1 X161.692 Y102.541
;TYPE:Gap fill
;WIDTH:0.33544
G1 F1200.000
G1 X154.472 Y102.313 E0.17572
G1 X154.397 Y102.302 E0.00183
G1 X154.349 Y102.134 E0.00424
;WIDTH:0.299721
G1 X154.791 Y88.399 E0.29345
;WIDTH:0.335692
G1 X154.811 Y88.344 E0.00142
;WIDTH:0.371662
G1 X154.830 Y88.289 E0.00159
;WIDTH:0.391738
G1 X154.850 Y88.234 E0.00169
G1 X154.925 Y88.229 E0.00217
G1 X162.087 Y88.464 E0.20784
;WIDTH:0.407636
G1 X162.161 Y88.474 E0.00227
G1 X162.177 Y88.530 E0.00177
;WIDTH:0.299657
G1 X162.210 Y88.642 E0.00249
G1 X161.752 Y102.377 E0.29336
;WIDTH:0.33544
G1 X161.713 Y102.484 E0.00278
G1 E-0.80000 F2100.000
G1 Z0.800 F10800.000
G1 X172.682 Y101.971
G1 Z0.200
G1 E0.80000 F2100.000
;TYPE:External perimeter
;WIDTH:0.42
G1 F1200.000
G1 X173.127 Y88.614 E0.41904
G1 X179.897 Y88.835 E0.21236
G1 X179.467 Y102.194 E0.41907
G1 X172.742 Y101.973 E0.21097
G1 X172.304 Y102.102 F10800.000
G1 X172.024 Y102.676
G1 F1200.000
G1 X172.518 Y87.868 E0.46454
G1 X180.554 Y88.131 E0.25208
G1 X180.077 Y102.940 E0.46456
G1 X172.084 Y102.678 E0.25075
G1 X172.103 Y102.284 F10800.000
G1 X172.481 Y102.327
;TYPE:Gap fill
;WIDTH:0.335644
G1 F1200.000
G1 X172.407 Y102.317 E0.00182
G1 X172.359 Y102.149 E0.00426
;WIDTH:0.299626
G1 X172.817 Y88.415 E0.29332
;WIDTH:0.335408
M73 P1 R118
G1 X172.837 Y88.360 E0.00141
;WIDTH:0.371194
G1 X172.856 Y88.305 E0.00159
;WIDTH:0.391005
G1 X172.876 Y88.251 E0.00168
G1 X172.951 Y88.245 E0.00217
G1 X180.097 Y88.479 E0.20694
;WIDTH:0.406967
G1 X180.171 Y88.489 E0.00227
G1 X180.187 Y88.545 E0.00176
;WIDTH:0.299705
G1 X180.220 Y88.657 E0.00248
G1 X179.778 Y102.392 E0.29343
;WIDTH:0.335644
G1 X179.718 Y102.557 E0.00426
G1 X179.644 Y102.562 E0.00182
G1 X172.541 Y102.329 E0.17296
G1 E-0.80000 F2100.000
G1 Z0.800 F10800.000
G1 X159.586 Y125.779
G1 Z0.200
G1 E0.80000 F2100.000
;TYPE:External perimeter
;WIDTH:0.42
G1 F1200.000
G1 X152.817 Y125.557 E0.21236
G1 X153.247 Y112.199 E0.41907
G1 X160.032 Y112.421 E0.21285
G1 X159.588 Y125.719 E0.41716
G1 X159.636 Y126.176 F10800.000
G1 X160.195 Y126.524
G1 F1200.000
G1 X152.160 Y126.261 E0.25208
