; generated by PrusaSlicer 2.1.1+win64 on 2020-04-29 at 15:48:21 UTC

; 

; external perimeters extrusion width = 0.45mm
; perimeters extrusion width = 0.45mm
; infill extrusion width = 0.45mm
; solid infill extrusion width = 0.45mm
; top infill extrusion width = 0.40mm
; first layer extrusion width = 0.42mm

M73 P0 R5
M201 X9000 Y9000 Z500 E10000 ; sets maximum accelerations, mm/sec^2
M203 X500 Y500 Z12 E120 ; sets maximum feedrates, mm/sec
M204 P2000 R1500 T2000 ; sets acceleration (P, T) and retract acceleration (R), mm/sec^2
M205 X10.00 Y10.00 Z0.20 E2.50 ; sets the jerk limits, mm/sec
M205 S0 T0 ; sets the minimum extruding and travel feed rate, mm/sec
M107
M862.3 P "MK2S" ; printer model check
M862.1 P0.4 ; nozzle diameter check
M115 U3.2.3 ; tell printer latest fw version
G90 ; use absolute coordinates
M83 ; extruder relative mode
M204 S2000 T1500 ; MK2 firmware only supports the old M204 format
M104 S215 ; set extruder temp
M140 S60 ; set bed temp
M190 S60 ; wait for bed temp
M109 S215 ; wait for extruder temp
G28 W ; home all without mesh bed level
G80 ; mesh bed leveling
G1 Y-3.0 F1000.0 ; go outside print area
G92 E0.0
G1 X60.0 E9.0  F1000.0 ; intro line
M73 P1 R5
G1 X100.0 E12.5 F1000.0 ; intro line
G92 E0.0
G21 ; set units to millimeters
G90 ; use absolute coordinates
M83 ; use relative distances for extrusion
M900 K30 ; Filament gcode
;BEFORE_LAYER_CHANGE
G92 E0.0
;0.2


G1 E-0.80000 F2100.00000
G1 Z0.600 F10800.000
;AFTER_LAYER_CHANGE
;0.2
G1 X135.621 Y107.662
G1 Z0.200
G1 E0.80000 F2100.00000
M204 S1000
G1 F1200
G1 X128.594 Y107.675 E0.22032
G1 X128.580 Y100.329 E0.23035
G1 X142.736 Y100.301 E0.44386
G1 X142.750 Y107.648 E0.23035
G1 X135.681 Y107.661 E0.22165
G1 X135.622 Y108.039 F10800.000
G1 F1200
G1 X128.218 Y108.053 E0.23214
G1 X128.202 Y99.952 E0.25399
G1 X143.112 Y99.923 E0.46750
G1 X143.128 Y108.024 E0.25399
G1 X135.682 Y108.038 E0.23348
G1 X135.335 Y107.760 F10800.000
G1 E-0.80000 F2100.00000
G1 Z0.800 F10800.000
G1 X128.706 Y106.785
G1 Z0.200
G1 E0.80000 F2100.00000
G1 F1200
G1 X129.312 Y107.391 E0.02731
G1 X129.853 Y107.390 E0.01724
G1 X128.875 Y106.412 E0.04408
G1 X128.874 Y105.869 E0.01731
G1 X130.394 Y107.389 E0.06851
G1 X130.934 Y107.388 E0.01724
G1 X128.872 Y105.326 E0.09293
G1 X128.871 Y104.783 E0.01731
G1 X131.475 Y107.387 E0.11736
G1 X132.016 Y107.386 E0.01724
G1 X128.870 Y104.240 E0.14179
G1 X128.869 Y103.697 E0.01731
G1 X132.557 Y107.385 E0.16622
G1 X133.098 Y107.384 E0.01724
G1 X128.868 Y103.154 E0.19065
G1 X128.867 Y102.610 E0.01731
G1 X133.639 Y107.383 E0.21508
G1 X134.180 Y107.382 E0.01724
G1 X128.866 Y102.067 E0.23951
G1 X128.865 Y101.524 E0.01731
G1 X134.721 Y107.380 E0.26394
G1 X135.262 Y107.379 E0.01724
G1 X128.864 Y100.981 E0.28837
G1 X128.863 Y100.611 E0.01180
G1 X129.035 Y100.610 E0.00548
G1 X135.803 Y107.378 E0.30503
G1 X136.344 Y107.377 E0.01724
G1 X129.576 Y100.609 E0.30503
G1 X130.117 Y100.608 E0.01724
G1 X136.885 Y107.376 E0.30503
G1 X137.426 Y107.375 E0.01724
G1 X130.658 Y100.607 E0.30503
G1 X131.199 Y100.606 E0.01724
G1 X137.967 Y107.374 E0.30503
G1 X138.508 Y107.373 E0.01724
G1 X131.740 Y100.605 E0.30503
G1 X132.281 Y100.604 E0.01724
G1 X139.049 Y107.372 E0.30503
G1 X139.590 Y107.371 E0.01724
G1 X132.822 Y100.603 E0.30503
G1 X133.363 Y100.602 E0.01724
G1 X140.131 Y107.370 E0.30503
G1 X140.672 Y107.369 E0.01724
G1 X133.904 Y100.601 E0.30503
G1 X134.445 Y100.600 E0.01724
G1 X141.213 Y107.368 E0.30503
G1 X141.754 Y107.367 E0.01724
G1 X134.986 Y100.599 E0.30503
G1 X135.527 Y100.598 E0.01724
G1 X142.295 Y107.366 E0.30503
G1 X142.467 Y107.365 E0.00549
G1 X142.466 Y106.995 E0.01180
G1 X136.068 Y100.597 E0.28837
G1 X136.609 Y100.596 E0.01724
G1 X142.465 Y106.452 E0.26394
G1 X142.464 Y105.909 E0.01731
G1 X137.150 Y100.595 E0.23951
G1 X137.691 Y100.594 E0.01724
G1 X142.463 Y105.366 E0.21508
G1 X142.462 Y104.823 E0.01731
G1 X138.232 Y100.593 E0.19065
G1 X138.773 Y100.592 E0.01724
G1 X142.461 Y104.280 E0.16623
G1 X142.460 Y103.737 E0.01731
G1 X139.314 Y100.590 E0.14180
G1 X139.855 Y100.589 E0.01724
G1 X142.459 Y103.194 E0.11737
G1 X142.458 Y102.650 E0.01731
G1 X140.396 Y100.588 E0.09294
G1 X140.937 Y100.587 E0.01724
G1 X142.457 Y102.107 E0.06851
G1 X142.456 Y101.564 E0.01731
G1 X141.478 Y100.586 E0.04408
G1 X142.019 Y100.585 E0.01724
G1 X142.625 Y101.191 E0.02731
G1 E-0.80000 F2100.00000
G1 Z0.800 F10800.000
G1 X133.516 Y124.211
G1 Z0.200
G1 E0.80000 F2100.00000
G1 F1200
G1 X133.058 Y124.189 E0.01439
G1 X132.604 Y124.121 E0.01439
G1 X132.158 Y124.010 E0.01439
G1 X131.726 Y123.855 E0.01439
G1 X131.311 Y123.659 E0.01439
G1 X130.917 Y123.423 E0.01439
G1 X130.549 Y123.149 E0.01439
G1 X130.209 Y122.841 E0.01439
G1 X129.900 Y122.501 E0.01439
G1 X129.627 Y122.132 E0.01439
G1 X129.391 Y121.738 E0.01439
G1 X129.194 Y121.323 E0.01439
G1 X129.040 Y120.891 E0.01439
G1 X128.928 Y120.446 E0.01439
G1 X128.861 Y119.992 E0.01439
G1 X128.838 Y119.533 E0.01439
G1 X128.861 Y119.075 E0.01439
G1 X128.928 Y118.621 E0.01439
G1 X129.040 Y118.175 E0.01439
G1 X129.194 Y117.743 E0.01439
G1 X129.391 Y117.328 E0.01439
G1 X129.627 Y116.934 E0.01439
G1 X129.900 Y116.566 E0.01439
G1 X130.208 Y116.226 E0.01439
G1 X130.549 Y115.917 E0.01439
G1 X130.917 Y115.644 E0.01439
G1 X131.311 Y115.408 E0.01439
G1 X131.726 Y115.212 E0.01439
G1 X132.158 Y115.057 E0.01439
G1 X132.604 Y114.945 E0.01439
G1 X133.054 Y114.879 E0.01428
G1 X133.614 Y114.858 E0.01757
G1 X133.973 Y114.878 E0.01127
G1 X134.429 Y114.945 E0.01445
G1 X134.874 Y115.057 E0.01439
G1 X135.306 Y115.212 E0.01439
G1 X135.721 Y115.408 E0.01439
G1 X136.115 Y115.644 E0.01439
G1 X136.484 Y115.917 E0.01439
G1 X136.824 Y116.226 E0.01439
G1 X137.132 Y116.566 E0.01439
G1 X137.406 Y116.934 E0.01439
G1 X137.642 Y117.328 E0.01439
G1 X137.838 Y117.743 E0.01439
G1 X137.993 Y118.175 E0.01439
G1 X138.104 Y118.621 E0.01439
G1 X138.171 Y119.075 E0.01439
G1 X138.194 Y119.533 E0.01439
G1 X138.171 Y119.992 E0.01439
G1 X138.104 Y120.446 E0.01439
G1 X137.993 Y120.891 E0.01439
G1 X137.838 Y121.323 E0.01439
G1 X137.642 Y121.738 E0.01439
G1 X137.406 Y122.132 E0.01439
G1 X137.132 Y122.501 E0.01439
G1 X136.824 Y122.841 E0.01439
G1 X136.484 Y123.149 E0.01439
G1 X136.115 Y123.423 E0.01439
G1 X135.721 Y123.659 E0.01439
G1 X135.306 Y123.855 E0.01439
G1 X134.874 Y124.010 E0.01439
G1 X134.429 Y124.121 E0.01439
G1 X133.975 Y124.189 E0.01439
G1 X133.576 Y124.208 E0.01251
G1 X133.516 Y124.589 F10800.000
G1 F1200
G1 X133.021 Y124.564 E0.01556
G1 X132.530 Y124.491 E0.01555
G1 X132.049 Y124.371 E0.01556
G1 X131.582 Y124.204 E0.01556
G1 X131.133 Y123.992 E0.01556
G1 X130.708 Y123.737 E0.01556
G1 X130.309 Y123.441 E0.01556
G1 X129.942 Y123.108 E0.01556
G1 X129.608 Y122.740 E0.01556
G1 X129.313 Y122.342 E0.01556
G1 X129.058 Y121.916 E0.01556
G1 X128.846 Y121.468 E0.01556
G1 X128.679 Y121.001 E0.01556
G1 X128.558 Y120.520 E0.01556
G1 X128.485 Y120.029 E0.01556
G1 X128.461 Y119.533 E0.01556
G1 X128.485 Y119.038 E0.01556
G1 X128.558 Y118.547 E0.01556
G1 X128.679 Y118.066 E0.01556
G1 X128.846 Y117.599 E0.01556
G1 X129.058 Y117.150 E0.01556
G1 X129.313 Y116.725 E0.01556
G1 X129.608 Y116.326 E0.01556
G1 X129.942 Y115.959 E0.01556
G1 X130.309 Y115.625 E0.01556
G1 X130.708 Y115.330 E0.01556
G1 X131.133 Y115.075 E0.01556
G1 X131.582 Y114.863 E0.01556
G1 X132.049 Y114.696 E0.01556
G1 X132.530 Y114.575 E0.01556
G1 X133.019 Y114.502 E0.01551
G1 X133.618 Y114.480 E0.01877
G1 X134.011 Y114.502 E0.01236
G1 X134.502 Y114.575 E0.01558
G1 X134.984 Y114.696 E0.01556
G1 X135.451 Y114.863 E0.01556
G1 X135.899 Y115.075 E0.01556
G1 X136.325 Y115.330 E0.01556
G1 X136.723 Y115.625 E0.01556
G1 X137.091 Y115.959 E0.01556
G1 X137.424 Y116.326 E0.01556
G1 X137.720 Y116.725 E0.01556
G1 X137.975 Y117.150 E0.01556
G1 X138.187 Y117.599 E0.01556
G1 X138.354 Y118.066 E0.01556
G1 X138.474 Y118.547 E0.01556
G1 X138.547 Y119.038 E0.01556
G1 X138.572 Y119.533 E0.01556
G1 X138.547 Y120.029 E0.01556
G1 X138.474 Y120.520 E0.01556
G1 X138.354 Y121.001 E0.01556
G1 X138.187 Y121.468 E0.01556
G1 X137.975 Y121.916 E0.01556
G1 X137.720 Y122.342 E0.01556
G1 X137.424 Y122.740 E0.01556
G1 X137.091 Y123.108 E0.01556
G1 X136.723 Y123.441 E0.01556
G1 X136.325 Y123.737 E0.01556
G1 X135.899 Y123.992 E0.01556
G1 X135.451 Y124.204 E0.01556
G1 X134.984 Y124.371 E0.01556
G1 X134.502 Y124.491 E0.01556
G1 X134.012 Y124.564 E0.01556
G1 X133.576 Y124.586 E0.01367
G1 X133.316 Y124.242 F10800.000
G1 X132.220 Y123.908
G1 F1200
G1 X129.417 Y121.106 E0.12588
G1 X129.311 Y120.809 E0.01001
G1 X129.200 Y120.348 E0.01505
G1 X132.701 Y123.850 E0.15726
G1 X133.085 Y123.907 E0.01234
G1 X133.309 Y123.918 E0.00712
G1 X129.132 Y119.740 E0.18763
G1 X129.138 Y119.206 E0.01697
G1 X133.844 Y123.912 E0.21136
G1 X134.323 Y123.851 E0.01535
G1 X129.198 Y118.727 E0.23016
G1 X129.303 Y118.291 E0.01424
G1 X134.759 Y123.747 E0.24507
G1 X135.159 Y123.607 E0.01347
G1 X129.442 Y117.890 E0.25678
G1 X129.613 Y117.520 E0.01293
G1 X135.529 Y123.437 E0.26573
G1 X135.871 Y123.239 E0.01256
G1 X129.810 Y117.178 E0.27223
G1 X130.033 Y116.861 E0.01231
G1 X136.189 Y123.016 E0.27646
G1 X136.482 Y122.769 E0.01218
G1 X130.280 Y116.567 E0.27855
G1 X130.409 Y116.426 E0.00607
G1 X130.550 Y116.297 E0.00607
G1 X136.752 Y122.499 E0.27855
G1 X136.999 Y122.206 E0.01218
G1 X130.844 Y116.051 E0.27646
G1 X131.161 Y115.828 E0.01231
G1 X137.222 Y121.889 E0.27223
G1 X137.420 Y121.546 E0.01256
G1 X131.503 Y115.630 E0.26574
G1 X131.873 Y115.459 E0.01293
G1 X137.590 Y121.177 E0.25679
G1 X137.730 Y120.776 E0.01347
G1 X132.273 Y115.320 E0.24508
G1 X132.709 Y115.216 E0.01424
G1 X137.834 Y120.340 E0.23016
G1 X137.895 Y119.861 E0.01535
G1 X133.191 Y115.156 E0.21129
G1 X133.721 Y115.147 E0.01686
G1 X137.901 Y119.326 E0.18772
G1 X137.890 Y119.103 E0.00712
G1 X137.833 Y118.718 E0.01234
G1 X134.331 Y115.217 E0.15727
G1 X134.792 Y115.328 E0.01505
G1 X135.089 Y115.434 E0.01001
G1 X137.891 Y118.237 E0.12589
G1 X137.490 Y117.295 F10800.000
G1 F1200
G1 X135.754 Y115.559 E0.07797
G1 E-0.80000 F2100.00000
G1 Z0.800 F10800.000
G1 X129.542 Y121.771
G1 Z0.200
G1 E0.80000 F2100.00000
G1 F1200
G1 X131.278 Y123.507 E0.07795
G1 E-0.80000 F2100.00000
G1 Z0.800 F10800.000
G1 X135.621 Y93.141
G1 Z0.200
G1 E0.80000 F2100.00000
G1 F1200
G1 X128.594 Y93.154 E0.22032
G1 X128.580 Y85.808 E0.23035
G1 X142.736 Y85.780 E0.44386
G1 X142.750 Y93.127 E0.23035
G1 X135.681 Y93.141 E0.22165
G1 X135.622 Y93.518 F10800.000
G1 F1200
G1 X128.218 Y93.532 E0.23214
G1 X128.202 Y85.431 E0.25399
G1 X143.112 Y85.402 E0.46750
G1 X143.128 Y93.503 E0.25399
G1 X135.682 Y93.518 E0.23348
G1 X135.335 Y93.239 F10800.000
G1 E-0.80000 F2100.00000
G1 Z0.800 F10800.000
G1 X128.706 Y92.264
G1 Z0.200
G1 E0.80000 F2100.00000
G1 F1200
G1 X129.312 Y92.870 E0.02731
G1 X129.853 Y92.869 E0.01724
G1 X128.875 Y91.891 E0.04408
G1 X128.874 Y91.348 E0.01731
G1 X130.394 Y92.868 E0.06851
G1 X130.934 Y92.867 E0.01724
G1 X128.872 Y90.805 E0.09293
G1 X128.871 Y90.262 E0.01731
G1 X131.475 Y92.866 E0.11736
G1 X132.016 Y92.865 E0.01724
G1 X128.870 Y89.719 E0.14179
G1 X128.869 Y89.176 E0.01731
G1 X132.557 Y92.864 E0.16622
G1 X133.098 Y92.863 E0.01724
G1 X128.868 Y88.633 E0.19065
G1 X128.867 Y88.090 E0.01731
G1 X133.639 Y92.862 E0.21508
G1 X134.180 Y92.861 E0.01724
G1 X128.866 Y87.547 E0.23951
G1 X128.865 Y87.003 E0.01731
G1 X134.721 Y92.860 E0.26394
G1 X135.262 Y92.859 E0.01724
G1 X128.864 Y86.460 E0.28837
G1 X128.863 Y86.090 E0.01180
G1 X129.035 Y86.090 E0.00548
G1 X135.803 Y92.858 E0.30503
G1 X136.344 Y92.857 E0.01724
G1 X129.576 Y86.089 E0.30503
G1 X130.117 Y86.088 E0.01724
G1 X136.885 Y92.855 E0.30503
G1 X137.426 Y92.854 E0.01724
G1 X130.658 Y86.086 E0.30503
G1 X131.199 Y86.085 E0.01724
G1 X137.967 Y92.853 E0.30503
G1 X138.508 Y92.852 E0.01724
G1 X131.740 Y86.084 E0.30503
G1 X132.281 Y86.083 E0.01724
G1 X139.049 Y92.851 E0.30503
G1 X139.590 Y92.850 E0.01724
G1 X132.822 Y86.082 E0.30503
G1 X133.363 Y86.081 E0.01724
G1 X140.131 Y92.849 E0.30503
G1 X140.672 Y92.848 E0.01724
G1 X133.904 Y86.080 E0.30503
G1 X134.445 Y86.079 E0.01724
G1 X141.213 Y92.847 E0.30503
G1 X141.754 Y92.846 E0.01724
G1 X134.986 Y86.078 E0.30503
G1 X135.527 Y86.077 E0.01724
G1 X142.295 Y92.845 E0.30503
G1 X142.467 Y92.845 E0.00549
G1 X142.466 Y92.474 E0.01180
G1 X136.068 Y86.076 E0.28837
G1 X136.609 Y86.075 E0.01724
G1 X142.465 Y91.931 E0.26394
G1 X142.464 Y91.388 E0.01731
G1 X137.150 Y86.074 E0.23951
G1 X137.691 Y86.073 E0.01724
G1 X142.463 Y90.845 E0.21508
G1 X142.462 Y90.302 E0.01731
G1 X138.232 Y86.072 E0.19065
G1 X138.773 Y86.071 E0.01724
G1 X142.461 Y89.759 E0.16623
G1 X142.460 Y89.216 E0.01731
G1 X139.314 Y86.070 E0.14180
G1 X139.855 Y86.069 E0.01724
G1 X142.459 Y88.673 E0.11737
G1 X142.458 Y88.130 E0.01731
G1 X140.396 Y86.068 E0.09294
G1 X140.937 Y86.066 E0.01724
G1 X142.457 Y87.587 E0.06851
G1 X142.456 Y87.043 E0.01731
G1 X141.478 Y86.065 E0.04408
G1 X142.019 Y86.064 E0.01724
G1 X142.625 Y86.670 E0.02731
G1 E-0.80000 F2100.00000
G1 Z0.800 F10800.000
G1 X114.291 Y107.662
G1 Z0.200
G1 E0.80000 F2100.00000
G1 F1200
G1 X107.264 Y107.675 E0.22032
G1 X107.250 Y100.329 E0.23035
G1 X121.406 Y100.301 E0.44386
G1 X121.420 Y107.648 E0.23035
G1 X114.351 Y107.661 E0.22165
G1 X114.291 Y108.039 F10800.000
G1 F1200
G1 X106.888 Y108.053 E0.23214
G1 X106.872 Y99.952 E0.25399
G1 X121.782 Y99.923 E0.46750
G1 X121.798 Y108.024 E0.25399
G1 X114.351 Y108.038 E0.23348
G1 X114.004 Y107.760 F10800.000
G1 E-0.80000 F2100.00000
G1 Z0.800 F10800.000
G1 X107.375 Y106.785
G1 Z0.200
G1 E0.80000 F2100.00000
G1 F1200
G1 X107.981 Y107.391 E0.02731
G1 X108.522 Y107.390 E0.01724
G1 X107.544 Y106.412 E0.04408
G1 X107.543 Y105.869 E0.01731
G1 X109.063 Y107.389 E0.06851
G1 X109.604 Y107.388 E0.01724
G1 X107.542 Y105.326 E0.09293
G1 X107.541 Y104.783 E0.01731
G1 X110.145 Y107.387 E0.11736
G1 X110.686 Y107.386 E0.01724
G1 X107.540 Y104.240 E0.14179
G1 X107.539 Y103.697 E0.01731
G1 X111.227 Y107.385 E0.16622
M73 P19 R4
G1 X111.768 Y107.384 E0.01724
G1 X107.538 Y103.154 E0.19065
G1 X107.537 Y102.610 E0.01731
G1 X112.309 Y107.383 E0.21508
G1 X112.850 Y107.382 E0.01724
G1 X107.536 Y102.067 E0.23951
G1 X107.535 Y101.524 E0.01731
G1 X113.391 Y107.380 E0.26394
G1 X113.932 Y107.379 E0.01724
G1 X107.534 Y100.981 E0.28837
G1 X107.533 Y100.611 E0.01180
G1 X107.705 Y100.610 E0.00548
G1 X114.473 Y107.378 E0.30503
G1 X115.014 Y107.377 E0.01724
G1 X108.246 Y100.609 E0.30503
G1 X108.787 Y100.608 E0.01724
G1 X115.555 Y107.376 E0.30503
G1 X116.096 Y107.375 E0.01724
G1 X109.328 Y100.607 E0.30503
G1 X109.869 Y100.606 E0.01724
G1 X116.637 Y107.374 E0.30503
G1 X117.178 Y107.373 E0.01724
G1 X110.410 Y100.605 E0.30503
G1 X110.951 Y100.604 E0.01724
G1 X117.719 Y107.372 E0.30503
G1 X118.260 Y107.371 E0.01724
G1 X111.492 Y100.603 E0.30503
G1 X112.033 Y100.602 E0.01724
G1 X118.801 Y107.370 E0.30503
G1 X119.342 Y107.369 E0.01724
G1 X112.574 Y100.601 E0.30503
G1 X113.115 Y100.600 E0.01724
G1 X119.883 Y107.368 E0.30503
G1 X120.424 Y107.367 E0.01724
G1 X113.656 Y100.599 E0.30503
G1 X114.197 Y100.598 E0.01724
G1 X120.965 Y107.366 E0.30503
G1 X121.137 Y107.365 E0.00549
G1 X121.136 Y106.995 E0.01180
G1 X114.738 Y100.597 E0.28837
G1 X115.279 Y100.596 E0.01724
G1 X121.135 Y106.452 E0.26394
G1 X121.134 Y105.909 E0.01731
G1 X115.820 Y100.595 E0.23951
G1 X116.361 Y100.594 E0.01724
G1 X121.133 Y105.366 E0.21508
G1 X121.132 Y104.823 E0.01731
G1 X116.902 Y100.593 E0.19065
G1 X117.442 Y100.592 E0.01724
G1 X121.131 Y104.280 E0.16623
G1 X121.130 Y103.737 E0.01731
G1 X117.983 Y100.590 E0.14180
G1 X118.524 Y100.589 E0.01724
G1 X121.129 Y103.194 E0.11737
G1 X121.128 Y102.650 E0.01731
G1 X119.065 Y100.588 E0.09294
G1 X119.606 Y100.587 E0.01724
G1 X121.126 Y102.107 E0.06851
G1 X121.125 Y101.564 E0.01731
G1 X120.147 Y100.586 E0.04408
G1 X120.688 Y100.585 E0.01724
G1 X121.294 Y101.191 E0.02731
G1 E-0.80000 F2100.00000
G1 Z0.800 F10800.000
G1 X116.956 Y124.202
G1 Z0.200
G1 E0.80000 F2100.00000
G1 F1200
G1 X116.497 Y124.179 E0.01439
G1 X116.043 Y124.112 E0.01439
G1 X115.598 Y124.000 E0.01439
G1 X115.166 Y123.846 E0.01439
G1 X114.751 Y123.649 E0.01439
G1 X114.357 Y123.413 E0.01439
G1 X113.988 Y123.140 E0.01439
G1 X113.648 Y122.832 E0.01439
G1 X113.340 Y122.492 E0.01439
