; generated by PrusaSlicer 2.3.1+win64 on 2021-09-03 at 18:49:37 UTC

; 

; external perimeters extrusion width = 0.45mm
; perimeters extrusion width = 0.45mm
; infill extrusion width = 0.45mm
; solid infill extrusion width = 0.45mm
; top infill extrusion width = 0.40mm
; support material extrusion width = 0.35mm
; first layer extrusion width = 0.42mm

M73 P0 R97
M201 X9000 Y9000 Z500 E10000 ; sets maximum accelerations, mm/sec^2
M203 X500 Y500 Z12 E120 ; sets maximum feedrates, mm/sec
M204 P2000 R1500 T2000 ; sets acceleration (P, T) and retract acceleration (R), mm/sec^2
M205 X10.00 Y10.00 Z0.20 E2.50 ; sets the jerk limits, mm/sec
M205 S0 T0 ; sets the minimum extruding and travel feed rate, mm/sec
M107
;TYPE:Custom
M862.3 P "MK2S" ; printer model check
M862.1 P0.4 ; nozzle diameter check
M115 U3.2.3 ; tell printer latest fw version
G90 ; use absolute coordinates
M83 ; extruder relative mode
M204 S2000 T1500 ; MK2 firmware only supports the old M204 format
M104 S215 ; set extruder temp
M140 S60 ; set bed temp
M190 S60 ; wait for bed temp
M109 S215 ; wait for extruder temp
G28 W ; home all without mesh bed level
G80 ; mesh bed leveling
G1 Y-3.0 F1000.0 ; go outside print area
G92 E0.0
G1 X60.0 E9.0  F1000.0 ; intro line
G1 X100.0 E12.5 F1000.0 ; intro line
G92 E0.0
G21 ; set units to millimeters
G90 ; use absolute coordinates
M83 ; use relative distances for extrusion
M900 K30 ; Filament gcode
;LAYER_CHANGE
;Z:0.2
;HEIGHT:0.2
;BEFORE_LAYER_CHANGE
G92 E0.0
;0.2


G1 E-0.80000 F2100.000
G1 Z0.600 F10800.000
;AFTER_LAYER_CHANGE
;0.2
G1 X128.070 Y77.195
G1 Z0.200
G1 E0.80000 F2100.000
M204 S1000
;TYPE:Support material
;WIDTH:0.42
G1 F1200.000
G1 X135.646 Y69.619 E0.33592
G1 X136.179 Y70.152 E0.02365
G1 X128.724 Y77.608 E0.33060
G1 X129.257 Y78.141 E0.02365
G1 X136.713 Y70.685 E0.33060
G1 X137.125 Y71.098 E0.01827
G1 X138.756 Y69.466 E0.07234
G1 X138.877 Y69.587 E0.00537
G1 X129.790 Y78.674 E0.40294
G1 X130.323 Y79.208 E0.02365
G1 X139.410 Y70.121 E0.40294
G1 X139.944 Y70.654 E0.02365
G1 X130.857 Y79.741 E0.40294
G1 X131.390 Y80.274 E0.02365
G1 X142.108 Y69.556 E0.47527
G1 X142.642 Y70.089 E0.02365
G1 X131.923 Y80.807 E0.47527
G1 X132.456 Y81.341 E0.02365
G1 X143.175 Y70.622 E0.47527
G1 X143.650 Y71.098 E0.02107
G1 X145.281 Y69.466 E0.07234
G1 X145.339 Y69.524 E0.00257
G1 X132.870 Y81.994 E0.55293
G1 E-0.80000 F2100.000
G1 Z0.800 F10800.000
G1 X143.425 Y78.133
G1 Z0.200
G1 E0.80000 F2100.000
;TYPE:Support material interface
;WIDTH:0.35
G1 F1200.000
G1 X141.625 Y79.932 E0.06499
G1 X141.635 Y79.206 E0.01856
G1 X142.969 Y77.872 E0.04817
G1 X142.610 Y77.513 E0.01295
G1 X141.644 Y78.479 E0.03487
G1 X141.654 Y77.752 E0.01856
G1 X142.252 Y77.155 E0.02158
G1 X141.893 Y76.796 E0.01295
G1 X141.663 Y77.026 E0.00829
G1 X141.670 Y76.581 E0.01134
G1 X141.176 Y76.079 E0.01798
G1 X140.966 Y76.289 E0.00758
G1 X140.249 Y76.289 E0.01831
G1 X140.817 Y75.720 E0.02053
G1 X140.459 Y75.362 E0.01295
G1 X137.196 Y78.625 E0.11782
G1 X137.555 Y78.983 E0.01295
G1 X139.107 Y77.431 E0.05606
G1 X139.106 Y78.149 E0.01835
G1 X137.913 Y79.342 E0.04306
G1 X138.272 Y79.700 E0.01295
G1 X139.104 Y78.868 E0.03005
G1 X139.102 Y79.587 E0.01835
G1 X138.630 Y80.059 E0.01705
G1 X138.756 Y80.185 E0.00454
G1 X137.125 Y81.816 E0.05891
G1 X137.357 Y82.049 E0.00841
G1 X139.101 Y80.305 E0.06296
G1 X139.102 Y81.021 E0.01828
G1 X137.716 Y82.407 E0.05006
G1 X138.075 Y82.766 E0.01295
G1 X139.104 Y81.736 E0.03718
G1 X139.106 Y82.452 E0.01827
G1 X138.335 Y83.222 E0.02782
G1 E-0.80000 F2100.000
G1 Z0.800 F10800.000
G1 X141.434 Y87.295
G1 Z0.200
G1 E0.80000 F2100.000
;TYPE:Support material
;WIDTH:0.42
G1 F1200.000
G1 X152.272 Y76.457 E0.48059
G1 X151.739 Y75.923 E0.02365
G1 X141.267 Y86.396 E0.46436
G1 X141.265 Y85.330 E0.03340
G1 X151.205 Y75.390 E0.44076
G1 X150.672 Y74.857 E0.02365
G1 X141.262 Y84.267 E0.41725
G1 X141.257 Y83.206 E0.03327
G1 X150.139 Y74.324 E0.39384
G1 X149.606 Y73.790 E0.02365
G1 X141.249 Y82.147 E0.37054
G1 X141.240 Y81.089 E0.03316
G1 X141.285 Y81.045 E0.00198
G1 X141.282 Y79.981 E0.03337
G1 X141.237 Y80.026 E0.00202
G1 X141.247 Y78.950 E0.03375
G1 X141.297 Y78.900 E0.00222
G1 X141.311 Y77.819 E0.03389
G1 X141.257 Y77.873 E0.00241
G1 X141.267 Y76.797 E0.03376
G1 X141.454 Y76.609 E0.00833
G1 X139.674 Y77.323 F10800.000
G1 F1200.000
G1 X139.449 Y77.548 E0.00998
G1 X139.446 Y78.617 E0.03351
G1 X139.497 Y78.567 E0.00223
G1 X139.490 Y79.640 E0.03365
G1 X139.444 Y79.686 E0.00202
G1 X139.444 Y80.753 E0.03346
G1 X139.487 Y80.709 E0.00194
G1 X139.494 Y81.769 E0.03324
G1 X139.447 Y81.816 E0.00210
G1 X139.449 Y82.881 E0.03337
G1 X139.500 Y82.830 E0.00226
G1 X139.504 Y83.892 E0.03331
G1 X137.256 Y86.140 E0.09968
G1 X137.789 Y86.673 E0.02365
G1 X139.506 Y84.956 E0.07615
G1 X139.508 Y86.022 E0.03340
G1 X138.202 Y87.327 E0.05787
G1 X136.603 Y85.727 F10800.000
G1 F1200.000
G1 X138.577 Y83.752 E0.08756
G1 X138.044 Y83.219 E0.02365
G1 X136.189 Y85.074 E0.08224
G1 X135.656 Y84.540 E0.02365
G1 X137.511 Y82.686 E0.08224
G1 X136.977 Y82.152 E0.02365
G1 X135.123 Y84.007 E0.08224
G1 X134.590 Y83.474 E0.02365
G1 X138.075 Y79.988 E0.15457
G1 X137.542 Y79.455 E0.02365
G1 X134.056 Y82.941 E0.15457
G1 X133.523 Y82.407 E0.02365
G1 X137.009 Y78.921 E0.15457
G1 X136.641 Y78.553 E0.01632
G1 X140.387 Y74.807 E0.16613
G1 X140.755 Y75.175 E0.01632
G1 X145.873 Y70.058 E0.22691
G1 X146.406 Y70.591 E0.02365
G1 X141.289 Y75.708 E0.22691
G1 X141.822 Y76.241 E0.02365
G1 X146.939 Y71.124 E0.22691
G1 X147.473 Y71.657 E0.02365
G1 X142.355 Y76.775 E0.22691
G1 X142.889 Y77.308 E0.02365
G1 X148.006 Y72.191 E0.22691
G1 X148.539 Y72.724 E0.02365
G1 X143.422 Y77.841 E0.22691
G1 X143.955 Y78.374 E0.02365
G1 X149.192 Y73.137 E0.23223
M73 P0 R96
G1 E-0.80000 F2100.000
G1 Z0.800 F10800.000
G1 X148.573 Y92.954
G1 Z0.200
G1 E0.80000 F2100.000
G1 F1200.000
G1 X147.511 Y94.016 E0.04709
G1 X147.970 Y94.624 E0.02387
G1 X148.703 Y93.890 E0.03252
G1 X148.968 Y94.692 E0.02647
G1 X148.385 Y95.276 E0.02588
G1 X148.752 Y95.975 E0.02476
G1 X149.233 Y95.494 E0.02132
G1 X149.498 Y96.296 E0.02647
G1 X149.065 Y96.728 E0.01918
G1 X149.320 Y97.540 E0.02668
G1 X149.761 Y97.099 E0.01956
G1 X149.854 Y97.435 E0.01095
G1 X150.485 Y97.441 E0.01978
G1 X149.508 Y98.419 E0.04334
G1 X149.633 Y99.360 E0.02978
G1 X151.542 Y97.451 E0.08465
G1 X152.598 Y97.461 E0.03313
G1 X145.694 Y104.366 E0.30617
G1 X146.227 Y104.899 E0.02365
G1 X153.655 Y97.471 E0.32938
G1 X154.712 Y97.481 E0.03313
G1 X146.640 Y105.553 E0.35790
G1 X145.040 Y103.953 F10800.000
G1 F1200.000
G1 X148.570 Y100.423 E0.15650
G1 X147.523 Y100.404 E0.03282
G1 X144.627 Y103.299 E0.12841
G1 X144.094 Y102.766 E0.02365
G1 X147.190 Y99.670 E0.13729
G1 X147.066 Y98.727 E0.02981
G1 X143.561 Y102.233 E0.15545
G1 X143.027 Y101.700 E0.02365
G1 X146.858 Y97.869 E0.16987
G1 X146.563 Y97.097 E0.02590
G1 X142.494 Y101.166 E0.18044
G1 X141.961 Y100.633 E0.02365
G1 X146.198 Y96.396 E0.18787
G1 X145.764 Y95.763 E0.02406
G1 X141.427 Y100.100 E0.19231
G1 X140.894 Y99.567 E0.02365
G1 X145.271 Y95.190 E0.19408
G1 X144.719 Y94.675 E0.02366
G1 X133.835 Y105.559 E0.48260
G1 X133.302 Y105.025 E0.02365
G1 X144.106 Y94.222 E0.47905
G1 X143.643 Y93.944 E0.01694
G1 X140.387 Y97.199 E0.14434
G1 X140.225 Y97.036 E0.00721
G1 X132.769 Y104.492 E0.33060
G1 X132.236 Y103.959 E0.02365
G1 X139.691 Y96.503 E0.33060
G1 X139.158 Y95.970 E0.02365
G1 X131.702 Y103.426 E0.33060
G1 X131.169 Y102.892 E0.02365
G1 X138.625 Y95.437 E0.33060
G1 X138.092 Y94.903 E0.02365
G1 X133.616 Y99.379 E0.19844
G1 X133.730 Y98.589 E0.02501
G1 X133.857 Y98.071 E0.01671
G1 X137.558 Y94.370 E0.16412
G1 X137.132 Y93.944 E0.01890
G1 X136.621 Y94.252 E0.01873
G1 X134.272 Y96.590 E0.10391
G1 X132.018 Y93.511 F10800.000
G1 F1200.000
G1 X132.727 Y92.802 E0.03145
G1 X133.261 Y93.335 E0.02365
G1 X131.759 Y94.837 E0.06659
G1 X131.233 Y96.430 E0.05259
G1 X132.395 Y95.267 E0.05153
G1 X132.036 Y95.946 E0.02406
G1 X131.852 Y96.360 E0.01422
G1 X131.561 Y97.168 E0.02692
G1 X128.503 Y100.226 E0.13559
G1 X129.036 Y100.759 E0.02365
G1 X131.244 Y98.551 E0.09792
G1 X131.101 Y99.761 E0.03819
G1 X129.569 Y101.293 E0.06792
G1 X130.103 Y101.826 E0.02365
G1 X131.498 Y100.430 E0.06189
G1 X132.575 Y100.420 E0.03376
G1 X130.516 Y102.479 E0.09130
G1 X127.850 Y99.813 F10800.000
G1 F1200.000
G1 X130.220 Y97.442 E0.10512
G1 X129.144 Y97.452 E0.03376
G1 X127.436 Y99.159 E0.07571
G1 X126.903 Y98.626 E0.02365
G1 X128.067 Y97.462 E0.05161
G1 X126.990 Y97.472 E0.03376
G1 X126.370 Y98.093 E0.02752
G1 X125.836 Y97.560 E0.02365
G1 X126.085 Y97.311 E0.01102
G1 E-0.80000 F2100.000
G1 Z0.800 F10800.000
G1 X139.470 Y92.042
G1 Z0.200
G1 E0.80000 F2100.000
;TYPE:Perimeter
G1 F1200.000
G1 X139.446 Y91.819 E0.00702
G1 X140.189 Y91.732 E0.02345
G1 X140.290 Y91.084 E0.02057
G1 X140.485 Y91.084 E0.00610
G1 X140.586 Y91.732 E0.02057
G1 X141.329 Y91.819 E0.02344
G1 X141.305 Y92.042 E0.00702
G1 X140.387 Y91.993 E0.02880
G1 X139.530 Y92.036 E0.02693
G1 X144.409 Y93.099 F10800.000
G1 F1200.000
G1 X143.763 Y92.754 E0.02297
G1 X143.052 Y92.459 E0.02412
G1 X142.247 Y92.199 E0.02653
G1 X142.303 Y91.991 E0.00675
G1 X143.251 Y92.270 E0.03098
G1 X143.924 Y92.572 E0.02313
G1 X144.516 Y92.902 E0.02127
G1 X144.437 Y93.046 E0.00515
G1 X145.285 Y93.706 F10800.000
G1 F1200.000
G1 X144.893 Y93.415 E0.01531
G1 X145.020 Y93.235 E0.00692
G1 X145.421 Y93.532 E0.01564
G1 X145.322 Y93.659 E0.00504
G1 X145.881 Y94.228 F10800.000
G1 F1200.000
G1 X145.497 Y93.880 E0.01626
G1 X145.641 Y93.712 E0.00692
G1 X145.846 Y93.881 E0.00831
G1 X146.033 Y94.068 E0.00830
G1 X145.922 Y94.184 E0.00504
G1 X147.121 Y95.776 F10800.000
G1 F1200.000
G1 X146.670 Y95.101 E0.02546
G1 X146.843 Y94.973 E0.00675
G1 X147.142 Y95.381 E0.01587
G1 X147.308 Y95.658 E0.01012
G1 X147.172 Y95.744 E0.00504
G1 X147.503 Y96.476 F10800.000
G1 F1200.000
G1 X147.190 Y95.890 E0.02084
G1 X147.382 Y95.781 E0.00692
G1 X147.555 Y96.071 E0.01060
G1 X147.700 Y96.377 E0.01060
G1 X147.556 Y96.449 E0.00504
G1 X147.812 Y97.212 F10800.000
G1 F1200.000
G1 X147.540 Y96.554 E0.02233
G1 X147.742 Y96.465 E0.00692
G1 X147.897 Y96.793 E0.01136
G1 X148.018 Y97.133 E0.01134
G1 X147.868 Y97.191 E0.00504
G1 X148.046 Y97.974 F10800.000
G1 F1200.000
G1 X147.826 Y97.249 E0.02376
G1 X148.035 Y97.180 E0.00692
G1 X148.165 Y97.544 E0.01211
G1 X148.258 Y97.916 E0.01202
G1 X148.104 Y97.958 E0.00504
G1 X148.265 Y99.307 F10800.000
G1 F1200.000
G1 X148.203 Y98.762 E0.01722
G1 X148.055 Y98.011 E0.02400
G1 X148.270 Y97.963 E0.00691
G1 X148.360 Y98.320 E0.01154
G1 X148.506 Y99.310 E0.03138
G1 X148.325 Y99.308 E0.00566
G1 E-0.80000 F2100.000
G1 Z0.800 F10800.000
G1 X136.366 Y93.099
G1 Z0.200
G1 E0.80000 F2100.000
G1 F1200.000
G1 X136.259 Y92.902 E0.00703
G1 X136.851 Y92.572 E0.02126
G1 X137.524 Y92.270 E0.02313
G1 X138.472 Y91.991 E0.03098
G1 X138.528 Y92.199 E0.00675
G1 X137.723 Y92.459 E0.02653
G1 X137.012 Y92.754 E0.02412
G1 X136.419 Y93.071 E0.02108
G1 X135.490 Y93.706 F10800.000
G1 F1200.000
G1 X135.354 Y93.532 E0.00692
G1 X135.754 Y93.235 E0.01564
G1 X135.882 Y93.415 E0.00692
G1 X135.538 Y93.670 E0.01343
G1 X134.894 Y94.228 F10800.000
G1 F1200.000
G1 X134.742 Y94.068 E0.00692
G1 X134.929 Y93.881 E0.00830
G1 X135.134 Y93.712 E0.00831
G1 X135.278 Y93.880 E0.00692
G1 X134.938 Y94.187 E0.01437
G1 X133.654 Y95.776 F10800.000
G1 F1200.000
G1 X133.467 Y95.658 E0.00692
G1 X133.633 Y95.381 E0.01012
G1 X133.932 Y94.973 E0.01587
G1 X134.105 Y95.101 E0.00675
G1 X133.687 Y95.726 E0.02358
G1 X133.272 Y96.476 F10800.000
G1 F1200.000
G1 X133.075 Y96.377 E0.00692
G1 X133.219 Y96.071 E0.01060
G1 X133.393 Y95.781 E0.01060
G1 X133.585 Y95.890 E0.00692
G1 X133.300 Y96.424 E0.01896
G1 X132.962 Y97.212 F10800.000
G1 F1200.000
G1 X132.756 Y97.133 E0.00692
G1 X132.878 Y96.793 E0.01134
G1 X133.033 Y96.465 E0.01136
G1 X133.235 Y96.554 E0.00692
G1 X132.985 Y97.157 E0.02045
G1 X132.729 Y97.974 F10800.000
G1 F1200.000
G1 X132.516 Y97.916 E0.00692
G1 X132.610 Y97.544 E0.01202
G1 X132.740 Y97.180 E0.01211
G1 X132.949 Y97.249 E0.00692
G1 X132.746 Y97.917 E0.02188
G1 X132.510 Y99.307 F10800.000
G1 F1200.000
G1 X132.269 Y99.310 E0.00754
G1 X132.415 Y98.320 E0.03138
G1 X132.505 Y97.963 E0.01154
G1 X132.720 Y98.011 E0.00691
G1 X132.572 Y98.762 E0.02400
G1 X132.517 Y99.248 E0.01534
G1 X132.847 Y99.681 F10800.000
;TYPE:External perimeter
G1 F1200.000
G1 X131.849 Y99.691 E0.03127
G1 X131.915 Y99.076 E0.01938
G1 X132.045 Y98.244 E0.02639
G1 X132.248 Y97.434 E0.02620
G1 X132.529 Y96.648 E0.02617
G1 X132.886 Y95.894 E0.02617
G1 X133.317 Y95.175 E0.02625
G1 X133.554 Y94.838 E0.01293
G1 X134.085 Y94.191 E0.02625
G1 X134.676 Y93.601 E0.02617
G1 X135.321 Y93.071 E0.02617
G1 X136.014 Y92.607 E0.02615
G1 X136.681 Y92.234 E0.02398
G1 X137.391 Y91.916 E0.02439
G1 X138.263 Y91.650 E0.02857
G1 X138.973 Y91.496 E0.02279
G1 X139.860 Y91.391 E0.02802
G1 X139.967 Y90.707 E0.02172
G1 X140.033 Y90.707 E0.00206
G1 X140.162 Y89.913 E0.02520
G1 X140.206 Y89.411 E0.01579
G1 X140.239 Y88.501 E0.02858
G1 X140.221 Y80.392 E0.25425
G1 X140.243 Y76.990 E0.10666
G1 X140.529 Y76.990 E0.00896
G1 X140.498 Y80.400 E0.10691
G1 X140.535 Y88.501 E0.25402
G1 X140.569 Y89.415 E0.02866
G1 X140.683 Y90.361 E0.02990
G1 X140.785 Y90.562 E0.00705
G1 X140.914 Y91.391 E0.02631
G1 X141.802 Y91.496 E0.02802
G1 X142.512 Y91.650 E0.02279
G1 X143.384 Y91.916 E0.02857
G1 X144.094 Y92.234 E0.02439
G1 X144.761 Y92.607 E0.02398
G1 X145.454 Y93.071 E0.02615
G1 X146.099 Y93.601 E0.02617
G1 X146.689 Y94.191 E0.02617
G1 X147.221 Y94.838 E0.02625
G1 X147.458 Y95.175 E0.01293
G1 X147.888 Y95.894 E0.02625
G1 X148.245 Y96.648 E0.02617
G1 X148.527 Y97.434 E0.02617
G1 X148.730 Y98.244 E0.02620
G1 X148.860 Y99.076 E0.02639
G1 X148.925 Y99.691 E0.01938
G1 X147.928 Y99.681 E0.03127
G1 X147.830 Y98.820 E0.02719
G1 X147.686 Y98.086 E0.02344
G1 X147.464 Y97.357 E0.02389
G1 X147.182 Y96.676 E0.02312
G1 X146.834 Y96.025 E0.02313
G1 X146.424 Y95.412 E0.02313
G1 X145.958 Y94.844 E0.02305
G1 X145.700 Y94.573 E0.01173
G1 X145.156 Y94.079 E0.02305
G1 X144.565 Y93.642 E0.02305
G1 X144.249 Y93.441 E0.01173
G1 X143.601 Y93.095 E0.02304
G1 X142.922 Y92.813 E0.02307
G1 X141.880 Y92.476 E0.03432
G1 X141.071 Y92.398 E0.02547
G1 X140.387 Y92.370 E0.02147
G1 X139.703 Y92.398 E0.02147
G1 X138.895 Y92.476 E0.02547
G1 X137.853 Y92.813 E0.03432
G1 X137.174 Y93.095 E0.02307
G1 X136.526 Y93.441 E0.02304
G1 X136.209 Y93.642 E0.01173
G1 X135.619 Y94.079 E0.02305
G1 X135.074 Y94.573 E0.02305
G1 X134.817 Y94.844 E0.01173
G1 X134.350 Y95.412 E0.02305
G1 X133.940 Y96.025 E0.02313
G1 X133.593 Y96.676 E0.02313
G1 X133.311 Y97.357 E0.02312
G1 X133.089 Y98.086 E0.02389
G1 X132.945 Y98.820 E0.02344
G1 X132.853 Y99.622 E0.02531
G1 X132.509 Y99.466 F10800.000
G1 E-0.80000 F2100.000
G1 Z0.800 F10800.000
G1 X136.220 Y93.412
G1 Z0.200
G1 E0.80000 F2100.000
;TYPE:Gap fill
;WIDTH:0.276948
G1 F1200.000
G1 X135.905 Y92.907 E0.01158
G1 E-0.80000 F2100.000
G1 Z0.800 F10800.000
G1 X140.392 Y89.710
G1 Z0.200
G1 E0.80000 F2100.000
;WIDTH:0.137168
G1 F1200.000
G1 X140.395 Y89.944 E0.00184
;WIDTH:0.182623
G1 X140.392 Y90.106 E0.00189
;WIDTH:0.228077
G1 X140.389 Y90.269 E0.00250
;WIDTH:0.273531
G1 X140.386 Y90.431 E0.00311
;WIDTH:0.292993
G1 X140.418 Y90.895 E0.00967
G1 X144.555 Y93.412 F10800.000
;WIDTH:0.276825
G1 F1200.000
G1 X144.870 Y92.907 E0.01157
G1 E-0.80000 F2100.000
G1 Z0.800 F10800.000
G1 X132.368 Y79.372
G1 Z0.200
G1 E0.80000 F2100.000
;TYPE:Support material
;WIDTH:0.42
G1 F1200.000
G1 X132.616 Y79.123 E0.01102
G1 X132.083 Y78.590 E0.02365
G1 X131.462 Y79.210 E0.02752
G1 X130.386 Y79.221 E0.03376
G1 X131.550 Y78.057 E0.05161
G1 X131.016 Y77.523 E0.02365
G1 X129.309 Y79.231 E0.07571
G1 X128.232 Y79.241 E0.03376
G1 X130.483 Y76.990 E0.09980
G1 X129.950 Y76.457 E0.02365
G1 X126.892 Y79.515 E0.13560
G1 X127.031 Y79.019 E0.01614
G1 X127.208 Y78.132 E0.02837
G1 X129.416 Y75.923 E0.09792
G1 X128.883 Y75.390 E0.02365
G1 X127.351 Y76.922 E0.06793
G1 X127.384 Y76.599 E0.01019
G1 X127.067 Y76.252 E0.01474
G1 X126.954 Y76.253 E0.00354
G1 X128.350 Y74.857 E0.06189
G1 X127.817 Y74.324 E0.02365
G1 X125.877 Y76.263 E0.08599
G1 X125.212 Y76.269 E0.02087
G1 X124.914 Y76.541 E0.01263
G1 X124.836 Y77.304 E0.02405
