; generated by PrusaSlicer 2.3.1+win64 on 2021-09-08 at 21:39:48 UTC

; 

; external perimeters extrusion width = 0.45mm
; perimeters extrusion width = 0.45mm
; infill extrusion width = 0.45mm
; solid infill extrusion width = 0.45mm
; top infill extrusion width = 0.40mm
; support material extrusion width = 0.35mm
; first layer extrusion width = 0.42mm

M73 P0 R121
M201 X9000 Y9000 Z500 E10000 ; sets maximum accelerations, mm/sec^2
M203 X500 Y500 Z12 E120 ; sets maximum feedrates, mm/sec
M204 P2000 R1500 T2000 ; sets acceleration (P, T) and retract acceleration (R), mm/sec^2
M205 X10.00 Y10.00 Z0.20 E2.50 ; sets the jerk limits, mm/sec
M205 S0 T0 ; sets the minimum extruding and travel feed rate, mm/sec
M107
;TYPE:Custom
M862.3 P "MK2S" ; printer model check
M862.1 P0.4 ; nozzle diameter check
M115 U3.2.3 ; tell printer latest fw version
G90 ; use absolute coordinates
M83 ; extruder relative mode
M204 S2000 T1500 ; MK2 firmware only supports the old M204 format
M104 S215 ; set extruder temp
M140 S60 ; set bed temp
M190 S60 ; wait for bed temp
M109 S215 ; wait for extruder temp
G28 W ; home all without mesh bed level
G80 ; mesh bed leveling
G1 Y-3.0 F1000.0 ; go outside print area
G92 E0.0
G1 X60.0 E9.0  F1000.0 ; intro line
G1 X100.0 E12.5 F1000.0 ; intro line
G92 E0.0
G21 ; set units to millimeters
G90 ; use absolute coordinates
M83 ; use relative distances for extrusion
M900 K30 ; Filament gcode
;LAYER_CHANGE
;Z:0.2
;HEIGHT:0.2
;BEFORE_LAYER_CHANGE
G92 E0.0
;0.2


G1 E-0.80000 F2100.000
G1 Z0.600 F10800.000
;AFTER_LAYER_CHANGE
;0.2
G1 X167.604 Y142.024
G1 Z0.200
G1 E0.80000 F2100.000
M204 S1000
;TYPE:External perimeter
;WIDTH:0.42
G1 F1200.000
G1 X177.091 Y142.024 E0.29746
G1 X177.091 Y151.332 E0.29185
G1 X158.117 Y151.332 E0.59492
G1 X158.117 Y142.024 E0.29185
G1 X167.544 Y142.024 E0.29558
G1 X167.709 Y141.638 F10800.000
G1 E-0.80000 F2100.000
G1 Z0.800 F10800.000
G1 X167.604 Y152.104
G1 Z0.200
G1 E0.80000 F2100.000
G1 F1200.000
G1 X157.200 Y152.104 E0.32621
G1 X157.200 Y141.251 E0.34029
G1 X178.008 Y141.251 E0.65242
G1 X178.008 Y152.104 E0.34029
G1 X167.664 Y152.104 E0.32433
G1 X167.319 Y151.824 F10800.000
G1 X167.604 Y151.718
;TYPE:Gap fill
;WIDTH:0.438234
G1 F1200.000
G1 X157.929 Y151.718 E0.31804
;WIDTH:0.480314
G1 X157.864 Y151.697 E0.00247
;WIDTH:0.522394
G1 X157.800 Y151.676 E0.00270
;WIDTH:0.564474
G1 X157.735 Y151.655 E0.00294
;WIDTH:0.582688
G1 X157.671 Y151.634 E0.00304
G1 X157.659 Y151.521 E0.00512
G1 X157.659 Y141.835 E0.43469
;WIDTH:0.606553
G1 X157.671 Y141.722 E0.00535
;WIDTH:0.564475
G1 X157.800 Y141.680 E0.00588
;WIDTH:0.438233
M73 P0 R120
G1 X157.928 Y141.638 E0.00446
G1 X177.280 Y141.638 E0.63609
;WIDTH:0.480312
G1 X177.344 Y141.659 E0.00247
;WIDTH:0.522392
G1 X177.409 Y141.680 E0.00270
;WIDTH:0.564473
G1 X177.538 Y141.722 E0.00588
G1 X177.550 Y141.835 E0.00495
G1 X177.550 Y151.521 E0.42002
G1 X177.538 Y151.634 E0.00495
G1 X177.409 Y151.676 E0.00588
;WIDTH:0.438234
G1 X177.280 Y151.718 E0.00446
G1 X167.664 Y151.718 E0.31607
G1 E-0.80000 F2100.000
G1 Z0.800 F10800.000
G1 X163.762 Y132.023
G1 Z0.200
G1 E0.80000 F2100.000
;TYPE:External perimeter
;WIDTH:0.42
G1 F1200.000
G1 X156.993 Y131.801 E0.21236
G1 X157.423 Y118.443 E0.41907
G1 X164.208 Y118.666 E0.21285
G1 X163.764 Y131.963 E0.41716
G1 X163.812 Y132.420 F10800.000
G1 X164.372 Y132.768
G1 F1200.000
G1 X156.336 Y132.505 E0.25208
G1 X156.813 Y117.697 E0.46456
G1 X164.866 Y117.961 E0.25263
G1 X164.374 Y132.708 E0.46266
G1 X164.002 Y132.616 F10800.000
G1 X164.014 Y132.386
;TYPE:Gap fill
;WIDTH:0.33544
G1 F1200.000
G1 X156.793 Y132.158 E0.17572
G1 X156.718 Y132.147 E0.00183
G1 X156.670 Y131.980 E0.00424
;WIDTH:0.299721
G1 X157.112 Y118.244 E0.29345
;WIDTH:0.335692
G1 X157.132 Y118.189 E0.00142
;WIDTH:0.371662
G1 X157.152 Y118.134 E0.00159
;WIDTH:0.391738
G1 X157.171 Y118.080 E0.00169
G1 X157.246 Y118.074 E0.00217
G1 X164.408 Y118.309 E0.20784
;WIDTH:0.407636
G1 X164.482 Y118.319 E0.00227
G1 X164.499 Y118.375 E0.00177
;WIDTH:0.299657
G1 X164.531 Y118.488 E0.00249
G1 X164.073 Y132.222 E0.29336
;WIDTH:0.33544
G1 X164.034 Y132.329 E0.00278
G1 E-0.80000 F2100.000
G1 Z0.800 F10800.000
G1 X175.003 Y131.816
G1 Z0.200
G1 E0.80000 F2100.000
;TYPE:External perimeter
;WIDTH:0.42
G1 F1200.000
G1 X175.449 Y118.459 E0.41904
G1 X182.218 Y118.680 E0.21236
G1 X181.788 Y132.039 E0.41907
G1 X175.063 Y131.818 E0.21097
G1 X174.625 Y131.947 F10800.000
G1 X174.345 Y132.521
G1 F1200.000
G1 X174.839 Y117.713 E0.46454
G1 X182.875 Y117.976 E0.25208
G1 X182.398 Y132.785 E0.46456
G1 X174.405 Y132.523 E0.25075
G1 X174.424 Y132.129 F10800.000
G1 X174.803 Y132.173
;TYPE:Gap fill
;WIDTH:0.335644
G1 F1200.000
G1 X174.728 Y132.162 E0.00182
G1 X174.680 Y131.994 E0.00426
;WIDTH:0.299626
G1 X175.138 Y118.260 E0.29332
;WIDTH:0.335408
G1 X175.158 Y118.205 E0.00141
;WIDTH:0.371194
G1 X175.178 Y118.150 E0.00159
;WIDTH:0.391005
G1 X175.197 Y118.096 E0.00168
G1 X175.272 Y118.090 E0.00217
G1 X182.418 Y118.324 E0.20694
;WIDTH:0.406967
G1 X182.492 Y118.334 E0.00227
G1 X182.509 Y118.390 E0.00176
;WIDTH:0.299705
G1 X182.541 Y118.502 E0.00248
G1 X182.099 Y132.237 E0.29343
;WIDTH:0.335644
G1 X182.040 Y132.402 E0.00426
G1 X181.965 Y132.408 E0.00182
G1 X174.863 Y132.175 E0.17296
G1 E-0.80000 F2100.000
G1 Z0.800 F10800.000
G1 X114.350 Y117.316
G1 Z0.200
G1 E0.80000 F2100.000
;TYPE:Support material
;WIDTH:0.42
G1 F1200.000
G1 X114.350 Y101.988 E0.48059
G1 X113.596 Y101.988 E0.02365
G1 X113.596 Y117.147 E0.47527
G1 X112.842 Y117.147 E0.02365
G1 X112.842 Y101.988 E0.47527
G1 X112.170 Y101.988 E0.02107
G1 X112.170 Y99.681 E0.07234
G1 X112.088 Y99.681 E0.00257
G1 X112.088 Y119.454 E0.61995
G1 X111.334 Y119.454 E0.02365
G1 X111.334 Y99.681 E0.61995
G1 X110.580 Y99.681 E0.02365
G1 X110.580 Y119.454 E0.61995
G1 X109.825 Y119.454 E0.02365
G1 X109.825 Y99.681 E0.61995
G1 X109.071 Y99.681 E0.02365
G1 X109.071 Y119.454 E0.61995
G1 X108.317 Y119.454 E0.02365
G1 X108.317 Y109.726 E0.30500
G1 X107.979 Y110.359 E0.02248
G1 X107.563 Y110.874 E0.02076
G1 X107.563 Y137.910 E0.84772
G1 X108.317 Y137.910 E0.02365
G1 X108.317 Y122.752 E0.47527
G1 X109.071 Y122.752 E0.02365
G1 X109.071 Y137.910 E0.47527
G1 X109.825 Y137.910 E0.02365
G1 X109.825 Y122.752 E0.47527
G1 X109.863 Y122.752 E0.00118
G1 X109.863 Y125.059 E0.07234
G1 X110.580 Y125.059 E0.02247
G1 X110.580 Y137.910 E0.40294
G1 X111.334 Y137.910 E0.02365
G1 X111.334 Y125.059 E0.40294
G1 X112.088 Y125.059 E0.02365
G1 X112.088 Y138.080 E0.40826
G1 X106.809 Y138.080 F10800.000
G1 F1200.000
G1 X106.809 Y111.670 E0.82807
G1 X106.055 Y112.281 E0.03044
G1 X106.055 Y137.910 E0.80358
G1 X105.300 Y137.910 E0.02365
G1 X105.300 Y112.684 E0.79094
G1 X104.922 Y112.887 E0.01344
G1 X104.546 Y113.006 E0.01237
G1 X104.546 Y137.910 E0.78086
G1 X103.792 Y137.910 E0.02365
G1 X103.792 Y113.235 E0.77369
G1 X103.591 Y113.290 E0.00653
G1 X103.038 Y113.345 E0.01744
G1 X103.038 Y137.910 E0.77023
G1 X102.284 Y137.910 E0.02365
G1 X102.284 Y113.417 E0.76799
G1 X101.530 Y113.345 E0.02375
G1 X101.530 Y137.910 E0.77023
G1 X100.775 Y137.910 E0.02365
G1 X100.776 Y113.235 E0.77369
G1 X100.021 Y113.006 E0.02471
G1 X100.021 Y137.910 E0.78086
G1 X99.267 Y137.910 E0.02365
G1 X99.267 Y112.684 E0.79094
G1 X98.513 Y112.281 E0.02681
G1 X98.513 Y137.910 E0.80358
G1 X97.759 Y137.910 E0.02365
G1 X97.759 Y111.670 E0.82275
G1 X97.434 Y111.397 E0.01329
G1 X97.005 Y110.874 E0.02123
G1 X97.005 Y137.910 E0.84772
G1 X96.251 Y137.910 E0.02365
G1 X96.251 Y122.752 E0.47527
G1 X95.496 Y122.752 E0.02365
G1 X95.496 Y137.910 E0.47527
G1 X94.742 Y137.910 E0.02365
G1 X94.742 Y122.752 E0.47527
G1 X94.705 Y122.752 E0.00118
G1 X94.705 Y125.059 E0.07234
G1 X93.988 Y125.059 E0.02247
G1 X93.988 Y137.910 E0.40294
G1 X93.234 Y137.910 E0.02365
G1 X93.234 Y125.059 E0.40294
G1 X92.480 Y125.059 E0.02365
G1 X92.480 Y138.080 E0.40826
G1 E-0.80000 F2100.000
G1 Z0.800 F10800.000
G1 X94.742 Y119.623
G1 Z0.200
G1 E0.80000 F2100.000
G1 F1200.000
G1 X94.742 Y99.681 E0.62527
G1 X93.988 Y99.681 E0.02365
G1 X93.988 Y119.454 E0.61995
G1 X93.234 Y119.454 E0.02365
G1 X93.234 Y99.681 E0.61995
M73 P1 R120
G1 X92.480 Y99.681 E0.02365
G1 X92.480 Y119.454 E0.61995
G1 X92.398 Y119.454 E0.00257
G1 X92.398 Y117.147 E0.07234
G1 X91.726 Y117.147 E0.02107
G1 X91.726 Y101.988 E0.47527
G1 X90.971 Y101.988 E0.02365
G1 X90.971 Y117.147 E0.47527
M73 P1 R119
G1 X90.217 Y117.147 E0.02365
G1 X90.217 Y101.819 E0.48059
G1 X96.251 Y109.366 F10800.000
G1 F1200.000
G1 X96.251 Y119.454 E0.31629
G1 X95.496 Y119.454 E0.02365
G1 X95.496 Y99.681 E0.61995
G1 X96.251 Y99.681 E0.02365
G1 X96.251 Y103.442 E0.11792
G1 X96.589 Y102.810 E0.02248
G1 X97.005 Y102.295 E0.02076
G1 X97.005 Y99.681 E0.08194
G1 X97.759 Y99.681 E0.02365
G1 X97.759 Y101.498 E0.05697
G1 X98.113 Y101.208 E0.01436
G1 X97.884 Y100.779 E0.01523
G1 X98.010 Y100.362 E0.01366
G1 X98.513 Y100.094 E0.01787
G1 X98.513 Y99.681 E0.01293
G1 X99.267 Y99.681 E0.02365
G1 X99.267 Y99.883 E0.00632
G1 X100.021 Y99.512 F10800.000
G1 F1200.000
G1 X100.021 Y99.924 E0.01293
G1 X100.131 Y100.129 E0.00729
G1 X100.776 Y99.934 E0.02112
G1 X100.776 Y99.681 E0.00791
G1 X101.530 Y99.681 E0.02365
G1 X101.530 Y99.823 E0.00446
G1 X102.284 Y99.752 E0.02375
G1 X102.284 Y99.681 E0.00221
G1 X103.038 Y99.681 E0.02365
G1 X103.038 Y99.823 E0.00446
G1 X103.591 Y99.878 E0.01744
G1 X103.792 Y99.934 E0.00653
G1 X103.792 Y99.681 E0.00791
G1 X104.546 Y99.681 E0.02365
G1 X104.546 Y100.284 E0.01890
G1 X105.300 Y99.512 F10800.000
G1 F1200.000
G1 X105.300 Y99.691 E0.00561
G1 X106.055 Y100.094 E0.02681
G1 X106.055 Y99.681 E0.01293
G1 X106.809 Y99.681 E0.02365
G1 X106.809 Y101.498 E0.05697
G1 X107.133 Y101.771 E0.01330
G1 X107.563 Y102.295 E0.02123
G1 X107.563 Y99.681 E0.08194
G1 X108.317 Y99.681 E0.02365
G1 X108.317 Y103.802 E0.12920
G1 E-0.80000 F2100.000
G1 Z0.800 F10800.000
G1 X102.284 Y108.704
G1 Z0.200
G1 E0.80000 F2100.000
;TYPE:Perimeter
G1 F1200.000
G1 X101.870 Y108.663 E0.01303
G1 X101.473 Y108.542 E0.01303
G1 X101.106 Y108.347 E0.01303
G1 X100.785 Y108.083 E0.01303
G1 X100.521 Y107.762 E0.01303
G1 X100.326 Y107.395 E0.01303
G1 X100.205 Y106.998 E0.01303
G1 X100.164 Y106.584 E0.01303
G1 X100.205 Y106.171 E0.01303
G1 X100.326 Y105.773 E0.01303
G1 X100.521 Y105.407 E0.01303
G1 X100.785 Y105.085 E0.01303
G1 X101.106 Y104.822 E0.01303
G1 X101.473 Y104.626 E0.01303
G1 X101.870 Y104.505 E0.01303
G1 X102.257 Y104.467 E0.01220
G1 X102.693 Y104.504 E0.01372
G1 X103.095 Y104.626 E0.01315
G1 X103.461 Y104.822 E0.01303
G1 X103.783 Y105.085 E0.01303
G1 X104.046 Y105.407 E0.01303
G1 X104.242 Y105.773 E0.01303
G1 X104.363 Y106.171 E0.01303
G1 X104.403 Y106.584 E0.01303
G1 X104.363 Y106.998 E0.01303
G1 X104.242 Y107.395 E0.01303
G1 X104.046 Y107.762 E0.01303
G1 X103.783 Y108.083 E0.01303
G1 X103.461 Y108.347 E0.01303
G1 X103.095 Y108.542 E0.01303
G1 X102.697 Y108.663 E0.01303
G1 X102.344 Y108.698 E0.01115
G1 X102.284 Y108.325 F10800.000
;TYPE:External perimeter
G1 F1200.000
G1 X101.944 Y108.291 E0.01070
G1 X101.618 Y108.192 E0.01070
G1 X101.317 Y108.032 E0.01070
G1 X101.053 Y107.815 E0.01070
G1 X100.836 Y107.551 E0.01070
G1 X100.676 Y107.250 E0.01070
G1 X100.577 Y106.924 E0.01070
G1 X100.543 Y106.584 E0.01070
G1 X100.577 Y106.245 E0.01070
G1 X100.676 Y105.918 E0.01070
G1 X100.836 Y105.617 E0.01070
G1 X101.053 Y105.353 E0.01070
G1 X101.317 Y105.137 E0.01070
G1 X101.618 Y104.976 E0.01070
G1 X101.944 Y104.877 E0.01070
G1 X102.260 Y104.846 E0.00995
G1 X102.622 Y104.876 E0.01139
G1 X102.950 Y104.976 E0.01074
G1 X103.251 Y105.137 E0.01070
G1 X103.515 Y105.353 E0.01070
G1 X103.731 Y105.617 E0.01070
G1 X103.892 Y105.918 E0.01070
G1 X103.991 Y106.245 E0.01070
G1 X104.025 Y106.584 E0.01070
G1 X103.991 Y106.924 E0.01070
G1 X103.892 Y107.250 E0.01070
G1 X103.731 Y107.551 E0.01070
G1 X103.515 Y107.815 E0.01070
G1 X103.251 Y108.032 E0.01070
G1 X102.950 Y108.192 E0.01070
G1 X102.623 Y108.291 E0.01070
G1 X102.344 Y108.319 E0.00882
G1 X102.113 Y108.620 F10800.000
G1 X102.284 Y112.301
;TYPE:Perimeter
G1 F1200.000
G1 X101.169 Y112.191 E0.03514
G1 X100.096 Y111.865 E0.03514
G1 X99.108 Y111.337 E0.03514
G1 X98.242 Y110.626 E0.03514
G1 X97.531 Y109.760 E0.03514
G1 X97.003 Y108.772 E0.03514
G1 X96.677 Y107.699 E0.03514
G1 X96.567 Y106.584 E0.03514
G1 X96.677 Y105.469 E0.03514
G1 X97.003 Y104.397 E0.03514
G1 X97.531 Y103.408 E0.03514
G1 X98.227 Y102.560 E0.03441
G1 X99.545 Y101.470 E0.05362
G1 X101.169 Y100.978 E0.05321
G1 X102.284 Y100.868 E0.03514
G1 X103.399 Y100.978 E0.03514
G1 X105.018 Y101.469 E0.05305
G1 X106.326 Y102.542 E0.05305
G1 X107.037 Y103.408 E0.03514
G1 X107.565 Y104.397 E0.03514
G1 X107.890 Y105.469 E0.03514
G1 X108.000 Y106.584 E0.03514
G1 X107.890 Y107.699 E0.03514
G1 X107.565 Y108.772 E0.03514
G1 X107.037 Y109.760 E0.03514
G1 X106.326 Y110.626 E0.03514
G1 X105.460 Y111.337 E0.03514
G1 X104.471 Y111.865 E0.03514
G1 X103.399 Y112.191 E0.03514
G1 X102.344 Y112.295 E0.03325
G1 X102.284 Y112.679 F10800.000
;TYPE:External perimeter
G1 F1200.000
G1 X101.095 Y112.562 E0.03747
G1 X99.951 Y112.215 E0.03746
G1 X98.897 Y111.652 E0.03747
G1 X97.974 Y110.894 E0.03747
G1 X97.216 Y109.971 E0.03746
G1 X96.652 Y108.917 E0.03747
G1 X96.306 Y107.773 E0.03747
G1 X96.188 Y106.584 E0.03746
G1 X96.306 Y105.395 E0.03747
G1 X96.652 Y104.252 E0.03747
G1 X97.216 Y103.198 E0.03746
G1 X97.959 Y102.293 E0.03671
G1 X99.046 Y101.393 E0.04426
G1 X98.735 Y100.810 E0.02073
G1 X99.454 Y100.425 E0.02559
G1 X99.767 Y101.009 E0.02076
G1 X101.095 Y100.606 E0.04352
G1 X102.284 Y100.489 E0.03747
G1 X103.473 Y100.606 E0.03747
G1 X104.801 Y101.009 E0.04352
G1 X105.113 Y100.425 E0.02076
G1 X105.833 Y100.810 E0.02559
G1 X105.521 Y101.394 E0.02076
G1 X106.594 Y102.274 E0.04352
G1 X107.352 Y103.198 E0.03747
G1 X107.915 Y104.252 E0.03746
G1 X108.262 Y105.395 E0.03747
G1 X108.379 Y106.584 E0.03747
G1 X108.262 Y107.773 E0.03746
G1 X107.915 Y108.917 E0.03747
G1 X107.352 Y109.971 E0.03747
G1 X106.594 Y110.894 E0.03746
G1 X105.670 Y111.652 E0.03747
G1 X104.616 Y112.215 E0.03747
G1 X103.473 Y112.562 E0.03747
G1 X102.344 Y112.674 E0.03558
G1 X102.084 Y112.333 F10800.000
G1 X104.230 Y111.820
;TYPE:Solid infill
;WIDTH:0.430623
G1 F1200.000
G1 X97.184 Y104.774 E0.32126
G1 X97.056 Y105.194 E0.01417
G1 X103.674 Y111.812 E0.30170
G1 X103.344 Y111.912 E0.01111
G1 X103.236 Y111.923 E0.00349
G1 X96.945 Y105.632 E0.28679
G1 X96.896 Y106.131 E0.01617
G1 X102.737 Y111.972 E0.26628
G1 X102.228 Y112.011 E0.01646
G1 X96.857 Y106.640 E0.24484
G1 X96.917 Y107.249 E0.01970
G1 X101.619 Y111.951 E0.21438
G1 X101.224 Y111.912 E0.01281
G1 X100.949 Y111.828 E0.00928
G1 X97.040 Y107.919 E0.17822
G1 X97.265 Y108.663 E0.02505
G1 X97.300 Y108.728 E0.00238
G1 X100.140 Y111.568 E0.12948
G1 X99.266 Y111.101 E0.03195
G1 X98.477 Y110.454 E0.03289
G1 X97.516 Y109.493 E0.04381
G1 E-0.80000 F2100.000
G1 Z0.800 F10800.000
G1 X107.359 Y108.918
G1 Z0.200
G1 E0.80000 F2100.000
G1 F1200.000
G1 X104.651 Y106.210 E0.12346
G1 X104.688 Y106.584 E0.01213
G1 X104.669 Y106.776 E0.00621
G1 X107.042 Y109.150 E0.10822
G1 X106.851 Y109.507 E0.01306
G1 X104.585 Y107.240 E0.10334
G1 X104.505 Y107.504 E0.00889
G1 X104.433 Y107.637 E0.00487
G1 X106.619 Y109.823 E0.09965
G1 X106.372 Y110.124 E0.01256
G1 X104.231 Y107.983 E0.09763
G1 X103.984 Y108.284 E0.01256
G1 X106.125 Y110.425 E0.09763
G1 X105.824 Y110.672 E0.01256
G1 X103.682 Y108.531 E0.09763
G1 X103.619 Y108.583 E0.00263
G1 X103.337 Y108.734 E0.01032
G1 X105.523 Y110.920 E0.09965
G1 X105.302 Y111.101 E0.00921
G1 X105.207 Y111.152 E0.00348
G1 X102.940 Y108.885 E0.10335
G1 X102.753 Y108.942 E0.00630
G1 X102.476 Y108.969 E0.00898
G1 X104.849 Y111.343 E0.10822
G1 X104.492 Y111.534 E0.01306
G1 X101.682 Y108.724 E0.12809
G1 X100.144 Y107.186 F10800.000
G1 F1200.000
G1 X97.334 Y104.376 E0.12809
G1 X97.525 Y104.019 E0.01306
G1 X99.899 Y106.392 E0.10822
G1 X99.926 Y106.115 E0.00898
G1 X99.983 Y105.928 E0.00630
G1 X97.716 Y103.661 E0.10335
G1 X97.767 Y103.566 E0.00348
G1 X97.948 Y103.345 E0.00921
G1 X100.134 Y105.531 E0.09965
G1 X100.285 Y105.249 E0.01033
G1 X100.337 Y105.186 E0.00263
G1 X98.195 Y103.044 E0.09763
G1 X98.446 Y102.746 E0.01255
G1 X100.584 Y104.884 E0.09749
G1 X100.885 Y104.637 E0.01256
