; generated by PrusaSlicer 2.3.1+win64 on 2021-09-07 at 23:16:03 UTC

; 

; external perimeters extrusion width = 0.45mm
; perimeters extrusion width = 0.45mm
; infill extrusion width = 0.45mm
; solid infill extrusion width = 0.45mm
; top infill extrusion width = 0.40mm
; first layer extrusion width = 0.42mm

M73 P0 R103
M201 X9000 Y9000 Z500 E10000 ; sets maximum accelerations, mm/sec^2
M203 X500 Y500 Z12 E120 ; sets maximum feedrates, mm/sec
M204 P2000 R1500 T2000 ; sets acceleration (P, T) and retract acceleration (R), mm/sec^2
M205 X10.00 Y10.00 Z0.20 E2.50 ; sets the jerk limits, mm/sec
M205 S0 T0 ; sets the minimum extruding and travel feed rate, mm/sec
M107
;TYPE:Custom
M862.3 P "MK2S" ; printer model check
M862.1 P0.4 ; nozzle diameter check
M115 U3.2.3 ; tell printer latest fw version
G90 ; use absolute coordinates
M83 ; extruder relative mode
M204 S2000 T1500 ; MK2 firmware only supports the old M204 format
M104 S215 ; set extruder temp
M140 S60 ; set bed temp
M190 S60 ; wait for bed temp
M109 S215 ; wait for extruder temp
G28 W ; home all without mesh bed level
G80 ; mesh bed leveling
G1 Y-3.0 F1000.0 ; go outside print area
G92 E0.0
G1 X60.0 E9.0  F1000.0 ; intro line
G1 X100.0 E12.5 F1000.0 ; intro line
G92 E0.0
G21 ; set units to millimeters
G90 ; use absolute coordinates
M83 ; use relative distances for extrusion
M900 K30 ; Filament gcode
;LAYER_CHANGE
;Z:0.2
;HEIGHT:0.2
;BEFORE_LAYER_CHANGE
G92 E0.0
;0.2


G1 E-0.80000 F2100.000
G1 Z0.600 F10800.000
;AFTER_LAYER_CHANGE
;0.2
G1 X163.737 Y172.919
G1 Z0.200
G1 E0.80000 F2100.000
M204 S1000
;TYPE:Skirt
;WIDTH:0.42
G1 F1200.000
G1 X83.622 Y172.957 E2.51195
G1 X82.702 Y172.771 E0.02942
G1 X82.177 Y172.465 E0.01906
G1 X81.749 Y172.039 E0.01894
G1 X62.463 Y147.156 E0.98709
G1 X62.192 Y146.707 E0.01645
G1 X62.028 Y146.212 E0.01633
G1 X57.804 Y62.939 E2.61435
G1 X57.966 Y61.160 E0.05600
G1 X58.468 Y59.506 E0.05420
G1 X59.391 Y57.847 E0.05952
G1 X60.347 Y56.700 E0.04682
G1 X61.506 Y55.735 E0.04729
G1 X84.821 Y38.091 E0.91675
G1 X86.237 Y37.306 E0.05078
G1 X86.694 Y37.128 E0.01538
G1 X87.319 Y37.043 E0.01977
G1 X139.997 Y37.043 E1.65167
G1 X192.760 Y41.304 E1.65974
M73 P0 R102
G1 X193.352 Y41.443 E0.01906
G1 X193.889 Y41.727 E0.01906
G1 X194.337 Y42.138 E0.01906
G1 X194.666 Y42.649 E0.01906
G1 X194.837 Y43.145 E0.01645
G1 X194.896 Y43.669 E0.01653
G1 X194.915 Y151.311 E3.37506
G1 X194.728 Y152.231 E0.02942
G1 X194.370 Y152.822 E0.02166
G1 X193.857 Y153.284 E0.02166
G1 X164.609 Y172.571 E1.09850
G1 X163.793 Y172.896 E0.02754
; printing object Lookout barsV1R1.stl id:6 copy 6
G1 E-0.80000 F2100.000
G1 Z0.800 F10800.000
G1 X172.220 Y54.158
G1 Z0.200
G1 E0.80000 F2100.000
;TYPE:External perimeter
G1 F1200.000
G1 X172.220 Y44.454 E0.30426
G1 X175.587 Y44.465 E0.10556
G1 X176.058 Y44.523 E0.01488
G1 X176.519 Y44.662 E0.01509
G1 X177.039 Y44.523 E0.01688
G1 X177.559 Y44.465 E0.01640
G1 X178.066 Y44.455 E0.01591
G1 X179.069 Y44.465 E0.03145
G1 X179.590 Y44.523 E0.01643
G1 X180.073 Y44.652 E0.01569
G1 X180.644 Y44.652 E0.01789
G1 X181.126 Y44.537 E0.01553
G1 X181.644 Y44.473 E0.01637
G1 X182.658 Y44.465 E0.03179
G1 X183.181 Y44.523 E0.01649
G1 X183.701 Y44.661 E0.01687
G1 X184.220 Y44.523 E0.01687
G1 X184.740 Y44.465 E0.01640
G1 X186.251 Y44.465 E0.04736
G1 X186.771 Y44.523 E0.01643
G1 X187.291 Y44.661 E0.01687
G1 X187.793 Y44.523 E0.01633
G1 X188.299 Y44.465 E0.01595
G1 X191.590 Y44.454 E0.10319
G1 X191.590 Y54.158 E0.30427
G1 X188.300 Y54.147 E0.10316
G1 X187.793 Y54.089 E0.01597
G1 X187.291 Y53.950 E0.01633
G1 X186.771 Y54.089 E0.01687
G1 X186.249 Y54.147 E0.01649
G1 X185.235 Y54.138 E0.03179
G1 X184.717 Y54.074 E0.01637
G1 X184.235 Y53.960 E0.01553
G1 X183.664 Y53.960 E0.01789
G1 X183.181 Y54.089 E0.01569
G1 X182.659 Y54.147 E0.01647
G1 X181.152 Y54.147 E0.04726
G1 X180.630 Y54.089 E0.01647
G1 X180.110 Y53.950 E0.01687
G1 X179.590 Y54.089 E0.01687
G1 X179.067 Y54.147 E0.01649
G1 X178.053 Y54.138 E0.03179
G1 X177.535 Y54.074 E0.01637
G1 X177.053 Y53.960 E0.01553
G1 X176.001 Y53.960 E0.03300
G1 X175.536 Y54.068 E0.01496
G1 X175.038 Y54.134 E0.01575
G1 X174.546 Y54.154 E0.01544
G1 X172.280 Y54.158 E0.07104
G1 X171.820 Y54.159 F10800.000
G1 X171.701 Y54.532
G1 F1200.000
G1 X171.701 Y44.079 E0.32775
G1 X192.109 Y44.079 E0.63988
G1 X192.109 Y54.532 E0.32775
G1 X171.761 Y54.532 E0.63800
G1 X171.844 Y54.159 F10800.000
G1 X171.961 Y54.344
;TYPE:Gap fill
;WIDTH:0.185038
G1 F1200.000
G1 X171.961 Y44.268 E0.11907
G1 X175.904 Y44.290 F10800.000
;WIDTH:0.116019
G1 F1200.000
G1 X176.107 Y44.303 E0.00124
;WIDTH:0.156699
G1 X176.246 Y44.324 E0.00133
;WIDTH:0.19738
G1 X176.385 Y44.344 E0.00180
;WIDTH:0.238062
G1 X176.523 Y44.364 E0.00227
G1 X176.680 Y44.344 E0.00257
;WIDTH:0.113465
G1 X177.208 Y44.290 E0.00311
G1 X179.417 Y44.290 F10800.000
;WIDTH:0.11508
G1 F1200.000
G1 X179.634 Y44.302 E0.00131
;WIDTH:0.156706
G1 X179.793 Y44.323 E0.00151
;WIDTH:0.198332
G1 X179.951 Y44.344 E0.00207
;WIDTH:0.240201
G1 X180.111 Y44.364 E0.00264
G1 X180.610 Y44.365 E0.00819
G1 X180.768 Y44.346 E0.00260
;WIDTH:0.128734
G1 X181.400 Y44.290 E0.00453
G1 X183.010 Y44.290 F10800.000
;WIDTH:0.114662
G1 F1200.000
G1 X183.225 Y44.302 E0.00128
;WIDTH:0.156234
G1 X183.383 Y44.323 E0.00151
;WIDTH:0.197806
G1 X183.542 Y44.344 E0.00206
;WIDTH:0.239379
G1 X183.701 Y44.365 E0.00261
G1 X183.859 Y44.344 E0.00261
;WIDTH:0.11352
G1 X184.389 Y44.290 E0.00313
G1 X186.606 Y44.291 F10800.000
;WIDTH:0.11408
G1 F1200.000
G1 X186.816 Y44.302 E0.00124
;WIDTH:0.155554
G1 X186.974 Y44.323 E0.00149
;WIDTH:0.19703
G1 X187.132 Y44.344 E0.00204
;WIDTH:0.238507
G1 X187.290 Y44.365 E0.00259
G1 X187.443 Y44.344 E0.00250
;WIDTH:0.113339
G1 X187.953 Y44.291 E0.00301
G1 X191.849 Y44.268 F10800.000
;WIDTH:0.185034
G1 F1200.000
G1 X191.849 Y54.344 E0.11907
G1 X187.947 Y54.320 F10800.000
;WIDTH:0.112591
G1 F1200.000
G1 X187.443 Y54.267 E0.00294
;WIDTH:0.237699
G1 X187.290 Y54.246 E0.00249
G1 X187.132 Y54.267 E0.00258
;WIDTH:0.196184
G1 X186.974 Y54.288 E0.00203
;WIDTH:0.154667
G1 X186.815 Y54.309 E0.00148
;WIDTH:0.113152
G1 X186.614 Y54.320 E0.00118
G1 X184.976 Y54.320 F10800.000
;WIDTH:0.126892
G1 F1200.000
G1 X184.359 Y54.265 E0.00433
;WIDTH:0.23829
G1 X184.201 Y54.246 E0.00258
G1 X183.702 Y54.246 E0.00811
G1 X183.543 Y54.267 E0.00260
;WIDTH:0.19658
G1 X183.384 Y54.288 E0.00205
;WIDTH:0.154872
G1 X183.225 Y54.309 E0.00149
;WIDTH:0.113164
G1 X183.024 Y54.320 E0.00117
G1 X180.786 Y54.320 F10800.000
;WIDTH:0.112187
G1 F1200.000
G1 X180.268 Y54.267 E0.00300
;WIDTH:0.237995
G1 X180.110 Y54.246 E0.00259
G1 X179.951 Y54.267 E0.00259
;WIDTH:0.19638
G1 X179.793 Y54.288 E0.00204
;WIDTH:0.154765
G1 X179.634 Y54.309 E0.00149
;WIDTH:0.11315
G1 X179.433 Y54.320 E0.00118
G1 X177.795 Y54.320 F10800.000
;WIDTH:0.126892
G1 F1200.000
G1 X177.177 Y54.265 E0.00433
;WIDTH:0.23829
G1 X177.020 Y54.246 E0.00258
G1 X176.034 Y54.246 E0.01602
G1 X175.882 Y54.263 E0.00247
;WIDTH:0.203666
G1 X175.731 Y54.281 E0.00203
;WIDTH:0.169045
G1 X175.580 Y54.298 E0.00160
;WIDTH:0.134424
G1 X175.247 Y54.320 E0.00254
; stop printing object Lookout barsV1R1.stl id:6 copy 6
; printing object Lookout barsV1R1.stl id:4 copy 2
G1 E-0.80000 F2100.000
G1 Z0.800 F10800.000
G1 X172.220 Y73.431
G1 Z0.200
G1 E0.80000 F2100.000
;TYPE:External perimeter
;WIDTH:0.42
G1 F1200.000
G1 X172.220 Y63.726 E0.30429
G1 X175.510 Y63.738 E0.10316
G1 X176.017 Y63.796 E0.01597
G1 X176.519 Y63.935 E0.01634
G1 X177.007 Y63.796 E0.01592
G1 X177.500 Y63.738 E0.01554
G1 X177.979 Y63.728 E0.01504
G1 X179.393 Y63.749 E0.04433
G1 X179.764 Y63.800 E0.01176
G1 X180.110 Y63.934 E0.01163
G1 X180.629 Y63.796 E0.01686
G1 X181.149 Y63.738 E0.01640
G1 X182.660 Y63.738 E0.04736
G1 X183.180 Y63.796 E0.01643
G1 X183.700 Y63.934 E0.01688
G1 X184.189 Y63.796 E0.01591
G1 X184.681 Y63.738 E0.01554
G1 X185.161 Y63.728 E0.01504
G1 X186.574 Y63.749 E0.04433
G1 X186.946 Y63.800 E0.01176
G1 X187.266 Y63.925 E0.01079
G1 X187.809 Y63.925 E0.01702
G1 X188.274 Y63.817 E0.01496
G1 X188.775 Y63.750 E0.01583
G1 X191.590 Y63.727 E0.08827
G1 X191.590 Y73.431 E0.30426
G1 X189.264 Y73.427 E0.07292
G1 X188.772 Y73.407 E0.01544
G1 X188.274 Y73.341 E0.01575
G1 X187.809 Y73.233 E0.01496
G1 X187.254 Y73.233 E0.01739
G1 X186.771 Y73.362 E0.01569
G1 X186.249 Y73.420 E0.01647
G1 X184.742 Y73.420 E0.04726
G1 X184.220 Y73.362 E0.01647
G1 X183.737 Y73.233 E0.01569
G1 X183.166 Y73.233 E0.01789
G1 X182.684 Y73.347 E0.01553
G1 X182.169 Y73.411 E0.01629
G1 X181.150 Y73.420 E0.03195
G1 X180.629 Y73.362 E0.01641
G1 X180.110 Y73.223 E0.01687
G1 X179.590 Y73.362 E0.01687
G1 X179.068 Y73.420 E0.01647
G1 X177.561 Y73.420 E0.04726
G1 X177.039 Y73.362 E0.01647
G1 X176.519 Y73.223 E0.01687
G1 X176.017 Y73.362 E0.01633
G1 X175.510 Y73.420 E0.01597
G1 X172.280 Y73.431 E0.10128
G1 X171.820 Y73.434 F10800.000
G1 X171.701 Y73.805
G1 F1200.000
G1 X171.701 Y63.352 E0.32775
G1 X192.109 Y63.352 E0.63988
G1 X192.109 Y73.805 E0.32775
G1 X171.761 Y73.805 E0.63800
G1 X171.844 Y73.432 F10800.000
G1 X171.961 Y73.617
;TYPE:Gap fill
;WIDTH:0.185034
G1 F1200.000
G1 X171.961 Y63.541 E0.11907
G1 X175.858 Y63.564 F10800.000
;WIDTH:0.11425
G1 F1200.000
G1 X176.062 Y63.576 E0.00121
;WIDTH:0.155433
G1 X176.214 Y63.596 E0.00143
;WIDTH:0.196614
G1 X176.366 Y63.617 E0.00196
;WIDTH:0.237795
G1 X176.518 Y63.638 E0.00248
G1 X176.665 Y63.617 E0.00241
;WIDTH:0.113655
G1 X177.164 Y63.564 E0.00295
G1 X179.601 Y63.563 F10800.000
;WIDTH:0.1217
G1 F1200.000
G1 X179.826 Y63.579 E0.00148
;WIDTH:0.159358
G1 X179.926 Y63.598 E0.00099
;WIDTH:0.197016
G1 X180.026 Y63.617 E0.00130
;WIDTH:0.234674
G1 X180.126 Y63.636 E0.00162
G1 X180.279 Y63.615 E0.00246
;WIDTH:0.113386
G1 X180.797 Y63.563 E0.00305
G1 X183.010 Y63.563 F10800.000
;WIDTH:0.114732
G1 F1200.000
G1 X183.225 Y63.575 E0.00128
;WIDTH:0.156165
G1 X183.382 Y63.596 E0.00150
;WIDTH:0.197599
G1 X183.540 Y63.617 E0.00205
;WIDTH:0.239033
G1 X183.698 Y63.637 E0.00260
G1 X183.846 Y63.617 E0.00243
;WIDTH:0.114601
G1 X184.354 Y63.563 E0.00304
G1 X186.775 Y63.562 F10800.000
;WIDTH:0.122676
G1 F1200.000
G1 X187.008 Y63.579 E0.00155
;WIDTH:0.161907
G1 X187.112 Y63.598 E0.00105
;WIDTH:0.201138
G1 X187.216 Y63.618 E0.00139
;WIDTH:0.240428
G1 X187.321 Y63.637 E0.00174
G1 X187.776 Y63.637 E0.00749
G1 X187.927 Y63.620 E0.00250
;WIDTH:0.135844
G1 X188.580 Y63.562 E0.00506
G1 X191.849 Y63.541 F10800.000
;WIDTH:0.185034
G1 F1200.000
G1 X191.849 Y73.617 E0.11907
G1 X188.563 Y73.593 F10800.000
;WIDTH:0.133636
G1 F1200.000
G1 X187.928 Y73.536 E0.00482
;WIDTH:0.238288
G1 X187.776 Y73.519 E0.00247
G1 X187.292 Y73.519 E0.00787
G1 X187.133 Y73.540 E0.00260
;WIDTH:0.19658
G1 X186.974 Y73.561 E0.00205
;WIDTH:0.154872
G1 X186.815 Y73.582 E0.00149
;WIDTH:0.113162
G1 X186.614 Y73.593 E0.00117
G1 X184.377 Y73.593 F10800.000
;WIDTH:0.112185
G1 F1200.000
G1 X183.858 Y73.540 E0.00300
;WIDTH:0.238288
G1 X183.699 Y73.519 E0.00260
G1 X183.200 Y73.519 E0.00811
G1 X183.042 Y73.538 E0.00258
;WIDTH:0.201433
G1 X182.885 Y73.556 E0.00209
;WIDTH:0.164578
G1 X182.727 Y73.574 E0.00160
;WIDTH:0.127722
G1 X182.424 Y73.593 E0.00214
G1 X180.786 Y73.593 F10800.000
;WIDTH:0.112173
G1 F1200.000
G1 X180.268 Y73.540 E0.00300
;WIDTH:0.237995
G1 X180.110 Y73.519 E0.00259
G1 X179.951 Y73.540 E0.00259
;WIDTH:0.196384
G1 X179.792 Y73.561 E0.00204
;WIDTH:0.154774
G1 X179.634 Y73.582 E0.00149
;WIDTH:0.113164
G1 X179.433 Y73.593 E0.00117
G1 X177.195 Y73.593 F10800.000
;WIDTH:0.112187
G1 F1200.000
G1 X176.678 Y73.540 E0.00299
;WIDTH:0.237699
G1 X176.520 Y73.519 E0.00258
G1 X176.367 Y73.540 E0.00249
;WIDTH:0.196345
G1 X176.215 Y73.561 E0.00196
;WIDTH:0.154992
G1 X176.062 Y73.581 E0.00144
;WIDTH:0.113638
G1 X175.863 Y73.593 E0.00117
; stop printing object Lookout barsV1R1.stl id:4 copy 2
; printing object Lookout barsV1R1.stl id:6 copy 1
G1 E-0.80000 F2100.000
G1 Z0.800 F10800.000
G1 X191.590 Y83.000
G1 Z0.200
G1 E0.80000 F2100.000
;TYPE:External perimeter
;WIDTH:0.42
G1 F1200.000
G1 X191.590 Y92.704 E0.30427
G1 X188.300 Y92.693 E0.10316
G1 X187.793 Y92.635 E0.01597
G1 X187.291 Y92.496 E0.01633
G1 X186.771 Y92.635 E0.01687
G1 X186.249 Y92.693 E0.01649
G1 X185.235 Y92.684 E0.03179
G1 X184.717 Y92.620 E0.01637
G1 X184.235 Y92.506 E0.01553
G1 X183.664 Y92.506 E0.01789
G1 X183.181 Y92.635 E0.01569
G1 X182.659 Y92.693 E0.01647
G1 X181.152 Y92.693 E0.04726
G1 X180.630 Y92.635 E0.01647
G1 X180.110 Y92.496 E0.01687
G1 X179.590 Y92.635 E0.01687
G1 X179.067 Y92.693 E0.01649
G1 X178.053 Y92.684 E0.03179
G1 X177.535 Y92.620 E0.01637
G1 X177.053 Y92.506 E0.01553
G1 X176.001 Y92.506 E0.03300
G1 X175.536 Y92.614 E0.01496
G1 X175.038 Y92.680 E0.01575
G1 X174.546 Y92.700 E0.01544
G1 X172.220 Y92.704 E0.07292
G1 X172.220 Y83.000 E0.30426
G1 X175.587 Y83.011 E0.10556
G1 X176.058 Y83.069 E0.01488
G1 X176.519 Y83.208 E0.01509
G1 X177.039 Y83.069 E0.01688
G1 X177.559 Y83.011 E0.01640
G1 X178.066 Y83.001 E0.01591
G1 X179.069 Y83.011 E0.03145
G1 X179.590 Y83.069 E0.01643
G1 X180.073 Y83.198 E0.01569
G1 X180.644 Y83.198 E0.01789
G1 X181.126 Y83.083 E0.01553
G1 X181.644 Y83.019 E0.01637
G1 X182.658 Y83.011 E0.03179
G1 X183.181 Y83.069 E0.01649
G1 X183.701 Y83.207 E0.01687
G1 X184.220 Y83.069 E0.01687
G1 X184.740 Y83.011 E0.01640
G1 X186.251 Y83.011 E0.04736
G1 X186.771 Y83.069 E0.01643
G1 X187.291 Y83.207 E0.01687
G1 X187.793 Y83.069 E0.01633
G1 X188.299 Y83.011 E0.01595
G1 X191.530 Y83.000 E0.10131
G1 X191.990 Y82.998 F10800.000
G1 X192.109 Y82.625
G1 F1200.000
G1 X192.109 Y93.078 E0.32775
G1 X171.701 Y93.078 E0.63988
G1 X171.701 Y82.625 E0.32775
G1 X192.049 Y82.625 E0.63800
G1 X191.966 Y82.999 F10800.000
G1 X191.849 Y82.814
;TYPE:Gap fill
;WIDTH:0.185034
G1 F1200.000
G1 X191.849 Y92.890 E0.11907
G1 X187.947 Y92.866 F10800.000
;WIDTH:0.112591
G1 F1200.000
G1 X187.443 Y92.813 E0.00294
;WIDTH:0.237699
G1 X187.290 Y92.792 E0.00249
G1 X187.132 Y92.813 E0.00258
;WIDTH:0.196184
G1 X186.974 Y92.834 E0.00203
;WIDTH:0.154667
G1 X186.815 Y92.855 E0.00148
;WIDTH:0.113152
G1 X186.614 Y92.866 E0.00118
G1 X184.976 Y92.866 F10800.000
;WIDTH:0.126892
G1 F1200.000
G1 X184.359 Y92.811 E0.00433
;WIDTH:0.23829
G1 X184.201 Y92.792 E0.00258
G1 X183.702 Y92.792 E0.00811
G1 X183.543 Y92.813 E0.00260
;WIDTH:0.19658
G1 X183.384 Y92.834 E0.00205
;WIDTH:0.154872
G1 X183.225 Y92.855 E0.00149
;WIDTH:0.113164
G1 X183.024 Y92.866 E0.00117
G1 X180.786 Y92.866 F10800.000
;WIDTH:0.112187
G1 F1200.000
G1 X180.268 Y92.813 E0.00300
;WIDTH:0.237995
G1 X180.110 Y92.792 E0.00259
G1 X179.951 Y92.813 E0.00259
;WIDTH:0.19638
G1 X179.793 Y92.834 E0.00204
;WIDTH:0.154765
G1 X179.634 Y92.855 E0.00149
;WIDTH:0.11315
G1 X179.433 Y92.866 E0.00118
G1 X177.795 Y92.866 F10800.000
;WIDTH:0.126892
G1 F1200.000
G1 X177.177 Y92.811 E0.00433
;WIDTH:0.23829
G1 X177.020 Y92.792 E0.00258
G1 X176.034 Y92.792 E0.01602
G1 X175.882 Y92.809 E0.00247
;WIDTH:0.203666
G1 X175.731 Y92.827 E0.00203
;WIDTH:0.169045
G1 X175.580 Y92.844 E0.00160
;WIDTH:0.134424
G1 X175.247 Y92.866 E0.00254
G1 X171.961 Y92.890 F10800.000
;WIDTH:0.185038
G1 F1200.000
G1 X171.961 Y82.814 E0.11907
G1 X175.904 Y82.836 F10800.000
;WIDTH:0.116019
G1 F1200.000
G1 X176.107 Y82.849 E0.00124
;WIDTH:0.156699
G1 X176.246 Y82.870 E0.00133
;WIDTH:0.19738
G1 X176.385 Y82.890 E0.00180
;WIDTH:0.238062
G1 X176.523 Y82.910 E0.00227
G1 X176.680 Y82.890 E0.00257
;WIDTH:0.113465
G1 X177.208 Y82.836 E0.00311
G1 X179.417 Y82.836 F10800.000
;WIDTH:0.11508
G1 F1200.000
G1 X179.634 Y82.848 E0.00131
;WIDTH:0.156706
G1 X179.793 Y82.869 E0.00151
;WIDTH:0.198332
G1 X179.951 Y82.890 E0.00207
;WIDTH:0.240201
G1 X180.111 Y82.910 E0.00264
G1 X180.610 Y82.911 E0.00819
G1 X180.768 Y82.892 E0.00260
;WIDTH:0.128734
G1 X181.400 Y82.836 E0.00453
G1 X183.010 Y82.836 F10800.000
;WIDTH:0.114662
G1 F1200.000
G1 X183.225 Y82.848 E0.00128
;WIDTH:0.156234
G1 X183.383 Y82.869 E0.00151
;WIDTH:0.197806
G1 X183.542 Y82.890 E0.00206
;WIDTH:0.239379
G1 X183.701 Y82.911 E0.00261
G1 X183.859 Y82.890 E0.00261
;WIDTH:0.11352
G1 X184.389 Y82.836 E0.00313
G1 X186.606 Y82.837 F10800.000
;WIDTH:0.11408
G1 F1200.000
G1 X186.816 Y82.848 E0.00124
;WIDTH:0.155554
G1 X186.974 Y82.869 E0.00149
;WIDTH:0.19703
G1 X187.132 Y82.890 E0.00204
;WIDTH:0.238507
G1 X187.290 Y82.911 E0.00259
