; generated by PrusaSlicer 2.1.1+win64 on 2020-04-29 at 15:48:53 UTC

; 

; external perimeters extrusion width = 0.45mm
; perimeters extrusion width = 0.45mm
; infill extrusion width = 0.45mm
; solid infill extrusion width = 0.45mm
; top infill extrusion width = 0.40mm
; first layer extrusion width = 0.42mm

M73 P0 R21
M201 X9000 Y9000 Z500 E10000 ; sets maximum accelerations, mm/sec^2
M203 X500 Y500 Z12 E120 ; sets maximum feedrates, mm/sec
M204 P2000 R1500 T2000 ; sets acceleration (P, T) and retract acceleration (R), mm/sec^2
M205 X10.00 Y10.00 Z0.20 E2.50 ; sets the jerk limits, mm/sec
M205 S0 T0 ; sets the minimum extruding and travel feed rate, mm/sec
M107
M862.3 P "MK2S" ; printer model check
M862.1 P0.4 ; nozzle diameter check
M115 U3.2.3 ; tell printer latest fw version
G90 ; use absolute coordinates
M83 ; extruder relative mode
M204 S2000 T1500 ; MK2 firmware only supports the old M204 format
M104 S215 ; set extruder temp
M140 S60 ; set bed temp
M190 S60 ; wait for bed temp
M109 S215 ; wait for extruder temp
G28 W ; home all without mesh bed level
G80 ; mesh bed leveling
G1 Y-3.0 F1000.0 ; go outside print area
G92 E0.0
G1 X60.0 E9.0  F1000.0 ; intro line
M73 P0 R21
G1 X100.0 E12.5 F1000.0 ; intro line
G92 E0.0
G21 ; set units to millimeters
G90 ; use absolute coordinates
M83 ; use relative distances for extrusion
M900 K30 ; Filament gcode
;BEFORE_LAYER_CHANGE
G92 E0.0
;0.2


G1 E-0.80000 F2100.00000
G1 Z0.600 F10800.000
;AFTER_LAYER_CHANGE
;0.2
G1 X108.403 Y118.982
G1 Z0.200
G1 E0.80000 F2100.00000
M204 S1000
G1 F1200
G1 X101.376 Y118.995 E0.22032
G1 X101.362 Y111.649 E0.23035
G1 X115.518 Y111.621 E0.44386
G1 X115.532 Y118.968 E0.23035
G1 X108.463 Y118.981 E0.22165
G1 X108.403 Y119.359 F10800.000
G1 F1200
G1 X101.000 Y119.373 E0.23214
G1 X100.984 Y111.272 E0.25399
G1 X115.894 Y111.243 E0.46750
G1 X115.910 Y119.344 E0.25399
G1 X108.463 Y119.359 E0.23348
G1 X108.117 Y119.080 F10800.000
G1 E-0.80000 F2100.00000
G1 Z0.800 F10800.000
G1 X101.487 Y118.105
G1 Z0.200
G1 E0.80000 F2100.00000
G1 F1200
G1 X102.093 Y118.711 E0.02731
G1 X102.634 Y118.710 E0.01724
G1 X101.656 Y117.732 E0.04408
G1 X101.655 Y117.189 E0.01731
G1 X103.175 Y118.709 E0.06851
G1 X103.716 Y118.708 E0.01724
G1 X101.654 Y116.646 E0.09293
G1 X101.653 Y116.103 E0.01731
G1 X104.257 Y118.707 E0.11736
G1 X104.798 Y118.706 E0.01724
G1 X101.652 Y115.560 E0.14179
G1 X101.651 Y115.017 E0.01731
G1 X105.339 Y118.705 E0.16622
G1 X105.880 Y118.704 E0.01724
G1 X101.650 Y114.474 E0.19065
G1 X101.649 Y113.931 E0.01731
G1 X106.421 Y118.703 E0.21508
G1 X106.962 Y118.702 E0.01724
G1 X101.648 Y113.387 E0.23951
G1 X101.647 Y112.844 E0.01731
G1 X107.503 Y118.701 E0.26394
G1 X108.044 Y118.700 E0.01724
G1 X101.646 Y112.301 E0.28837
G1 X101.645 Y111.931 E0.01180
G1 X101.817 Y111.931 E0.00548
G1 X108.585 Y118.698 E0.30503
G1 X109.126 Y118.697 E0.01724
G1 X102.358 Y111.930 E0.30503
G1 X102.899 Y111.928 E0.01724
G1 X109.667 Y118.696 E0.30503
G1 X110.208 Y118.695 E0.01724
G1 X103.440 Y111.927 E0.30503
G1 X103.981 Y111.926 E0.01724
G1 X110.749 Y118.694 E0.30503
G1 X111.290 Y118.693 E0.01724
G1 X104.522 Y111.925 E0.30503
G1 X105.063 Y111.924 E0.01724
G1 X111.831 Y118.692 E0.30503
G1 X112.372 Y118.691 E0.01724
G1 X105.604 Y111.923 E0.30503
G1 X106.145 Y111.922 E0.01724
G1 X112.913 Y118.690 E0.30503
G1 X113.454 Y118.689 E0.01724
G1 X106.686 Y111.921 E0.30503
G1 X107.227 Y111.920 E0.01724
G1 X113.995 Y118.688 E0.30503
G1 X114.536 Y118.687 E0.01724
G1 X107.768 Y111.919 E0.30503
G1 X108.309 Y111.918 E0.01724
G1 X115.077 Y118.686 E0.30503
G1 X115.249 Y118.685 E0.00549
G1 X115.248 Y118.315 E0.01180
G1 X108.850 Y111.917 E0.28837
G1 X109.391 Y111.916 E0.01724
G1 X115.247 Y117.772 E0.26394
G1 X115.246 Y117.229 E0.01731
G1 X109.932 Y111.915 E0.23951
G1 X110.473 Y111.914 E0.01724
G1 X115.245 Y116.686 E0.21508
G1 X115.244 Y116.143 E0.01731
G1 X111.014 Y111.913 E0.19065
G1 X111.555 Y111.912 E0.01724
G1 X115.243 Y115.600 E0.16623
G1 X115.242 Y115.057 E0.01731
G1 X112.096 Y111.911 E0.14180
G1 X112.636 Y111.909 E0.01724
G1 X115.241 Y114.514 E0.11737
G1 X115.240 Y113.971 E0.01731
G1 X113.177 Y111.908 E0.09294
G1 X113.718 Y111.907 E0.01724
G1 X115.239 Y113.427 E0.06851
G1 X115.237 Y112.884 E0.01731
G1 X114.259 Y111.906 E0.04408
G1 X114.800 Y111.905 E0.01724
G1 X115.406 Y112.511 E0.02731
G1 E-0.80000 F2100.00000
G1 Z0.800 F10800.000
G1 X148.721 Y104.450
G1 Z0.200
G1 E0.80000 F2100.00000
G1 F1200
G1 X148.262 Y104.427 E0.01439
G1 X147.808 Y104.360 E0.01439
G1 X147.363 Y104.248 E0.01439
G1 X146.931 Y104.094 E0.01439
G1 X146.516 Y103.897 E0.01439
G1 X146.122 Y103.661 E0.01439
G1 X145.753 Y103.388 E0.01439
G1 X145.413 Y103.080 E0.01439
G1 X145.105 Y102.739 E0.01439
G1 X144.832 Y102.371 E0.01439
G1 X144.596 Y101.977 E0.01439
G1 X144.399 Y101.562 E0.01439
G1 X144.245 Y101.130 E0.01439
G1 X144.133 Y100.684 E0.01439
G1 X144.066 Y100.230 E0.01439
G1 X144.043 Y99.772 E0.01439
G1 X144.066 Y99.313 E0.01439
G1 X144.133 Y98.859 E0.01439
G1 X144.245 Y98.414 E0.01439
G1 X144.399 Y97.982 E0.01439
G1 X144.596 Y97.567 E0.01439
G1 X144.832 Y97.173 E0.01439
G1 X145.105 Y96.804 E0.01439
G1 X145.413 Y96.464 E0.01439
G1 X145.753 Y96.156 E0.01439
G1 X146.122 Y95.882 E0.01439
G1 X146.516 Y95.646 E0.01439
G1 X146.931 Y95.450 E0.01439
G1 X147.363 Y95.295 E0.01439
G1 X147.808 Y95.184 E0.01439
G1 X148.259 Y95.117 E0.01428
G1 X148.819 Y95.096 E0.01757
G1 X149.178 Y95.116 E0.01127
G1 X149.634 Y95.184 E0.01445
G1 X150.079 Y95.295 E0.01439
G1 X150.511 Y95.450 E0.01439
G1 X150.926 Y95.646 E0.01439
G1 X151.320 Y95.882 E0.01439
G1 X151.689 Y96.156 E0.01439
G1 X152.029 Y96.464 E0.01439
G1 X152.337 Y96.804 E0.01439
G1 X152.610 Y97.173 E0.01439
G1 X152.846 Y97.567 E0.01439
G1 X153.043 Y97.982 E0.01439
G1 X153.197 Y98.414 E0.01439
G1 X153.309 Y98.859 E0.01439
G1 X153.376 Y99.313 E0.01439
G1 X153.399 Y99.772 E0.01439
G1 X153.376 Y100.230 E0.01439
G1 X153.309 Y100.684 E0.01439
G1 X153.197 Y101.130 E0.01439
G1 X153.043 Y101.562 E0.01439
G1 X152.846 Y101.977 E0.01439
G1 X152.610 Y102.371 E0.01439
G1 X152.337 Y102.739 E0.01439
G1 X152.029 Y103.080 E0.01439
G1 X151.689 Y103.388 E0.01439
G1 X151.320 Y103.661 E0.01439
G1 X150.926 Y103.897 E0.01439
G1 X150.511 Y104.094 E0.01439
G1 X150.079 Y104.248 E0.01439
G1 X149.634 Y104.360 E0.01439
G1 X149.179 Y104.427 E0.01439
G1 X148.781 Y104.447 E0.01251
G1 X148.721 Y104.827 F10800.000
G1 F1200
G1 X148.225 Y104.803 E0.01556
G1 X147.735 Y104.730 E0.01555
G1 X147.253 Y104.610 E0.01556
G1 X146.786 Y104.442 E0.01556
G1 X146.338 Y104.230 E0.01556
G1 X145.912 Y103.975 E0.01556
G1 X145.514 Y103.680 E0.01556
G1 X145.146 Y103.347 E0.01556
G1 X144.813 Y102.979 E0.01556
G1 X144.518 Y102.580 E0.01556
G1 X144.263 Y102.155 E0.01556
G1 X144.050 Y101.706 E0.01556
G1 X143.883 Y101.239 E0.01556
G1 X143.763 Y100.758 E0.01556
G1 X143.690 Y100.267 E0.01556
G1 X143.666 Y99.772 E0.01556
G1 X143.690 Y99.276 E0.01556
G1 X143.763 Y98.786 E0.01556
G1 X143.883 Y98.304 E0.01556
G1 X144.050 Y97.837 E0.01556
G1 X144.263 Y97.389 E0.01556
G1 X144.518 Y96.963 E0.01556
G1 X144.813 Y96.565 E0.01556
G1 X145.146 Y96.197 E0.01556
G1 X145.514 Y95.864 E0.01556
G1 X145.912 Y95.568 E0.01556
G1 X146.338 Y95.313 E0.01556
G1 X146.786 Y95.101 E0.01556
G1 X147.253 Y94.934 E0.01556
G1 X147.735 Y94.814 E0.01556
G1 X148.224 Y94.741 E0.01551
G1 X148.822 Y94.719 E0.01877
G1 X149.216 Y94.741 E0.01236
G1 X149.707 Y94.814 E0.01558
G1 X150.188 Y94.934 E0.01556
G1 X150.656 Y95.101 E0.01556
G1 X151.104 Y95.313 E0.01556
G1 X151.530 Y95.568 E0.01556
G1 X151.928 Y95.864 E0.01556
G1 X152.296 Y96.197 E0.01556
G1 X152.629 Y96.565 E0.01556
G1 X152.924 Y96.963 E0.01556
G1 X153.179 Y97.389 E0.01556
G1 X153.391 Y97.837 E0.01556
G1 X153.559 Y98.304 E0.01556
G1 X153.679 Y98.786 E0.01556
G1 X153.752 Y99.276 E0.01556
G1 X153.776 Y99.772 E0.01556
G1 X153.752 Y100.267 E0.01556
G1 X153.679 Y100.758 E0.01556
G1 X153.559 Y101.239 E0.01556
G1 X153.391 Y101.706 E0.01556
G1 X153.179 Y102.155 E0.01556
G1 X152.924 Y102.580 E0.01556
G1 X152.629 Y102.979 E0.01556
G1 X152.296 Y103.347 E0.01556
G1 X151.928 Y103.680 E0.01556
G1 X151.530 Y103.975 E0.01556
G1 X151.104 Y104.230 E0.01556
G1 X150.656 Y104.442 E0.01556
G1 X150.188 Y104.609 E0.01556
G1 X149.707 Y104.730 E0.01556
G1 X149.216 Y104.803 E0.01556
G1 X148.781 Y104.824 E0.01367
G1 X148.521 Y104.481 F10800.000
G1 X147.424 Y104.147
G1 F1200
G1 X144.622 Y101.344 E0.12588
G1 X144.516 Y101.048 E0.01001
G1 X144.404 Y100.587 E0.01505
G1 X147.906 Y104.088 E0.15726
G1 X148.290 Y104.145 E0.01234
G1 X148.514 Y104.156 E0.00712
G1 X144.336 Y99.979 E0.18763
G1 X144.342 Y99.445 E0.01697
G1 X149.048 Y104.150 E0.21136
G1 X149.528 Y104.090 E0.01535
G1 X144.403 Y98.965 E0.23016
G1 X144.507 Y98.529 E0.01424
G1 X149.964 Y103.986 E0.24507
G1 X150.364 Y103.846 E0.01347
G1 X144.647 Y98.129 E0.25678
G1 X144.817 Y97.759 E0.01293
G1 X150.734 Y103.675 E0.26573
G1 X151.076 Y103.478 E0.01256
G1 X145.015 Y97.417 E0.27223
G1 X145.238 Y97.099 E0.01231
G1 X151.393 Y103.255 E0.27646
G1 X151.687 Y103.008 E0.01218
G1 X145.485 Y96.806 E0.27855
G1 X145.613 Y96.664 E0.00607
G1 X145.755 Y96.536 E0.00607
G1 X151.957 Y102.738 E0.27855
G1 X152.204 Y102.444 E0.01218
G1 X146.048 Y96.289 E0.27646
G1 X146.366 Y96.066 E0.01231
G1 X152.427 Y102.127 E0.27223
G1 X152.624 Y101.785 E0.01256
G1 X146.708 Y95.868 E0.26574
G1 X147.078 Y95.698 E0.01293
G1 X152.795 Y101.415 E0.25679
G1 X152.935 Y101.015 E0.01347
G1 X147.478 Y95.558 E0.24508
G1 X147.914 Y95.454 E0.01424
G1 X153.039 Y100.579 E0.23016
G1 X153.100 Y100.099 E0.01535
G1 X148.395 Y95.395 E0.21129
G1 X148.926 Y95.386 E0.01686
G1 X153.105 Y99.565 E0.18772
G1 X153.094 Y99.341 E0.00712
G1 X153.037 Y98.957 E0.01234
G1 X149.536 Y95.455 E0.15727
G1 X149.997 Y95.566 E0.01505
G1 X150.293 Y95.673 E0.01001
G1 X153.096 Y98.475 E0.12589
G1 X152.695 Y97.534 F10800.000
G1 F1200
G1 X150.959 Y95.798 E0.07797
G1 E-0.80000 F2100.00000
G1 Z0.800 F10800.000
G1 X144.747 Y102.010
G1 Z0.200
G1 E0.80000 F2100.00000
G1 F1200
G1 X146.483 Y103.746 E0.07795
G1 E-0.80000 F2100.00000
G1 Z0.800 F10800.000
G1 X108.403 Y104.461
G1 Z0.200
G1 E0.80000 F2100.00000
G1 F1200
G1 X101.376 Y104.474 E0.22032
G1 X101.362 Y97.128 E0.23035
G1 X115.518 Y97.100 E0.44386
G1 X115.532 Y104.447 E0.23035
G1 X108.463 Y104.461 E0.22165
G1 X108.403 Y104.838 F10800.000
G1 F1200
G1 X101.000 Y104.852 E0.23214
G1 X100.984 Y96.751 E0.25399
G1 X115.894 Y96.722 E0.46750
G1 X115.910 Y104.823 E0.25399
G1 X108.463 Y104.838 E0.23348
G1 X108.117 Y104.559 F10800.000
G1 E-0.80000 F2100.00000
G1 Z0.800 F10800.000
G1 X101.487 Y103.584
G1 Z0.200
G1 E0.80000 F2100.00000
G1 F1200
G1 X102.093 Y104.190 E0.02731
G1 X102.634 Y104.189 E0.01724
G1 X101.656 Y103.211 E0.04408
G1 X101.655 Y102.668 E0.01731
G1 X103.175 Y104.188 E0.06851
G1 X103.716 Y104.187 E0.01724
G1 X101.654 Y102.125 E0.09293
G1 X101.653 Y101.582 E0.01731
G1 X104.257 Y104.186 E0.11736
G1 X104.798 Y104.185 E0.01724
G1 X101.652 Y101.039 E0.14179
G1 X101.651 Y100.496 E0.01731
G1 X105.339 Y104.184 E0.16622
G1 X105.880 Y104.183 E0.01724
G1 X101.650 Y99.953 E0.19065
G1 X101.649 Y99.410 E0.01731
G1 X106.421 Y104.182 E0.21508
G1 X106.962 Y104.181 E0.01724
G1 X101.648 Y98.867 E0.23951
G1 X101.647 Y98.324 E0.01731
G1 X107.503 Y104.180 E0.26394
G1 X108.044 Y104.179 E0.01724
G1 X101.646 Y97.780 E0.28837
G1 X101.645 Y97.410 E0.01180
G1 X101.817 Y97.410 E0.00548
G1 X108.585 Y104.178 E0.30503
G1 X109.126 Y104.177 E0.01724
G1 X102.358 Y97.409 E0.30503
G1 X102.899 Y97.408 E0.01724
G1 X109.667 Y104.176 E0.30503
G1 X110.208 Y104.174 E0.01724
G1 X103.440 Y97.407 E0.30503
G1 X103.981 Y97.406 E0.01724
G1 X110.749 Y104.173 E0.30503
G1 X111.290 Y104.172 E0.01724
G1 X104.522 Y97.404 E0.30503
G1 X105.063 Y97.403 E0.01724
G1 X111.831 Y104.171 E0.30503
G1 X112.372 Y104.170 E0.01724
G1 X105.604 Y97.402 E0.30503
G1 X106.145 Y97.401 E0.01724
G1 X112.913 Y104.169 E0.30503
G1 X113.454 Y104.168 E0.01724
G1 X106.686 Y97.400 E0.30503
G1 X107.227 Y97.399 E0.01724
G1 X113.995 Y104.167 E0.30503
G1 X114.536 Y104.166 E0.01724
G1 X107.768 Y97.398 E0.30503
G1 X108.309 Y97.397 E0.01724
G1 X115.077 Y104.165 E0.30503
G1 X115.249 Y104.165 E0.00549
G1 X115.248 Y103.794 E0.01180
G1 X108.850 Y97.396 E0.28837
G1 X109.391 Y97.395 E0.01724
G1 X115.247 Y103.251 E0.26394
G1 X115.246 Y102.708 E0.01731
G1 X109.932 Y97.394 E0.23951
G1 X110.473 Y97.393 E0.01724
G1 X115.245 Y102.165 E0.21508
G1 X115.244 Y101.622 E0.01731
G1 X111.014 Y97.392 E0.19065
G1 X111.555 Y97.391 E0.01724
G1 X115.243 Y101.079 E0.16623
G1 X115.242 Y100.536 E0.01731
G1 X112.096 Y97.390 E0.14180
G1 X112.636 Y97.389 E0.01724
G1 X115.241 Y99.993 E0.11737
G1 X115.240 Y99.450 E0.01731
G1 X113.177 Y97.388 E0.09294
G1 X113.718 Y97.387 E0.01724
G1 X115.239 Y98.907 E0.06851
G1 X115.237 Y98.364 E0.01731
G1 X114.259 Y97.386 E0.04408
G1 X114.800 Y97.384 E0.01724
G1 X115.406 Y97.991 E0.02731
G1 E-0.80000 F2100.00000
G1 Z0.800 F10800.000
G1 X87.072 Y118.982
G1 Z0.200
G1 E0.80000 F2100.00000
G1 F1200
G1 X80.046 Y118.995 E0.22032
G1 X80.031 Y111.649 E0.23035
G1 X94.187 Y111.621 E0.44386
G1 X94.202 Y118.968 E0.23035
G1 X87.132 Y118.981 E0.22165
G1 X87.073 Y119.359 F10800.000
G1 F1200
G1 X79.669 Y119.373 E0.23214
G1 X79.654 Y111.272 E0.25399
G1 X94.564 Y111.243 E0.46750
G1 X94.580 Y119.344 E0.25399
G1 X87.133 Y119.359 E0.23348
G1 X86.786 Y119.080 F10800.000
G1 E-0.80000 F2100.00000
G1 Z0.800 F10800.000
G1 X80.157 Y118.105
G1 Z0.200
G1 E0.80000 F2100.00000
G1 F1200
G1 X80.763 Y118.711 E0.02731
G1 X81.304 Y118.710 E0.01724
G1 X80.326 Y117.732 E0.04408
G1 X80.325 Y117.189 E0.01731
G1 X81.845 Y118.709 E0.06851
G1 X82.386 Y118.708 E0.01724
G1 X80.324 Y116.646 E0.09293
G1 X80.323 Y116.103 E0.01731
G1 X82.927 Y118.707 E0.11736
G1 X83.468 Y118.706 E0.01724
G1 X80.322 Y115.560 E0.14179
G1 X80.321 Y115.017 E0.01731
G1 X84.009 Y118.705 E0.16622
M73 P5 R20
G1 X84.550 Y118.704 E0.01724
G1 X80.320 Y114.474 E0.19065
G1 X80.319 Y113.931 E0.01731
G1 X85.091 Y118.703 E0.21508
G1 X85.632 Y118.702 E0.01724
G1 X80.318 Y113.387 E0.23951
G1 X80.316 Y112.844 E0.01731
G1 X86.173 Y118.701 E0.26394
G1 X86.714 Y118.700 E0.01724
G1 X80.315 Y112.301 E0.28837
G1 X80.315 Y111.931 E0.01180
G1 X80.487 Y111.931 E0.00548
G1 X87.255 Y118.698 E0.30503
G1 X87.796 Y118.697 E0.01724
G1 X81.028 Y111.930 E0.30503
G1 X81.569 Y111.928 E0.01724
G1 X88.337 Y118.696 E0.30503
G1 X88.878 Y118.695 E0.01724
G1 X82.110 Y111.927 E0.30503
G1 X82.651 Y111.926 E0.01724
G1 X89.419 Y118.694 E0.30503
G1 X89.960 Y118.693 E0.01724
G1 X83.192 Y111.925 E0.30503
G1 X83.733 Y111.924 E0.01724
G1 X90.500 Y118.692 E0.30503
G1 X91.041 Y118.691 E0.01724
G1 X84.274 Y111.923 E0.30503
G1 X84.815 Y111.922 E0.01724
G1 X91.582 Y118.690 E0.30503
G1 X92.123 Y118.689 E0.01724
G1 X85.355 Y111.921 E0.30503
G1 X85.896 Y111.920 E0.01724
G1 X92.664 Y118.688 E0.30503
G1 X93.205 Y118.687 E0.01724
G1 X86.437 Y111.919 E0.30503
G1 X86.978 Y111.918 E0.01724
G1 X93.746 Y118.686 E0.30503
G1 X93.918 Y118.685 E0.00549
G1 X93.918 Y118.315 E0.01180
G1 X87.519 Y111.917 E0.28837
G1 X88.060 Y111.916 E0.01724
G1 X93.917 Y117.772 E0.26394
G1 X93.916 Y117.229 E0.01731
G1 X88.601 Y111.915 E0.23951
G1 X89.142 Y111.914 E0.01724
G1 X93.915 Y116.686 E0.21508
G1 X93.913 Y116.143 E0.01731
G1 X89.683 Y111.913 E0.19065
G1 X90.224 Y111.912 E0.01724
G1 X93.912 Y115.600 E0.16623
G1 X93.911 Y115.057 E0.01731
G1 X90.765 Y111.911 E0.14180
G1 X91.306 Y111.909 E0.01724
G1 X93.910 Y114.514 E0.11737
G1 X93.909 Y113.971 E0.01731
G1 X91.847 Y111.908 E0.09294
G1 X92.388 Y111.907 E0.01724
G1 X93.908 Y113.427 E0.06851
G1 X93.907 Y112.884 E0.01731
G1 X92.929 Y111.906 E0.04408
G1 X93.470 Y111.905 E0.01724
G1 X94.076 Y112.511 E0.02731
G1 E-0.80000 F2100.00000
G1 Z0.800 F10800.000
G1 X148.721 Y87.889
G1 Z0.200
G1 E0.80000 F2100.00000
G1 F1200
G1 X148.262 Y87.866 E0.01439
G1 X147.808 Y87.799 E0.01439
G1 X147.363 Y87.687 E0.01439
G1 X146.931 Y87.532 E0.01439
G1 X146.516 Y87.336 E0.01439
G1 X146.122 Y87.100 E0.01439
G1 X145.753 Y86.827 E0.01439
G1 X145.413 Y86.518 E0.01439
G1 X145.105 Y86.178 E0.01439
G1 X144.832 Y85.810 E0.01439
G1 X144.596 Y85.416 E0.01439
G1 X144.399 Y85.001 E0.01439
G1 X144.245 Y84.569 E0.01439
G1 X144.133 Y84.123 E0.01439
