; generated by PrusaSlicer 2.2.0+win64 on 2022-02-16 at 20:47:04 UTC

; 

; external perimeters extrusion width = 0.45mm
; perimeters extrusion width = 0.45mm
; infill extrusion width = 0.45mm
; solid infill extrusion width = 0.45mm
; top infill extrusion width = 0.40mm
; first layer extrusion width = 0.42mm

M73 P0 R36
M201 X9000 Y9000 Z500 E10000 ; sets maximum accelerations, mm/sec^2
M203 X500 Y500 Z12 E120 ; sets maximum feedrates, mm/sec
M204 P2000 R1500 T2000 ; sets acceleration (P, T) and retract acceleration (R), mm/sec^2
M205 X10.00 Y10.00 Z0.20 E2.50 ; sets the jerk limits, mm/sec
M205 S0 T0 ; sets the minimum extruding and travel feed rate, mm/sec
M107
M862.3 P "MK2S" ; printer model check
M862.1 P0.4 ; nozzle diameter check
M115 U3.2.3 ; tell printer latest fw version
G90 ; use absolute coordinates
M83 ; extruder relative mode
M204 S2000 T1500 ; MK2 firmware only supports the old M204 format
M104 S215 ; set extruder temp
M140 S60 ; set bed temp
M190 S60 ; wait for bed temp
M109 S215 ; wait for extruder temp
G28 W ; home all without mesh bed level
G80 ; mesh bed leveling
G1 Y-3.0 F1000.0 ; go outside print area
G92 E0.0
G1 X60.0 E9.0  F1000.0 ; intro line
M73 P0 R36
G1 X100.0 E12.5 F1000.0 ; intro line
G92 E0.0
G21 ; set units to millimeters
G90 ; use absolute coordinates
M83 ; use relative distances for extrusion
M900 K0.05 ; Filament gcode LA 1.5
M900 K30 ; Filament gcode LA 1.0
;BEFORE_LAYER_CHANGE
G92 E0.0
;0.2


G1 E-0.80000 F2100.00000
G1 Z0.400 F10800.000
;AFTER_LAYER_CHANGE
;0.2
G1 X124.790 Y97.725
G1 Z0.200
G1 E0.80000 F2100.00000
M204 S1000
G1 F1200.000
G1 X125.252 Y97.354 E0.01858
G1 X125.792 Y97.109 E0.01858
G1 X126.379 Y97.004 E0.01870
G1 X148.502 Y97.001 E0.69366
G1 X149.384 Y97.171 E0.02813
G1 X150.139 Y97.655 E0.02813
G1 X150.662 Y98.384 E0.02813
G1 X150.876 Y99.252 E0.02802
G1 X150.929 Y135.637 E1.14083
G1 X150.848 Y136.239 E0.01906
G1 X150.616 Y136.801 E0.01906
G1 X150.252 Y137.283 E0.01894
G1 X149.782 Y137.656 E0.01882
G1 X149.229 Y137.900 E0.01894
G1 X148.633 Y137.997 E0.01894
G1 X126.417 Y137.998 E0.69656
G1 X125.823 Y137.915 E0.01882
G1 X125.269 Y137.685 E0.01882
G1 X124.781 Y137.316 E0.01917
G1 X124.404 Y136.835 E0.01917
G1 X124.162 Y136.273 E0.01917
G1 X124.071 Y135.672 E0.01906
G1 X124.121 Y99.355 E1.13871
G1 X124.203 Y98.756 E0.01894
G1 X124.432 Y98.202 E0.01882
G1 X124.754 Y97.773 E0.01682
; printing object splint 2p B.stl id:1 copy 0
G1 F8640.000
G1 X125.252 Y97.354 E-0.15031
G1 X125.792 Y97.109 E-0.13685
G1 X126.379 Y97.004 E-0.13772
G1 X127.831 Y97.004 E-0.33513
G1 E-0.04000 F2100.00000
G1 Z0.600 F10800.000
G1 X127.285 Y100.166
G1 Z0.200
G1 E0.80000 F2100.00000
G1 F1200.000
G1 X147.715 Y100.166 E0.64059
G1 X147.715 Y117.861 E0.55484
G1 X127.285 Y117.861 E0.64059
G1 X127.285 Y100.226 E0.55296
G1 X126.908 Y99.788 F10800.000
G1 F1200.000
G1 X148.092 Y99.788 E0.66424
G1 X148.092 Y118.238 E0.57849
G1 X126.908 Y118.238 E0.66424
G1 X126.908 Y99.848 E0.57661
G1 X127.296 Y99.883 F10800.000
G1 F8640.000
G1 X130.199 Y99.839 E-0.76000
G1 E-0.04000 F2100.00000
G1 Z0.600 F10800.000
G1 X147.602 Y101.050
G1 Z0.200
G1 E0.80000 F2100.00000
G1 F1200.000
G1 X147.001 Y100.448 E0.02698
G1 X146.461 Y100.448 E0.01710
G1 X147.433 Y101.420 E0.04355
G1 X147.433 Y101.959 E0.01710
G1 X145.922 Y100.448 E0.06773
G1 X145.383 Y100.448 E0.01710
G1 X147.433 Y102.498 E0.09191
G1 X147.433 Y103.037 E0.01710
G1 X144.844 Y100.448 E0.11609
G1 X144.304 Y100.448 E0.01710
G1 X147.433 Y103.577 E0.14028
G1 X147.433 Y104.116 E0.01710
G1 X143.765 Y100.448 E0.16446
G1 X143.226 Y100.448 E0.01710
G1 X147.433 Y104.655 E0.18864
G1 X147.433 Y105.194 E0.01710
G1 X142.686 Y100.448 E0.21282
G1 X142.147 Y100.448 E0.01710
G1 X147.433 Y105.734 E0.23700
G1 X147.433 Y106.273 E0.01710
G1 X141.608 Y100.448 E0.26119
G1 X141.069 Y100.448 E0.01710
G1 X147.433 Y106.812 E0.28537
G1 X147.433 Y107.352 E0.01710
G1 X140.529 Y100.448 E0.30955
G1 X139.990 Y100.448 E0.01710
G1 X147.433 Y107.891 E0.33373
G1 X147.433 Y108.430 E0.01710
G1 X139.451 Y100.448 E0.35791
G1 X138.911 Y100.448 E0.01710
G1 X147.433 Y108.969 E0.38209
G1 X147.433 Y109.509 E0.01710
G1 X138.372 Y100.448 E0.40628
G1 X137.833 Y100.448 E0.01710
G1 X147.433 Y110.048 E0.43046
G1 X147.433 Y110.587 E0.01710
G1 X137.294 Y100.448 E0.45464
G1 X136.754 Y100.448 E0.01710
G1 X147.433 Y111.127 E0.47882
G1 X147.433 Y111.666 E0.01710
G1 X136.215 Y100.448 E0.50300
G1 X135.676 Y100.448 E0.01710
G1 X147.433 Y112.205 E0.52719
G1 X147.433 Y112.744 E0.01710
G1 X135.137 Y100.448 E0.55137
G1 X134.597 Y100.448 E0.01710
G1 X147.433 Y113.284 E0.57555
G1 X147.433 Y113.823 E0.01710
G1 X134.058 Y100.448 E0.59973
G1 X133.519 Y100.448 E0.01710
G1 X147.433 Y114.362 E0.62391
G1 X147.433 Y114.901 E0.01710
G1 X132.979 Y100.448 E0.64809
G1 X132.440 Y100.448 E0.01710
G1 X147.433 Y115.441 E0.67228
G1 X147.433 Y115.980 E0.01710
G1 X131.901 Y100.448 E0.69646
G1 X131.362 Y100.448 E0.01710
G1 X147.433 Y116.519 E0.72064
G1 X147.433 Y117.059 E0.01710
G1 X130.822 Y100.448 E0.74482
G1 X130.283 Y100.448 E0.01710
G1 X147.413 Y117.579 E0.76814
G1 X146.874 Y117.579 E0.01710
G1 X129.744 Y100.448 E0.76814
G1 X129.204 Y100.448 E0.01710
G1 X146.335 Y117.579 E0.76814
G1 X145.795 Y117.579 E0.01710
G1 X128.665 Y100.448 E0.76814
G1 X128.126 Y100.448 E0.01710
G1 X145.256 Y117.579 E0.76814
G1 X144.717 Y117.579 E0.01710
G1 X127.587 Y100.448 E0.76814
G1 X127.567 Y100.448 E0.00061
G1 X127.567 Y100.968 E0.01649
G1 X144.178 Y117.579 E0.74482
G1 X143.638 Y117.579 E0.01710
G1 X127.567 Y101.508 E0.72064
G1 X127.567 Y102.047 E0.01710
G1 X143.099 Y117.579 E0.69646
G1 X142.560 Y117.579 E0.01710
G1 X127.567 Y102.586 E0.67227
G1 X127.567 Y103.126 E0.01710
G1 X142.021 Y117.579 E0.64809
G1 X141.481 Y117.579 E0.01710
G1 X127.567 Y103.665 E0.62391
G1 X127.567 Y104.204 E0.01710
G1 X140.942 Y117.579 E0.59973
G1 X140.403 Y117.579 E0.01710
G1 X127.567 Y104.743 E0.57555
G1 X127.567 Y105.283 E0.01710
G1 X139.863 Y117.579 E0.55136
G1 X139.324 Y117.579 E0.01710
G1 X127.567 Y105.822 E0.52718
G1 X127.567 Y106.361 E0.01710
G1 X138.785 Y117.579 E0.50300
G1 X138.246 Y117.579 E0.01710
G1 X127.567 Y106.900 E0.47882
G1 X127.567 Y107.440 E0.01710
G1 X137.706 Y117.579 E0.45464
G1 X137.167 Y117.579 E0.01710
G1 X127.567 Y107.979 E0.43046
G1 X127.567 Y108.518 E0.01710
G1 X136.628 Y117.579 E0.40627
G1 X136.088 Y117.579 E0.01710
G1 X127.567 Y109.058 E0.38209
M73 P3 R35
G1 X127.567 Y109.597 E0.01710
G1 X135.549 Y117.579 E0.35791
G1 X135.010 Y117.579 E0.01710
G1 X127.567 Y110.136 E0.33373
G1 X127.567 Y110.675 E0.01710
G1 X134.471 Y117.579 E0.30955
G1 X133.931 Y117.579 E0.01710
G1 X127.567 Y111.215 E0.28536
G1 X127.567 Y111.754 E0.01710
G1 X133.392 Y117.579 E0.26118
G1 X132.853 Y117.579 E0.01710
G1 X127.567 Y112.293 E0.23700
G1 X127.567 Y112.833 E0.01710
G1 X132.314 Y117.579 E0.21282
G1 X131.774 Y117.579 E0.01710
G1 X127.567 Y113.372 E0.18864
G1 X127.567 Y113.911 E0.01710
G1 X131.235 Y117.579 E0.16446
G1 X130.696 Y117.579 E0.01710
G1 X127.567 Y114.450 E0.14027
G1 X127.567 Y114.990 E0.01710
G1 X130.156 Y117.579 E0.11609
G1 X129.617 Y117.579 E0.01710
G1 X127.567 Y115.529 E0.09191
G1 X127.567 Y116.068 E0.01710
G1 X129.078 Y117.579 E0.06773
G1 X128.539 Y117.579 E0.01710
G1 X127.567 Y116.607 E0.04355
G1 X127.567 Y117.147 E0.01710
G1 X128.169 Y117.748 E0.02697
; stop printing object splint 2p B.stl id:1 copy 0
; printing object splint 2p A.stl id:0 copy 0
G1 F8640.000
G1 X127.567 Y117.147 E-0.19643
G1 X127.567 Y116.607 E-0.12452
G1 X128.539 Y117.579 E-0.31712
G1 X129.067 Y117.579 E-0.12194
G1 E-0.04000 F2100.00000
G1 Z0.600 F10800.000
G1 X127.235 Y125.438
G1 Z0.200
G1 E0.80000 F2100.00000
G1 F1200.000
G1 X131.840 Y125.452 E0.14439
G1 X131.840 Y130.981 E0.17336
G1 X128.464 Y130.983 E0.10586
G1 X127.221 Y131.034 E0.03898
G1 X127.235 Y125.498 E0.17358
G1 F8640.000
G1 X130.526 Y125.465 E-0.76000
G1 E-0.04000 F2100.00000
G1 Z0.600 F10800.000
G1 X143.160 Y125.498
G1 Z0.200
G1 E0.80000 F2100.00000
G1 F1200.000
G1 X143.160 Y125.452 E0.00143
G1 X147.765 Y125.437 E0.14439
G1 X147.779 Y131.034 E0.17546
G1 X146.536 Y130.983 E0.03898
G1 X143.160 Y130.981 E0.10586
G1 X143.160 Y125.558 E0.17006
G1 F8640.000
G1 X143.160 Y125.452 E-0.02437
G1 X146.346 Y125.442 E-0.73563
G1 E-0.04000 F2100.00000
G1 Z0.600 F10800.000
G1 X127.223 Y134.747
G1 Z0.200
G1 E0.80000 F2100.00000
G1 F1200.000
G1 X128.536 Y134.797 E0.04120
G1 X145.959 Y134.799 E0.54630
G1 X146.968 Y134.784 E0.03162
G1 X147.777 Y134.745 E0.02541
G1 X147.776 Y134.835 E0.00279
G1 X127.224 Y134.835 E0.64437
G1 X127.224 Y134.807 E0.00087
G1 F8640.000
G1 X128.536 Y134.797 E-0.30299
G1 X130.515 Y134.797 E-0.45701
G1 E-0.04000 F2100.00000
G1 Z0.600 F10800.000
G1 X127.189 Y131.412
G1 Z0.200
G1 E0.80000 F2100.00000
G1 F1200.000
G1 X127.189 Y134.368 E0.09268
G1 X128.544 Y134.419 E0.04250
G1 X145.956 Y134.422 E0.54597
G1 X146.956 Y134.407 E0.03135
G1 X147.811 Y134.366 E0.02683
G1 X147.811 Y131.412 E0.09262
G1 X146.529 Y131.361 E0.04024
G1 X142.783 Y131.358 E0.11744
G1 X142.783 Y125.076 E0.19697
G1 X148.142 Y125.059 E0.16803
G1 X148.144 Y130.637 E0.17489
G1 X148.188 Y132.133 E0.04692
G1 X148.185 Y134.119 E0.06227
G1 X148.147 Y135.212 E0.03428
G1 X126.853 Y135.212 E0.66763
G1 X126.815 Y134.119 E0.03428
G1 X126.812 Y132.133 E0.06227
G1 X126.856 Y130.637 E0.04693
G1 X126.858 Y125.059 E0.17488
G1 X132.217 Y125.076 E0.16803
G1 X132.217 Y131.358 E0.19697
G1 X128.471 Y131.361 E0.11744
G1 X127.249 Y131.410 E0.03836
G1 X126.789 Y131.414 F10800.000
G1 X128.084 Y130.886
G1 F1200.000
G1 X127.506 Y130.307 E0.02623
G1 X127.507 Y129.763 E0.01746
G1 X128.445 Y130.701 E0.04255
G1 X128.990 Y130.700 E0.01747
G1 X127.508 Y129.219 E0.06720
G1 X127.510 Y128.675 E0.01746
G1 X129.535 Y130.700 E0.09187
G1 X130.080 Y130.700 E0.01749
G1 X127.511 Y128.130 E0.11654
G1 X127.512 Y127.586 E0.01746
G1 X130.625 Y130.699 E0.14121
G1 X131.171 Y130.699 E0.01749
G1 X127.514 Y127.042 E0.16588
G1 X127.515 Y126.498 E0.01746
G1 X131.557 Y130.540 E0.18335
G1 X131.557 Y129.994 E0.01750
G1 X127.516 Y125.954 E0.18329
G1 X127.517 Y125.721 E0.00745
G1 X127.831 Y125.722 E0.01006
G1 X131.557 Y129.449 E0.16904
G1 X131.557 Y128.903 E0.01750
G1 X128.378 Y125.724 E0.14422
G1 X128.925 Y125.726 E0.01755
G1 X131.557 Y128.358 E0.11940
G1 X131.557 Y127.812 E0.01750
G1 X129.472 Y125.727 E0.09457
G1 X130.019 Y125.729 E0.01755
G1 X131.557 Y127.267 E0.06975
G1 X131.557 Y126.721 E0.01750
G1 X130.567 Y125.731 E0.04493
G1 X131.114 Y125.733 E0.01755
G1 X131.727 Y126.346 E0.02780
G1 F8640.000
G1 X131.114 Y125.733 E-0.20015
G1 X130.567 Y125.731 E-0.12636
G1 X131.557 Y126.721 E-0.32344
G1 X131.557 Y127.198 E-0.11005
G1 E-0.04000 F2100.00000
G1 Z0.600 F10800.000
G1 X144.050 Y130.869
G1 Z0.200
G1 E0.80000 F2100.00000
G1 F1200.000
G1 X143.443 Y130.261 E0.02742
G1 X143.443 Y129.719 E0.01733
G1 X144.424 Y130.699 E0.04427
G1 X144.967 Y130.700 E0.01734
G1 X143.443 Y129.176 E0.06879
G1 X143.443 Y128.633 E0.01733
G1 X145.510 Y130.700 E0.09331
G1 X146.053 Y130.700 E0.01734
G1 X143.443 Y128.090 E0.11783
G1 X143.443 Y127.547 E0.01733
G1 X146.599 Y130.703 E0.14245
G1 X147.164 Y130.726 E0.01807
G1 X143.443 Y127.004 E0.16799
G1 X143.443 Y126.461 E0.01733
G1 X147.491 Y130.509 E0.18272
G1 X147.485 Y129.961 E0.01750
G1 X143.443 Y125.919 E0.18248
G1 X143.443 Y125.734 E0.00589
G1 X143.800 Y125.733 E0.01140
G1 X147.482 Y129.415 E0.16621
G1 X147.482 Y128.872 E0.01733
G1 X144.341 Y125.731 E0.14178
G1 X144.882 Y125.729 E0.01727
G1 X147.482 Y128.329 E0.11736
G1 X147.482 Y127.786 E0.01733
G1 X145.423 Y125.728 E0.09293
G1 X145.965 Y125.726 E0.01727
G1 X147.482 Y127.244 E0.06850
G1 X147.482 Y126.701 E0.01733
G1 X146.506 Y125.724 E0.04408
G1 X147.047 Y125.723 E0.01727
G1 X147.652 Y126.327 E0.02731
; stop printing object splint 2p A.stl id:0 copy 0
M106 S255
;BEFORE_LAYER_CHANGE
G92 E0.0
;0.4


G1 F8640.000
G1 X147.047 Y125.723 E-0.19756
G1 X146.506 Y125.724 E-0.12495
G1 X147.482 Y126.701 E-0.31885
G1 X147.482 Y127.214 E-0.11864
G1 E-0.04000 F2100.00000
G1 Z0.600 F10800.000
;AFTER_LAYER_CHANGE
;0.4
G1 X149.384 Y97.171
G1 Z0.400
G1 E0.80000 F2100.00000
G1 F3000.000
G1 X150.139 Y97.655 E0.02813
G1 X150.662 Y98.384 E0.02813
G1 X150.876 Y99.252 E0.02802
G1 X150.929 Y135.637 E1.14083
G1 X150.848 Y136.239 E0.01906
G1 X150.616 Y136.801 E0.01906
G1 X150.252 Y137.283 E0.01894
G1 X149.782 Y137.656 E0.01882
G1 X149.229 Y137.900 E0.01894
G1 X148.633 Y137.997 E0.01894
G1 X126.417 Y137.998 E0.69656
G1 X125.823 Y137.915 E0.01882
G1 X125.269 Y137.685 E0.01882
G1 X124.781 Y137.316 E0.01917
G1 X124.404 Y136.835 E0.01917
G1 X124.162 Y136.273 E0.01917
G1 X124.071 Y135.672 E0.01906
G1 X124.121 Y99.355 E1.13871
G1 X124.203 Y98.756 E0.01894
G1 X124.432 Y98.202 E0.01882
G1 X124.790 Y97.725 E0.01870
G1 X125.252 Y97.354 E0.01858
G1 X125.792 Y97.109 E0.01858
G1 X126.379 Y97.004 E0.01870
G1 X148.502 Y97.001 E0.69366
G1 X149.325 Y97.159 E0.02625
; printing object splint 2p B.stl id:1 copy 0
G1 F8640.000
G1 X150.139 Y97.655 E-0.22012
G1 X150.662 Y98.384 E-0.20719
G1 X150.876 Y99.252 E-0.20633
G1 X150.877 Y99.799 E-0.12636
G1 E-0.04000 F2100.00000
G1 Z0.800 F10800.000
G1 X147.870 Y100.011
G1 Z0.400
G1 E0.80000 F2100.00000
M204 S800
G1 F3000.000
G1 X147.870 Y118.016 E0.60948
G1 X127.130 Y118.016 E0.70205
G1 X127.130 Y100.011 E0.60948
G1 X147.810 Y100.011 E0.70002
M204 S1000
G1 X148.277 Y99.603 F10800.000
M204 S800
G1 F2400.000
G1 X148.277 Y118.423 E0.63703
G1 X126.723 Y118.423 E0.72961
G1 X126.723 Y99.603 E0.63703
G1 X148.217 Y99.603 E0.72758
M204 S1000
G1 X148.165 Y99.987 F10800.000
G1 F8640.000
G1 X148.228 Y102.895 E-0.76000
G1 E-0.04000 F2100.00000
G1 Z0.800 F10800.000
G1 X127.252 Y100.963
G1 Z0.400
G1 E0.80000 F2100.00000
M204 S2000
G1 F3000.000
G1 X127.899 Y100.316 E0.03127
G1 X128.480 Y100.316 E0.01984
G1 X127.435 Y101.361 E0.05048
G1 X127.435 Y101.942 E0.01984
G1 X129.061 Y100.316 E0.07854
G1 X129.642 Y100.316 E0.01984
G1 X127.435 Y102.523 E0.10660
G1 X127.435 Y103.104 E0.01984
G1 X130.223 Y100.316 E0.13466
G1 X130.804 Y100.316 E0.01984
G1 X127.435 Y103.685 E0.16272
G1 X127.435 Y104.265 E0.01984
G1 X131.385 Y100.316 E0.19078
G1 X131.965 Y100.316 E0.01984
G1 X127.435 Y104.846 E0.21883
G1 X127.435 Y105.427 E0.01984
G1 X132.546 Y100.316 E0.24689
G1 X133.127 Y100.316 E0.01984
G1 X127.435 Y106.008 E0.27495
G1 X127.435 Y106.589 E0.01984
G1 X133.708 Y100.316 E0.30301
G1 X134.289 Y100.316 E0.01984
G1 X127.435 Y107.170 E0.33107
G1 X127.435 Y107.751 E0.01984
G1 X134.870 Y100.316 E0.35913
G1 X135.451 Y100.316 E0.01984
G1 X127.435 Y108.332 E0.38719
G1 X127.435 Y108.913 E0.01984
G1 X136.032 Y100.316 E0.41525
G1 X136.613 Y100.316 E0.01984
G1 X127.435 Y109.494 E0.44330
G1 X127.435 Y110.075 E0.01984
G1 X137.194 Y100.316 E0.47136
G1 X137.774 Y100.316 E0.01984
G1 X127.435 Y110.655 E0.49942
G1 X127.435 Y111.236 E0.01984
G1 X138.355 Y100.316 E0.52748
G1 X138.936 Y100.316 E0.01984
G1 X127.435 Y111.817 E0.55554
G1 X127.435 Y112.398 E0.01984
G1 X139.517 Y100.316 E0.58360
G1 X140.098 Y100.316 E0.01984
G1 X127.435 Y112.979 E0.61166
G1 X127.435 Y113.560 E0.01984
G1 X140.679 Y100.316 E0.63971
G1 X141.260 Y100.316 E0.01984
G1 X127.435 Y114.141 E0.66777
G1 X127.435 Y114.722 E0.01984
G1 X141.841 Y100.316 E0.69583
G1 X142.422 Y100.316 E0.01984
G1 X127.435 Y115.303 E0.72389
G1 X127.435 Y115.884 E0.01984
G1 X143.003 Y100.316 E0.75195
G1 X143.583 Y100.316 E0.01984
G1 X127.435 Y116.464 E0.78001
G1 X127.435 Y117.045 E0.01984
G1 X144.164 Y100.316 E0.80807
G1 X144.745 Y100.316 E0.01984
G1 X127.435 Y117.626 E0.83613
G1 X127.435 Y117.711 E0.00290
G1 X127.931 Y117.711 E0.01694
G1 X145.326 Y100.316 E0.84023
G1 X145.907 Y100.316 E0.01984
G1 X128.512 Y117.711 E0.84023
G1 X129.093 Y117.711 E0.01984
G1 X146.488 Y100.316 E0.84023
G1 X147.069 Y100.316 E0.01984
G1 X129.674 Y117.711 E0.84023
G1 X130.255 Y117.711 E0.01984
G1 X147.565 Y100.401 E0.83613
G1 X147.565 Y100.982 E0.01984
G1 X130.835 Y117.711 E0.80807
G1 X131.416 Y117.711 E0.01984
G1 X147.565 Y101.562 E0.78002
G1 X147.565 Y102.143 E0.01984
G1 X131.997 Y117.711 E0.75196
G1 X132.578 Y117.711 E0.01984
G1 X147.565 Y102.724 E0.72390
G1 X147.565 Y103.305 E0.01984
G1 X133.159 Y117.711 E0.69584
G1 X133.740 Y117.711 E0.01984
G1 X147.565 Y103.886 E0.66778
