; generated by PrusaSlicer 2.3.1+win64 on 2021-09-16 at 15:21:42 UTC

; 

; external perimeters extrusion width = 0.45mm
; perimeters extrusion width = 0.45mm
; infill extrusion width = 0.45mm
; solid infill extrusion width = 0.45mm
; top infill extrusion width = 0.40mm
; support material extrusion width = 0.35mm
; first layer extrusion width = 0.42mm

M73 P0 R168
M201 X9000 Y9000 Z500 E10000 ; sets maximum accelerations, mm/sec^2
M203 X500 Y500 Z12 E120 ; sets maximum feedrates, mm/sec
M204 P2000 R1500 T2000 ; sets acceleration (P, T) and retract acceleration (R), mm/sec^2
M205 X10.00 Y10.00 Z0.20 E2.50 ; sets the jerk limits, mm/sec
M205 S0 T0 ; sets the minimum extruding and travel feed rate, mm/sec
M107
;TYPE:Custom
M862.3 P "MK2S" ; printer model check
M862.1 P0.4 ; nozzle diameter check
M115 U3.2.3 ; tell printer latest fw version
G90 ; use absolute coordinates
M83 ; extruder relative mode
M204 S2000 T1500 ; MK2 firmware only supports the old M204 format
M104 S215 ; set extruder temp
M140 S60 ; set bed temp
M190 S60 ; wait for bed temp
M109 S215 ; wait for extruder temp
G28 W ; home all without mesh bed level
G80 ; mesh bed leveling
G1 Y-3.0 F1000.0 ; go outside print area
G92 E0.0
G1 X60.0 E9.0  F1000.0 ; intro line
G1 X100.0 E12.5 F1000.0 ; intro line
G92 E0.0
G21 ; set units to millimeters
G90 ; use absolute coordinates
M83 ; use relative distances for extrusion
M900 K0.05 ; Filament gcode LA 1.5
M900 K30 ; Filament gcode LA 1.0
;LAYER_CHANGE
;Z:0.2
;HEIGHT:0.2
;BEFORE_LAYER_CHANGE
G92 E0.0
;0.2


G1 E-0.80000 F2100.000
G1 Z0.600 F10800.000
;AFTER_LAYER_CHANGE
;0.2
G1 X86.339 Y52.065
G1 Z0.200
G1 E0.80000 F2100.000
M204 S1000
;TYPE:Support material
;WIDTH:0.42
G1 F1200.000
G1 X86.339 Y64.414 E0.38718
G1 X87.093 Y64.414 E0.02365
G1 X87.093 Y55.235 E0.28780
G1 X87.847 Y55.235 E0.02365
G1 X87.847 Y64.414 E0.28780
G1 X88.601 Y64.414 E0.02365
G1 X88.601 Y55.235 E0.28780
G1 X88.879 Y55.235 E0.00872
G1 X88.879 Y61.791 E0.20556
G1 X89.355 Y61.791 E0.01492
G1 X89.355 Y64.414 E0.08224
G1 X90.109 Y64.414 E0.02365
G1 X90.109 Y61.791 E0.08224
G1 X90.863 Y61.791 E0.02365
G1 X90.863 Y64.584 E0.08756
G1 X91.072 Y61.587 F10800.000
;TYPE:Support material interface
;WIDTH:0.35
G1 F1200.000
G1 X91.072 Y55.200 E0.16309
G1 X90.565 Y55.200 E0.01295
G1 X90.565 Y61.449 E0.15956
G1 X90.058 Y61.449 E0.01295
G1 X90.058 Y55.200 E0.15956
G1 X89.551 Y55.200 E0.01295
G1 X89.551 Y61.587 E0.16309
M73 P0 R167
G1 E-0.80000 F2100.000
G1 Z0.800 F10800.000
G1 X89.355 Y73.684
G1 Z0.200
G1 E0.80000 F2100.000
;TYPE:Support material
;WIDTH:0.42
G1 F1200.000
G1 X89.355 Y70.019 E0.11490
G1 X88.601 Y70.019 E0.02365
G1 X88.601 Y73.514 E0.10958
G1 X87.847 Y73.514 E0.02365
G1 X87.847 Y70.019 E0.10958
G1 X87.093 Y70.019 E0.02365
G1 X87.093 Y73.514 E0.10958
G1 X86.339 Y73.514 E0.02365
G1 X86.339 Y70.019 E0.10958
G1 X85.584 Y70.019 E0.02365
G1 X85.584 Y73.514 E0.10958
G1 X85.229 Y73.514 E0.01114
G1 X84.921 Y73.823 E0.01366
G1 X84.921 Y84.553 E0.33645
G1 X85.229 Y84.861 E0.01366
G1 X85.584 Y84.861 E0.01114
G1 X85.584 Y96.713 E0.37160
G1 X86.339 Y96.713 E0.02365
G1 X86.339 Y84.692 E0.37692
G1 X87.847 Y85.347 F10800.000
G1 F1200.000
G1 X87.847 Y84.861 E0.01523
G1 X87.093 Y84.861 E0.02365
G1 X87.093 Y96.713 E0.37160
G1 X87.847 Y96.713 E0.02365
G1 X87.847 Y88.476 E0.25826
G1 X88.601 Y88.476 E0.02365
G1 X88.601 Y96.713 E0.25826
G1 X89.355 Y96.713 E0.02365
G1 X89.355 Y88.476 E0.25826
G1 X90.109 Y88.476 E0.02365
G1 X90.109 Y96.713 E0.25826
G1 X90.863 Y96.713 E0.02365
G1 X90.863 Y88.476 E0.25826
G1 X91.618 Y88.476 E0.02365
G1 X91.618 Y96.713 E0.25826
G1 X92.372 Y96.713 E0.02365
G1 X92.372 Y88.476 E0.25826
G1 X93.126 Y88.476 E0.02365
G1 X93.126 Y96.713 E0.25826
G1 X93.880 Y96.713 E0.02365
G1 X93.880 Y88.476 E0.25826
G1 X94.634 Y88.476 E0.02365
G1 X94.634 Y96.713 E0.25826
G1 X95.388 Y96.713 E0.02365
G1 X95.388 Y88.476 E0.25826
G1 X96.143 Y88.476 E0.02365
G1 X96.143 Y96.713 E0.25826
G1 X96.897 Y96.713 E0.02365
G1 X96.897 Y88.476 E0.25826
G1 X97.651 Y88.476 E0.02365
G1 X97.651 Y96.713 E0.25826
G1 X98.405 Y96.713 E0.02365
G1 X98.405 Y88.476 E0.25826
G1 X99.159 Y88.476 E0.02365
G1 X99.159 Y96.713 E0.25826
G1 X99.913 Y96.713 E0.02365
G1 X99.913 Y88.476 E0.25826
G1 X100.668 Y88.476 E0.02365
G1 X100.668 Y96.713 E0.25826
G1 X101.422 Y96.713 E0.02365
G1 X101.422 Y88.476 E0.25826
G1 X102.176 Y88.476 E0.02365
G1 X102.176 Y96.713 E0.25826
G1 X102.930 Y96.713 E0.02365
G1 X102.930 Y88.476 E0.25826
G1 X103.684 Y88.476 E0.02365
G1 X103.684 Y96.713 E0.25826
G1 X104.438 Y96.713 E0.02365
G1 X104.438 Y88.476 E0.25826
G1 X104.713 Y88.476 E0.00861
G1 X104.713 Y85.178 E0.10342
G1 X104.438 Y85.178 E0.00861
G1 X104.438 Y84.861 E0.00991
G1 X105.192 Y84.861 E0.02365
G1 X105.192 Y96.713 E0.37160
G1 X105.947 Y96.713 E0.02365
G1 X105.947 Y84.861 E0.37160
G1 X106.701 Y84.861 E0.02365
G1 X106.701 Y96.883 E0.37692
G1 X114.997 Y96.883 F10800.000
G1 F1200.000
G1 X114.997 Y76.941 E0.62527
G1 X114.242 Y76.941 E0.02365
G1 X114.242 Y96.713 E0.61995
G1 X113.488 Y96.713 E0.02365
G1 X113.488 Y76.941 E0.61995
G1 X112.950 Y76.941 E0.01688
G1 X112.950 Y70.019 E0.21701
G1 X112.734 Y70.019 E0.00677
G1 X112.734 Y96.713 E0.83696
G1 X111.980 Y96.713 E0.02365
G1 X111.980 Y70.019 E0.83696
G1 X111.226 Y70.019 E0.02365
G1 X111.226 Y96.713 E0.83696
G1 X110.472 Y96.713 E0.02365
G1 X110.472 Y70.019 E0.83696
G1 X109.717 Y70.019 E0.02365
G1 X109.717 Y96.713 E0.83696
G1 X108.963 Y96.713 E0.02365
G1 X108.963 Y70.019 E0.83696
G1 X108.209 Y70.019 E0.02365
G1 X108.209 Y96.713 E0.83696
G1 X107.455 Y96.713 E0.02365
G1 X107.455 Y70.019 E0.83696
G1 X106.701 Y70.019 E0.02365
G1 X106.701 Y73.514 E0.10958
G1 X105.947 Y73.514 E0.02365
G1 X105.947 Y70.019 E0.10958
G1 X105.192 Y70.019 E0.02365
G1 X105.192 Y73.514 E0.10958
G1 X104.438 Y73.514 E0.02365
G1 X104.438 Y70.019 E0.10958
G1 X103.684 Y70.019 E0.02365
G1 X103.684 Y73.514 E0.10958
G1 X102.930 Y73.514 E0.02365
G1 X102.930 Y69.850 E0.11490
G1 E-0.80000 F2100.000
G1 Z0.800 F10800.000
G1 X105.947 Y64.584
G1 Z0.200
G1 E0.80000 F2100.000
G1 F1200.000
G1 X105.947 Y52.235 E0.38718
G1 X105.880 Y52.235 E0.00208
G1 X105.880 Y54.927 E0.08440
G1 X105.572 Y55.235 E0.01366
G1 X105.192 Y55.235 E0.01190
G1 X105.192 Y64.414 E0.28780
G1 X104.438 Y64.414 E0.02365
G1 X104.438 Y55.235 E0.28780
G1 X103.684 Y55.235 E0.02365
G1 X103.684 Y64.414 E0.28780
G1 X102.930 Y64.414 E0.02365
G1 X102.930 Y61.791 E0.08224
G1 X102.176 Y61.791 E0.02365
G1 X102.176 Y64.414 E0.08224
G1 X101.422 Y64.414 E0.02365
G1 X101.422 Y61.621 E0.08756
G1 X101.213 Y61.587 F10800.000
;TYPE:Support material interface
;WIDTH:0.35
G1 F1200.000
G1 X101.213 Y55.200 E0.16309
G1 X101.720 Y55.200 E0.01295
G1 X101.720 Y61.449 E0.15956
G1 X102.228 Y61.449 E0.01295
G1 X102.228 Y55.200 E0.15956
G1 X102.735 Y55.200 E0.01295
G1 X102.735 Y61.587 E0.16309
G1 E-0.80000 F2100.000
G1 Z0.800 F10800.000
G1 X77.289 Y76.771
G1 Z0.200
G1 E0.80000 F2100.000
;TYPE:Support material
;WIDTH:0.42
G1 F1200.000
G1 X77.289 Y96.713 E0.62527
G1 X78.043 Y96.713 E0.02365
G1 X78.043 Y76.941 E0.61995
G1 X78.797 Y76.941 E0.02365
G1 X78.797 Y96.713 E0.61995
G1 X79.551 Y96.713 E0.02365
G1 X79.551 Y70.019 E0.83696
G1 X80.305 Y70.019 E0.02365
G1 X80.305 Y96.713 E0.83696
G1 X81.059 Y96.713 E0.02365
G1 X81.059 Y70.019 E0.83696
G1 X81.814 Y70.019 E0.02365
G1 X81.814 Y96.713 E0.83696
G1 X82.568 Y96.713 E0.02365
G1 X82.568 Y70.019 E0.83696
G1 X83.322 Y70.019 E0.02365
G1 X83.322 Y96.713 E0.83696
G1 X84.076 Y96.713 E0.02365
G1 X84.076 Y70.019 E0.83696
G1 X84.830 Y70.019 E0.02365
G1 X84.830 Y96.883 E0.84228
G1 E-0.80000 F2100.000
G1 Z0.800 F10800.000
G1 X96.143 Y83.748
G1 Z0.200
G1 E0.80000 F2100.000
;TYPE:Perimeter
G1 F1200.000
G1 X86.034 Y83.748 E0.31695
G1 X86.034 Y74.627 E0.28598
G1 X92.266 Y74.627 E0.19542
G1 X92.266 Y54.122 E0.64294
G1 X87.518 Y54.122 E0.14888
G1 X87.518 Y43.827 E0.32280
G1 X104.767 Y43.827 E0.54083
G1 X104.767 Y54.122 E0.32280
G1 X100.019 Y54.122 E0.14888
G1 X100.019 Y74.627 E0.64294
G1 X106.251 Y74.627 E0.19542
G1 X106.251 Y83.748 E0.28598
G1 X96.203 Y83.748 E0.31507
M73 P0 R166
G1 X96.143 Y84.125 F10800.000
;TYPE:External perimeter
G1 F1200.000
G1 X85.657 Y84.125 E0.32877
G1 X85.657 Y74.250 E0.30962
G1 X91.889 Y74.250 E0.19542
G1 X91.889 Y54.499 E0.61929
G1 X87.141 Y54.499 E0.14888
G1 X87.141 Y43.450 E0.34644
G1 X105.144 Y43.450 E0.56448
G1 X105.144 Y54.499 E0.34644
G1 X100.396 Y54.499 E0.14888
G1 X100.396 Y74.250 E0.61929
G1 X106.628 Y74.250 E0.19542
G1 X106.628 Y84.125 E0.30962
G1 X96.203 Y84.125 E0.32689
G1 X95.863 Y83.840 F10800.000
G1 E-0.80000 F2100.000
G1 Z0.800 F10800.000
G1 X86.911 Y83.635
G1 Z0.200
G1 E0.80000 F2100.000
;TYPE:Solid infill
;WIDTH:0.42098
G1 F1200.000
G1 X86.317 Y83.041 E0.02643
G1 X86.317 Y82.506 E0.01681
G1 X87.276 Y83.466 E0.04266
G1 X87.811 Y83.466 E0.01681
G1 X86.317 Y81.971 E0.06643
G1 X86.317 Y81.437 E0.01681
G1 X88.346 Y83.466 E0.09020
G1 X88.880 Y83.466 E0.01681
G1 X86.317 Y80.902 E0.11397
G1 X86.317 Y80.367 E0.01681
G1 X89.415 Y83.466 E0.13774
G1 X89.949 Y83.466 E0.01681
G1 X86.317 Y79.833 E0.16150
G1 X86.317 Y79.298 E0.01681
G1 X90.484 Y83.466 E0.18527
G1 X91.019 Y83.466 E0.01681
G1 X86.317 Y78.763 E0.20904
G1 X86.317 Y78.229 E0.01681
G1 X91.553 Y83.466 E0.23281
G1 X92.088 Y83.466 E0.01681
G1 X86.317 Y77.694 E0.25658
G1 X86.317 Y77.159 E0.01681
G1 X92.623 Y83.466 E0.28035
G1 X93.157 Y83.466 E0.01681
G1 X86.317 Y76.625 E0.30412
G1 X86.317 Y76.090 E0.01681
G1 X93.692 Y83.466 E0.32789
G1 X94.227 Y83.466 E0.01681
G1 X86.317 Y75.555 E0.35166
G1 X86.317 Y75.021 E0.01681
G1 X94.761 Y83.466 E0.37543
G1 X95.296 Y83.466 E0.01681
G1 X86.741 Y74.910 E0.38034
G1 X87.276 Y74.910 E0.01681
G1 X95.831 Y83.466 E0.38034
G1 X96.365 Y83.466 E0.01681
G1 X87.810 Y74.910 E0.38034
G1 X88.345 Y74.910 E0.01681
G1 X96.900 Y83.466 E0.38034
G1 X97.435 Y83.466 E0.01681
G1 X88.879 Y74.910 E0.38034
G1 X89.414 Y74.910 E0.01681
G1 X97.969 Y83.466 E0.38034
G1 X98.504 Y83.466 E0.01681
G1 X89.949 Y74.910 E0.38034
G1 X90.483 Y74.910 E0.01681
G1 X99.039 Y83.466 E0.38034
G1 X99.573 Y83.466 E0.01681
G1 X91.018 Y74.910 E0.38034
G1 X91.553 Y74.910 E0.01681
G1 X100.108 Y83.466 E0.38034
G1 X100.643 Y83.466 E0.01681
G1 X92.087 Y74.910 E0.38034
G1 X92.549 Y74.910 E0.01451
G1 X92.549 Y74.837 E0.00229
G1 X101.177 Y83.466 E0.38358
G1 X101.712 Y83.466 E0.01681
G1 X92.549 Y74.303 E0.40735
G1 X92.549 Y73.768 E0.01681
G1 X102.247 Y83.466 E0.43112
G1 X102.781 Y83.466 E0.01681
G1 X92.549 Y73.233 E0.45489
G1 X92.549 Y72.699 E0.01681
G1 X103.316 Y83.466 E0.47866
G1 X103.851 Y83.466 E0.01681
G1 X92.549 Y72.164 E0.50243
G1 X92.549 Y71.629 E0.01681
G1 X104.385 Y83.466 E0.52620
G1 X104.920 Y83.466 E0.01681
G1 X92.549 Y71.095 E0.54997
G1 X92.549 Y70.560 E0.01681
G1 X105.455 Y83.466 E0.57373
G1 X105.968 Y83.466 E0.01616
G1 X105.968 Y83.445 E0.00065
G1 X92.549 Y70.025 E0.59658
G1 X92.549 Y69.491 E0.01681
G1 X105.968 Y82.910 E0.59658
G1 X105.968 Y82.375 E0.01681
G1 X92.549 Y68.956 E0.59658
M73 P1 R166
G1 X92.549 Y68.421 E0.01681
G1 X106.138 Y82.010 E0.60413
G1 E-0.80000 F2100.000
G1 Z0.800 F10800.000
G1 X105.284 Y74.741
G1 Z0.200
G1 E0.80000 F2100.000
G1 F1200.000
G1 X105.968 Y75.425 E0.03042
G1 X105.968 Y75.960 E0.01681
G1 X104.919 Y74.910 E0.04665
G1 X104.385 Y74.910 E0.01681
G1 X105.968 Y76.494 E0.07042
G1 X105.968 Y77.029 E0.01681
G1 X103.850 Y74.910 E0.09419
G1 X103.315 Y74.910 E0.01681
G1 X105.968 Y77.564 E0.11795
G1 X105.968 Y78.098 E0.01681
G1 X102.781 Y74.910 E0.14172
G1 X102.246 Y74.910 E0.01681
G1 X105.968 Y78.633 E0.16549
G1 X105.968 Y79.168 E0.01681
G1 X101.711 Y74.910 E0.18926
G1 X101.177 Y74.910 E0.01681
G1 X105.968 Y79.702 E0.21303
G1 X105.968 Y80.237 E0.01681
G1 X100.642 Y74.910 E0.23680
G1 X100.107 Y74.910 E0.01681
G1 X105.968 Y80.771 E0.26057
G1 X105.968 Y81.306 E0.01681
G1 X92.549 Y67.887 E0.59658
G1 X92.549 Y67.352 E0.01681
G1 X99.736 Y74.539 E0.31950
G1 X99.736 Y74.004 E0.01681
G1 X92.549 Y66.817 E0.31950
G1 X92.549 Y66.283 E0.01681
G1 X99.736 Y73.470 E0.31950
G1 X99.736 Y72.935 E0.01681
G1 X92.549 Y65.748 E0.31950
G1 X92.549 Y65.214 E0.01681
G1 X99.736 Y72.400 E0.31950
G1 X99.736 Y71.866 E0.01681
G1 X92.549 Y64.679 E0.31950
G1 X92.549 Y64.144 E0.01681
G1 X99.736 Y71.331 E0.31950
G1 X99.736 Y70.796 E0.01681
G1 X92.549 Y63.610 E0.31950
G1 X92.549 Y63.075 E0.01681
G1 X99.736 Y70.262 E0.31950
G1 X99.736 Y69.727 E0.01681
G1 X92.549 Y62.540 E0.31950
G1 X92.549 Y62.006 E0.01681
G1 X99.736 Y69.192 E0.31950
G1 X99.736 Y68.658 E0.01681
G1 X92.549 Y61.471 E0.31950
G1 X92.549 Y60.936 E0.01681
G1 X99.736 Y68.123 E0.31950
G1 X99.736 Y67.588 E0.01681
G1 X92.549 Y60.402 E0.31950
G1 X92.549 Y59.867 E0.01681
G1 X99.736 Y67.054 E0.31950
G1 X99.736 Y66.519 E0.01681
G1 X92.549 Y59.332 E0.31950
G1 X92.549 Y58.798 E0.01681
G1 X99.736 Y65.984 E0.31950
G1 X99.736 Y65.450 E0.01681
G1 X92.549 Y58.263 E0.31950
G1 X92.549 Y57.728 E0.01681
G1 X99.736 Y64.915 E0.31950
G1 X99.736 Y64.380 E0.01681
G1 X92.549 Y57.194 E0.31950
G1 X92.549 Y56.659 E0.01681
G1 X99.736 Y63.846 E0.31950
G1 X99.736 Y63.311 E0.01681
G1 X92.549 Y56.124 E0.31950
G1 X92.549 Y55.590 E0.01681
G1 X99.736 Y62.777 E0.31950
G1 X99.736 Y62.242 E0.01681
G1 X92.549 Y55.055 E0.31950
G1 X92.549 Y54.520 E0.01681
G1 X99.906 Y61.877 E0.32705
G1 E-0.80000 F2100.000
G1 Z0.800 F10800.000
G1 X87.631 Y53.345
G1 Z0.200
G1 E0.80000 F2100.000
G1 F1200.000
G1 X88.125 Y53.839 E0.02197
G1 X88.660 Y53.839 E0.01681
G1 X87.801 Y52.980 E0.03819
G1 X87.801 Y52.445 E0.01681
G1 X89.195 Y53.839 E0.06196
G1 X89.729 Y53.839 E0.01681
G1 X87.801 Y51.911 E0.08573
G1 X87.801 Y51.376 E0.01681
G1 X90.264 Y53.839 E0.10950
G1 X90.799 Y53.839 E0.01681
G1 X87.801 Y50.841 E0.13327
G1 X87.801 Y50.307 E0.01681
G1 X91.333 Y53.839 E0.15704
G1 X91.868 Y53.839 E0.01681
G1 X87.801 Y49.772 E0.18081
G1 X87.801 Y49.237 E0.01681
G1 X99.736 Y61.173 E0.53060
G1 X99.736 Y60.638 E0.01681
G1 X87.801 Y48.703 E0.53060
G1 X87.801 Y48.168 E0.01681
G1 X99.736 Y60.103 E0.53060
G1 X99.736 Y59.569 E0.01681
G1 X87.801 Y47.633 E0.53060
G1 X87.801 Y47.099 E0.01681
G1 X99.736 Y59.034 E0.53060
G1 X99.736 Y58.499 E0.01681
G1 X87.801 Y46.564 E0.53060
G1 X87.801 Y46.029 E0.01681
G1 X99.736 Y57.965 E0.53060
G1 X99.736 Y57.430 E0.01681
G1 X87.801 Y45.495 E0.53060
G1 X87.801 Y44.960 E0.01681
G1 X99.736 Y56.895 E0.53060
G1 X99.736 Y56.361 E0.01681
G1 X87.801 Y44.426 E0.53060
M73 P1 R165
G1 X87.801 Y44.110 E0.00993
G1 X88.020 Y44.110 E0.00687
G1 X99.736 Y55.826 E0.52088
G1 X99.736 Y55.291 E0.01681
G1 X88.554 Y44.110 E0.49711
G1 X89.089 Y44.110 E0.01681
G1 X99.736 Y54.757 E0.47334
G1 X99.736 Y54.222 E0.01681
G1 X89.624 Y44.110 E0.44957
G1 X90.158 Y44.110 E0.01681
G1 X99.888 Y53.839 E0.43255
G1 X100.422 Y53.839 E0.01681
G1 X90.693 Y44.110 E0.43255
G1 X91.227 Y44.110 E0.01681
G1 X100.957 Y53.839 E0.43255
G1 X101.492 Y53.839 E0.01681
G1 X91.762 Y44.110 E0.43255
G1 X92.297 Y44.110 E0.01681
G1 X102.026 Y53.839 E0.43255
G1 X102.561 Y53.839 E0.01681
G1 X92.831 Y44.110 E0.43255
G1 X93.366 Y44.110 E0.01681
G1 X103.096 Y53.839 E0.43255
G1 X103.630 Y53.839 E0.01681
G1 X93.901 Y44.110 E0.43255
G1 X94.435 Y44.110 E0.01681
G1 X104.165 Y53.839 E0.43255
G1 X104.484 Y53.839 E0.01004
G1 X104.484 Y53.624 E0.00677
G1 X94.970 Y44.110 E0.42297
G1 X95.505 Y44.110 E0.01681
G1 X104.484 Y53.089 E0.39920
G1 X104.484 Y52.554 E0.01681
G1 X96.039 Y44.110 E0.37543
G1 X96.574 Y44.110 E0.01681
G1 X104.484 Y52.020 E0.35166
G1 X104.484 Y51.485 E0.01681
G1 X97.109 Y44.110 E0.32789
G1 X97.643 Y44.110 E0.01681
G1 X104.484 Y50.950 E0.30412
G1 X104.484 Y50.416 E0.01681
G1 X98.178 Y44.110 E0.28036
G1 X98.713 Y44.110 E0.01681
G1 X104.484 Y49.881 E0.25659
G1 X104.484 Y49.346 E0.01681
G1 X99.247 Y44.110 E0.23282
G1 X99.782 Y44.110 E0.01681
G1 X104.484 Y48.812 E0.20905
G1 X104.484 Y48.277 E0.01681
G1 X100.317 Y44.110 E0.18528
G1 X100.851 Y44.110 E0.01681
G1 X104.484 Y47.742 E0.16151
G1 X104.484 Y47.208 E0.01681
G1 X101.386 Y44.110 E0.13774
G1 X101.921 Y44.110 E0.01681
G1 X104.484 Y46.673 E0.11397
G1 X104.484 Y46.138 E0.01681
G1 X102.455 Y44.110 E0.09020
G1 X102.990 Y44.110 E0.01681
G1 X104.484 Y45.604 E0.06643
G1 X104.484 Y45.069 E0.01681
G1 X103.525 Y44.110 E0.04266
G1 X104.059 Y44.110 E0.01681
G1 X104.654 Y44.704 E0.02644
