; generated by PrusaSlicer 2.3.1+win64 on 2021-09-10 at 14:56:54 UTC

; 

; external perimeters extrusion width = 0.45mm
; perimeters extrusion width = 0.45mm
; infill extrusion width = 0.45mm
; solid infill extrusion width = 0.45mm
; top infill extrusion width = 0.40mm
; support material extrusion width = 0.35mm
; first layer extrusion width = 0.42mm

M73 P0 R78
M201 X9000 Y9000 Z500 E10000 ; sets maximum accelerations, mm/sec^2
M203 X500 Y500 Z12 E120 ; sets maximum feedrates, mm/sec
M204 P2000 R1500 T2000 ; sets acceleration (P, T) and retract acceleration (R), mm/sec^2
M205 X10.00 Y10.00 Z0.20 E2.50 ; sets the jerk limits, mm/sec
M205 S0 T0 ; sets the minimum extruding and travel feed rate, mm/sec
M107
;TYPE:Custom
M862.3 P "MK2S" ; printer model check
M862.1 P0.4 ; nozzle diameter check
M115 U3.2.3 ; tell printer latest fw version
G90 ; use absolute coordinates
M83 ; extruder relative mode
M204 S2000 T1500 ; MK2 firmware only supports the old M204 format
M104 S215 ; set extruder temp
M140 S60 ; set bed temp
M190 S60 ; wait for bed temp
M109 S215 ; wait for extruder temp
G28 W ; home all without mesh bed level
G80 ; mesh bed leveling
G1 Y-3.0 F1000.0 ; go outside print area
G92 E0.0
G1 X60.0 E9.0  F1000.0 ; intro line
G1 X100.0 E12.5 F1000.0 ; intro line
G92 E0.0
G21 ; set units to millimeters
G90 ; use absolute coordinates
M83 ; use relative distances for extrusion
M900 K0.05 ; Filament gcode LA 1.5
M900 K30 ; Filament gcode LA 1.0
;LAYER_CHANGE
;Z:0.2
;HEIGHT:0.2
;BEFORE_LAYER_CHANGE
G92 E0.0
;0.2


G1 E-0.80000 F2100.000
G1 Z0.600 F10800.000
;AFTER_LAYER_CHANGE
;0.2
G1 X111.104 Y78.658
G1 Z0.200
G1 E0.80000 F2100.000
M204 S1000
;TYPE:Support material
;WIDTH:0.42
G1 F1200.000
G1 X113.733 Y76.029 E0.11658
G1 X114.266 Y76.562 E0.02365
G1 X111.865 Y78.964 E0.10650
G1 X111.865 Y80.030 E0.03344
G1 X114.800 Y77.095 E0.13014
G1 X115.333 Y77.628 E0.02365
G1 X111.865 Y81.097 E0.15379
G1 X111.865 Y81.301 E0.00640
G1 X113.581 Y79.585 E0.07608
G1 X114.012 Y80.016 E0.01912
G1 X115.866 Y78.162 E0.08224
G1 X116.400 Y78.695 E0.02365
G1 X114.545 Y80.550 E0.08224
G1 X115.078 Y81.083 E0.02365
G1 X116.933 Y79.228 E0.08224
G1 X117.466 Y79.762 E0.02365
G1 X115.611 Y81.616 E0.08224
G1 X116.145 Y82.149 E0.02365
G1 X117.999 Y80.295 E0.08224
G1 X118.533 Y80.828 E0.02365
G1 X116.678 Y82.683 E0.08224
G1 X117.211 Y83.216 E0.02365
G1 X119.066 Y81.361 E0.08224
G1 X119.599 Y81.895 E0.02365
G1 X118.257 Y83.236 E0.05950
G1 X119.324 Y83.236 E0.03344
G1 X120.132 Y82.428 E0.03585
G1 X120.666 Y82.961 E0.02365
G1 X120.221 Y83.406 E0.01973
G1 E-0.80000 F2100.000
G1 Z0.800 F10800.000
G1 X113.785 Y80.078
G1 Z0.200
G1 E0.80000 F2100.000
;TYPE:Support material interface
;WIDTH:0.35
G1 F1200.000
G1 X111.830 Y82.034 E0.07061
G1 X111.830 Y82.385 E0.00897
G1 X112.196 Y82.385 E0.00934
G1 X114.046 Y80.535 E0.06682
G1 X114.405 Y80.893 E0.01295
G1 X112.913 Y82.385 E0.05388
G1 X113.630 Y82.385 E0.01831
G1 X114.763 Y81.252 E0.04093
G1 X115.122 Y81.610 E0.01295
G1 X114.347 Y82.385 E0.02798
G1 X115.064 Y82.385 E0.01831
G1 X115.480 Y81.969 E0.01503
G1 X115.839 Y82.327 E0.01295
G1 X115.643 Y82.523 E0.00708
G1 X116.654 Y82.947 F10800.000
G1 F1200.000
G1 X116.380 Y83.221 E0.00989
G1 X115.955 Y83.406 F10800.000
;TYPE:Support material
;WIDTH:0.42
G1 F1200.000
G1 X116.176 Y83.185 E0.00982
G1 X116.176 Y82.929 E0.00803
G1 X115.975 Y82.727 E0.00893
G1 X115.567 Y82.727 E0.01278
G1 X115.058 Y83.236 E0.02258
G1 X113.991 Y83.236 E0.03344
G1 X114.500 Y82.727 E0.02258
G1 X113.434 Y82.727 E0.03344
G1 X112.925 Y83.236 E0.02258
G1 X111.865 Y83.236 E0.03323
G1 X112.537 Y82.558 E0.02996
G1 E-0.80000 F2100.000
G1 Z0.800 F10800.000
G1 X115.066 Y93.894
G1 Z0.200
G1 E0.80000 F2100.000
G1 F1200.000
G1 X115.745 Y93.215 E0.03011
G1 X114.678 Y93.215 E0.03344
G1 X114.169 Y93.724 E0.02258
G1 X113.102 Y93.724 E0.03344
G1 X113.611 Y93.215 E0.02258
G1 X112.545 Y93.215 E0.03344
G1 X111.866 Y93.894 E0.03011
G1 X111.692 Y94.363 F10800.000
;TYPE:Support material interface
;WIDTH:0.35
G1 F1200.000
G1 X111.988 Y94.066 E0.01071
G1 X112.705 Y94.066 E0.01831
G1 X111.985 Y94.787 E0.02602
G1 X112.343 Y95.145 E0.01295
G1 X113.422 Y94.066 E0.03896
G1 X114.140 Y94.066 E0.01831
G1 X112.702 Y95.504 E0.05191
G1 X113.061 Y95.863 E0.01295
G1 X114.857 Y94.066 E0.06486
G1 X115.574 Y94.066 E0.01831
G1 X113.321 Y96.319 E0.08133
G1 X111.695 Y96.198 F10800.000
;TYPE:Support material
;WIDTH:0.42
G1 F1200.000
G1 X112.304 Y95.589 E0.02698
G1 X112.837 Y96.123 E0.02365
G1 X111.865 Y97.095 E0.04311
G1 X111.865 Y97.655 E0.01757
G1 X111.557 Y97.963 E0.01366
G1 X110.996 Y97.963 E0.01757
G1 X110.982 Y97.977 E0.00062
G1 X111.516 Y98.511 E0.02365
G1 X113.370 Y96.656 E0.08224
G1 X113.581 Y96.866 E0.00933
G1 X117.232 Y93.215 E0.16190
G1 X117.878 Y93.215 E0.02025
G1 X112.049 Y99.044 E0.25846
G1 X112.582 Y99.577 E0.02365
G1 X118.944 Y93.215 E0.28210
G1 X120.011 Y93.215 E0.03344
G1 X112.995 Y100.230 E0.31107
G1 E-0.80000 F2100.000
G1 Z0.800 F10800.000
G1 X124.289 Y101.736
G1 Z0.200
G1 E0.80000 F2100.000
G1 F1200.000
G1 X130.144 Y95.880 E0.25964
G1 X130.144 Y96.947 E0.03344
G1 X124.942 Y102.149 E0.23067
G1 X125.475 Y102.682 E0.02365
G1 X130.144 Y98.013 E0.20703
G1 X130.144 Y99.080 E0.03344
G1 X126.009 Y103.215 E0.18338
G1 X126.542 Y103.749 E0.02365
G1 X130.843 Y99.448 E0.19072
G1 X131.909 Y99.448 E0.03344
G1 X127.075 Y104.282 E0.21436
G1 X127.608 Y104.815 E0.02365
G1 X132.976 Y99.448 E0.23801
G1 X134.042 Y99.448 E0.03344
G1 X128.142 Y105.348 E0.26166
G1 X128.675 Y105.882 E0.02365
G1 X135.109 Y99.448 E0.28530
G1 X136.176 Y99.448 E0.03344
G1 X129.208 Y106.415 E0.30895
G1 X129.741 Y106.948 E0.02365
G1 X137.242 Y99.448 E0.33259
G1 X138.309 Y99.448 E0.03344
G1 X131.906 Y105.850 E0.28390
G1 X132.439 Y106.383 E0.02365
G1 X139.375 Y99.448 E0.30755
G1 X140.442 Y99.448 E0.03344
G1 X132.973 Y106.917 E0.33119
G1 X133.157 Y107.101 E0.00817
G1 X134.788 Y105.470 E0.07234
G1 X135.137 Y105.819 E0.01548
G1 X155.644 Y85.312 E0.90929
G1 X156.177 Y85.845 E0.02365
G1 X135.670 Y106.352 E0.90929
G1 X136.204 Y106.885 E0.02365
G1 X156.710 Y86.379 E0.90929
G1 X156.926 Y86.594 E0.00957
G1 X155.295 Y88.226 E0.07234
G1 X155.612 Y88.543 E0.01408
G1 X136.737 Y107.418 E0.83696
G1 X137.270 Y107.952 E0.02365
G1 X156.145 Y89.077 E0.83696
G1 X156.679 Y89.610 E0.02365
G1 X137.804 Y108.485 E0.83696
G1 X138.051 Y108.732 E0.01096
G1 X139.682 Y107.101 E0.07234
G1 X139.968 Y107.387 E0.01268
G1 X155.581 Y91.774 E0.69228
G1 X156.114 Y92.308 E0.02365
G1 X140.501 Y107.920 E0.69228
G1 X141.035 Y108.453 E0.02365
G1 X156.647 Y92.841 E0.69228
G1 X156.926 Y93.120 E0.01236
G1 X155.295 Y94.751 E0.07234
G1 X155.549 Y95.006 E0.01128
G1 X143.199 Y107.355 E0.54761
G1 X143.733 Y107.889 E0.02365
G1 X156.082 Y95.539 E0.54761
G1 X156.616 Y96.072 E0.02365
G1 X144.266 Y108.422 E0.54761
G1 X144.576 Y108.732 E0.01376
G1 X146.208 Y107.101 E0.07234
G1 X146.430 Y107.324 E0.00988
G1 X155.518 Y98.237 E0.40294
G1 X156.051 Y98.770 E0.02365
G1 X146.964 Y107.857 E0.40294
G1 X147.497 Y108.390 E0.02365
G1 X156.584 Y99.303 E0.40294
G1 X156.926 Y99.645 E0.01516
G1 X155.295 Y101.277 E0.07234
G1 X155.486 Y101.468 E0.00849
G1 X149.662 Y107.292 E0.25826
G1 X150.195 Y107.826 E0.02365
G1 X156.019 Y102.001 E0.25826
G1 X156.553 Y102.534 E0.02365
G1 X150.608 Y108.479 E0.26358
G1 X141.322 Y98.568 F10800.000
G1 F1200.000
G1 X156.742 Y83.148 E0.68376
G1 X156.209 Y82.614 E0.02365
G1 X141.491 Y97.332 E0.65259
G1 X141.491 Y96.265 E0.03344
G1 X142.624 Y95.132 E0.05025
G1 X142.091 Y94.598 E0.02365
G1 X141.491 Y95.198 E0.02660
G1 X141.491 Y94.132 E0.03344
G1 X141.678 Y93.945 E0.00828
G1 X143.205 Y94.551 F10800.000
G1 F1200.000
G1 X155.675 Y82.081 E0.55293
G1 X155.295 Y81.700 E0.01688
G1 X156.926 Y80.069 E0.07234
G1 X156.773 Y79.916 E0.00677
G1 X142.792 Y93.897 E0.61995
G1 X142.259 Y93.364 E0.02365
G1 X156.240 Y79.383 E0.61995
G1 X155.707 Y78.850 E0.02365
G1 X143.357 Y91.200 E0.54761
M73 P1 R77
G1 X142.824 Y90.666 E0.02365
G1 X156.805 Y76.685 E0.61995
G1 X156.272 Y76.152 E0.02365
G1 X142.290 Y90.133 E0.61995
G1 X142.015 Y89.857 E0.01224
G1 X143.646 Y88.226 E0.07234
G1 X143.389 Y87.968 E0.01141
G1 X155.738 Y75.619 E0.54761
G1 X155.295 Y75.175 E0.01967
G1 X156.926 Y73.544 E0.07234
G1 X156.836 Y73.454 E0.00397
G1 X142.855 Y87.435 E0.61995
G1 X142.322 Y86.902 E0.02365
G1 X156.303 Y72.921 E0.61995
G1 X155.770 Y72.387 E0.02365
G1 X143.420 Y84.737 E0.54761
G1 X142.887 Y84.204 E0.02365
G1 X155.237 Y71.854 E0.54761
G1 X154.703 Y71.321 E0.02365
G1 X142.354 Y83.671 E0.54761
G1 X142.015 Y83.332 E0.01503
G1 X143.646 Y81.700 E0.07234
G1 X143.452 Y81.506 E0.00861
G1 X154.170 Y70.788 E0.47527
G1 X153.637 Y70.254 E0.02365
G1 X141.491 Y82.400 E0.53856
G1 X141.491 Y81.333 E0.03344
G1 X153.104 Y69.721 E0.51491
G1 X152.570 Y69.188 E0.02365
G1 X141.491 Y80.267 E0.49126
G1 X141.491 Y79.200 E0.03344
G1 X152.037 Y68.655 E0.46762
G1 X151.504 Y68.121 E0.02365
G1 X141.491 Y78.134 E0.44397
G1 X141.491 Y77.312 E0.02577
G1 X141.369 Y77.190 E0.00543
G1 X149.339 Y69.219 E0.35342
G1 X148.806 Y68.686 E0.02365
G1 X140.488 Y77.004 E0.36883
G1 X139.421 Y77.004 E0.03344
G1 X148.273 Y68.153 E0.39247
G1 X147.839 Y67.719 E0.01923
G1 X146.208 Y69.351 E0.07234
G1 X146.108 Y69.251 E0.00442
G1 X138.355 Y77.004 E0.34378
G1 X137.288 Y77.004 E0.03344
G1 X145.575 Y68.718 E0.36743
G1 X145.041 Y68.184 E0.02365
G1 X136.222 Y77.004 E0.39107
G1 X135.155 Y77.004 E0.03344
G1 X142.877 Y69.282 E0.34238
G1 X142.344 Y68.749 E0.02365
G1 X134.089 Y77.004 E0.36603
G1 X133.022 Y77.004 E0.03344
G1 X141.810 Y68.216 E0.38968
G1 X141.314 Y67.719 E0.02203
G1 X139.682 Y69.351 E0.07234
G1 X139.646 Y69.314 E0.00162
G1 X131.956 Y77.004 E0.34099
G1 X130.889 Y77.004 E0.03344
G1 X139.112 Y68.781 E0.36463
G1 X138.579 Y68.247 E0.02365
G1 X127.861 Y78.966 E0.47527
G1 X128.394 Y79.499 E0.02365
G1 X130.144 Y77.749 E0.07761
G1 X130.144 Y78.815 E0.03344
G1 X128.927 Y80.032 E0.05396
G1 X129.460 Y80.566 E0.02365
G1 X130.144 Y79.882 E0.03032
G1 X130.144 Y80.949 E0.03344
G1 X129.874 Y81.219 E0.01199
G1 X127.207 Y78.553 F10800.000
G1 F1200.000
G1 X134.783 Y70.977 E0.33592
G1 X134.250 Y70.444 E0.02365
G1 X126.794 Y77.899 E0.33060
G1 X126.261 Y77.366 E0.02365
G1 X133.717 Y69.910 E0.33060
G1 X133.183 Y69.377 E0.02365
G1 X125.728 Y76.833 E0.33060
G1 X125.194 Y76.300 E0.02365
G1 X131.019 Y70.475 E0.25826
G1 X130.485 Y69.942 E0.02365
G1 X124.661 Y75.766 E0.25826
G1 X124.128 Y75.233 E0.02365
G1 X130.072 Y69.289 E0.26358
G1 E-0.80000 F2100.000
G1 Z0.800 F10800.000
G1 X131.257 Y98.334
G1 Z0.200
G1 E0.80000 F2100.000
;TYPE:Perimeter
G1 F1200.000
G1 X131.257 Y92.102 E0.19542
G1 X110.752 Y92.102 E0.64294
G1 X110.752 Y96.850 E0.14888
G1 X100.457 Y96.850 E0.32280
G1 X100.457 Y79.601 E0.54083
G1 X110.752 Y79.601 E0.32280
G1 X110.752 Y84.350 E0.14888
G1 X131.257 Y84.350 E0.64294
G1 X131.257 Y78.117 E0.19542
G1 X140.378 Y78.117 E0.28598
G1 X140.378 Y98.334 E0.63390
G1 X131.317 Y98.334 E0.28410
G1 X130.880 Y98.712 F10800.000
;TYPE:External perimeter
G1 F1200.000
G1 X130.880 Y92.479 E0.19542
G1 X111.129 Y92.479 E0.61929
G1 X111.129 Y97.227 E0.14888
G1 X100.079 Y97.227 E0.34644
G1 X100.079 Y79.224 E0.56448
G1 X111.129 Y79.224 E0.34644
G1 X111.129 Y83.972 E0.14888
G1 X130.880 Y83.972 E0.61929
G1 X130.880 Y77.740 E0.19542
G1 X140.755 Y77.740 E0.30962
G1 X140.755 Y98.712 E0.65755
G1 X130.940 Y98.712 E0.30774
G1 X130.939 Y98.316 F10800.000
G1 X131.370 Y97.367
;TYPE:Solid infill
;WIDTH:0.42098
G1 F1200.000
G1 X132.055 Y98.052 E0.03042
G1 X132.589 Y98.052 E0.01681
G1 X131.540 Y97.003 E0.04664
G1 X131.540 Y96.468 E0.01681
G1 X133.124 Y98.052 E0.07041
G1 X133.659 Y98.052 E0.01681
G1 X131.540 Y95.933 E0.09418
G1 X131.540 Y95.399 E0.01681
G1 X134.193 Y98.052 E0.11795
G1 X134.728 Y98.052 E0.01681
G1 X131.540 Y94.864 E0.14172
G1 X131.540 Y94.329 E0.01681
G1 X135.263 Y98.052 E0.16549
G1 X135.797 Y98.052 E0.01681
G1 X131.540 Y93.795 E0.18926
G1 X131.540 Y93.260 E0.01681
G1 X136.332 Y98.052 E0.21303
G1 X136.867 Y98.052 E0.01681
G1 X131.540 Y92.725 E0.23680
G1 X131.540 Y92.191 E0.01681
G1 X137.571 Y98.221 E0.26811
G1 E-0.80000 F2100.000
G1 Z0.800 F10800.000
G1 X140.265 Y78.995
G1 Z0.200
G1 E0.80000 F2100.000
G1 F1200.000
G1 X139.670 Y78.400 E0.02644
G1 X139.136 Y78.400 E0.01681
G1 X140.095 Y79.359 E0.04266
G1 X140.095 Y79.894 E0.01681
G1 X138.601 Y78.400 E0.06643
G1 X138.066 Y78.400 E0.01681
G1 X140.095 Y80.429 E0.09020
G1 X140.095 Y80.963 E0.01681
G1 X137.532 Y78.400 E0.11397
G1 X136.997 Y78.400 E0.01681
G1 X140.095 Y81.498 E0.13774
G1 X140.095 Y82.033 E0.01681
G1 X136.462 Y78.400 E0.16151
G1 X135.928 Y78.400 E0.01681
G1 X140.095 Y82.567 E0.18528
G1 X140.095 Y83.102 E0.01681
G1 X135.393 Y78.400 E0.20905
G1 X134.858 Y78.400 E0.01681
G1 X140.095 Y83.637 E0.23282
G1 X140.095 Y84.171 E0.01681
G1 X134.324 Y78.400 E0.25659
G1 X133.789 Y78.400 E0.01681
G1 X140.095 Y84.706 E0.28036
M73 P2 R77
G1 X140.095 Y85.241 E0.01681
G1 X133.254 Y78.400 E0.30412
G1 X132.720 Y78.400 E0.01681
G1 X140.095 Y85.775 E0.32789
G1 X140.095 Y86.310 E0.01681
G1 X132.185 Y78.400 E0.35166
G1 X131.650 Y78.400 E0.01681
G1 X140.095 Y86.845 E0.37543
G1 X140.095 Y87.379 E0.01681
G1 X131.540 Y78.824 E0.38034
G1 X131.540 Y79.359 E0.01681
G1 X140.095 Y87.914 E0.38034
G1 X140.095 Y88.449 E0.01681
G1 X131.540 Y79.893 E0.38034
G1 X131.540 Y80.428 E0.01681
G1 X140.095 Y88.983 E0.38034
G1 X140.095 Y89.518 E0.01681
G1 X131.540 Y80.963 E0.38034
G1 X131.540 Y81.497 E0.01681
G1 X140.095 Y90.053 E0.38034
G1 X140.095 Y90.587 E0.01681
G1 X131.540 Y82.032 E0.38034
G1 X131.540 Y82.567 E0.01681
G1 X140.095 Y91.122 E0.38034
G1 X140.095 Y91.657 E0.01681
G1 X131.540 Y83.101 E0.38034
G1 X131.540 Y83.636 E0.01681
G1 X140.095 Y92.191 E0.38034
G1 X140.095 Y92.726 E0.01681
G1 X131.540 Y84.171 E0.38034
G1 X131.540 Y84.632 E0.01451
G1 X131.467 Y84.632 E0.00230
G1 X140.095 Y93.261 E0.38358
G1 X140.095 Y93.795 E0.01681
G1 X130.932 Y84.632 E0.40735
G1 X130.398 Y84.632 E0.01681
G1 X140.095 Y94.330 E0.43112
G1 X140.095 Y94.865 E0.01681
G1 X129.863 Y84.632 E0.45489
G1 X129.328 Y84.632 E0.01681
G1 X140.095 Y95.399 E0.47866
G1 X140.095 Y95.934 E0.01681
G1 X128.794 Y84.632 E0.50243
M73 P2 R76
G1 X128.259 Y84.632 E0.01681
G1 X140.095 Y96.469 E0.52620
G1 X140.095 Y97.003 E0.01681
G1 X127.724 Y84.632 E0.54997
G1 X127.190 Y84.632 E0.01681
G1 X140.095 Y97.538 E0.57374
G1 X140.095 Y98.052 E0.01615
G1 X140.074 Y98.052 E0.00065
G1 X126.655 Y84.632 E0.59658
G1 X126.120 Y84.632 E0.01681
G1 X139.540 Y98.052 E0.59658
G1 X139.005 Y98.052 E0.01681
G1 X125.586 Y84.632 E0.59658
G1 X125.051 Y84.632 E0.01681
G1 X138.470 Y98.052 E0.59658
G1 X137.936 Y98.052 E0.01681
G1 X124.517 Y84.632 E0.59658
G1 X123.982 Y84.632 E0.01681
G1 X131.169 Y91.819 E0.31950
G1 X130.634 Y91.819 E0.01681
G1 X123.447 Y84.632 E0.31950
G1 X122.913 Y84.632 E0.01681
G1 X130.099 Y91.819 E0.31950
G1 X129.565 Y91.819 E0.01681
G1 X122.378 Y84.632 E0.31950
G1 X121.843 Y84.632 E0.01681
G1 X129.030 Y91.819 E0.31950
G1 X128.495 Y91.819 E0.01681
G1 X121.309 Y84.632 E0.31950
G1 X120.774 Y84.632 E0.01681
G1 X127.961 Y91.819 E0.31950
G1 X127.426 Y91.819 E0.01681
G1 X120.239 Y84.632 E0.31950
G1 X119.705 Y84.632 E0.01681
G1 X126.891 Y91.819 E0.31950
G1 X126.357 Y91.819 E0.01681
G1 X119.170 Y84.632 E0.31950
G1 X118.635 Y84.632 E0.01681
G1 X125.822 Y91.819 E0.31950
G1 X125.287 Y91.819 E0.01681
G1 X118.101 Y84.632 E0.31950
G1 X117.566 Y84.632 E0.01681
G1 X124.753 Y91.819 E0.31950
G1 X124.218 Y91.819 E0.01681
G1 X117.031 Y84.632 E0.31950
G1 X116.497 Y84.632 E0.01681
G1 X123.683 Y91.819 E0.31950
G1 X123.149 Y91.819 E0.01681
G1 X115.962 Y84.632 E0.31950
G1 X115.427 Y84.632 E0.01681
G1 X122.614 Y91.819 E0.31950
G1 X122.079 Y91.819 E0.01681
G1 X114.893 Y84.632 E0.31950
G1 X114.358 Y84.632 E0.01681
G1 X121.545 Y91.819 E0.31950
G1 X121.010 Y91.819 E0.01681
G1 X113.823 Y84.632 E0.31950
G1 X113.289 Y84.632 E0.01681
G1 X120.476 Y91.819 E0.31950
G1 X119.941 Y91.819 E0.01681
G1 X112.754 Y84.632 E0.31950
G1 X112.219 Y84.632 E0.01681
G1 X119.406 Y91.819 E0.31950
G1 X118.872 Y91.819 E0.01681
G1 X111.685 Y84.632 E0.31950
G1 X111.150 Y84.632 E0.01681
G1 X118.337 Y91.819 E0.31950
G1 X117.802 Y91.819 E0.01681
G1 X105.867 Y79.884 E0.53060
G1 X105.332 Y79.884 E0.01681
