; generated by PrusaSlicer 2.3.1+win64 on 2021-09-15 at 17:42:45 UTC

; 

; external perimeters extrusion width = 0.45mm
; perimeters extrusion width = 0.45mm
; infill extrusion width = 0.45mm
; solid infill extrusion width = 0.45mm
; top infill extrusion width = 0.40mm
; support material extrusion width = 0.35mm
; first layer extrusion width = 0.42mm

M73 P0 R61
M201 X9000 Y9000 Z500 E10000 ; sets maximum accelerations, mm/sec^2
M203 X500 Y500 Z12 E120 ; sets maximum feedrates, mm/sec
M204 P2000 R1500 T2000 ; sets acceleration (P, T) and retract acceleration (R), mm/sec^2
M205 X10.00 Y10.00 Z0.20 E2.50 ; sets the jerk limits, mm/sec
M205 S0 T0 ; sets the minimum extruding and travel feed rate, mm/sec
M107
;TYPE:Custom
M862.3 P "MK2S" ; printer model check
M862.1 P0.4 ; nozzle diameter check
M115 U3.2.3 ; tell printer latest fw version
G90 ; use absolute coordinates
M83 ; extruder relative mode
M204 S2000 T1500 ; MK2 firmware only supports the old M204 format
M104 S215 ; set extruder temp
M140 S60 ; set bed temp
M190 S60 ; wait for bed temp
M109 S215 ; wait for extruder temp
G28 W ; home all without mesh bed level
G80 ; mesh bed leveling
G1 Y-3.0 F1000.0 ; go outside print area
G92 E0.0
G1 X60.0 E9.0  F1000.0 ; intro line
M73 P0 R60
G1 X100.0 E12.5 F1000.0 ; intro line
G92 E0.0
G21 ; set units to millimeters
G90 ; use absolute coordinates
M83 ; use relative distances for extrusion
M900 K0.05 ; Filament gcode LA 1.5
M900 K30 ; Filament gcode LA 1.0
;LAYER_CHANGE
;Z:0.2
;HEIGHT:0.2
;BEFORE_LAYER_CHANGE
G92 E0.0
;0.2


G1 E-0.80000 F2100.000
G1 Z0.600 F10800.000
;AFTER_LAYER_CHANGE
;0.2
G1 X109.163 Y78.658
G1 Z0.200
G1 E0.80000 F2100.000
M204 S1000
;TYPE:Support material
;WIDTH:0.42
G1 F1200.000
G1 X109.163 Y78.340 E0.00998
G1 X109.917 Y78.340 E0.02365
G1 X109.917 Y78.488 E0.00466
G1 X110.671 Y78.488 E0.02365
G1 X110.671 Y78.340 E0.00466
G1 X111.425 Y78.340 E0.02365
G1 X111.425 Y78.488 E0.00466
G1 X111.557 Y78.488 E0.00412
G1 X111.865 Y78.796 E0.01366
G1 X111.865 Y80.962 E0.06792
G1 X112.179 Y80.962 E0.00986
G1 X112.179 Y78.340 E0.08224
G1 X112.933 Y78.340 E0.02365
G1 X112.933 Y80.962 E0.08224
G1 X113.688 Y80.962 E0.02365
G1 X113.688 Y78.340 E0.08224
G1 X114.442 Y78.340 E0.02365
G1 X114.442 Y80.962 E0.08224
G1 X115.196 Y80.962 E0.02365
G1 X115.196 Y78.340 E0.08224
G1 X115.950 Y78.340 E0.02365
G1 X115.950 Y80.962 E0.08224
G1 X116.704 Y80.962 E0.02365
G1 X116.704 Y78.340 E0.08224
G1 X117.458 Y78.340 E0.02365
G1 X117.458 Y80.962 E0.08224
G1 X118.213 Y80.962 E0.02365
G1 X118.213 Y78.340 E0.08224
G1 X118.967 Y78.340 E0.02365
G1 X118.967 Y83.236 E0.15354
G1 X119.721 Y83.236 E0.02365
G1 X119.721 Y78.340 E0.15354
G1 X120.475 Y78.340 E0.02365
G1 X120.475 Y83.406 E0.15886
G1 X117.901 Y83.410 F10800.000
;TYPE:Support material interface
;WIDTH:0.35
G1 F1200.000
G1 X117.901 Y81.304 E0.05375
G1 X117.394 Y81.304 E0.01295
G1 X117.394 Y83.271 E0.05022
G1 X116.887 Y83.271 E0.01295
G1 X116.887 Y81.304 E0.05022
G1 X116.380 Y81.304 E0.01295
G1 X116.380 Y83.271 E0.05022
G1 X115.873 Y83.271 E0.01295
G1 X115.873 Y81.304 E0.05022
G1 X115.365 Y81.304 E0.01295
G1 X115.365 Y83.271 E0.05022
G1 X114.858 Y83.271 E0.01295
G1 X114.858 Y81.304 E0.05022
G1 X114.351 Y81.304 E0.01295
G1 X114.351 Y83.271 E0.05022
G1 X113.844 Y83.271 E0.01295
G1 X113.844 Y81.304 E0.05022
G1 X113.337 Y81.304 E0.01295
G1 X113.337 Y83.271 E0.05022
G1 X112.830 Y83.271 E0.01295
G1 X112.830 Y81.304 E0.05022
G1 X112.323 Y81.304 E0.01295
G1 X112.323 Y83.410 E0.05375
G1 E-0.80000 F2100.000
G1 Z0.800 F10800.000
G1 X112.323 Y95.285
G1 Z0.200
G1 E0.80000 F2100.000
G1 F1200.000
G1 X112.323 Y93.180 E0.05375
G1 X112.830 Y93.180 E0.01295
G1 X112.830 Y95.147 E0.05022
G1 X113.337 Y95.147 E0.01295
G1 X113.337 Y93.180 E0.05022
G1 X113.844 Y93.180 E0.01295
G1 X113.844 Y95.147 E0.05022
G1 X114.351 Y95.147 E0.01295
G1 X114.351 Y93.180 E0.05022
G1 X114.858 Y93.180 E0.01295
G1 X114.858 Y95.147 E0.05022
G1 X115.365 Y95.147 E0.01295
G1 X115.365 Y93.180 E0.05022
G1 X115.873 Y93.180 E0.01295
G1 X115.873 Y95.147 E0.05022
G1 X116.380 Y95.147 E0.01295
G1 X116.380 Y93.180 E0.05022
G1 X116.887 Y93.180 E0.01295
G1 X116.887 Y95.147 E0.05022
G1 X117.394 Y95.147 E0.01295
G1 X117.394 Y93.180 E0.05022
G1 X117.901 Y93.180 E0.01295
G1 X117.901 Y95.285 E0.05375
G1 X120.475 Y98.282 F10800.000
;TYPE:Support material
;WIDTH:0.42
G1 F1200.000
G1 X120.475 Y93.215 E0.15886
G1 X119.721 Y93.215 E0.02365
G1 X119.721 Y98.112 E0.15354
G1 X118.967 Y98.112 E0.02365
G1 X118.967 Y93.215 E0.15354
G1 X118.421 Y93.215 E0.01712
G1 X118.421 Y95.489 E0.07130
G1 X118.213 Y95.489 E0.00653
G1 X118.213 Y98.112 E0.08224
G1 X117.458 Y98.112 E0.02365
G1 X117.458 Y95.489 E0.08224
G1 X116.704 Y95.489 E0.02365
G1 X116.704 Y98.112 E0.08224
G1 X115.950 Y98.112 E0.02365
G1 X115.950 Y95.489 E0.08224
G1 X115.196 Y95.489 E0.02365
G1 X115.196 Y98.112 E0.08224
G1 X114.442 Y98.112 E0.02365
G1 X114.442 Y95.489 E0.08224
G1 X113.688 Y95.489 E0.02365
G1 X113.688 Y98.112 E0.08224
G1 X112.933 Y98.112 E0.02365
G1 X112.933 Y95.489 E0.08224
G1 X112.179 Y95.489 E0.02365
G1 X112.179 Y98.112 E0.08224
G1 X111.425 Y98.112 E0.02365
G1 X111.425 Y97.963 E0.00466
G1 X110.671 Y97.963 E0.02365
G1 X110.671 Y98.112 E0.00466
G1 X109.917 Y98.112 E0.02365
G1 X109.917 Y97.963 E0.00466
G1 X109.163 Y97.963 E0.02365
G1 X109.163 Y98.282 E0.00998
G1 E-0.80000 F2100.000
G1 Z0.800 F10800.000
G1 X127.262 Y94.319
G1 Z0.200
G1 E0.80000 F2100.000
G1 F1200.000
G1 X127.262 Y105.033 E0.33592
G1 X128.017 Y105.033 E0.02365
G1 X128.017 Y94.489 E0.33060
G1 X128.771 Y94.489 E0.02365
G1 X128.771 Y105.033 E0.33060
G1 X129.525 Y105.033 E0.02365
G1 X129.525 Y94.489 E0.33060
G1 X130.144 Y94.489 E0.01941
G1 X130.144 Y99.139 E0.14581
G1 X130.279 Y99.274 E0.00598
G1 X130.279 Y105.033 E0.18056
G1 X131.033 Y105.033 E0.02365
G1 X131.033 Y99.448 E0.17513
G1 X131.787 Y99.448 E0.02365
G1 X131.787 Y105.033 E0.17513
G1 X132.542 Y105.033 E0.02365
G1 X132.542 Y99.448 E0.17513
G1 X133.296 Y99.448 E0.02365
G1 X133.296 Y105.033 E0.17513
G1 X133.570 Y105.033 E0.00861
G1 X133.570 Y107.340 E0.07234
G1 X134.050 Y107.340 E0.01503
G1 X134.050 Y99.448 E0.24747
G1 X134.804 Y99.448 E0.02365
G1 X134.804 Y107.340 E0.24747
G1 X135.558 Y107.340 E0.02365
G1 X135.558 Y99.448 E0.24747
G1 X136.312 Y99.448 E0.02365
G1 X136.312 Y107.340 E0.24747
G1 X137.067 Y107.340 E0.02365
G1 X137.067 Y99.448 E0.24747
G1 X137.821 Y99.448 E0.02365
G1 X137.821 Y107.340 E0.24747
G1 X138.575 Y107.340 E0.02365
G1 X138.575 Y99.448 E0.24747
G1 X139.329 Y99.448 E0.02365
G1 X139.329 Y107.340 E0.24747
G1 X140.083 Y107.340 E0.02365
G1 X140.083 Y99.448 E0.24747
G1 X140.837 Y99.448 E0.02365
G1 X140.837 Y107.340 E0.24747
G1 X141.591 Y107.340 E0.02365
G1 X141.591 Y94.489 E0.40294
G1 X142.346 Y94.489 E0.02365
G1 X142.346 Y107.340 E0.40294
G1 X143.100 Y107.340 E0.02365
G1 X143.100 Y69.111 E1.19864
G1 X143.854 Y69.111 E0.02365
G1 X143.854 Y107.340 E1.19864
G1 X144.608 Y107.340 E0.02365
G1 X144.608 Y69.111 E1.19864
G1 X145.362 Y69.111 E0.02365
G1 X145.362 Y107.340 E1.19864
G1 X146.116 Y107.340 E0.02365
G1 X146.116 Y69.111 E1.19864
M73 P1 R60
G1 X146.871 Y69.111 E0.02365
G1 X146.871 Y107.340 E1.19864
G1 X147.625 Y107.340 E0.02365
G1 X147.625 Y69.111 E1.19864
G1 X148.379 Y69.111 E0.02365
G1 X148.379 Y107.340 E1.19864
G1 X149.133 Y107.340 E0.02365
G1 X149.133 Y69.111 E1.19864
G1 X149.887 Y69.111 E0.02365
G1 X149.887 Y107.340 E1.19864
G1 X150.641 Y107.340 E0.02365
G1 X150.641 Y69.111 E1.19864
G1 X151.396 Y69.111 E0.02365
G1 X151.396 Y107.340 E1.19864
G1 X152.150 Y107.340 E0.02365
G1 X152.150 Y69.111 E1.19864
G1 X152.904 Y69.111 E0.02365
G1 X152.904 Y107.510 E1.20396
G1 E-0.80000 F2100.000
G1 Z0.800 F10800.000
G1 X142.346 Y82.132
G1 Z0.200
G1 E0.80000 F2100.000
G1 F1200.000
G1 X142.346 Y69.111 E0.40825
G1 X141.591 Y69.111 E0.02365
G1 X141.591 Y81.962 E0.40294
G1 X141.491 Y81.962 E0.00314
G1 X141.491 Y77.312 E0.14581
G1 X141.183 Y77.004 E0.01366
G1 X140.837 Y77.004 E0.01084
G1 X140.837 Y69.111 E0.24747
G1 X140.083 Y69.111 E0.02365
G1 X140.083 Y77.004 E0.24747
G1 X139.329 Y77.004 E0.02365
G1 X139.329 Y69.111 E0.24747
G1 X138.575 Y69.111 E0.02365
G1 X138.575 Y77.004 E0.24747
G1 X137.821 Y77.004 E0.02365
G1 X137.821 Y69.111 E0.24747
G1 X137.067 Y69.111 E0.02365
G1 X137.067 Y77.004 E0.24747
G1 X136.312 Y77.004 E0.02365
G1 X136.312 Y69.111 E0.24747
G1 X135.558 Y69.111 E0.02365
G1 X135.558 Y77.004 E0.24747
G1 X134.804 Y77.004 E0.02365
G1 X134.804 Y69.111 E0.24747
G1 X134.050 Y69.111 E0.02365
G1 X134.050 Y77.004 E0.24747
G1 X133.296 Y77.004 E0.02365
G1 X133.296 Y71.418 E0.17513
G1 X132.542 Y71.418 E0.02365
G1 X132.542 Y77.004 E0.17513
G1 X131.787 Y77.004 E0.02365
G1 X131.787 Y71.418 E0.17513
M73 P1 R59
G1 X131.033 Y71.418 E0.02365
G1 X131.033 Y77.004 E0.17513
G1 X130.452 Y77.004 E0.01822
G1 X130.279 Y77.177 E0.00768
G1 X130.279 Y71.418 E0.18056
G1 X129.525 Y71.418 E0.02365
G1 X129.525 Y81.962 E0.33060
G1 X128.771 Y81.962 E0.02365
G1 X128.771 Y71.418 E0.33060
G1 X128.017 Y71.418 E0.02365
G1 X128.017 Y81.962 E0.33060
G1 X127.262 Y81.962 E0.02365
G1 X127.262 Y71.249 E0.33592
G1 E-0.80000 F2100.000
G1 Z0.800 F10800.000
G1 X131.257 Y98.334
G1 Z0.200
G1 E0.80000 F2100.000
;TYPE:Perimeter
G1 F1200.000
G1 X131.257 Y92.102 E0.19542
G1 X110.752 Y92.102 E0.64294
G1 X110.752 Y96.850 E0.14888
G1 X100.457 Y96.850 E0.32280
G1 X100.457 Y79.601 E0.54083
G1 X110.752 Y79.601 E0.32280
G1 X110.752 Y84.350 E0.14888
G1 X131.257 Y84.350 E0.64294
G1 X131.257 Y78.117 E0.19542
G1 X140.378 Y78.117 E0.28598
G1 X140.378 Y98.334 E0.63390
G1 X131.317 Y98.334 E0.28410
G1 X130.880 Y98.712 F10800.000
;TYPE:External perimeter
G1 F1200.000
G1 X130.880 Y92.479 E0.19542
M73 P2 R59
G1 X111.129 Y92.479 E0.61929
G1 X111.129 Y97.227 E0.14888
G1 X100.079 Y97.227 E0.34644
G1 X100.079 Y79.224 E0.56448
G1 X111.129 Y79.224 E0.34644
G1 X111.129 Y83.972 E0.14888
G1 X130.880 Y83.972 E0.61929
G1 X130.880 Y77.740 E0.19542
G1 X140.755 Y77.740 E0.30962
G1 X140.755 Y98.712 E0.65755
G1 X130.940 Y98.712 E0.30774
G1 X130.939 Y98.316 F10800.000
G1 X131.370 Y97.367
;TYPE:Solid infill
;WIDTH:0.42098
G1 F1200.000
G1 X132.055 Y98.052 E0.03042
G1 X132.589 Y98.052 E0.01681
G1 X131.540 Y97.003 E0.04664
G1 X131.540 Y96.468 E0.01681
G1 X133.124 Y98.052 E0.07041
G1 X133.659 Y98.052 E0.01681
G1 X131.540 Y95.933 E0.09418
G1 X131.540 Y95.399 E0.01681
G1 X134.193 Y98.052 E0.11795
G1 X134.728 Y98.052 E0.01681
G1 X131.540 Y94.864 E0.14172
G1 X131.540 Y94.329 E0.01681
G1 X135.263 Y98.052 E0.16549
G1 X135.797 Y98.052 E0.01681
G1 X131.540 Y93.795 E0.18926
G1 X131.540 Y93.260 E0.01681
G1 X136.332 Y98.052 E0.21303
G1 X136.867 Y98.052 E0.01681
G1 X131.540 Y92.725 E0.23680
G1 X131.540 Y92.191 E0.01681
G1 X137.571 Y98.221 E0.26811
G1 E-0.80000 F2100.000
G1 Z0.800 F10800.000
G1 X140.265 Y78.995
G1 Z0.200
G1 E0.80000 F2100.000
G1 F1200.000
G1 X139.670 Y78.400 E0.02644
G1 X139.136 Y78.400 E0.01681
G1 X140.095 Y79.359 E0.04266
G1 X140.095 Y79.894 E0.01681
G1 X138.601 Y78.400 E0.06643
G1 X138.066 Y78.400 E0.01681
G1 X140.095 Y80.429 E0.09020
G1 X140.095 Y80.963 E0.01681
G1 X137.532 Y78.400 E0.11397
G1 X136.997 Y78.400 E0.01681
G1 X140.095 Y81.498 E0.13774
G1 X140.095 Y82.033 E0.01681
G1 X136.462 Y78.400 E0.16151
G1 X135.928 Y78.400 E0.01681
G1 X140.095 Y82.567 E0.18528
G1 X140.095 Y83.102 E0.01681
G1 X135.393 Y78.400 E0.20905
G1 X134.858 Y78.400 E0.01681
G1 X140.095 Y83.637 E0.23282
G1 X140.095 Y84.171 E0.01681
G1 X134.324 Y78.400 E0.25659
G1 X133.789 Y78.400 E0.01681
G1 X140.095 Y84.706 E0.28036
G1 X140.095 Y85.241 E0.01681
G1 X133.254 Y78.400 E0.30412
G1 X132.720 Y78.400 E0.01681
G1 X140.095 Y85.775 E0.32789
G1 X140.095 Y86.310 E0.01681
G1 X132.185 Y78.400 E0.35166
G1 X131.650 Y78.400 E0.01681
G1 X140.095 Y86.845 E0.37543
G1 X140.095 Y87.379 E0.01681
G1 X131.540 Y78.824 E0.38034
G1 X131.540 Y79.359 E0.01681
G1 X140.095 Y87.914 E0.38034
G1 X140.095 Y88.449 E0.01681
G1 X131.540 Y79.893 E0.38034
G1 X131.540 Y80.428 E0.01681
G1 X140.095 Y88.983 E0.38034
G1 X140.095 Y89.518 E0.01681
G1 X131.540 Y80.963 E0.38034
G1 X131.540 Y81.497 E0.01681
G1 X140.095 Y90.053 E0.38034
G1 X140.095 Y90.587 E0.01681
G1 X131.540 Y82.032 E0.38034
G1 X131.540 Y82.567 E0.01681
G1 X140.095 Y91.122 E0.38034
G1 X140.095 Y91.657 E0.01681
G1 X131.540 Y83.101 E0.38034
G1 X131.540 Y83.636 E0.01681
G1 X140.095 Y92.191 E0.38034
G1 X140.095 Y92.726 E0.01681
G1 X131.540 Y84.171 E0.38034
G1 X131.540 Y84.632 E0.01451
G1 X131.467 Y84.632 E0.00230
G1 X140.095 Y93.261 E0.38358
G1 X140.095 Y93.795 E0.01681
G1 X130.932 Y84.632 E0.40735
G1 X130.398 Y84.632 E0.01681
G1 X140.095 Y94.330 E0.43112
G1 X140.095 Y94.865 E0.01681
G1 X129.863 Y84.632 E0.45489
G1 X129.328 Y84.632 E0.01681
G1 X140.095 Y95.399 E0.47866
G1 X140.095 Y95.934 E0.01681
G1 X128.794 Y84.632 E0.50243
G1 X128.259 Y84.632 E0.01681
G1 X140.095 Y96.469 E0.52620
G1 X140.095 Y97.003 E0.01681
G1 X127.724 Y84.632 E0.54997
G1 X127.190 Y84.632 E0.01681
G1 X140.095 Y97.538 E0.57374
G1 X140.095 Y98.052 E0.01615
G1 X140.074 Y98.052 E0.00065
G1 X126.655 Y84.632 E0.59658
G1 X126.120 Y84.632 E0.01681
G1 X139.540 Y98.052 E0.59658
G1 X139.005 Y98.052 E0.01681
G1 X125.586 Y84.632 E0.59658
G1 X125.051 Y84.632 E0.01681
G1 X138.470 Y98.052 E0.59658
G1 X137.936 Y98.052 E0.01681
G1 X124.517 Y84.632 E0.59658
G1 X123.982 Y84.632 E0.01681
G1 X131.169 Y91.819 E0.31950
G1 X130.634 Y91.819 E0.01681
G1 X123.447 Y84.632 E0.31950
G1 X122.913 Y84.632 E0.01681
G1 X130.099 Y91.819 E0.31950
M73 P3 R59
G1 X129.565 Y91.819 E0.01681
G1 X122.378 Y84.632 E0.31950
G1 X121.843 Y84.632 E0.01681
G1 X129.030 Y91.819 E0.31950
G1 X128.495 Y91.819 E0.01681
G1 X121.309 Y84.632 E0.31950
G1 X120.774 Y84.632 E0.01681
G1 X127.961 Y91.819 E0.31950
G1 X127.426 Y91.819 E0.01681
G1 X120.239 Y84.632 E0.31950
G1 X119.705 Y84.632 E0.01681
G1 X126.891 Y91.819 E0.31950
G1 X126.357 Y91.819 E0.01681
G1 X119.170 Y84.632 E0.31950
G1 X118.635 Y84.632 E0.01681
G1 X125.822 Y91.819 E0.31950
G1 X125.287 Y91.819 E0.01681
G1 X118.101 Y84.632 E0.31950
G1 X117.566 Y84.632 E0.01681
G1 X124.753 Y91.819 E0.31950
G1 X124.218 Y91.819 E0.01681
G1 X117.031 Y84.632 E0.31950
G1 X116.497 Y84.632 E0.01681
G1 X123.683 Y91.819 E0.31950
G1 X123.149 Y91.819 E0.01681
G1 X115.962 Y84.632 E0.31950
G1 X115.427 Y84.632 E0.01681
G1 X122.614 Y91.819 E0.31950
G1 X122.079 Y91.819 E0.01681
G1 X114.893 Y84.632 E0.31950
G1 X114.358 Y84.632 E0.01681
G1 X121.545 Y91.819 E0.31950
G1 X121.010 Y91.819 E0.01681
G1 X113.823 Y84.632 E0.31950
G1 X113.289 Y84.632 E0.01681
G1 X120.476 Y91.819 E0.31950
G1 X119.941 Y91.819 E0.01681
G1 X112.754 Y84.632 E0.31950
G1 X112.219 Y84.632 E0.01681
G1 X119.406 Y91.819 E0.31950
G1 X118.872 Y91.819 E0.01681
G1 X111.685 Y84.632 E0.31950
G1 X111.150 Y84.632 E0.01681
G1 X118.337 Y91.819 E0.31950
G1 X117.802 Y91.819 E0.01681
G1 X105.867 Y79.884 E0.53060
M73 P3 R58
G1 X105.332 Y79.884 E0.01681
G1 X117.268 Y91.819 E0.53060
G1 X116.733 Y91.819 E0.01681
G1 X104.798 Y79.884 E0.53060
G1 X104.263 Y79.884 E0.01681
G1 X116.198 Y91.819 E0.53060
G1 X115.664 Y91.819 E0.01681
G1 X103.729 Y79.884 E0.53060
G1 X103.194 Y79.884 E0.01681
G1 X115.129 Y91.819 E0.53060
G1 X114.594 Y91.819 E0.01681
G1 X102.659 Y79.884 E0.53060
G1 X102.125 Y79.884 E0.01681
G1 X114.060 Y91.819 E0.53060
G1 X113.525 Y91.819 E0.01681
G1 X101.590 Y79.884 E0.53060
G1 X101.055 Y79.884 E0.01681
G1 X112.990 Y91.819 E0.53060
G1 X112.456 Y91.819 E0.01681
G1 X100.739 Y80.103 E0.52087
G1 X100.739 Y80.637 E0.01681
G1 X111.921 Y91.819 E0.49710
G1 X111.386 Y91.819 E0.01681
G1 X100.739 Y81.172 E0.47333
G1 X100.739 Y81.707 E0.01681
G1 X110.852 Y91.819 E0.44957
G1 X110.469 Y91.819 E0.01203
G1 X110.469 Y91.971 E0.00477
G1 X100.739 Y82.241 E0.43255
G1 X100.739 Y82.776 E0.01681
G1 X110.469 Y92.506 E0.43255
G1 X110.469 Y93.040 E0.01681
G1 X100.739 Y83.311 E0.43255
G1 X100.739 Y83.845 E0.01681
G1 X110.469 Y93.575 E0.43255
G1 X110.469 Y94.110 E0.01681
G1 X100.739 Y84.380 E0.43255
G1 X100.739 Y84.915 E0.01681
G1 X110.469 Y94.644 E0.43255
G1 X110.469 Y95.179 E0.01681
G1 X100.739 Y85.449 E0.43255
G1 X100.739 Y85.984 E0.01681
G1 X110.469 Y95.714 E0.43255
G1 X110.469 Y96.248 E0.01681
G1 X100.739 Y86.519 E0.43255
G1 X100.739 Y87.053 E0.01681
G1 X110.253 Y96.567 E0.42297
