; generated by PrusaSlicer 2.2.0+win64 on 2020-08-03 at 19:38:43 UTC

; 

; external perimeters extrusion width = 0.45mm
; perimeters extrusion width = 0.45mm
; infill extrusion width = 0.45mm
; solid infill extrusion width = 0.45mm
; top infill extrusion width = 0.40mm
; first layer extrusion width = 0.42mm

M73 P0 R10
M201 X9000 Y9000 Z500 E10000 ; sets maximum accelerations, mm/sec^2
M203 X500 Y500 Z12 E120 ; sets maximum feedrates, mm/sec
M204 P2000 R1500 T2000 ; sets acceleration (P, T) and retract acceleration (R), mm/sec^2
M205 X10.00 Y10.00 Z0.20 E2.50 ; sets the jerk limits, mm/sec
M205 S0 T0 ; sets the minimum extruding and travel feed rate, mm/sec
M107
M862.3 P "MK2S" ; printer model check
M862.1 P0.4 ; nozzle diameter check
M115 U3.2.3 ; tell printer latest fw version
G90 ; use absolute coordinates
M83 ; extruder relative mode
M204 S2000 T1500 ; MK2 firmware only supports the old M204 format
M104 S215 ; set extruder temp
M140 S60 ; set bed temp
M190 S60 ; wait for bed temp
M109 S215 ; wait for extruder temp
G28 W ; home all without mesh bed level
G80 ; mesh bed leveling
G1 Y-3.0 F1000.0 ; go outside print area
G92 E0.0
G1 X60.0 E9.0  F1000.0 ; intro line
M73 P0 R10
G1 X100.0 E12.5 F1000.0 ; intro line
G92 E0.0
G21 ; set units to millimeters
G90 ; use absolute coordinates
M83 ; use relative distances for extrusion
M900 K0.06 ; Filament gcode LA 1.5
M900 K30 ; Filament gcode LA 1.0
;BEFORE_LAYER_CHANGE
G92 E0.0
;0.2


G1 E-0.80000 F2100.00000
G1 Z0.600 F10800.000
;AFTER_LAYER_CHANGE
;0.2
G1 X112.995 Y106.526
G1 Z0.200
G1 E0.80000 F2100.00000
M204 S1000
G1 F1200.000
G1 X113.317 Y106.557 E0.01015
G1 X113.624 Y106.650 E0.01006
G1 X113.906 Y106.801 E0.01004
G1 X114.153 Y107.004 E0.01004
G1 X114.357 Y107.251 E0.01004
G1 X114.507 Y107.533 E0.01004
G1 X114.600 Y107.840 E0.01004
G1 X114.632 Y108.158 E0.01004
G1 X114.600 Y108.477 E0.01004
G1 X114.507 Y108.783 E0.01004
G1 X114.357 Y109.065 E0.01004
G1 X114.153 Y109.313 E0.01004
G1 X113.906 Y109.516 E0.01004
G1 X113.624 Y109.667 E0.01004
G1 X113.318 Y109.759 E0.01004
G1 X112.999 Y109.791 E0.01004
G1 X112.680 Y109.759 E0.01004
G1 X112.374 Y109.667 E0.01004
G1 X112.092 Y109.516 E0.01004
G1 X111.844 Y109.313 E0.01004
G1 X111.641 Y109.065 E0.01004
G1 X111.491 Y108.783 E0.01004
G1 X111.398 Y108.477 E0.01004
G1 X111.366 Y108.158 E0.01004
G1 X111.398 Y107.840 E0.01004
G1 X111.491 Y107.533 E0.01004
G1 X111.641 Y107.251 E0.01004
G1 X111.844 Y107.004 E0.01004
G1 X112.092 Y106.801 E0.01004
G1 X112.374 Y106.650 E0.01004
G1 X112.680 Y106.557 E0.01003
G1 X112.935 Y106.531 E0.00802
G1 X112.999 Y109.412 F10800.000
G1 F1200.000
G1 X112.754 Y109.388 E0.00771
G1 X112.519 Y109.316 E0.00771
G1 X112.302 Y109.201 E0.00771
G1 X112.112 Y109.045 E0.00771
G1 X111.956 Y108.855 E0.00771
G1 X111.841 Y108.638 E0.00771
G1 X111.769 Y108.403 E0.00771
G1 X111.745 Y108.158 E0.00771
G1 X111.769 Y107.913 E0.00771
G1 X111.841 Y107.678 E0.00771
G1 X111.956 Y107.461 E0.00771
G1 X112.112 Y107.271 E0.00771
G1 X112.302 Y107.116 E0.00771
G1 X112.519 Y107.000 E0.00771
G1 X112.754 Y106.928 E0.00770
G1 X112.995 Y106.904 E0.00759
G1 X113.243 Y106.928 E0.00782
G1 X113.479 Y107.000 E0.00771
G1 X113.696 Y107.116 E0.00771
G1 X113.886 Y107.271 E0.00771
G1 X114.041 Y107.461 E0.00771
G1 X114.157 Y107.678 E0.00771
G1 X114.229 Y107.913 E0.00771
G1 X114.253 Y108.158 E0.00771
G1 X114.229 Y108.403 E0.00771
G1 X114.157 Y108.638 E0.00771
G1 X114.041 Y108.855 E0.00771
G1 X113.886 Y109.045 E0.00771
G1 X113.696 Y109.201 E0.00771
G1 X113.479 Y109.316 E0.00771
G1 X113.244 Y109.388 E0.00771
G1 X113.059 Y109.406 E0.00583
G1 X112.876 Y109.625 F10800.000
G1 X112.999 Y110.068
G1 F1200.000
G1 X112.626 Y110.031 E0.01174
G1 X112.268 Y109.923 E0.01174
G1 X111.938 Y109.746 E0.01174
G1 X111.648 Y109.509 E0.01174
G1 X111.411 Y109.219 E0.01174
G1 X111.234 Y108.889 E0.01174
G1 X111.126 Y108.531 E0.01174
G1 X111.089 Y108.158 E0.01174
G1 X111.126 Y107.785 E0.01174
G1 X111.234 Y107.427 E0.01174
G1 X111.411 Y107.097 E0.01174
G1 X111.648 Y106.807 E0.01174
G1 X111.938 Y106.570 E0.01174
G1 X112.268 Y106.393 E0.01174
G1 X112.640 Y106.281 E0.01220
G1 X112.805 Y106.256 E0.00523
G1 X113.046 Y106.249 E0.00754
G1 X113.369 Y106.284 E0.01020
G1 X113.730 Y106.393 E0.01182
G1 X114.060 Y106.570 E0.01174
G1 X114.350 Y106.807 E0.01174
G1 X114.587 Y107.097 E0.01174
G1 X114.764 Y107.427 E0.01174
G1 X114.872 Y107.785 E0.01174
G1 X114.909 Y108.158 E0.01174
G1 X114.872 Y108.531 E0.01174
G1 X114.764 Y108.889 E0.01174
G1 X114.587 Y109.219 E0.01174
G1 X114.350 Y109.509 E0.01174
G1 X114.060 Y109.746 E0.01174
G1 X113.730 Y109.923 E0.01174
G1 X113.372 Y110.031 E0.01174
G1 X113.059 Y110.062 E0.00986
G1 X112.999 Y110.447 F10800.000
G1 F1200.000
G1 X112.552 Y110.403 E0.01407
G1 X112.123 Y110.273 E0.01407
G1 X111.727 Y110.061 E0.01407
G1 X111.380 Y109.777 E0.01407
G1 X111.096 Y109.430 E0.01407
G1 X110.884 Y109.034 E0.01407
G1 X110.754 Y108.605 E0.01407
G1 X110.710 Y108.158 E0.01407
G1 X110.754 Y107.712 E0.01407
G1 X110.884 Y107.282 E0.01407
G1 X111.096 Y106.886 E0.01407
G1 X111.380 Y106.540 E0.01407
G1 X111.727 Y106.255 E0.01407
G1 X112.123 Y106.043 E0.01407
G1 X112.557 Y105.912 E0.01423
G1 X112.772 Y105.880 E0.00681
G1 X113.061 Y105.872 E0.00904
G1 X113.445 Y105.913 E0.01211
G1 X113.875 Y106.043 E0.01410
G1 X114.271 Y106.255 E0.01407
G1 X114.617 Y106.540 E0.01407
G1 X114.902 Y106.886 E0.01407
G1 X115.114 Y107.282 E0.01407
G1 X115.244 Y107.712 E0.01407
G1 X115.288 Y108.158 E0.01407
G1 X115.244 Y108.605 E0.01407
G1 X115.114 Y109.034 E0.01407
G1 X114.902 Y109.430 E0.01407
G1 X114.618 Y109.777 E0.01407
G1 X114.271 Y110.061 E0.01407
G1 X113.875 Y110.273 E0.01407
G1 X113.446 Y110.403 E0.01407
G1 X113.059 Y110.441 E0.01219
G1 X112.799 Y110.101 F10800.000
G1 E-0.80000 F2100.00000
G1 Z0.800 F10800.000
G1 X112.999 Y120.908
G1 Z0.200
G1 E0.80000 F2100.00000
G1 F1200.000
G1 X112.680 Y120.877 E0.01004
G1 X112.374 Y120.784 E0.01004
G1 X112.092 Y120.633 E0.01004
G1 X111.844 Y120.430 E0.01004
G1 X111.641 Y120.183 E0.01004
G1 X111.491 Y119.900 E0.01004
G1 X111.398 Y119.594 E0.01004
G1 X111.366 Y119.276 E0.01004
G1 X111.398 Y118.957 E0.01004
G1 X111.491 Y118.651 E0.01004
G1 X111.641 Y118.368 E0.01004
G1 X111.844 Y118.121 E0.01004
G1 X112.092 Y117.918 E0.01004
G1 X112.374 Y117.767 E0.01004
G1 X112.680 Y117.674 E0.01003
G1 X112.995 Y117.643 E0.00991
G1 X113.317 Y117.674 E0.01015
G1 X113.624 Y117.767 E0.01006
G1 X113.906 Y117.918 E0.01004
G1 X114.153 Y118.121 E0.01004
G1 X114.357 Y118.368 E0.01004
G1 X114.507 Y118.651 E0.01004
G1 X114.600 Y118.957 E0.01004
G1 X114.632 Y119.276 E0.01004
G1 X114.600 Y119.594 E0.01004
G1 X114.507 Y119.900 E0.01004
G1 X114.357 Y120.183 E0.01004
G1 X114.153 Y120.430 E0.01004
G1 X113.906 Y120.633 E0.01004
G1 X113.624 Y120.784 E0.01004
G1 X113.318 Y120.877 E0.01004
G1 X113.059 Y120.902 E0.00815
G1 X112.999 Y120.529 F10800.000
G1 F1200.000
G1 X112.754 Y120.505 E0.00771
G1 X112.519 Y120.434 E0.00771
G1 X112.302 Y120.318 E0.00771
G1 X112.112 Y120.162 E0.00771
G1 X111.956 Y119.972 E0.00771
G1 X111.841 Y119.755 E0.00771
G1 X111.769 Y119.520 E0.00771
G1 X111.745 Y119.276 E0.00771
G1 X111.769 Y119.031 E0.00771
G1 X111.841 Y118.796 E0.00771
G1 X111.956 Y118.579 E0.00771
G1 X112.112 Y118.389 E0.00771
G1 X112.302 Y118.233 E0.00771
G1 X112.519 Y118.117 E0.00771
G1 X112.754 Y118.046 E0.00770
G1 X112.995 Y118.022 E0.00759
G1 X113.243 Y118.046 E0.00782
G1 X113.479 Y118.117 E0.00771
G1 X113.696 Y118.233 E0.00771
G1 X113.886 Y118.389 E0.00771
G1 X114.041 Y118.579 E0.00771
G1 X114.157 Y118.796 E0.00771
G1 X114.229 Y119.031 E0.00771
G1 X114.253 Y119.276 E0.00771
G1 X114.229 Y119.520 E0.00771
G1 X114.157 Y119.755 E0.00771
G1 X114.041 Y119.972 E0.00771
G1 X113.886 Y120.162 E0.00771
G1 X113.696 Y120.318 E0.00771
G1 X113.479 Y120.434 E0.00771
G1 X113.244 Y120.505 E0.00771
G1 X113.059 Y120.524 E0.00583
G1 X112.876 Y120.742 F10800.000
G1 X112.999 Y121.186
G1 F1200.000
G1 X112.626 Y121.149 E0.01174
G1 X112.268 Y121.040 E0.01174
G1 X111.938 Y120.864 E0.01174
G1 X111.648 Y120.626 E0.01174
G1 X111.411 Y120.337 E0.01174
G1 X111.234 Y120.007 E0.01174
G1 X111.126 Y119.648 E0.01174
G1 X111.089 Y119.276 E0.01174
G1 X111.126 Y118.903 E0.01174
G1 X111.234 Y118.545 E0.01174
G1 X111.411 Y118.214 E0.01174
G1 X111.648 Y117.925 E0.01174
G1 X111.938 Y117.687 E0.01174
G1 X112.268 Y117.511 E0.01174
G1 X112.640 Y117.398 E0.01220
G1 X112.805 Y117.374 E0.00523
G1 X113.046 Y117.367 E0.00754
G1 X113.369 Y117.402 E0.01020
G1 X113.730 Y117.511 E0.01182
G1 X114.060 Y117.687 E0.01174
G1 X114.350 Y117.925 E0.01174
G1 X114.587 Y118.214 E0.01174
G1 X114.764 Y118.545 E0.01174
G1 X114.872 Y118.903 E0.01174
G1 X114.909 Y119.276 E0.01174
G1 X114.872 Y119.648 E0.01174
G1 X114.764 Y120.007 E0.01174
G1 X114.587 Y120.337 E0.01174
G1 X114.350 Y120.626 E0.01174
G1 X114.060 Y120.864 E0.01174
G1 X113.730 Y121.040 E0.01174
G1 X113.372 Y121.149 E0.01174
G1 X113.059 Y121.180 E0.00986
G1 X112.999 Y121.565 F10800.000
G1 F1200.000
G1 X112.552 Y121.521 E0.01407
G1 X112.123 Y121.390 E0.01407
G1 X111.727 Y121.179 E0.01407
G1 X111.380 Y120.894 E0.01407
G1 X111.096 Y120.547 E0.01407
G1 X110.884 Y120.152 E0.01407
G1 X110.754 Y119.722 E0.01407
G1 X110.710 Y119.276 E0.01407
G1 X110.754 Y118.829 E0.01407
G1 X110.884 Y118.400 E0.01407
G1 X111.096 Y118.004 E0.01407
G1 X111.380 Y117.657 E0.01407
G1 X111.727 Y117.372 E0.01407
G1 X112.123 Y117.161 E0.01407
G1 X112.557 Y117.029 E0.01423
G1 X112.772 Y116.997 E0.00681
G1 X113.061 Y116.989 E0.00904
G1 X113.445 Y117.030 E0.01211
G1 X113.875 Y117.161 E0.01410
G1 X114.271 Y117.372 E0.01407
G1 X114.617 Y117.657 E0.01407
G1 X114.902 Y118.004 E0.01407
G1 X115.114 Y118.400 E0.01407
G1 X115.244 Y118.829 E0.01407
G1 X115.288 Y119.276 E0.01407
G1 X115.244 Y119.722 E0.01407
G1 X115.114 Y120.152 E0.01407
G1 X114.902 Y120.547 E0.01407
G1 X114.618 Y120.894 E0.01407
G1 X114.271 Y121.179 E0.01407
G1 X113.875 Y121.390 E0.01407
G1 X113.446 Y121.521 E0.01407
G1 X113.059 Y121.559 E0.01219
G1 X112.799 Y121.218 F10800.000
G1 E-0.80000 F2100.00000
G1 Z0.800 F10800.000
G1 X112.999 Y132.026
G1 Z0.200
G1 E0.80000 F2100.00000
G1 F1200.000
G1 X112.680 Y131.994 E0.01004
G1 X112.374 Y131.902 E0.01004
G1 X112.092 Y131.751 E0.01004
G1 X111.844 Y131.548 E0.01004
G1 X111.641 Y131.300 E0.01004
G1 X111.491 Y131.018 E0.01004
G1 X111.398 Y130.712 E0.01004
G1 X111.366 Y130.393 E0.01004
G1 X111.398 Y130.075 E0.01004
G1 X111.491 Y129.768 E0.01004
G1 X111.641 Y129.486 E0.01004
G1 X111.844 Y129.239 E0.01004
G1 X112.092 Y129.035 E0.01004
G1 X112.374 Y128.885 E0.01004
G1 X112.680 Y128.792 E0.01003
G1 X112.995 Y128.761 E0.00991
G1 X113.317 Y128.791 E0.01015
G1 X113.624 Y128.885 E0.01006
G1 X113.906 Y129.035 E0.01004
G1 X114.153 Y129.239 E0.01004
G1 X114.357 Y129.486 E0.01004
G1 X114.507 Y129.768 E0.01004
G1 X114.600 Y130.075 E0.01004
G1 X114.632 Y130.393 E0.01004
G1 X114.600 Y130.712 E0.01004
G1 X114.507 Y131.018 E0.01004
G1 X114.357 Y131.300 E0.01004
G1 X114.153 Y131.548 E0.01004
G1 X113.906 Y131.751 E0.01004
G1 X113.624 Y131.902 E0.01004
G1 X113.318 Y131.994 E0.01004
G1 X113.059 Y132.020 E0.00815
G1 X112.999 Y131.647 F10800.000
G1 F1200.000
G1 X112.754 Y131.623 E0.00771
G1 X112.519 Y131.551 E0.00771
G1 X112.302 Y131.436 E0.00771
G1 X112.112 Y131.280 E0.00771
G1 X111.956 Y131.090 E0.00771
G1 X111.841 Y130.873 E0.00771
G1 X111.769 Y130.638 E0.00771
G1 X111.745 Y130.393 E0.00771
G1 X111.769 Y130.148 E0.00771
G1 X111.841 Y129.913 E0.00771
G1 X111.956 Y129.696 E0.00771
G1 X112.112 Y129.506 E0.00771
G1 X112.302 Y129.351 E0.00771
G1 X112.519 Y129.235 E0.00771
G1 X112.754 Y129.163 E0.00770
G1 X112.995 Y129.139 E0.00759
G1 X113.243 Y129.163 E0.00782
G1 X113.479 Y129.235 E0.00771
G1 X113.696 Y129.351 E0.00771
G1 X113.886 Y129.506 E0.00771
G1 X114.041 Y129.696 E0.00771
G1 X114.157 Y129.913 E0.00771
G1 X114.229 Y130.148 E0.00771
G1 X114.253 Y130.393 E0.00771
G1 X114.229 Y130.638 E0.00771
G1 X114.157 Y130.873 E0.00771
G1 X114.041 Y131.090 E0.00771
G1 X113.886 Y131.280 E0.00771
G1 X113.696 Y131.436 E0.00771
G1 X113.479 Y131.551 E0.00771
G1 X113.244 Y131.623 E0.00771
G1 X113.059 Y131.641 E0.00583
G1 X112.876 Y131.860 F10800.000
G1 X112.999 Y132.303
G1 F1200.000
G1 X112.626 Y132.266 E0.01174
G1 X112.268 Y132.158 E0.01174
G1 X111.938 Y131.981 E0.01174
G1 X111.648 Y131.744 E0.01174
G1 X111.411 Y131.454 E0.01174
G1 X111.234 Y131.124 E0.01174
G1 X111.126 Y130.766 E0.01174
G1 X111.089 Y130.393 E0.01174
G1 X111.126 Y130.020 E0.01174
G1 X111.234 Y129.662 E0.01174
G1 X111.411 Y129.332 E0.01174
G1 X111.648 Y129.042 E0.01174
G1 X111.938 Y128.805 E0.01174
G1 X112.268 Y128.628 E0.01174
G1 X112.640 Y128.515 E0.01220
G1 X112.805 Y128.491 E0.00523
G1 X113.046 Y128.484 E0.00754
G1 X113.369 Y128.519 E0.01020
G1 X113.730 Y128.628 E0.01182
G1 X114.060 Y128.805 E0.01174
G1 X114.350 Y129.042 E0.01174
G1 X114.587 Y129.332 E0.01174
G1 X114.764 Y129.662 E0.01174
G1 X114.872 Y130.020 E0.01174
G1 X114.909 Y130.393 E0.01174
G1 X114.872 Y130.766 E0.01174
G1 X114.764 Y131.124 E0.01174
G1 X114.587 Y131.454 E0.01174
G1 X114.350 Y131.744 E0.01174
G1 X114.060 Y131.981 E0.01174
G1 X113.730 Y132.158 E0.01174
G1 X113.372 Y132.266 E0.01174
G1 X113.059 Y132.297 E0.00986
G1 X112.999 Y132.682 F10800.000
G1 F1200.000
G1 X112.552 Y132.638 E0.01407
G1 X112.123 Y132.508 E0.01407
G1 X111.727 Y132.296 E0.01407
G1 X111.380 Y132.012 E0.01407
G1 X111.096 Y131.665 E0.01407
G1 X110.884 Y131.269 E0.01407
G1 X110.754 Y130.840 E0.01407
G1 X110.710 Y130.393 E0.01407
G1 X110.754 Y129.947 E0.01407
G1 X110.884 Y129.517 E0.01407
G1 X111.096 Y129.121 E0.01407
G1 X111.380 Y128.775 E0.01407
G1 X111.727 Y128.490 E0.01407
G1 X112.123 Y128.278 E0.01407
G1 X112.557 Y128.147 E0.01423
G1 X112.772 Y128.115 E0.00681
G1 X113.061 Y128.107 E0.00904
G1 X113.445 Y128.148 E0.01211
G1 X113.875 Y128.278 E0.01410
G1 X114.271 Y128.490 E0.01407
G1 X114.617 Y128.775 E0.01407
G1 X114.902 Y129.121 E0.01407
G1 X115.114 Y129.517 E0.01407
G1 X115.244 Y129.947 E0.01407
G1 X115.288 Y130.393 E0.01407
G1 X115.244 Y130.840 E0.01407
G1 X115.114 Y131.269 E0.01407
G1 X114.902 Y131.665 E0.01407
G1 X114.618 Y132.012 E0.01407
G1 X114.271 Y132.296 E0.01407
G1 X113.875 Y132.508 E0.01407
G1 X113.446 Y132.638 E0.01407
G1 X113.059 Y132.676 E0.01219
G1 X112.799 Y132.336 F10800.000
G1 E-0.80000 F2100.00000
G1 Z0.800 F10800.000
G1 X124.116 Y132.026
G1 Z0.200
G1 E0.80000 F2100.00000
G1 F1200.000
G1 X123.798 Y131.994 E0.01004
G1 X123.492 Y131.902 E0.01004
G1 X123.209 Y131.751 E0.01004
G1 X122.962 Y131.548 E0.01004
G1 X122.759 Y131.300 E0.01004
G1 X122.608 Y131.018 E0.01004
G1 X122.515 Y130.712 E0.01004
G1 X122.484 Y130.393 E0.01004
G1 X122.515 Y130.075 E0.01004
G1 X122.608 Y129.768 E0.01004
G1 X122.759 Y129.486 E0.01004
G1 X122.962 Y129.239 E0.01004
G1 X123.209 Y129.035 E0.01004
G1 X123.492 Y128.885 E0.01004
G1 X123.798 Y128.792 E0.01003
G1 X124.112 Y128.761 E0.00991
G1 X124.434 Y128.791 E0.01015
G1 X124.741 Y128.885 E0.01006
G1 X125.024 Y129.035 E0.01004
G1 X125.271 Y129.239 E0.01004
G1 X125.474 Y129.486 E0.01004
G1 X125.625 Y129.768 E0.01004
G1 X125.718 Y130.075 E0.01004
G1 X125.749 Y130.393 E0.01004
G1 X125.718 Y130.712 E0.01004
G1 X125.625 Y131.018 E0.01004
G1 X125.474 Y131.300 E0.01004
G1 X125.271 Y131.548 E0.01004
G1 X125.024 Y131.751 E0.01004
G1 X124.741 Y131.902 E0.01004
G1 X124.435 Y131.994 E0.01004
G1 X124.176 Y132.020 E0.00815
G1 X124.116 Y131.647 F10800.000
G1 F1200.000
G1 X123.872 Y131.623 E0.00771
G1 X123.637 Y131.551 E0.00771
G1 X123.420 Y131.436 E0.00771
G1 X123.230 Y131.280 E0.00771
G1 X123.074 Y131.090 E0.00771
G1 X122.958 Y130.873 E0.00771
G1 X122.887 Y130.638 E0.00771
G1 X122.863 Y130.393 E0.00771
G1 X122.887 Y130.148 E0.00771
G1 X122.958 Y129.913 E0.00771
G1 X123.074 Y129.696 E0.00771
G1 X123.230 Y129.506 E0.00771
G1 X123.420 Y129.351 E0.00771
G1 X123.637 Y129.235 E0.00771
G1 X123.872 Y129.163 E0.00770
G1 X124.113 Y129.139 E0.00759
G1 X124.361 Y129.163 E0.00782
G1 X124.596 Y129.235 E0.00771
G1 X124.813 Y129.351 E0.00771
G1 X125.003 Y129.506 E0.00771
G1 X125.159 Y129.696 E0.00771
G1 X125.275 Y129.913 E0.00771
G1 X125.346 Y130.148 E0.00771
G1 X125.370 Y130.393 E0.00771
G1 X125.346 Y130.638 E0.00771
G1 X125.275 Y130.873 E0.00771
