; generated by PrusaSlicer 2.2.0+win64 on 2020-08-18 at 17:10:22 UTC

; 

; external perimeters extrusion width = 0.45mm
; perimeters extrusion width = 0.45mm
; infill extrusion width = 0.45mm
; solid infill extrusion width = 0.45mm
; top infill extrusion width = 0.40mm
; support material extrusion width = 0.35mm
; first layer extrusion width = 0.42mm

M73 P0 R43
M201 X9000 Y9000 Z500 E10000 ; sets maximum accelerations, mm/sec^2
M203 X500 Y500 Z12 E120 ; sets maximum feedrates, mm/sec
M204 P2000 R1500 T2000 ; sets acceleration (P, T) and retract acceleration (R), mm/sec^2
M205 X10.00 Y10.00 Z0.20 E2.50 ; sets the jerk limits, mm/sec
M205 S0 T0 ; sets the minimum extruding and travel feed rate, mm/sec
M107
M862.3 P "MK2S" ; printer model check
M862.1 P0.4 ; nozzle diameter check
M115 U3.2.3 ; tell printer latest fw version
G90 ; use absolute coordinates
M83 ; extruder relative mode
M204 S2000 T1500 ; MK2 firmware only supports the old M204 format
M104 S215 ; set extruder temp
M140 S60 ; set bed temp
M190 S60 ; wait for bed temp
M109 S215 ; wait for extruder temp
G28 W ; home all without mesh bed level
G80 ; mesh bed leveling
G1 Y-3.0 F1000.0 ; go outside print area
G92 E0.0
G1 X60.0 E9.0  F1000.0 ; intro line
M73 P0 R43
G1 X100.0 E12.5 F1000.0 ; intro line
G92 E0.0
G21 ; set units to millimeters
G90 ; use absolute coordinates
M83 ; use relative distances for extrusion
M900 K0.06 ; Filament gcode LA 1.5
M900 K30 ; Filament gcode LA 1.0
;BEFORE_LAYER_CHANGE
G92 E0.0
;0.2


G1 E-0.80000 F2100.00000
G1 Z0.600 F10800.000
;AFTER_LAYER_CHANGE
;0.2
G1 X55.349 Y141.697
G1 Z0.200
G1 E0.80000 F2100.00000
M204 S1000
G1 F1200.000
G1 X55.085 Y141.961 E0.01170
G1 X55.619 Y142.494 E0.02365
G1 X56.435 Y141.678 E0.03619
G1 X56.828 Y141.608 E0.01252
G1 X56.956 Y141.622 E0.00403
G1 X57.391 Y141.788 E0.01459
G1 X56.152 Y143.027 E0.05493
G1 X56.685 Y143.560 E0.02365
G1 X58.094 Y142.151 E0.06248
G1 X58.695 Y142.617 E0.02383
G1 X57.218 Y144.094 E0.06546
G1 X57.752 Y144.627 E0.02365
G1 X59.432 Y142.946 E0.07453
G1 X59.700 Y143.355 E0.01533
G1 X59.792 Y143.442 E0.00395
G1 X59.927 Y143.518 E0.00487
G1 X58.285 Y145.160 E0.07282
G1 X58.818 Y145.693 E0.02365
G1 X60.603 Y143.909 E0.07913
G1 X60.809 Y143.953 E0.00660
G1 X61.800 Y143.778 E0.03158
G1 X59.351 Y146.227 E0.10859
G1 X59.885 Y146.760 E0.02365
G1 X63.095 Y143.549 E0.14236
G1 X64.390 Y143.321 E0.04123
G1 X60.418 Y147.293 E0.17613
G1 X60.951 Y147.827 E0.02365
G1 X65.685 Y143.093 E0.20990
G1 X66.980 Y142.864 E0.04123
G1 X61.485 Y148.360 E0.24367
G1 X62.018 Y148.893 E0.02365
G1 X68.275 Y142.636 E0.27744
G1 X69.570 Y142.408 E0.04123
G1 X62.551 Y149.426 E0.31121
G1 X63.084 Y149.960 E0.02365
G1 X70.864 Y142.180 E0.34498
G1 X72.159 Y141.951 E0.04123
G1 X65.249 Y148.862 E0.30642
G1 X65.782 Y149.395 E0.02365
G1 X73.238 Y141.939 E0.33060
G1 X73.771 Y142.472 E0.02365
G1 X66.196 Y150.048 E0.33592
G1 E-0.80000 F2100.00000
G1 Z0.800 F10800.000
G1 X106.035 Y135.806
G1 Z0.200
G1 E0.80000 F2100.00000
G1 F1200.000
G1 X105.216 Y136.625 E0.03633
G1 X105.749 Y137.158 E0.02365
G1 X107.121 Y135.787 E0.06082
G1 X108.415 Y135.558 E0.04123
G1 X106.282 Y137.692 E0.09459
G1 X106.603 Y138.012 E0.01421
G1 X104.971 Y139.643 E0.07234
G1 X105.184 Y139.856 E0.00944
G1 X109.710 Y135.330 E0.20070
G1 X111.005 Y135.102 E0.04123
G1 X105.717 Y140.389 E0.23447
G1 X106.251 Y140.923 E0.02365
G1 X112.300 Y134.873 E0.26824
G1 X113.595 Y134.645 E0.04123
G1 X106.784 Y141.456 E0.30201
G1 X107.317 Y141.989 E0.02365
G1 X114.890 Y134.417 E0.33578
G1 X116.185 Y134.188 E0.04123
G1 X107.850 Y142.522 E0.36955
G1 X108.384 Y143.056 E0.02365
G1 X117.479 Y133.960 E0.40332
G1 X118.774 Y133.732 E0.04123
G1 X108.917 Y143.589 E0.43709
G1 X109.450 Y144.122 E0.02365
G1 X120.069 Y133.503 E0.47086
G1 X121.364 Y133.275 E0.04123
G1 X109.984 Y144.656 E0.50463
G1 X110.517 Y145.189 E0.02365
G1 X121.996 Y133.710 E0.50900
G1 X122.187 Y134.076 E0.01296
G1 X121.514 Y134.749 E0.02983
G1 X121.769 Y135.004 E0.01128
G1 X111.050 Y145.722 E0.47527
G1 X111.583 Y146.255 E0.02365
G1 X122.302 Y135.537 E0.47527
G1 X122.835 Y136.070 E0.02365
G1 X112.117 Y146.789 E0.47527
G1 X112.650 Y147.322 E0.02365
G1 X121.737 Y138.235 E0.40294
G1 X122.270 Y138.768 E0.02365
G1 X113.183 Y147.855 E0.40294
G1 X113.716 Y148.388 E0.02365
G1 X122.804 Y139.301 E0.40294
G1 X123.337 Y139.835 E0.02365
G1 X114.250 Y148.922 E0.40294
G1 X114.783 Y149.455 E0.02365
G1 X123.870 Y140.368 E0.40294
G1 X124.403 Y140.901 E0.02365
G1 X115.196 Y150.108 E0.40826
G1 E-0.80000 F2100.00000
G1 Z0.800 F10800.000
G1 X67.238 Y141.689
G1 Z0.200
G1 E0.80000 F2100.00000
G1 F1200.000
G1 X60.891 Y142.808 E0.20206
G1 X60.701 Y142.712 E0.00668
G1 X60.619 Y142.630 E0.00364
G1 X60.519 Y142.574 E0.00359
G1 X60.046 Y141.851 E0.02708
G1 X59.266 Y141.650 E0.02528
G1 X58.739 Y141.239 E0.02096
G1 X58.217 Y140.934 E0.01893
G1 X57.835 Y140.767 E0.01308
G1 X57.222 Y140.532 E0.02061
G1 X56.382 Y140.432 E0.02650
G1 X55.793 Y139.947 E0.02395
G1 X54.325 Y131.621 E0.26507
G1 X119.478 Y120.133 E2.07434
G1 X121.589 Y132.105 E0.38117
G1 X67.297 Y141.678 E1.72854
G1 X68.745 Y141.806 F10800.000
G1 F1200.000
G1 X60.833 Y143.201 E0.25189
G1 X60.478 Y143.022 E0.01247
G1 X60.389 Y142.934 E0.00392
G1 X60.254 Y142.857 E0.00489
G1 X59.811 Y142.180 E0.02537
G1 X59.096 Y141.996 E0.02316
G1 X58.527 Y141.552 E0.02263
G1 X58.046 Y141.271 E0.01745
G1 X57.692 Y141.116 E0.01212
G1 X57.131 Y140.901 E0.01886
G1 X56.228 Y140.794 E0.02850
G1 X55.449 Y140.170 E0.03129
G1 X53.888 Y131.315 E0.28192
G1 X119.784 Y119.696 E2.09798
G1 X122.026 Y132.411 E0.40482
G1 X68.804 Y141.795 E1.69447
G1 X68.465 Y141.520 F10800.000
G1 E-0.80000 F2100.00000
G1 Z0.800 F10800.000
G1 X61.061 Y142.663
G1 Z0.200
G1 E0.80000 F2100.00000
G1 F1200.000
G1 X55.595 Y137.197 E0.24390
G1 X55.480 Y136.545 E0.02087
G1 X61.371 Y142.436 E0.26284
G1 X61.827 Y142.356 E0.01461
G1 X55.365 Y135.894 E0.28833
G1 X55.250 Y135.242 E0.02087
G1 X62.283 Y142.275 E0.31381
G1 X62.739 Y142.195 E0.01461
G1 X55.136 Y134.591 E0.33929
G1 X55.021 Y133.939 E0.02087
G1 X63.196 Y142.114 E0.36477
G1 X63.652 Y142.034 E0.01461
G1 X54.906 Y133.288 E0.39025
G1 X54.791 Y132.636 E0.02087
G1 X64.108 Y141.953 E0.41573
G1 X64.564 Y141.873 E0.01461
G1 X54.676 Y131.985 E0.44121
G1 X54.652 Y131.851 E0.00430
G1 X55.015 Y131.787 E0.01160
G1 X65.020 Y141.793 E0.44646
G1 X65.477 Y141.712 E0.01461
G1 X55.471 Y131.706 E0.44646
G1 X55.927 Y131.626 E0.01461
G1 X65.933 Y141.632 E0.44646
G1 X66.389 Y141.551 E0.01461
G1 X56.383 Y131.545 E0.44646
G1 X56.839 Y131.465 E0.01461
G1 X66.845 Y141.471 E0.44646
G1 X67.301 Y141.390 E0.01461
G1 X57.295 Y131.384 E0.44646
G1 X57.752 Y131.304 E0.01461
G1 X67.757 Y141.310 E0.44646
G1 X68.214 Y141.229 E0.01461
G1 X58.208 Y131.224 E0.44646
G1 X58.664 Y131.143 E0.01461
G1 X68.670 Y141.149 E0.44646
G1 X69.126 Y141.069 E0.01461
G1 X59.120 Y131.063 E0.44646
G1 X59.576 Y130.982 E0.01461
G1 X69.582 Y140.988 E0.44646
G1 X70.038 Y140.908 E0.01461
G1 X60.032 Y130.902 E0.44646
G1 X60.489 Y130.821 E0.01461
G1 X70.495 Y140.827 E0.44646
G1 X70.951 Y140.747 E0.01461
G1 X60.945 Y130.741 E0.44646
G1 X61.401 Y130.661 E0.01461
G1 X71.407 Y140.666 E0.44646
G1 X71.863 Y140.586 E0.01461
G1 X61.857 Y130.580 E0.44646
G1 X62.313 Y130.500 E0.01461
G1 X72.319 Y140.506 E0.44646
G1 X72.775 Y140.425 E0.01461
G1 X62.770 Y130.419 E0.44646
G1 X63.226 Y130.339 E0.01461
G1 X73.232 Y140.345 E0.44646
M73 P2 R42
G1 X73.688 Y140.264 E0.01461
G1 X63.682 Y130.258 E0.44646
G1 X64.138 Y130.178 E0.01461
G1 X74.144 Y140.184 E0.44646
G1 X74.600 Y140.103 E0.01461
G1 X64.594 Y130.097 E0.44646
G1 X65.050 Y130.017 E0.01461
G1 X75.056 Y140.023 E0.44646
G1 X75.513 Y139.943 E0.01461
G1 X65.507 Y129.937 E0.44646
G1 X65.963 Y129.856 E0.01461
G1 X75.969 Y139.862 E0.44646
G1 X76.425 Y139.782 E0.01461
G1 X66.419 Y129.776 E0.44646
G1 X66.875 Y129.695 E0.01461
G1 X76.881 Y139.701 E0.44646
G1 X77.337 Y139.621 E0.01461
G1 X67.331 Y129.615 E0.44646
G1 X67.788 Y129.534 E0.01461
G1 X77.793 Y139.540 E0.44646
G1 X78.250 Y139.460 E0.01461
G1 X68.244 Y129.454 E0.44646
G1 X68.700 Y129.374 E0.01461
G1 X78.706 Y139.379 E0.44646
G1 X79.162 Y139.299 E0.01461
G1 X69.156 Y129.293 E0.44646
G1 X69.612 Y129.213 E0.01461
G1 X79.618 Y139.219 E0.44646
G1 X80.074 Y139.138 E0.01461
G1 X70.068 Y129.132 E0.44646
G1 X70.525 Y129.052 E0.01461
G1 X80.530 Y139.058 E0.44646
G1 X80.987 Y138.977 E0.01461
G1 X70.981 Y128.971 E0.44646
G1 X71.437 Y128.891 E0.01461
G1 X81.443 Y138.897 E0.44646
G1 X81.899 Y138.816 E0.01461
G1 X71.893 Y128.811 E0.44646
G1 X72.349 Y128.730 E0.01461
G1 X82.355 Y138.736 E0.44646
G1 X82.811 Y138.656 E0.01461
G1 X72.806 Y128.650 E0.44646
G1 X73.262 Y128.569 E0.01461
G1 X83.268 Y138.575 E0.44646
G1 X83.724 Y138.495 E0.01461
G1 X73.718 Y128.489 E0.44646
G1 X74.174 Y128.408 E0.01461
G1 X84.180 Y138.414 E0.44646
G1 X84.636 Y138.334 E0.01461
G1 X74.630 Y128.328 E0.44646
G1 X75.086 Y128.247 E0.01461
G1 X85.092 Y138.253 E0.44646
G1 X85.548 Y138.173 E0.01461
G1 X75.543 Y128.167 E0.44646
G1 X75.999 Y128.087 E0.01461
G1 X86.005 Y138.092 E0.44646
G1 X86.461 Y138.012 E0.01461
G1 X76.455 Y128.006 E0.44646
G1 X76.911 Y127.926 E0.01461
G1 X86.917 Y137.932 E0.44646
G1 X87.373 Y137.851 E0.01461
G1 X77.367 Y127.845 E0.44646
G1 X77.823 Y127.765 E0.01461
G1 X87.829 Y137.771 E0.44646
G1 X88.286 Y137.690 E0.01461
G1 X78.280 Y127.684 E0.44646
G1 X78.736 Y127.604 E0.01461
G1 X88.742 Y137.610 E0.44646
G1 X89.198 Y137.529 E0.01461
G1 X79.192 Y127.524 E0.44646
G1 X79.648 Y127.443 E0.01461
G1 X89.654 Y137.449 E0.44646
G1 X90.110 Y137.369 E0.01461
G1 X80.104 Y127.363 E0.44646
G1 X80.561 Y127.282 E0.01461
G1 X90.566 Y137.288 E0.44646
G1 X91.023 Y137.208 E0.01461
G1 X81.017 Y127.202 E0.44646
G1 X81.473 Y127.121 E0.01461
G1 X91.479 Y137.127 E0.44646
G1 X91.935 Y137.047 E0.01461
G1 X81.929 Y127.041 E0.44646
G1 X82.385 Y126.960 E0.01461
G1 X92.391 Y136.966 E0.44646
G1 X92.847 Y136.886 E0.01461
G1 X82.841 Y126.880 E0.44646
G1 X83.298 Y126.800 E0.01461
G1 X93.304 Y136.805 E0.44646
G1 X93.760 Y136.725 E0.01461
G1 X83.754 Y126.719 E0.44646
G1 X84.210 Y126.639 E0.01461
G1 X94.216 Y136.645 E0.44646
G1 X94.672 Y136.564 E0.01461
G1 X84.666 Y126.558 E0.44646
G1 X85.122 Y126.478 E0.01461
G1 X95.128 Y136.484 E0.44646
G1 X95.584 Y136.403 E0.01461
G1 X85.579 Y126.397 E0.44646
G1 X86.035 Y126.317 E0.01461
G1 X96.041 Y136.323 E0.44646
G1 X96.497 Y136.242 E0.01461
G1 X86.491 Y126.237 E0.44646
G1 X86.947 Y126.156 E0.01461
G1 X96.953 Y136.162 E0.44646
G1 X97.409 Y136.082 E0.01461
G1 X87.403 Y126.076 E0.44646
G1 X87.859 Y125.995 E0.01461
G1 X97.865 Y136.001 E0.44646
G1 X98.321 Y135.921 E0.01461
G1 X88.316 Y125.915 E0.44646
G1 X88.772 Y125.834 E0.01461
G1 X98.778 Y135.840 E0.44646
G1 X99.234 Y135.760 E0.01461
G1 X89.228 Y125.754 E0.44646
G1 X89.684 Y125.673 E0.01461
G1 X99.690 Y135.679 E0.44646
G1 X100.146 Y135.599 E0.01461
G1 X90.140 Y125.593 E0.44646
G1 X90.597 Y125.513 E0.01461
G1 X100.602 Y135.518 E0.44646
G1 X101.059 Y135.438 E0.01461
G1 X91.053 Y125.432 E0.44646
G1 X91.509 Y125.352 E0.01461
G1 X101.515 Y135.358 E0.44646
G1 X101.971 Y135.277 E0.01461
G1 X91.965 Y125.271 E0.44646
G1 X92.421 Y125.191 E0.01461
G1 X102.427 Y135.197 E0.44646
G1 X102.883 Y135.116 E0.01461
G1 X92.877 Y125.110 E0.44646
G1 X93.334 Y125.030 E0.01461
G1 X103.339 Y135.036 E0.44646
G1 X103.796 Y134.955 E0.01461
G1 X93.790 Y124.950 E0.44646
G1 X94.246 Y124.869 E0.01461
G1 X104.252 Y134.875 E0.44646
G1 X104.708 Y134.795 E0.01461
G1 X94.702 Y124.789 E0.44646
G1 X95.158 Y124.708 E0.01461
G1 X105.164 Y134.714 E0.44646
G1 X105.620 Y134.634 E0.01461
G1 X95.614 Y124.628 E0.44646
G1 X96.071 Y124.547 E0.01461
G1 X106.077 Y134.553 E0.44646
G1 X106.533 Y134.473 E0.01461
G1 X96.527 Y124.467 E0.44646
G1 X96.983 Y124.386 E0.01461
G1 X106.989 Y134.392 E0.44646
G1 X107.445 Y134.312 E0.01461
G1 X97.439 Y124.306 E0.44646
G1 X97.895 Y124.226 E0.01461
G1 X107.901 Y134.231 E0.44646
G1 X108.357 Y134.151 E0.01461
G1 X98.352 Y124.145 E0.44646
G1 X98.808 Y124.065 E0.01461
G1 X108.814 Y134.071 E0.44646
G1 X109.270 Y133.990 E0.01461
G1 X99.264 Y123.984 E0.44646
G1 X99.720 Y123.904 E0.01461
G1 X109.726 Y133.910 E0.44646
G1 X110.182 Y133.829 E0.01461
G1 X100.176 Y123.823 E0.44646
G1 X100.632 Y123.743 E0.01461
G1 X110.638 Y133.749 E0.44646
M73 P4 R41
G1 X111.095 Y133.668 E0.01461
G1 X101.089 Y123.663 E0.44646
G1 X101.545 Y123.582 E0.01461
G1 X111.551 Y133.588 E0.44646
G1 X112.007 Y133.508 E0.01461
G1 X102.001 Y123.502 E0.44646
G1 X102.457 Y123.421 E0.01461
G1 X112.463 Y133.427 E0.44646
G1 X112.919 Y133.347 E0.01461
G1 X102.913 Y123.341 E0.44646
G1 X103.370 Y123.260 E0.01461
G1 X113.375 Y133.266 E0.44646
G1 X113.832 Y133.186 E0.01461
G1 X103.826 Y123.180 E0.44646
G1 X104.282 Y123.099 E0.01461
G1 X114.288 Y133.105 E0.44646
G1 X114.744 Y133.025 E0.01461
G1 X104.738 Y123.019 E0.44646
G1 X105.194 Y122.939 E0.01461
G1 X115.200 Y132.945 E0.44646
G1 X115.656 Y132.864 E0.01461
G1 X105.650 Y122.858 E0.44646
G1 X106.107 Y122.778 E0.01461
G1 X116.112 Y132.784 E0.44646
G1 X116.569 Y132.703 E0.01461
G1 X106.563 Y122.697 E0.44646
G1 X107.019 Y122.617 E0.01461
G1 X117.025 Y132.623 E0.44646
G1 X117.481 Y132.542 E0.01461
G1 X107.475 Y122.536 E0.44646
G1 X107.931 Y122.456 E0.01461
G1 X117.937 Y132.462 E0.44646
G1 X118.393 Y132.381 E0.01461
G1 X108.388 Y122.376 E0.44646
G1 X108.844 Y122.295 E0.01461
G1 X118.850 Y132.301 E0.44646
G1 X119.306 Y132.221 E0.01461
G1 X109.300 Y122.215 E0.44646
G1 X109.756 Y122.134 E0.01461
G1 X119.762 Y132.140 E0.44646
G1 X120.218 Y132.060 E0.01461
G1 X110.212 Y122.054 E0.44646
G1 X110.668 Y121.973 E0.01461
G1 X120.674 Y131.979 E0.44646
G1 X121.130 Y131.899 E0.01461
G1 X111.125 Y121.893 E0.44646
G1 X111.581 Y121.813 E0.01461
G1 X121.179 Y131.411 E0.42828
G1 X121.064 Y130.759 E0.02087
G1 X112.037 Y121.732 E0.40280
G1 X112.493 Y121.652 E0.01461
G1 X120.949 Y130.108 E0.37732
G1 X120.834 Y129.456 E0.02087
G1 X112.949 Y121.571 E0.35184
G1 X113.405 Y121.491 E0.01461
G1 X120.720 Y128.805 E0.32636
G1 X120.605 Y128.153 E0.02087
G1 X113.862 Y121.410 E0.30088
G1 X114.318 Y121.330 E0.01461
G1 X120.490 Y127.502 E0.27539
G1 X120.375 Y126.850 E0.02087
G1 X114.774 Y121.249 E0.24991
G1 X115.230 Y121.169 E0.01461
G1 X120.260 Y126.199 E0.22443
G1 X120.145 Y125.547 E0.02087
G1 X115.686 Y121.089 E0.19895
G1 X116.143 Y121.008 E0.01461
G1 X120.030 Y124.896 E0.17347
G1 X119.915 Y124.244 E0.02087
G1 X116.599 Y120.928 E0.14799
G1 X117.055 Y120.847 E0.01461
G1 X119.801 Y123.593 E0.12251
G1 X119.686 Y122.941 E0.02087
G1 X117.511 Y120.767 E0.09703
G1 X117.967 Y120.686 E0.01461
G1 X119.571 Y122.290 E0.07155
G1 X119.456 Y121.638 E0.02087
G1 X118.423 Y120.606 E0.04607
G1 X118.880 Y120.526 E0.01461
G1 X119.550 Y121.196 E0.02993
G1 E-0.80000 F2100.00000
G1 Z0.800 F10800.000
G1 X59.440 Y141.578
G1 Z0.200
G1 E0.80000 F2100.00000
G1 F1200.000
G1 X55.710 Y137.848 E0.16644
G1 X55.825 Y138.500 E0.02087
G1 X57.760 Y140.435 E0.08636
G1 X57.290 Y140.255 E0.01589
G1 X57.010 Y140.222 E0.00888
G1 X55.731 Y138.942 E0.05711
G1 E-0.80000 F2100.00000
G1 Z0.800 F10800.000
G1 X85.979 Y89.199
G1 Z0.200
G1 E0.80000 F2100.00000
G1 F1200.000
G1 X85.715 Y89.463 E0.01170
G1 X86.248 Y89.996 E0.02365
G1 X87.064 Y89.180 E0.03619
G1 X87.458 Y89.111 E0.01252
G1 X87.586 Y89.124 E0.00403
G1 X88.020 Y89.291 E0.01459
G1 X86.782 Y90.529 E0.05493
G1 X87.315 Y91.063 E0.02365
G1 X88.724 Y89.654 E0.06248
G1 X89.324 Y90.120 E0.02383
G1 X87.848 Y91.596 E0.06546
G1 X88.381 Y92.129 E0.02365
G1 X90.062 Y90.448 E0.07453
G1 X90.330 Y90.858 E0.01533
G1 X90.422 Y90.944 E0.00395
G1 X90.557 Y91.020 E0.00487
G1 X88.915 Y92.662 E0.07282
G1 X89.448 Y93.196 E0.02365
G1 X91.232 Y91.411 E0.07913
G1 X91.438 Y91.455 E0.00660
G1 X92.430 Y91.280 E0.03158
G1 X89.981 Y93.729 E0.10859
G1 X90.514 Y94.262 E0.02365
G1 X93.725 Y91.052 E0.14236
G1 X95.020 Y90.823 E0.04123
G1 X91.048 Y94.795 E0.17613
G1 X91.581 Y95.329 E0.02365
G1 X96.315 Y90.595 E0.20990
G1 X97.610 Y90.367 E0.04123
G1 X92.114 Y95.862 E0.24367
G1 X92.648 Y96.395 E0.02365
G1 X98.904 Y90.138 E0.27744
G1 X100.199 Y89.910 E0.04123
G1 X93.181 Y96.929 E0.31121
G1 X93.714 Y97.462 E0.02365
G1 X101.494 Y89.682 E0.34498
G1 X102.789 Y89.453 E0.04123
G1 X95.879 Y96.364 E0.30642
