; generated by PrusaSlicer 2.2.0+win64 on 2020-08-18 at 17:12:49 UTC

; 

; external perimeters extrusion width = 0.45mm
; perimeters extrusion width = 0.45mm
; infill extrusion width = 0.45mm
; solid infill extrusion width = 0.45mm
; top infill extrusion width = 0.40mm
; support material extrusion width = 0.35mm
; first layer extrusion width = 0.42mm

M73 P0 R214
M201 X9000 Y9000 Z500 E10000 ; sets maximum accelerations, mm/sec^2
M203 X500 Y500 Z12 E120 ; sets maximum feedrates, mm/sec
M204 P2000 R1500 T2000 ; sets acceleration (P, T) and retract acceleration (R), mm/sec^2
M205 X10.00 Y10.00 Z0.20 E2.50 ; sets the jerk limits, mm/sec
M205 S0 T0 ; sets the minimum extruding and travel feed rate, mm/sec
M107
M862.3 P "MK2S" ; printer model check
M862.1 P0.4 ; nozzle diameter check
M115 U3.2.3 ; tell printer latest fw version
G90 ; use absolute coordinates
M83 ; extruder relative mode
M204 S2000 T1500 ; MK2 firmware only supports the old M204 format
M104 S215 ; set extruder temp
M140 S60 ; set bed temp
M190 S60 ; wait for bed temp
M109 S215 ; wait for extruder temp
G28 W ; home all without mesh bed level
G80 ; mesh bed leveling
G1 Y-3.0 F1000.0 ; go outside print area
G92 E0.0
G1 X60.0 E9.0  F1000.0 ; intro line
M73 P0 R214
G1 X100.0 E12.5 F1000.0 ; intro line
G92 E0.0
G21 ; set units to millimeters
G90 ; use absolute coordinates
M83 ; use relative distances for extrusion
M900 K0.06 ; Filament gcode LA 1.5
M900 K30 ; Filament gcode LA 1.0
;BEFORE_LAYER_CHANGE
G92 E0.0
;0.2


G1 E-0.80000 F2100.00000
G1 Z0.600 F10800.000
;AFTER_LAYER_CHANGE
;0.2
G1 X4.962 Y116.405
G1 Z0.200
G1 E0.80000 F2100.00000
M204 S1000
G1 F1200.000
G1 X10.907 Y110.460 E0.26358
G1 X11.440 Y110.994 E0.02365
G1 X5.615 Y116.818 E0.25826
G1 X6.149 Y117.351 E0.02365
G1 X11.973 Y111.527 E0.25826
G1 X12.506 Y112.060 E0.02365
G1 X5.051 Y119.516 E0.33060
G1 X5.584 Y120.049 E0.02365
G1 X13.040 Y112.594 E0.33060
G1 X13.573 Y113.127 E0.02365
G1 X6.117 Y120.583 E0.33060
G1 X6.340 Y120.805 E0.00988
G1 X4.709 Y122.437 E0.07234
G1 X5.019 Y122.747 E0.01376
G1 X15.738 Y112.029 E0.47527
G1 X16.271 Y112.562 E0.02365
G1 X5.552 Y123.280 E0.47527
G1 X6.086 Y123.814 E0.02365
G1 X16.804 Y113.095 E0.47527
G1 X17.337 Y113.629 E0.02365
G1 X4.988 Y125.978 E0.54761
G1 X5.521 Y126.512 E0.02365
G1 X17.871 Y114.162 E0.54761
G1 X18.404 Y114.695 E0.02365
G1 X6.356 Y126.743 E0.53423
G1 X7.421 Y126.744 E0.03341
G1 X18.937 Y115.228 E0.51063
G1 X19.470 Y115.762 E0.02365
G1 X8.487 Y126.745 E0.48703
G1 X9.552 Y126.746 E0.03341
G1 X20.004 Y116.295 E0.46343
G1 X20.537 Y116.828 E0.02365
G1 X10.618 Y126.747 E0.43983
G1 X11.683 Y126.748 E0.03341
G1 X21.070 Y117.361 E0.41623
G1 X21.603 Y117.895 E0.02365
G1 X12.749 Y126.749 E0.39263
G1 X13.814 Y126.750 E0.03341
G1 X22.137 Y118.428 E0.36903
G1 X22.670 Y118.961 E0.02365
G1 X14.880 Y126.751 E0.34543
G1 X15.945 Y126.752 E0.03341
G1 X21.572 Y121.126 E0.24949
G1 X22.105 Y121.659 E0.02365
G1 X17.011 Y126.753 E0.22589
G1 X18.076 Y126.754 E0.03341
G1 X22.638 Y122.192 E0.20229
G1 X22.883 Y122.437 E0.01084
G1 X21.252 Y124.068 E0.07234
G1 X21.540 Y124.357 E0.01281
G1 X19.142 Y126.756 E0.10635
G1 X20.207 Y126.757 E0.03341
G1 X22.074 Y124.890 E0.08275
G1 X22.607 Y125.424 E0.02365
G1 X21.103 Y126.927 E0.06667
G1 E-0.80000 F2100.00000
G1 Z0.800 F10800.000
G1 X56.265 Y126.961
G1 Z0.200
G1 E0.80000 F2100.00000
G1 F1200.000
G1 X63.044 Y120.183 E0.30058
G1 X63.577 Y120.716 E0.02365
G1 X57.500 Y126.793 E0.26947
G1 X58.566 Y126.794 E0.03341
G1 X64.110 Y121.249 E0.24587
G1 X64.368 Y121.506 E0.01141
G1 X65.999 Y119.875 E0.07234
G1 X66.275 Y120.151 E0.01224
G1 X59.631 Y126.795 E0.29460
G1 X60.697 Y126.796 E0.03341
G1 X66.808 Y120.684 E0.27100
G1 X67.342 Y121.218 E0.02365
G1 X61.762 Y126.797 E0.24740
G1 X62.828 Y126.798 E0.03341
G1 X67.875 Y121.751 E0.22380
G1 X68.408 Y122.284 E0.02365
G1 X63.893 Y126.799 E0.20020
G1 X64.959 Y126.800 E0.03341
G1 X68.941 Y122.817 E0.17660
G1 X69.475 Y123.351 E0.02365
G1 X66.024 Y126.801 E0.15300
G1 X67.090 Y126.802 E0.03341
G1 X70.008 Y123.884 E0.12940
G1 X70.541 Y124.417 E0.02365
G1 X67.747 Y127.212 E0.12392
G1 X67.889 Y127.373 E0.00675
G1 X68.022 Y127.483 E0.00540
G1 X68.097 Y127.584 E0.00395
G1 X68.200 Y127.825 E0.00821
G1 X71.074 Y124.950 E0.12745
G1 X71.608 Y125.484 E0.02365
G1 X68.614 Y128.478 E0.13277
G1 E-0.80000 F2100.00000
G1 Z0.800 F10800.000
G1 X38.359 Y140.044
G1 Z0.200
G1 E0.80000 F2100.00000
G1 F1200.000
G1 X5.183 Y140.012 E1.04020
G1 X5.195 Y127.855 E0.38117
G1 X66.829 Y127.915 E1.93248
G1 X66.999 Y128.043 E0.00668
G1 X67.066 Y128.137 E0.00364
G1 X67.154 Y128.210 E0.00359
G1 X67.494 Y129.004 E0.02708
G1 X68.227 Y129.339 E0.02528
G1 X68.674 Y129.836 E0.02096
G1 X69.134 Y130.227 E0.01893
G1 X69.481 Y130.458 E0.01308
G1 X70.045 Y130.797 E0.02061
G1 X70.854 Y131.041 E0.02650
G1 X71.349 Y131.623 E0.02395
G1 X71.341 Y140.076 E0.26507
G1 X38.419 Y140.044 E1.03225
G1 X38.370 Y140.421 F10800.000
G1 F1200.000
G1 X4.806 Y140.389 E1.05238
G1 X4.818 Y127.478 E0.40482
G1 X66.954 Y127.538 E1.94824
G1 X67.273 Y127.776 E0.01247
G1 X67.345 Y127.879 E0.00392
G1 X67.465 Y127.978 E0.00489
G1 X67.783 Y128.722 E0.02537
G1 X68.455 Y129.028 E0.02316
G1 X68.938 Y129.565 E0.02263
G1 X69.362 Y129.925 E0.01745
G1 X69.683 Y130.140 E0.01212
G1 X70.199 Y130.450 E0.01886
G1 X71.069 Y130.712 E0.02850
G1 X71.727 Y131.463 E0.03129
G1 X71.718 Y140.454 E0.28192
G1 X38.430 Y140.421 E1.04372
G1 X38.141 Y140.094 F10800.000
G1 E-0.80000 F2100.00000
G1 Z0.800 F10800.000
G1 X67.390 Y129.051
G1 Z0.200
G1 E0.80000 F2100.00000
G1 F1200.000
G1 X66.537 Y128.198 E0.03793
G1 X66.002 Y128.197 E0.01682
G1 X71.065 Y133.260 E0.22508
G1 X71.065 Y132.726 E0.01679
G1 X67.790 Y129.450 E0.14563
G1 X68.056 Y129.572 E0.00921
G1 X68.477 Y130.039 E0.01976
G1 X68.964 Y130.453 E0.02009
G1 X69.330 Y130.697 E0.01384
G1 X69.933 Y131.059 E0.02211
G1 X71.235 Y132.361 E0.05791
G1 X71.234 Y133.964 F10800.000
G1 F1200.000
G1 X65.467 Y128.197 E0.25638
G1 X64.932 Y128.196 E0.01682
G1 X71.064 Y134.328 E0.27262
G1 X71.063 Y134.862 E0.01679
G1 X64.397 Y128.196 E0.29638
G1 X63.861 Y128.195 E0.01682
G1 X71.063 Y135.396 E0.32015
G1 X71.062 Y135.931 E0.01679
G1 X63.326 Y128.194 E0.34392
G1 X62.791 Y128.194 E0.01682
G1 X71.062 Y136.465 E0.36769
G1 X71.061 Y136.999 E0.01679
G1 X62.256 Y128.193 E0.39146
G1 X61.721 Y128.193 E0.01682
G1 X71.061 Y137.533 E0.41523
G1 X71.060 Y138.067 E0.01679
G1 X61.185 Y128.192 E0.43900
G1 X60.650 Y128.192 E0.01682
G1 X71.060 Y138.601 E0.46277
G1 X71.059 Y139.135 E0.01679
G1 X60.115 Y128.191 E0.48653
G1 X59.580 Y128.191 E0.01682
G1 X71.059 Y139.670 E0.51030
G1 X71.059 Y139.793 E0.00389
G1 X70.647 Y139.793 E0.01292
G1 X59.045 Y128.190 E0.51581
G1 X58.510 Y128.190 E0.01682
G1 X70.112 Y139.792 E0.51581
G1 X69.577 Y139.792 E0.01682
G1 X57.974 Y128.189 E0.51581
G1 X57.439 Y128.189 E0.01682
G1 X69.042 Y139.791 E0.51581
G1 X68.507 Y139.791 E0.01682
G1 X56.904 Y128.188 E0.51581
G1 X56.369 Y128.188 E0.01682
G1 X67.972 Y139.790 E0.51581
G1 X67.436 Y139.790 E0.01682
G1 X55.834 Y128.187 E0.51581
G1 X55.299 Y128.187 E0.01682
G1 X66.901 Y139.789 E0.51581
G1 X66.366 Y139.789 E0.01682
G1 X54.763 Y128.186 E0.51581
G1 X54.228 Y128.186 E0.01682
G1 X65.831 Y139.788 E0.51581
G1 X65.296 Y139.788 E0.01682
G1 X53.693 Y128.185 E0.51581
M73 P0 R213
G1 X53.158 Y128.185 E0.01682
G1 X64.761 Y139.787 E0.51581
G1 X64.225 Y139.787 E0.01682
G1 X52.623 Y128.184 E0.51581
G1 X52.088 Y128.184 E0.01682
G1 X63.690 Y139.786 E0.51581
G1 X63.155 Y139.786 E0.01682
G1 X51.552 Y128.183 E0.51581
G1 X51.017 Y128.182 E0.01682
G1 X62.620 Y139.785 E0.51581
G1 X62.085 Y139.785 E0.01682
G1 X50.482 Y128.182 E0.51581
G1 X49.947 Y128.181 E0.01682
G1 X61.550 Y139.784 E0.51581
G1 X61.014 Y139.784 E0.01682
G1 X49.412 Y128.181 E0.51581
G1 X48.877 Y128.180 E0.01682
G1 X60.479 Y139.783 E0.51581
G1 X59.944 Y139.783 E0.01682
G1 X48.341 Y128.180 E0.51581
G1 X47.806 Y128.179 E0.01682
G1 X59.409 Y139.782 E0.51581
G1 X58.874 Y139.782 E0.01682
G1 X47.271 Y128.179 E0.51581
G1 X46.736 Y128.178 E0.01682
G1 X58.338 Y139.781 E0.51581
G1 X57.803 Y139.780 E0.01682
G1 X46.201 Y128.178 E0.51581
G1 X45.665 Y128.177 E0.01682
G1 X57.268 Y139.780 E0.51581
G1 X56.733 Y139.779 E0.01682
G1 X45.130 Y128.177 E0.51581
G1 X44.595 Y128.176 E0.01682
G1 X56.198 Y139.779 E0.51581
G1 X55.663 Y139.778 E0.01682
G1 X44.060 Y128.176 E0.51581
G1 X43.525 Y128.175 E0.01682
G1 X55.127 Y139.778 E0.51581
G1 X54.592 Y139.777 E0.01682
G1 X42.990 Y128.175 E0.51581
G1 X42.454 Y128.174 E0.01682
G1 X54.057 Y139.777 E0.51581
G1 X53.522 Y139.776 E0.01682
G1 X41.919 Y128.174 E0.51581
G1 X41.384 Y128.173 E0.01682
G1 X52.987 Y139.776 E0.51581
G1 X52.452 Y139.775 E0.01682
G1 X40.849 Y128.173 E0.51581
G1 X40.314 Y128.172 E0.01682
G1 X51.916 Y139.775 E0.51581
G1 X51.381 Y139.774 E0.01682
G1 X39.779 Y128.172 E0.51581
G1 X39.243 Y128.171 E0.01682
G1 X50.846 Y139.774 E0.51581
G1 X50.311 Y139.773 E0.01682
G1 X38.708 Y128.171 E0.51581
G1 X38.173 Y128.170 E0.01682
G1 X49.776 Y139.773 E0.51581
G1 X49.241 Y139.772 E0.01682
G1 X37.638 Y128.169 E0.51581
G1 X37.103 Y128.169 E0.01682
G1 X48.705 Y139.772 E0.51581
G1 X48.170 Y139.771 E0.01682
G1 X36.568 Y128.168 E0.51581
G1 X36.032 Y128.168 E0.01682
G1 X47.635 Y139.771 E0.51581
G1 X47.100 Y139.770 E0.01682
G1 X35.497 Y128.167 E0.51581
G1 X34.962 Y128.167 E0.01682
G1 X46.565 Y139.770 E0.51581
G1 X46.030 Y139.769 E0.01682
G1 X34.427 Y128.166 E0.51581
G1 X33.892 Y128.166 E0.01682
G1 X45.494 Y139.768 E0.51581
G1 X44.959 Y139.768 E0.01682
G1 X33.356 Y128.165 E0.51581
G1 X32.821 Y128.165 E0.01682
G1 X44.424 Y139.767 E0.51581
G1 X43.889 Y139.767 E0.01682
G1 X32.286 Y128.164 E0.51581
G1 X31.751 Y128.164 E0.01682
G1 X43.354 Y139.766 E0.51581
G1 X42.818 Y139.766 E0.01682
G1 X31.216 Y128.163 E0.51581
G1 X30.681 Y128.163 E0.01682
G1 X42.283 Y139.765 E0.51581
G1 X41.748 Y139.765 E0.01682
G1 X30.145 Y128.162 E0.51581
G1 X29.610 Y128.162 E0.01682
G1 X41.213 Y139.764 E0.51581
G1 X40.678 Y139.764 E0.01682
G1 X29.075 Y128.161 E0.51581
G1 X28.540 Y128.161 E0.01682
G1 X40.143 Y139.763 E0.51581
G1 X39.607 Y139.763 E0.01682
G1 X28.005 Y128.160 E0.51581
G1 X27.470 Y128.160 E0.01682
G1 X39.072 Y139.762 E0.51581
G1 X38.537 Y139.762 E0.01682
G1 X26.934 Y128.159 E0.51581
G1 X26.399 Y128.159 E0.01682
G1 X38.002 Y139.761 E0.51581
G1 X37.467 Y139.761 E0.01682
G1 X25.864 Y128.158 E0.51581
G1 X25.329 Y128.157 E0.01682
G1 X36.932 Y139.760 E0.51581
G1 X36.396 Y139.760 E0.01682
G1 X24.794 Y128.157 E0.51581
G1 X24.259 Y128.156 E0.01682
G1 X35.861 Y139.759 E0.51581
G1 X35.326 Y139.759 E0.01682
G1 X23.723 Y128.156 E0.51581
G1 X23.188 Y128.155 E0.01682
G1 X34.791 Y139.758 E0.51581
G1 X34.256 Y139.758 E0.01682
G1 X22.653 Y128.155 E0.51581
G1 X22.118 Y128.154 E0.01682
G1 X33.721 Y139.757 E0.51581
G1 X33.185 Y139.757 E0.01682
G1 X21.583 Y128.154 E0.51581
G1 X21.048 Y128.153 E0.01682
G1 X32.650 Y139.756 E0.51581
G1 X32.115 Y139.755 E0.01682
G1 X20.512 Y128.153 E0.51581
G1 X19.977 Y128.152 E0.01682
G1 X31.580 Y139.755 E0.51581
G1 X31.045 Y139.754 E0.01682
G1 X19.442 Y128.152 E0.51581
G1 X18.907 Y128.151 E0.01682
G1 X30.509 Y139.754 E0.51581
G1 X29.974 Y139.753 E0.01682
G1 X18.372 Y128.151 E0.51581
G1 X17.836 Y128.150 E0.01682
G1 X29.439 Y139.753 E0.51581
G1 X28.904 Y139.752 E0.01682
G1 X17.301 Y128.150 E0.51581
G1 X16.766 Y128.149 E0.01682
G1 X28.369 Y139.752 E0.51581
G1 X27.834 Y139.751 E0.01682
G1 X16.231 Y128.149 E0.51581
G1 X15.696 Y128.148 E0.01682
G1 X27.298 Y139.751 E0.51581
M73 P0 R212
G1 X26.763 Y139.750 E0.01682
G1 X15.161 Y128.148 E0.51581
G1 X14.625 Y128.147 E0.01682
G1 X26.228 Y139.750 E0.51581
G1 X25.693 Y139.749 E0.01682
G1 X14.090 Y128.147 E0.51581
G1 X13.555 Y128.146 E0.01682
G1 X25.158 Y139.749 E0.51581
G1 X24.623 Y139.748 E0.01682
G1 X13.020 Y128.145 E0.51581
G1 X12.485 Y128.145 E0.01682
G1 X24.087 Y139.748 E0.51581
G1 X23.552 Y139.747 E0.01682
G1 X11.950 Y128.144 E0.51581
G1 X11.414 Y128.144 E0.01682
G1 X23.017 Y139.747 E0.51581
G1 X22.482 Y139.746 E0.01682
G1 X10.879 Y128.143 E0.51581
G1 X10.344 Y128.143 E0.01682
G1 X21.947 Y139.746 E0.51581
G1 X21.412 Y139.745 E0.01682
G1 X9.809 Y128.142 E0.51581
G1 X9.274 Y128.142 E0.01682
G1 X20.876 Y139.745 E0.51581
G1 X20.341 Y139.744 E0.01682
G1 X8.739 Y128.141 E0.51581
G1 X8.203 Y128.141 E0.01682
G1 X19.806 Y139.743 E0.51581
G1 X19.271 Y139.743 E0.01682
G1 X7.668 Y128.140 E0.51581
G1 X7.133 Y128.140 E0.01682
G1 X18.736 Y139.742 E0.51581
G1 X18.201 Y139.742 E0.01682
G1 X6.598 Y128.139 E0.51581
G1 X6.063 Y128.139 E0.01682
G1 X17.665 Y139.741 E0.51581
G1 X17.130 Y139.741 E0.01682
G1 X5.527 Y128.138 E0.51581
G1 X5.477 Y128.138 E0.00157
G1 X5.477 Y128.622 E0.01522
G1 X16.595 Y139.740 E0.49427
G1 X16.060 Y139.740 E0.01682
G1 X5.476 Y129.156 E0.47050
G1 X5.476 Y129.691 E0.01679
G1 X15.525 Y139.739 E0.44673
G1 X14.989 Y139.739 E0.01682
G1 X5.475 Y130.225 E0.42296
G1 X5.475 Y130.759 E0.01679
G1 X14.454 Y139.738 E0.39919
G1 X13.919 Y139.738 E0.01682
G1 X5.474 Y131.293 E0.37542
G1 X5.474 Y131.827 E0.01679
G1 X13.384 Y139.737 E0.35165
G1 X12.849 Y139.737 E0.01682
G1 X5.473 Y132.361 E0.32789
G1 X5.473 Y132.895 E0.01679
G1 X12.314 Y139.736 E0.30412
G1 X11.778 Y139.736 E0.01682
G1 X5.472 Y133.430 E0.28035
G1 X5.472 Y133.964 E0.01679
G1 X11.243 Y139.735 E0.25658
G1 X10.708 Y139.735 E0.01682
G1 X5.471 Y134.498 E0.23281
G1 X5.471 Y135.032 E0.01679
G1 X10.173 Y139.734 E0.20904
G1 X9.638 Y139.734 E0.01682
G1 X5.470 Y135.566 E0.18527
G1 X5.470 Y136.100 E0.01679
G1 X9.103 Y139.733 E0.16150
G1 X8.567 Y139.733 E0.01682
G1 X5.469 Y136.634 E0.13773
G1 X5.469 Y137.168 E0.01679
G1 X8.032 Y139.732 E0.11397
G1 X7.497 Y139.731 E0.01682
G1 X5.468 Y137.703 E0.09020
G1 X5.468 Y138.237 E0.01679
G1 X6.962 Y139.731 E0.06643
G1 X6.427 Y139.730 E0.01682
G1 X5.467 Y138.771 E0.04266
G1 X5.467 Y139.305 E0.01679
G1 X6.061 Y139.900 E0.02644
G1 E-0.80000 F2100.00000
G1 Z0.800 F10800.000
G1 X19.149 Y125.930
G1 Z0.200
G1 E0.80000 F2100.00000
G1 F1200.000
G1 X22.135 Y122.944 E0.13241
G1 X22.529 Y123.123 E0.01357
G1 X22.676 Y123.469 E0.01178
G1 X19.802 Y126.343 E0.12745
G1 X20.335 Y126.877 E0.02365
G1 X23.130 Y124.082 E0.12392
G1 X23.605 Y124.438 E0.01861
G1 X23.787 Y124.492 E0.00595
G1 X20.868 Y127.410 E0.12940
G1 X21.402 Y127.943 E0.02365
G1 X24.852 Y124.493 E0.15300
G1 X25.918 Y124.494 E0.03341
G1 X21.935 Y128.476 E0.17660
G1 X22.468 Y129.010 E0.02365
G1 X26.983 Y124.495 E0.20020
G1 X28.049 Y124.496 E0.03341
G1 X23.002 Y129.543 E0.22380
G1 X23.535 Y130.076 E0.02365
G1 X29.114 Y124.497 E0.24740
G1 X30.180 Y124.498 E0.03341
G1 X24.068 Y130.609 E0.27100
G1 X24.601 Y131.143 E0.02365
G1 X31.245 Y124.499 E0.29460
G1 X32.311 Y124.500 E0.03341
G1 X26.766 Y130.045 E0.24586
G1 X27.299 Y130.578 E0.02365
G1 X33.376 Y124.501 E0.26947
G1 X34.442 Y124.502 E0.03341
G1 X27.712 Y131.231 E0.29839
G1 E-0.80000 F2100.00000
G1 Z0.800 F10800.000
G1 X68.149 Y125.990
G1 Z0.200
G1 E0.80000 F2100.00000
G1 F1200.000
G1 X69.603 Y124.536 E0.06447
G1 X70.669 Y124.537 E0.03341
G1 X68.803 Y126.403 E0.08275
G1 X69.336 Y126.937 E0.02365
G1 X71.734 Y124.538 E0.10635
G1 X72.800 Y124.539 E0.03341
G1 X68.238 Y129.101 E0.20229
G1 X68.771 Y129.635 E0.02365
G1 X73.865 Y124.540 E0.22589
G1 X74.931 Y124.541 E0.03341
G1 X69.304 Y130.168 E0.24949
G1 X69.625 Y130.488 E0.01421
G1 X67.993 Y132.120 E0.07234
G1 X68.206 Y132.333 E0.00944
G1 X75.996 Y124.542 E0.34543
G1 X77.062 Y124.543 E0.03341
G1 X68.740 Y132.866 E0.36903
G1 X69.273 Y133.399 E0.02365
G1 X78.127 Y124.544 E0.39263
G1 X79.193 Y124.546 E0.03341
G1 X69.806 Y133.932 E0.41623
G1 X70.339 Y134.466 E0.02365
G1 X80.258 Y124.547 E0.43983
G1 X81.324 Y124.548 E0.03341
G1 X70.873 Y134.999 E0.46343
G1 X71.406 Y135.532 E0.02365
G1 X82.389 Y124.549 E0.48703
G1 X83.455 Y124.550 E0.03341
G1 X71.939 Y136.065 E0.51063
G1 X72.472 Y136.599 E0.02365
G1 X84.520 Y124.551 E0.53423
G1 X85.125 Y124.551 E0.01894
G1 X85.355 Y124.782 E0.01024
G1 X73.006 Y137.132 E0.54761
G1 X73.539 Y137.665 E0.02365
G1 X85.889 Y125.315 E0.54761
G1 X86.168 Y125.594 E0.01236
G1 X84.536 Y127.226 E0.07234
G1 X84.791 Y127.480 E0.01128
G1 X74.072 Y138.199 E0.47527
G1 X74.606 Y138.732 E0.02365
G1 X85.324 Y128.013 E0.47527
G1 X85.857 Y128.547 E0.02365
G1 X75.139 Y139.265 E0.47527
