; generated by PrusaSlicer 2.1.1+win64 on 2020-04-15 at 21:25:39 UTC

; 

; external perimeters extrusion width = 0.45mm
; perimeters extrusion width = 0.45mm
; infill extrusion width = 0.45mm
; solid infill extrusion width = 0.45mm
; top infill extrusion width = 0.40mm
; support material extrusion width = 0.35mm
; first layer extrusion width = 0.42mm

M73 P0 R31
M201 X9000 Y9000 Z500 E10000 ; sets maximum accelerations, mm/sec^2
M203 X500 Y500 Z12 E120 ; sets maximum feedrates, mm/sec
M204 P2000 R1500 T2000 ; sets acceleration (P, T) and retract acceleration (R), mm/sec^2
M205 X10.00 Y10.00 Z0.20 E2.50 ; sets the jerk limits, mm/sec
M205 S0 T0 ; sets the minimum extruding and travel feed rate, mm/sec
M107
M862.3 P "MK2S" ; printer model check
M862.1 P0.4 ; nozzle diameter check
M115 U3.2.3 ; tell printer latest fw version
G90 ; use absolute coordinates
M83 ; extruder relative mode
M204 S2000 T1500 ; MK2 firmware only supports the old M204 format
M104 S215 ; set extruder temp
M140 S60 ; set bed temp
M190 S60 ; wait for bed temp
M109 S215 ; wait for extruder temp
G28 W ; home all without mesh bed level
G80 ; mesh bed leveling
G1 Y-3.0 F1000.0 ; go outside print area
G92 E0.0
G1 X60.0 E9.0  F1000.0 ; intro line
M73 P0 R31
G1 X100.0 E12.5 F1000.0 ; intro line
G92 E0.0
G21 ; set units to millimeters
G90 ; use absolute coordinates
M83 ; use relative distances for extrusion
M900 K30 ; Filament gcode
;BEFORE_LAYER_CHANGE
G92 E0.0
;0.2


G1 E-0.80000 F2100.00000
G1 Z0.600 F10800.000
;AFTER_LAYER_CHANGE
;0.2
G1 X125.000 Y142.531
G1 Z0.200
G1 E0.80000 F2100.00000
M204 S1000
G1 F1200
G1 X124.914 Y142.531 E0.00269
G1 X121.000 Y128.634 E0.45268
G1 X125.000 Y129.028 E0.12603
G1 X129.000 Y128.634 E0.12603
G1 X125.086 Y142.531 E0.45268
G1 X125.060 Y142.531 E0.00080
G1 X125.000 Y143.921 F10800.000
G1 F1200
G1 X124.914 Y143.921 E0.00269
G1 X120.487 Y128.204 E0.51197
G1 X125.000 Y128.649 E0.14218
G1 X129.513 Y128.204 E0.14218
G1 X125.086 Y143.921 E0.51197
G1 X125.060 Y143.921 E0.00080
G1 X124.930 Y143.872 F10800.000
G1 X125.215 Y144.131
G1 F1200
G1 X124.943 Y144.676 E0.01202
G1 E-0.80000 F2100.00000
G1 Z0.800 F10800.000
G1 X139.283 Y139.707
G1 Z0.200
G1 E0.80000 F2100.00000
G1 F1200
G1 X130.349 Y128.366 E0.45268
G1 X134.195 Y127.199 E0.12603
G1 X137.740 Y125.304 E0.12603
G1 X139.441 Y139.641 E0.45268
G1 X139.339 Y139.684 E0.00349
G1 X139.815 Y140.991 F10800.000
G1 F1200
G1 X129.711 Y128.165 E0.51197
G1 X134.050 Y126.849 E0.14218
G1 X138.049 Y124.711 E0.14218
G1 X139.974 Y140.926 E0.51197
G1 X139.871 Y140.968 E0.00349
G1 X139.630 Y140.637 F10800.000
G1 E-0.80000 F2100.00000
G1 Z0.800 F10800.000
G1 X151.478 Y131.599
G1 Z0.200
G1 E0.80000 F2100.00000
G1 F1200
G1 X138.883 Y124.540 E0.45268
G1 X141.990 Y121.990 E0.12603
G1 X144.540 Y118.883 E0.12603
G1 X151.599 Y131.478 E0.45268
G1 X151.520 Y131.556 E0.00349
G1 X152.461 Y132.582 F10800.000
G1 F1200
G1 X138.217 Y124.599 E0.51197
G1 X141.722 Y121.722 E0.14218
G1 X144.599 Y118.217 E0.14218
G1 X152.582 Y132.461 E0.51197
G1 X152.503 Y132.540 E0.00349
G1 X152.154 Y132.325 F10800.000
G1 E-0.80000 F2100.00000
G1 Z0.800 F10800.000
G1 X145.304 Y117.740
G1 Z0.200
G1 E0.80000 F2100.00000
G1 F1200
G1 X147.199 Y114.195 E0.12603
G1 X148.366 Y110.349 E0.12603
G1 X159.707 Y119.283 E0.45268
G1 X159.641 Y119.441 E0.00537
G1 X145.364 Y117.747 E0.45080
G1 X144.711 Y118.049 F10800.000
G1 F1200
G1 X146.849 Y114.050 E0.14218
G1 X148.165 Y109.711 E0.14218
G1 X160.991 Y119.815 E0.51197
G1 X160.926 Y119.974 E0.00537
G1 X144.771 Y118.056 E0.51009
G1 X145.021 Y117.797 F10800.000
G1 E-0.80000 F2100.00000
G1 Z0.800 F10800.000
G1 X148.634 Y109.000
G1 Z0.200
G1 E0.80000 F2100.00000
G1 F1200
G1 X149.028 Y105.000 E0.12603
G1 X148.634 Y101.000 E0.12603
G1 X162.531 Y104.914 E0.45268
G1 X162.531 Y105.086 E0.00537
G1 X148.692 Y108.984 E0.45080
G1 X148.204 Y109.513 F10800.000
G1 F1200
G1 X148.649 Y105.000 E0.14218
G1 X148.204 Y100.487 E0.14218
G1 X163.921 Y104.914 E0.51197
G1 X163.921 Y105.086 E0.00537
G1 X148.262 Y109.497 E0.51009
G1 X148.394 Y109.161 F10800.000
G1 E-0.80000 F2100.00000
G1 Z0.800 F10800.000
G1 X148.366 Y99.651
G1 Z0.200
G1 E0.80000 F2100.00000
G1 F1200
G1 X147.199 Y95.805 E0.12603
G1 X145.304 Y92.260 E0.12603
G1 X159.641 Y90.559 E0.45268
G1 X159.707 Y90.717 E0.00537
G1 X148.413 Y99.614 E0.45080
G1 X148.165 Y100.289 F10800.000
G1 F1200
G1 X146.849 Y95.950 E0.14218
G1 X144.711 Y91.951 E0.14218
G1 X160.926 Y90.026 E0.51197
G1 X160.991 Y90.185 E0.00537
G1 X148.212 Y100.252 E0.51009
G1 X148.206 Y99.891 F10800.000
G1 E-0.80000 F2100.00000
G1 Z0.800 F10800.000
G1 X144.540 Y91.117
G1 Z0.200
G1 E0.80000 F2100.00000
G1 F1200
G1 X141.990 Y88.010 E0.12603
G1 X138.883 Y85.460 E0.12603
G1 X151.478 Y78.401 E0.45268
G1 X151.599 Y78.522 E0.00537
G1 X144.570 Y91.065 E0.45080
G1 X144.599 Y91.783 F10800.000
G1 F1200
G1 X141.722 Y88.278 E0.14218
G1 X138.217 Y85.401 E0.14218
G1 X152.461 Y77.418 E0.51197
G1 X152.582 Y77.539 E0.00537
G1 X144.628 Y91.731 E0.51009
G1 X144.484 Y91.400 F10800.000
G1 E-0.80000 F2100.00000
G1 Z0.800 F10800.000
G1 X137.740 Y84.696
G1 Z0.200
G1 E0.80000 F2100.00000
G1 F1200
G1 X134.195 Y82.801 E0.12603
G1 X130.349 Y81.634 E0.12603
G1 X139.283 Y70.293 E0.45268
G1 X139.441 Y70.359 E0.00537
G1 X137.747 Y84.636 E0.45080
G1 X138.049 Y85.289 F10800.000
G1 F1200
G1 X134.050 Y83.151 E0.14218
G1 X129.711 Y81.835 E0.14218
G1 X139.815 Y69.009 E0.51197
G1 X139.974 Y69.074 E0.00537
G1 X138.056 Y85.229 E0.51009
G1 X137.797 Y84.979 F10800.000
G1 E-0.80000 F2100.00000
G1 Z0.800 F10800.000
G1 X121.000 Y81.366
G1 Z0.200
G1 E0.80000 F2100.00000
G1 F1200
G1 X124.914 Y67.469 E0.45268
G1 X125.086 Y67.469 E0.00537
G1 X129.000 Y81.366 E0.45268
G1 X125.000 Y80.972 E0.12603
G1 X121.060 Y81.360 E0.12415
G1 X120.487 Y81.796 F10800.000
G1 F1200
G1 X124.914 Y66.079 E0.51197
G1 X125.086 Y66.079 E0.00537
G1 X129.513 Y81.796 E0.51197
G1 X125.000 Y81.351 E0.14218
G1 X120.547 Y81.790 E0.14030
G1 X120.747 Y81.491 F10800.000
G1 E-0.80000 F2100.00000
G1 Z0.800 F10800.000
G1 X112.260 Y84.696
G1 Z0.200
G1 E0.80000 F2100.00000
G1 F1200
G1 X110.559 Y70.359 E0.45268
G1 X110.717 Y70.293 E0.00537
G1 X119.651 Y81.634 E0.45268
G1 X115.805 Y82.801 E0.12603
G1 X112.313 Y84.668 E0.12415
G1 X111.951 Y85.289 F10800.000
G1 F1200
G1 X110.026 Y69.074 E0.51197
G1 X110.185 Y69.009 E0.00537
G1 X120.289 Y81.835 E0.51197
G1 X115.950 Y83.151 E0.14218
G1 X112.004 Y85.261 E0.14030
G1 X112.074 Y84.908 F10800.000
G1 E-0.80000 F2100.00000
G1 Z0.800 F10800.000
G1 X105.460 Y91.117
G1 Z0.200
G1 E0.80000 F2100.00000
G1 F1200
G1 X98.401 Y78.522 E0.45268
G1 X98.522 Y78.401 E0.00537
G1 X111.117 Y85.460 E0.45268
G1 X108.010 Y88.010 E0.12603
G1 X105.498 Y91.071 E0.12415
G1 X105.401 Y91.783 F10800.000
G1 F1200
G1 X97.418 Y77.539 E0.51197
G1 X97.539 Y77.418 E0.00537
G1 X111.783 Y85.401 E0.51197
G1 X108.278 Y88.278 E0.14218
G1 X105.439 Y91.737 E0.14030
G1 X105.369 Y91.384 F10800.000
G1 E-0.80000 F2100.00000
G1 Z0.800 F10800.000
G1 X101.634 Y99.651
G1 Z0.200
G1 E0.80000 F2100.00000
G1 F1200
G1 X90.293 Y90.717 E0.45268
G1 X90.359 Y90.559 E0.00537
G1 X104.696 Y92.260 E0.45268
G1 X102.801 Y95.805 E0.12603
G1 X101.652 Y99.594 E0.12415
G1 X101.835 Y100.289 F10800.000
G1 F1200
G1 X89.009 Y90.185 E0.51197
G1 X89.074 Y90.026 E0.00537
G1 X105.289 Y91.951 E0.51197
G1 X103.151 Y95.950 E0.14218
G1 X101.852 Y100.232 E0.14030
G1 X101.653 Y99.933 F10800.000
G1 E-0.80000 F2100.00000
G1 Z0.800 F10800.000
G1 X101.366 Y109.000
G1 Z0.200
G1 E0.80000 F2100.00000
G1 F1200
G1 X87.469 Y105.086 E0.45268
G1 X87.469 Y104.914 E0.00537
G1 X101.366 Y101.000 E0.45268
G1 X100.972 Y105.000 E0.12603
G1 X101.360 Y108.940 E0.12415
G1 X101.796 Y109.513 F10800.000
G1 F1200
G1 X86.079 Y105.086 E0.51197
M73 P3 R30
G1 X86.079 Y104.914 E0.00537
G1 X101.796 Y100.487 E0.51197
G1 X101.351 Y105.000 E0.14218
G1 X101.790 Y109.453 E0.14030
G1 X101.491 Y109.253 F10800.000
G1 E-0.80000 F2100.00000
G1 Z0.800 F10800.000
G1 X104.696 Y117.740
G1 Z0.200
G1 E0.80000 F2100.00000
G1 F1200
G1 X90.359 Y119.442 E0.45268
G1 X90.293 Y119.283 E0.00537
G1 X101.634 Y110.349 E0.45268
G1 X102.801 Y114.195 E0.12603
G1 X104.668 Y117.687 E0.12415
G1 X105.289 Y118.049 F10800.000
G1 F1200
G1 X89.074 Y119.974 E0.51197
G1 X89.009 Y119.815 E0.00537
G1 X101.835 Y109.711 E0.51197
G1 X103.151 Y114.050 E0.14218
G1 X105.261 Y117.996 E0.14030
G1 X104.908 Y117.926 F10800.000
G1 E-0.80000 F2100.00000
G1 Z0.800 F10800.000
G1 X98.522 Y131.599
G1 Z0.200
G1 E0.80000 F2100.00000
G1 F1200
G1 X98.401 Y131.478 E0.00537
G1 X105.460 Y118.883 E0.45268
G1 X108.010 Y121.990 E0.12603
G1 X111.117 Y124.540 E0.12603
G1 X98.575 Y131.569 E0.45080
G1 X97.539 Y132.582 F10800.000
G1 F1200
G1 X97.418 Y132.461 E0.00537
G1 X105.401 Y118.217 E0.51197
G1 X108.278 Y121.722 E0.14218
G1 X111.783 Y124.599 E0.14218
G1 X97.591 Y132.553 E0.51009
G1 X97.494 Y132.417 F10800.000
G1 E-0.80000 F2100.00000
G1 Z0.800 F10800.000
G1 X110.717 Y139.707
G1 Z0.200
G1 E0.80000 F2100.00000
G1 F1200
G1 X110.559 Y139.641 E0.00537
G1 X112.260 Y125.304 E0.45268
G1 X115.805 Y127.199 E0.12603
G1 X119.651 Y128.366 E0.12603
G1 X110.754 Y139.659 E0.45080
G1 X110.185 Y140.991 F10800.000
G1 F1200
G1 X110.026 Y140.926 E0.00537
G1 X111.951 Y124.711 E0.51197
G1 X115.950 Y126.849 E0.14218
G1 X120.289 Y128.165 E0.14218
G1 X110.222 Y140.944 E0.51009
G1 X110.080 Y140.856 F10800.000
G1 X111.157 Y138.965
G1 F1200
G1 X110.948 Y138.756 E0.00951
G1 X111.006 Y138.266 E0.01586
G1 X111.278 Y138.538 E0.01235
G1 X111.519 Y138.231 E0.01254
G1 X111.065 Y137.777 E0.02068
G1 X111.123 Y137.288 E0.01586
G1 X111.760 Y137.925 E0.02901
G1 X112.001 Y137.619 E0.01254
G1 X111.181 Y136.799 E0.03735
G1 X111.239 Y136.309 E0.01586
G1 X112.242 Y137.313 E0.04568
G1 X112.484 Y137.007 E0.01254
G1 X111.297 Y135.820 E0.05402
G1 X111.355 Y135.331 E0.01586
G1 X112.725 Y136.701 E0.06235
G1 X112.966 Y136.395 E0.01254
G1 X111.413 Y134.841 E0.07069
G1 X111.471 Y134.352 E0.01586
G1 X113.207 Y136.088 E0.07902
G1 X113.448 Y135.782 E0.01254
G1 X111.529 Y133.863 E0.08736
G1 X111.587 Y133.374 E0.01586
G1 X113.690 Y135.476 E0.09569
G1 X113.931 Y135.170 E0.01254
G1 X111.645 Y132.884 E0.10402
G1 X111.703 Y132.395 E0.01586
G1 X114.172 Y134.864 E0.11236
G1 X114.413 Y134.558 E0.01254
G1 X111.761 Y131.906 E0.12069
G1 X111.819 Y131.417 E0.01586
G1 X114.654 Y134.252 E0.12903
G1 X114.896 Y133.945 E0.01254
G1 X111.877 Y130.927 E0.13736
G1 X111.936 Y130.438 E0.01586
G1 X115.137 Y133.639 E0.14570
G1 X115.378 Y133.333 E0.01254
G1 X111.994 Y129.949 E0.15403
G1 X112.052 Y129.459 E0.01586
G1 X115.619 Y133.027 E0.16236
G1 X115.860 Y132.721 E0.01254
G1 X112.110 Y128.970 E0.17070
G1 X112.168 Y128.481 E0.01586
G1 X116.102 Y132.415 E0.17903
G1 X116.343 Y132.108 E0.01254
G1 X112.226 Y127.992 E0.18737
G1 X112.284 Y127.502 E0.01586
G1 X116.584 Y131.802 E0.19570
G1 X116.825 Y131.496 E0.01254
G1 X112.342 Y127.013 E0.20404
G1 X112.400 Y126.524 E0.01586
G1 X117.066 Y131.190 E0.21237
G1 X117.308 Y130.884 E0.01254
G1 X112.458 Y126.034 E0.22071
G1 X112.492 Y125.749 E0.00926
G1 X112.981 Y126.010 E0.01785
G1 X117.670 Y130.699 E0.21338
G1 X117.911 Y130.392 F10800.000
G1 F1200
G1 X113.744 Y126.225 E0.18965
G1 X114.920 Y126.854 F10800.000
G1 F1200
G1 X118.031 Y129.965 E0.14161
G1 X118.272 Y129.659 E0.01254
G1 X116.239 Y127.626 E0.09253
G1 X117.025 Y127.864 E0.02642
G1 X118.513 Y129.353 E0.06775
G1 X118.755 Y129.047 E0.01254
G1 X117.810 Y128.103 E0.04297
G1 X118.596 Y128.341 E0.02642
G1 X119.117 Y128.862 E0.02369
G1 E-0.80000 F2100.00000
G1 Z0.800 F10800.000
G1 X128.677 Y129.362
G1 Z0.200
G1 E0.80000 F2100.00000
G1 F1200
G1 X128.302 Y128.987 E0.01698
G1 X127.807 Y129.036 E0.01590
G1 X128.420 Y129.649 E0.02774
G1 X128.301 Y130.073 E0.01409
G1 X127.312 Y129.084 E0.04471
G1 X126.817 Y129.133 E0.01590
G1 X128.181 Y130.497 E0.06169
G1 X128.062 Y130.922 E0.01409
G1 X126.322 Y129.182 E0.07866
G1 X125.827 Y129.231 E0.01590
G1 X127.942 Y131.346 E0.09564
G1 X127.823 Y131.770 E0.01409
G1 X125.332 Y129.279 E0.11262
G1 X125.000 Y129.312 E0.01067
G1 X124.802 Y129.292 E0.00638
G1 X127.703 Y132.194 E0.13120
G1 X127.584 Y132.619 E0.01409
G1 X124.198 Y129.233 E0.15307
G1 X123.595 Y129.174 E0.01938
G1 X127.464 Y133.043 E0.17493
G1 X127.345 Y133.467 E0.01409
G1 X122.992 Y129.114 E0.19680
G1 X122.389 Y129.055 E0.01938
G1 X127.225 Y133.891 E0.21866
G1 X127.106 Y134.316 E0.01409
G1 X121.786 Y128.995 E0.24053
G1 X121.384 Y128.956 E0.01290
G1 X121.456 Y129.209 E0.00841
G1 X126.986 Y134.740 E0.25006
G1 X126.867 Y135.164 E0.01409
G1 X121.669 Y129.966 E0.23501
G1 X121.882 Y130.723 E0.02514
G1 X126.747 Y135.588 E0.21997
G1 X126.628 Y136.013 E0.01409
G1 X122.095 Y131.480 E0.20493
G1 X122.309 Y132.237 E0.02514
G1 X126.508 Y136.437 E0.18988
G1 X126.389 Y136.861 E0.01409
G1 X122.522 Y132.994 E0.17484
G1 X122.735 Y133.751 E0.02514
G1 X126.269 Y137.285 E0.15980
G1 X126.150 Y137.709 E0.01409
G1 X122.948 Y134.508 E0.14476
G1 X123.161 Y135.265 E0.02514
G1 X126.030 Y138.134 E0.12971
G1 X125.911 Y138.558 E0.01409
G1 X123.375 Y136.022 E0.11467
G1 X123.588 Y136.779 E0.02514
G1 X125.791 Y138.982 E0.09963
G1 X125.672 Y139.406 E0.01409
G1 X123.801 Y137.536 E0.08458
G1 X124.014 Y138.292 E0.02514
G1 X125.552 Y139.831 E0.06954
G1 X125.433 Y140.255 E0.01409
G1 X124.228 Y139.049 E0.05450
G1 X124.441 Y139.806 E0.02514
G1 X125.313 Y140.679 E0.03946
G1 X125.194 Y141.103 E0.01409
G1 X124.654 Y140.563 E0.02441
G1 X124.867 Y141.320 E0.02514
G1 X125.212 Y141.665 E0.01559
G1 E-0.80000 F2100.00000
G1 Z0.800 F10800.000
G1 X134.241 Y133.123
G1 Z0.200
G1 E0.80000 F2100.00000
G1 F1200
G1 X139.135 Y138.017 E0.22022
G1 X139.208 Y138.631 F10800.000
G1 F1200
G1 X136.250 Y135.673 E0.13309
G1 E-0.80000 F2100.00000
G1 Z0.800 F10800.000
G1 X132.231 Y130.573
G1 Z0.200
G1 E0.80000 F2100.00000
G1 F1200
G1 X138.868 Y137.210 E0.29861
G1 X138.795 Y136.596 E0.01967
G1 X131.240 Y129.041 E0.33993
G1 X130.827 Y128.516 E0.02124
G1 X131.157 Y128.416 E0.01096
G1 X138.722 Y135.982 E0.34040
G1 X138.650 Y135.368 E0.01967
G1 X131.572 Y128.290 E0.31844
G1 X131.987 Y128.164 E0.01380
G1 X138.577 Y134.754 E0.29649
G1 X138.504 Y134.140 E0.01967
G1 X132.402 Y128.038 E0.27453
G1 X132.818 Y127.912 E0.01380
G1 X138.431 Y133.526 E0.25257
G1 X138.358 Y132.912 E0.01967
G1 X133.233 Y127.786 E0.23061
G1 X133.648 Y127.660 E0.01380
G1 X138.285 Y132.298 E0.20865
G1 X138.212 Y131.684 E0.01967
G1 X134.063 Y127.534 E0.18669
G1 X134.304 Y127.461 E0.00800
G1 X134.452 Y127.382 E0.00534
G1 X138.139 Y131.070 E0.16592
G1 X138.067 Y130.456 E0.01967
G1 X134.805 Y127.194 E0.14677
G1 X135.157 Y127.005 E0.01272
G1 X137.994 Y129.842 E0.12763
G1 X137.921 Y129.228 E0.01967
G1 X135.510 Y126.817 E0.10848
G1 X135.862 Y126.628 E0.01272
G1 X137.848 Y128.614 E0.08934
G1 X137.775 Y128.000 E0.01967
G1 X136.215 Y126.440 E0.07019
G1 X136.568 Y126.251 E0.01272
G1 X137.702 Y127.386 E0.05105
G1 X137.629 Y126.772 E0.01967
G1 X136.920 Y126.063 E0.03190
G1 X137.273 Y125.874 E0.01272
G1 X137.750 Y126.352 E0.02148
G1 X140.869 Y125.524 F10800.000
G1 F1200
G1 X139.635 Y124.289 E0.05620
G1 X139.935 Y124.042 E0.01253
G1 X142.115 Y126.222 E0.09923
G1 X143.361 Y126.920 F10800.000
G1 F1200
G1 X140.236 Y123.796 E0.14226
G1 X140.537 Y123.549 E0.01253
G1 X144.606 Y127.618 E0.18529
G1 X145.852 Y128.316 F10800.000
G1 F1200
G1 X140.838 Y123.302 E0.22831
G1 X141.139 Y123.055 E0.01253
G1 X147.098 Y129.014 E0.27134
G1 X148.344 Y129.713 F10800.000
G1 F1200
G1 X141.439 Y122.808 E0.31437
G1 X141.740 Y122.561 E0.01253
G1 X149.589 Y130.411 E0.35740
G1 X150.411 Y129.590 F10800.000
G1 F1200
G1 X142.561 Y121.740 E0.35741
G1 X142.808 Y121.439 E0.01253
G1 X149.713 Y128.344 E0.31438
G1 X149.015 Y127.098 F10800.000
G1 F1200
G1 X143.055 Y121.139 E0.27135
G1 X143.302 Y120.838 E0.01253
G1 X148.316 Y125.852 E0.22832
G1 X147.618 Y124.607 F10800.000
G1 F1200
G1 X143.549 Y120.537 E0.18530
G1 X143.796 Y120.236 E0.01253
G1 X146.920 Y123.361 E0.14227
G1 X146.222 Y122.115 F10800.000
G1 F1200
G1 X144.042 Y119.936 E0.09924
G1 X144.289 Y119.635 E0.01253
G1 X145.524 Y120.869 E0.05621
G1 X146.352 Y117.750 F10800.000
G1 F1200
G1 X145.874 Y117.273 E0.02148
G1 X146.063 Y116.920 E0.01272
G1 X146.772 Y117.629 E0.03190
G1 X147.386 Y117.702 E0.01967
