; generated by PrusaSlicer 2.1.1+win64 on 2020-03-28 at 18:06:40 UTC

; 

; external perimeters extrusion width = 0.45mm
; perimeters extrusion width = 0.45mm
; infill extrusion width = 0.45mm
; solid infill extrusion width = 0.45mm
; top infill extrusion width = 0.40mm
; first layer extrusion width = 0.42mm

M73 P0 R4
M201 X9000 Y9000 Z500 E10000 ; sets maximum accelerations, mm/sec^2
M203 X500 Y500 Z12 E120 ; sets maximum feedrates, mm/sec
M204 P2000 R1500 T2000 ; sets acceleration (P, T) and retract acceleration (R), mm/sec^2
M205 X10.00 Y10.00 Z0.20 E2.50 ; sets the jerk limits, mm/sec
M205 S0 T0 ; sets the minimum extruding and travel feed rate, mm/sec
M107
M862.3 P "MK2S" ; printer model check
M862.1 P0.4 ; nozzle diameter check
M115 U3.2.3 ; tell printer latest fw version
G90 ; use absolute coordinates
M83 ; extruder relative mode
M204 S2000 T1500 ; MK2 firmware only supports the old M204 format
M104 S215 ; set extruder temp
M140 S60 ; set bed temp
M190 S60 ; wait for bed temp
M109 S215 ; wait for extruder temp
G28 W ; home all without mesh bed level
G80 ; mesh bed leveling
G1 Y-3.0 F1000.0 ; go outside print area
G92 E0.0
G1 X60.0 E9.0  F1000.0 ; intro line
M73 P1 R4
G1 X100.0 E12.5 F1000.0 ; intro line
G92 E0.0
G21 ; set units to millimeters
G90 ; use absolute coordinates
M83 ; use relative distances for extrusion
M900 K30 ; Filament gcode
;BEFORE_LAYER_CHANGE
G92 E0.0
;0.2


G1 E-0.80000 F2100.00000
G1 Z0.600 F10800.000
;AFTER_LAYER_CHANGE
;0.2
G1 X125.010 Y118.022
G1 Z0.200
G1 E0.80000 F2100.00000
M204 S1000
G1 F1200
G1 X112.528 Y118.022 E0.39139
G1 X112.528 Y112.965 E0.15856
G1 X129.695 Y112.955 E0.53826
G1 X130.165 Y112.864 E0.01502
G1 X130.449 Y112.746 E0.00965
G1 X130.717 Y112.575 E0.00995
G1 X130.964 Y112.339 E0.01072
G1 X131.176 Y112.040 E0.01149
G1 X131.344 Y111.682 E0.01240
G1 X131.464 Y111.265 E0.01359
G1 X131.537 Y110.787 E0.01518
G1 X131.561 Y110.237 E0.01724
G1 X131.537 Y109.688 E0.01725
G1 X131.463 Y109.209 E0.01519
G1 X131.342 Y108.792 E0.01362
G1 X131.173 Y108.432 E0.01244
G1 X130.959 Y108.133 E0.01155
G1 X130.708 Y107.897 E0.01079
G1 X130.437 Y107.727 E0.01004
G1 X130.164 Y107.616 E0.00923
G1 X129.886 Y107.548 E0.00897
G1 X129.311 Y107.510 E0.01807
G1 X117.150 Y107.510 E0.38132
G1 X117.150 Y102.950 E0.14297
G1 X129.377 Y102.950 E0.38339
G1 X129.780 Y102.937 E0.01263
G1 X130.047 Y102.903 E0.00845
G1 X130.333 Y102.835 E0.00923
G1 X130.634 Y102.716 E0.01012
G1 X130.933 Y102.535 E0.01099
G1 X131.214 Y102.282 E0.01183
G1 X131.456 Y101.957 E0.01272
G1 X131.650 Y101.563 E0.01376
G1 X131.791 Y101.102 E0.01513
G1 X131.876 Y100.568 E0.01693
G1 X131.906 Y99.952 E0.01933
G1 X131.876 Y99.402 E0.01728
G1 X131.787 Y98.918 E0.01544
G1 X131.639 Y98.496 E0.01403
G1 X131.435 Y98.135 E0.01298
G1 X131.182 Y97.842 E0.01214
G1 X130.896 Y97.619 E0.01137
G1 X130.596 Y97.463 E0.01061
G1 X130.286 Y97.358 E0.01026
G1 X129.758 Y97.275 E0.01677
G1 X112.333 Y97.265 E0.54634
G1 X112.333 Y91.979 E0.16575
G1 X130.261 Y91.979 E0.56213
G1 X131.667 Y92.013 E0.04407
G1 X132.476 Y92.093 E0.02550
G1 X133.309 Y92.245 E0.02655
G1 X134.132 Y92.493 E0.02694
G1 X134.918 Y92.855 E0.02715
G1 X135.646 Y93.354 E0.02766
G1 X136.297 Y94.015 E0.02910
G1 X136.854 Y94.873 E0.03206
G1 X137.293 Y95.966 E0.03692
G1 X137.582 Y97.331 E0.04376
G1 X137.687 Y99.004 E0.05258
G1 X137.627 Y100.361 E0.04258
G1 X137.463 Y101.452 E0.03460
G1 X137.216 Y102.299 E0.02766
G1 X136.911 Y102.935 E0.02211
G1 X136.566 Y103.399 E0.01812
G1 X136.193 Y103.735 E0.01574
G1 X135.792 Y103.979 E0.01472
G1 X135.364 Y104.158 E0.01455
G1 X134.913 Y104.294 E0.01476
G1 X133.997 Y104.529 E0.02965
G1 X132.260 Y105.182 E0.05817
G1 X133.968 Y105.947 E0.05866
G1 X135.358 Y106.370 E0.04556
G1 X135.782 Y106.557 E0.01453
G1 X136.183 Y106.812 E0.01491
G1 X136.558 Y107.165 E0.01612
G1 X136.904 Y107.655 E0.01883
G1 X137.213 Y108.330 E0.02326
G1 X137.461 Y109.231 E0.02930
G1 X137.627 Y110.392 E0.03678
G1 X137.687 Y111.834 E0.04526
G1 X137.583 Y113.308 E0.04632
G1 X137.298 Y114.502 E0.03850
G1 X136.866 Y115.457 E0.03284
G1 X136.315 Y116.208 E0.02921
G1 X135.665 Y116.792 E0.02740
G1 X134.931 Y117.237 E0.02691
G1 X134.132 Y117.561 E0.02705
G1 X133.291 Y117.783 E0.02725
G1 X132.438 Y117.920 E0.02710
G1 X131.605 Y117.991 E0.02621
G1 X130.089 Y118.022 E0.04757
G1 X125.070 Y118.022 E0.15734
G1 X125.010 Y118.399 F10800.000
G1 F1200
G1 X112.150 Y118.399 E0.40322
G1 X112.150 Y112.588 E0.18220
G1 X129.658 Y112.578 E0.54894
G1 X130.055 Y112.501 E0.01269
G1 X130.274 Y112.410 E0.00742
G1 X130.483 Y112.276 E0.00778
G1 X130.678 Y112.091 E0.00843
G1 X130.849 Y111.850 E0.00928
G1 X130.989 Y111.549 E0.01041
G1 X131.095 Y111.184 E0.01190
G1 X131.161 Y110.750 E0.01378
G1 X131.184 Y110.237 E0.01608
G1 X131.161 Y109.725 E0.01608
G1 X131.094 Y109.290 E0.01379
G1 X130.988 Y108.925 E0.01191
G1 X130.847 Y108.624 E0.01043
G1 X130.674 Y108.383 E0.00932
G1 X130.476 Y108.197 E0.00849
G1 X130.264 Y108.064 E0.00786
G1 X130.047 Y107.976 E0.00734
G1 X129.828 Y107.922 E0.00707
G1 X129.299 Y107.887 E0.01664
G1 X116.772 Y107.887 E0.39275
G1 X116.772 Y102.573 E0.16661
G1 X129.371 Y102.573 E0.39503
G1 X129.750 Y102.561 E0.01188
G1 X129.979 Y102.532 E0.00724
G1 X130.220 Y102.474 E0.00776
G1 X130.466 Y102.377 E0.00829
G1 X130.707 Y102.231 E0.00886
G1 X130.934 Y102.027 E0.00955
G1 X131.134 Y101.759 E0.01047
G1 X131.299 Y101.424 E0.01171
G1 X131.423 Y101.016 E0.01336
G1 X131.501 Y100.529 E0.01547
G1 X131.528 Y99.954 E0.01807
G1 X131.500 Y99.447 E0.01592
G1 X131.421 Y99.015 E0.01377
G1 X131.294 Y98.652 E0.01205
G1 X131.125 Y98.354 E0.01075
G1 X130.921 Y98.117 E0.00981
G1 X130.691 Y97.938 E0.00913
G1 X130.448 Y97.810 E0.00861
G1 X130.196 Y97.725 E0.00834
G1 X129.728 Y97.652 E0.01484
G1 X111.956 Y97.642 E0.55724
G1 X111.956 Y91.602 E0.18939
G1 X130.266 Y91.602 E0.57410
G1 X131.690 Y91.637 E0.04465
G1 X132.529 Y91.719 E0.02643
G1 X133.398 Y91.878 E0.02770
G1 X134.266 Y92.139 E0.02843
G1 X135.105 Y92.526 E0.02898
G1 X135.889 Y93.064 E0.02980
G1 X136.593 Y93.778 E0.03143
G1 X137.190 Y94.698 E0.03441
G1 X137.655 Y95.855 E0.03910
G1 X137.957 Y97.280 E0.04565
G1 X138.065 Y99.001 E0.05407
G1 X138.003 Y100.398 E0.04384
G1 X137.832 Y101.534 E0.03602
G1 X137.569 Y102.435 E0.02943
G1 X137.235 Y103.131 E0.02421
G1 X136.847 Y103.654 E0.02043
G1 X136.419 Y104.039 E0.01803
G1 X135.964 Y104.316 E0.01672
G1 X135.491 Y104.513 E0.01605
G1 X135.015 Y104.657 E0.01561
G1 X134.111 Y104.889 E0.02926
G1 X133.251 Y105.213 E0.02880
G1 X134.100 Y105.593 E0.02919
G1 X135.489 Y106.016 E0.04552
G1 X135.960 Y106.223 E0.01613
G1 X136.416 Y106.513 E0.01693
G1 X136.844 Y106.916 E0.01843
G1 X137.233 Y107.466 E0.02113
G1 X137.568 Y108.201 E0.02531
G1 X137.831 Y109.153 E0.03100
G1 X138.003 Y110.357 E0.03813
G1 X138.065 Y111.840 E0.04651
G1 X137.957 Y113.365 E0.04795
G1 X137.656 Y114.625 E0.04061
G1 X137.193 Y115.648 E0.03521
G1 X136.596 Y116.462 E0.03166
G1 X135.891 Y117.096 E0.02974
G1 X135.101 Y117.575 E0.02896
G1 X134.251 Y117.920 E0.02875
G1 X133.370 Y118.152 E0.02859
G1 X132.484 Y118.294 E0.02812
G1 X131.625 Y118.368 E0.02703
G1 X130.092 Y118.399 E0.04807
G1 X125.070 Y118.399 E0.15746
G1 X124.810 Y118.053 F10800.000
G1 E-0.80000 F2100.00000
G1 Z0.800 F10800.000
G1 X113.403 Y117.909
G1 Z0.200
G1 E0.80000 F2100.00000
G1 F1200
G1 X112.810 Y117.316 E0.02627
G1 X112.810 Y116.783 E0.01672
G1 X113.766 Y117.739 E0.04240
G1 X114.300 Y117.739 E0.01672
G1 X112.810 Y116.249 E0.06605
G1 X112.810 Y115.716 E0.01672
G1 X114.833 Y117.739 E0.08970
G1 X115.366 Y117.739 E0.01672
G1 X112.810 Y115.183 E0.11335
G1 X112.810 Y114.650 E0.01672
G1 X115.900 Y117.739 E0.13700
G1 X116.433 Y117.739 E0.01672
G1 X112.810 Y114.116 E0.16065
G1 X112.810 Y113.583 E0.01672
G1 X116.966 Y117.739 E0.18430
G1 X117.500 Y117.739 E0.01672
G1 X113.008 Y113.247 E0.19918
G1 X113.541 Y113.247 E0.01671
G1 X118.033 Y117.739 E0.19920
G1 X118.566 Y117.739 E0.01672
G1 X114.074 Y113.247 E0.19921
G1 X114.607 Y113.246 E0.01671
G1 X119.099 Y117.739 E0.19922
G1 X119.633 Y117.739 E0.01672
G1 X115.140 Y113.246 E0.19924
G1 X115.673 Y113.246 E0.01671
G1 X120.166 Y117.739 E0.19925
G1 X120.699 Y117.739 E0.01672
G1 X116.206 Y113.245 E0.19926
G1 X116.739 Y113.245 E0.01671
G1 X121.233 Y117.739 E0.19928
G1 X121.766 Y117.739 E0.01672
G1 X117.272 Y113.245 E0.19929
G1 X117.805 Y113.244 E0.01671
G1 X122.299 Y117.739 E0.19930
G1 X122.833 Y117.739 E0.01672
G1 X118.338 Y113.244 E0.19932
G1 X118.871 Y113.244 E0.01671
G1 X123.366 Y117.739 E0.19933
G1 X123.899 Y117.739 E0.01672
G1 X119.404 Y113.244 E0.19934
G1 X119.937 Y113.243 E0.01671
G1 X124.433 Y117.739 E0.19936
G1 X124.966 Y117.739 E0.01672
G1 X120.470 Y113.243 E0.19937
G1 X121.003 Y113.243 E0.01671
G1 X125.499 Y117.739 E0.19938
G1 X126.032 Y117.739 E0.01672
G1 X121.536 Y113.242 E0.19939
G1 X122.069 Y113.242 E0.01671
G1 X126.566 Y117.739 E0.19941
G1 X127.099 Y117.739 E0.01672
G1 X122.602 Y113.242 E0.19942
G1 X123.135 Y113.242 E0.01671
G1 X127.632 Y117.739 E0.19943
G1 X128.166 Y117.739 E0.01672
G1 X123.668 Y113.241 E0.19945
G1 X124.201 Y113.241 E0.01671
G1 X128.699 Y117.739 E0.19946
G1 X129.232 Y117.739 E0.01672
G1 X124.734 Y113.241 E0.19947
G1 X125.267 Y113.240 E0.01671
G1 X129.766 Y117.739 E0.19949
G1 X130.295 Y117.735 E0.01659
G1 X125.800 Y113.240 E0.19931
G1 X126.333 Y113.240 E0.01671
G1 X130.817 Y117.724 E0.19885
G1 X131.340 Y117.713 E0.01639
G1 X126.866 Y113.239 E0.19840
G1 X127.399 Y113.239 E0.01671
G1 X131.846 Y117.687 E0.19722
G1 X132.338 Y117.645 E0.01547
G1 X127.932 Y113.239 E0.19537
G1 X128.465 Y113.239 E0.01671
G1 X132.802 Y117.575 E0.19231
G1 X133.259 Y117.499 E0.01454
G1 X128.998 Y113.238 E0.18895
G1 X129.531 Y113.238 E0.01671
G1 X133.681 Y117.388 E0.18402
G1 X134.097 Y117.270 E0.01355
G1 X130.009 Y113.182 E0.18129
G1 X130.247 Y113.136 E0.00761
G1 X130.423 Y113.063 E0.00596
G1 X134.476 Y117.116 E0.17975
G1 X134.849 Y116.956 E0.01273
G1 X130.770 Y112.876 E0.18090
G1 X130.892 Y112.798 E0.00454
G1 X131.062 Y112.636 E0.00739
G1 X135.181 Y116.755 E0.18264
G1 X135.496 Y116.564 E0.01154
G1 X135.511 Y116.551 E0.00062
G1 X131.306 Y112.346 E0.18646
G1 X131.422 Y112.183 E0.00628
G1 X131.503 Y112.010 E0.00600
G1 X135.792 Y116.298 E0.19019
G1 X136.072 Y116.046 E0.01184
G1 X131.654 Y111.627 E0.19595
G1 X131.760 Y111.200 E0.01380
G1 X136.304 Y115.745 E0.20153
G1 X136.530 Y115.437 E0.01196
G1 X131.822 Y110.729 E0.20876
G1 X131.844 Y110.217 E0.01607
G1 X136.720 Y115.094 E0.21624
G1 X136.886 Y114.727 E0.01264
G1 X131.818 Y109.659 E0.22474
G1 X131.740 Y109.148 E0.01621
G1 X131.699 Y109.006 E0.00462
G1 X137.044 Y114.351 E0.23700
G1 X137.146 Y113.920 E0.01388
G1 X126.459 Y103.233 E0.47393
G1 X126.992 Y103.233 E0.01672
G1 X137.249 Y113.490 E0.45484
G1 X137.303 Y113.265 E0.00724
G1 X137.319 Y113.027 E0.00749
G1 X127.525 Y103.233 E0.43431
G1 X128.059 Y103.233 E0.01672
G1 X137.355 Y112.528 E0.41222
G1 X137.390 Y112.030 E0.01566
G1 X128.592 Y103.233 E0.39013
G1 X129.125 Y103.233 E0.01672
G1 X137.390 Y111.497 E0.36649
G1 X137.367 Y110.941 E0.01746
G1 X129.650 Y103.224 E0.34219
G1 X130.133 Y103.174 E0.01521
G1 X131.954 Y104.995 E0.08076
G1 X132.342 Y104.849 E0.01299
G1 X130.547 Y103.055 E0.07958
G1 X130.760 Y102.971 E0.00716
G1 X130.907 Y102.881 E0.00541
G1 X132.729 Y104.704 E0.08080
G1 X133.117 Y104.558 E0.01299
G1 X131.218 Y102.659 E0.08421
G1 X131.424 Y102.473 E0.00868
G1 X131.485 Y102.392 E0.00319
G1 X133.505 Y104.412 E0.08959
G1 X133.892 Y104.267 E0.01299
G1 X131.709 Y102.084 E0.09681
G1 X131.885 Y101.726 E0.01249
G1 X134.315 Y104.156 E0.10773
G1 X134.739 Y104.046 E0.01373
G1 X132.018 Y101.326 E0.12065
G1 X132.067 Y101.165 E0.00525
G1 X132.112 Y100.886 E0.00887
G1 X135.152 Y103.926 E0.13482
G1 X135.538 Y103.779 E0.01295
G1 X132.167 Y100.408 E0.14947
G1 X132.186 Y99.893 E0.01615
G1 X135.884 Y103.592 E0.16402
G1 X136.024 Y103.507 E0.00512
G1 X136.186 Y103.361 E0.00686
G1 X132.149 Y99.323 E0.17905
G1 X132.061 Y98.845 E0.01523
G1 X131.984 Y98.625 E0.00733
G1 X136.567 Y103.208 E0.20325
G1 E-0.80000 F2100.00000
G1 Z0.800 F10800.000
G1 X137.174 Y108.615
G1 Z0.200
G1 E0.80000 F2100.00000
G1 F1200
G1 X135.167 Y106.608 E0.08898
G1 X134.401 Y106.375 E0.02514
G1 X137.134 Y109.108 E0.12123
G1 X137.184 Y109.289 E0.00586
G1 X137.251 Y109.759 E0.01489
G1 X133.573 Y106.080 E0.16313
G1 X132.606 Y105.647 E0.03322
G1 X137.521 Y110.562 E0.21796
G1 E-0.80000 F2100.00000
G1 Z0.800 F10800.000
G1 X130.203 Y107.510
G1 Z0.200
G1 E0.80000 F2100.00000
G1 F1200
G1 X125.925 Y103.233 E0.18966
G1 X125.392 Y103.233 E0.01672
G1 X129.391 Y107.231 E0.17733
G1 X128.853 Y107.227 E0.01687
G1 X124.859 Y103.233 E0.17712
G1 X124.326 Y103.233 E0.01672
G1 X128.320 Y107.227 E0.17712
G1 X127.786 Y107.227 E0.01672
G1 X123.792 Y103.233 E0.17712
G1 X123.259 Y103.233 E0.01672
G1 X127.253 Y107.227 E0.17712
G1 X126.720 Y107.227 E0.01672
G1 X122.726 Y103.233 E0.17712
G1 X122.192 Y103.233 E0.01672
G1 X126.186 Y107.227 E0.17712
G1 X125.653 Y107.227 E0.01672
G1 X121.659 Y103.233 E0.17712
G1 X121.126 Y103.233 E0.01672
G1 X125.120 Y107.227 E0.17712
G1 X124.587 Y107.227 E0.01672
G1 X120.592 Y103.233 E0.17712
G1 X120.059 Y103.233 E0.01672
G1 X124.053 Y107.227 E0.17712
G1 X123.520 Y107.227 E0.01672
G1 X119.526 Y103.233 E0.17712
G1 X118.992 Y103.233 E0.01672
G1 X122.987 Y107.227 E0.17712
G1 X122.453 Y107.227 E0.01672
G1 X118.459 Y103.233 E0.17712
G1 X117.926 Y103.233 E0.01672
G1 X121.920 Y107.227 E0.17712
G1 X121.387 Y107.227 E0.01672
G1 X117.432 Y103.272 E0.17536
G1 X117.432 Y103.806 E0.01672
G1 X120.853 Y107.227 E0.15171
G1 X120.320 Y107.227 E0.01672
G1 X117.432 Y104.339 E0.12806
G1 X117.432 Y104.872 E0.01672
G1 X119.787 Y107.227 E0.10441
G1 X119.253 Y107.227 E0.01672
G1 X117.432 Y105.406 E0.08076
G1 X117.432 Y105.939 E0.01672
G1 X118.720 Y107.227 E0.05711
G1 X118.187 Y107.227 E0.01672
G1 X117.432 Y106.472 E0.03346
G1 X117.432 Y107.006 E0.01672
G1 X117.823 Y107.396 E0.01733
G1 E-0.80000 F2100.00000
G1 Z0.800 F10800.000
G1 X112.446 Y96.686
G1 Z0.200
G1 E0.80000 F2100.00000
G1 F1200
G1 X112.743 Y96.983 E0.01315
G1 X113.276 Y96.983 E0.01673
G1 X112.616 Y96.323 E0.02928
G1 X112.616 Y95.789 E0.01672
G1 X113.810 Y96.983 E0.05294
G1 X114.343 Y96.984 E0.01673
G1 X112.616 Y95.256 E0.07661
G1 X112.616 Y94.723 E0.01672
G1 X114.877 Y96.984 E0.10027
G1 X115.411 Y96.984 E0.01673
G1 X112.616 Y94.189 E0.12393
G1 X112.616 Y93.656 E0.01672
G1 X115.944 Y96.984 E0.14759
G1 X116.478 Y96.985 E0.01673
G1 X112.616 Y93.123 E0.17126
G1 X112.616 Y92.590 E0.01672
G1 X117.011 Y96.985 E0.19492
G1 X117.545 Y96.985 E0.01673
G1 X112.821 Y92.262 E0.20947
G1 X113.355 Y92.262 E0.01672
G1 X118.079 Y96.986 E0.20948
G1 X118.612 Y96.986 E0.01673
G1 X113.888 Y92.262 E0.20949
G1 X114.421 Y92.262 E0.01672
G1 X119.146 Y96.986 E0.20950
G1 X119.679 Y96.986 E0.01673
G1 X114.955 Y92.262 E0.20951
G1 X115.488 Y92.262 E0.01672
G1 X120.213 Y96.987 E0.20953
G1 X120.747 Y96.987 E0.01673
G1 X116.021 Y92.262 E0.20954
G1 X116.555 Y92.262 E0.01672
G1 X121.280 Y96.987 E0.20955
G1 X121.814 Y96.988 E0.01673
G1 X117.088 Y92.262 E0.20956
G1 X117.621 Y92.262 E0.01672
G1 X122.347 Y96.988 E0.20958
G1 X122.881 Y96.988 E0.01673
G1 X118.155 Y92.262 E0.20959
G1 X118.688 Y92.262 E0.01672
M73 P25 R3
G1 X123.415 Y96.988 E0.20960
G1 X123.948 Y96.989 E0.01673
G1 X119.221 Y92.262 E0.20961
G1 X119.755 Y92.262 E0.01672
G1 X124.482 Y96.989 E0.20963
G1 X125.015 Y96.989 E0.01673
G1 X120.288 Y92.262 E0.20964
G1 X120.821 Y92.262 E0.01672
G1 X125.549 Y96.990 E0.20965
G1 X126.083 Y96.990 E0.01673
G1 X121.354 Y92.262 E0.20966
G1 X121.888 Y92.262 E0.01672
G1 X126.616 Y96.990 E0.20968
G1 X127.150 Y96.991 E0.01673
G1 X122.421 Y92.262 E0.20969
G1 X122.954 Y92.262 E0.01672
G1 X127.683 Y96.991 E0.20970
G1 X128.217 Y96.991 E0.01673
G1 X123.488 Y92.262 E0.20971
G1 X124.021 Y92.262 E0.01672
G1 X128.750 Y96.991 E0.20972
G1 X129.284 Y96.992 E0.01673
G1 X124.554 Y92.262 E0.20974
G1 X125.088 Y92.262 E0.01672
G1 X129.825 Y96.999 E0.21006
G1 X130.354 Y97.082 E0.01681
G1 X130.486 Y97.127 E0.00435
G1 X125.621 Y92.262 E0.21572
G1 X126.154 Y92.262 E0.01672
G1 X136.672 Y102.779 E0.46638
G1 X136.845 Y102.419 E0.01253
G1 X126.688 Y92.262 E0.45041
G1 X127.221 Y92.262 E0.01672
G1 X136.997 Y102.038 E0.43353
G1 X137.118 Y101.625 E0.01349
