; generated by PrusaSlicer 2.2.0+win64 on 2020-12-21 at 22:32:26 UTC

; 

; external perimeters extrusion width = 0.45mm
; perimeters extrusion width = 0.45mm
; infill extrusion width = 0.45mm
; solid infill extrusion width = 0.45mm
; top infill extrusion width = 0.40mm
; first layer extrusion width = 0.42mm

M73 P0 R13
M201 X9000 Y9000 Z500 E10000 ; sets maximum accelerations, mm/sec^2
M203 X500 Y500 Z12 E120 ; sets maximum feedrates, mm/sec
M204 P2000 R1500 T2000 ; sets acceleration (P, T) and retract acceleration (R), mm/sec^2
M205 X10.00 Y10.00 Z0.20 E2.50 ; sets the jerk limits, mm/sec
M205 S0 T0 ; sets the minimum extruding and travel feed rate, mm/sec
M107
M862.3 P "MK2S" ; printer model check
M862.1 P0.4 ; nozzle diameter check
M115 U3.2.3 ; tell printer latest fw version
G90 ; use absolute coordinates
M83 ; extruder relative mode
M204 S2000 T1500 ; MK2 firmware only supports the old M204 format
M104 S215 ; set extruder temp
M140 S60 ; set bed temp
M190 S60 ; wait for bed temp
M109 S215 ; wait for extruder temp
G28 W ; home all without mesh bed level
G80 ; mesh bed leveling
G1 Y-3.0 F1000.0 ; go outside print area
G92 E0.0
G1 X60.0 E9.0  F1000.0 ; intro line
M73 P0 R12
G1 X100.0 E12.5 F1000.0 ; intro line
G92 E0.0
G21 ; set units to millimeters
G90 ; use absolute coordinates
M83 ; use relative distances for extrusion
M900 K30 ; Filament gcode
;BEFORE_LAYER_CHANGE
G92 E0.0
;0.2


G1 E-0.80000 F2100.00000
G1 Z0.600 F10800.000
;AFTER_LAYER_CHANGE
;0.2
G1 X113.970 Y112.427
G1 Z0.200
G1 E0.80000 F2100.00000
M204 S1000
G1 F1200.000
G1 X114.229 Y112.435 E0.00812
G1 X114.685 Y112.495 E0.01443
G1 X115.124 Y112.613 E0.01425
G1 X115.367 Y112.703 E0.00812
G1 X115.766 Y112.900 E0.01396
G1 X115.986 Y113.036 E0.00812
G1 X116.340 Y113.307 E0.01396
G1 X116.522 Y113.478 E0.00782
G1 X116.689 Y113.656 E0.00768
G1 X116.963 Y114.013 E0.01411
G1 X117.097 Y114.229 E0.00796
G1 X117.296 Y114.633 E0.01411
G1 X117.386 Y114.870 E0.00796
G1 X117.502 Y115.305 E0.01411
G1 X117.544 Y115.556 E0.00796
G1 X117.574 Y116.015 E0.01441
G1 X117.544 Y116.473 E0.01441
G1 X117.504 Y116.714 E0.00766
G1 X117.448 Y116.952 E0.00766
G1 X117.301 Y117.388 E0.01441
G1 X117.100 Y117.795 E0.01425
G1 X116.963 Y118.015 E0.00812
G1 X116.689 Y118.373 E0.01413
G1 X116.516 Y118.558 E0.00796
G1 X116.181 Y118.851 E0.01394
G1 X115.971 Y119.003 E0.00812
G1 X115.586 Y119.225 E0.01396
G1 X115.350 Y119.333 E0.00812
G1 X114.923 Y119.477 E0.01413
G1 X114.685 Y119.533 E0.00766
G1 X114.444 Y119.573 E0.00766
G1 X113.995 Y119.602 E0.01411
G1 X113.741 Y119.594 E0.00796
G1 X113.295 Y119.535 E0.01411
G1 X113.048 Y119.477 E0.00796
G1 X112.612 Y119.330 E0.01441
G1 X112.200 Y119.126 E0.01441
G1 X111.984 Y118.992 E0.00796
G1 X111.631 Y118.722 E0.01394
G1 X111.442 Y118.545 E0.00812
G1 X111.145 Y118.206 E0.01413
G1 X111.003 Y118.008 E0.00766
G1 X110.874 Y117.800 E0.00766
G1 X110.670 Y117.388 E0.01441
G1 X110.524 Y116.958 E0.01425
G1 X110.467 Y116.715 E0.00782
G1 X110.427 Y116.473 E0.00768
G1 X110.398 Y116.024 E0.01411
G1 X110.406 Y115.770 E0.00796
G1 X110.466 Y115.315 E0.01441
G1 X110.583 Y114.876 E0.01425
G1 X110.674 Y114.633 E0.00812
G1 X110.871 Y114.234 E0.01396
G1 X111.007 Y114.014 E0.00812
G1 X111.278 Y113.660 E0.01396
G1 X111.455 Y113.471 E0.00812
G1 X111.790 Y113.178 E0.01396
G1 X112.000 Y113.026 E0.00812
G1 X112.385 Y112.804 E0.01396
G1 X112.621 Y112.696 E0.00812
G1 X113.042 Y112.553 E0.01396
G1 X113.285 Y112.496 E0.00782
G1 X113.527 Y112.456 E0.00767
G1 X113.910 Y112.431 E0.01206
G1 E-0.80000 F2100.00000
G1 Z0.800 F10800.000
G1 X113.989 Y119.225
G1 Z0.200
G1 E0.80000 F2100.00000
G1 F1200.000
G1 X113.772 Y119.218 E0.00680
G1 X113.363 Y119.164 E0.01295
G1 X113.151 Y119.114 E0.00680
G1 X112.757 Y118.981 E0.01306
G1 X112.383 Y118.796 E0.01306
G1 X112.199 Y118.682 E0.00680
G1 X111.875 Y118.434 E0.01279
G1 X111.713 Y118.282 E0.00696
G1 X111.441 Y117.972 E0.01296
G1 X111.316 Y117.798 E0.00669
G1 X111.204 Y117.617 E0.00669
G1 X111.019 Y117.243 E0.01306
G1 X110.887 Y116.854 E0.01290
G1 X110.837 Y116.641 E0.00685
G1 X110.802 Y116.430 E0.00670
G1 X110.775 Y116.018 E0.01295
G1 X110.782 Y115.801 E0.00680
G1 X110.837 Y115.388 E0.01306
G1 X110.943 Y114.991 E0.01290
G1 X111.021 Y114.783 E0.00696
G1 X111.201 Y114.417 E0.01280
G1 X111.318 Y114.228 E0.00696
G1 X111.566 Y113.904 E0.01280
G1 X111.718 Y113.742 E0.00696
G1 X112.025 Y113.473 E0.01280
G1 X112.205 Y113.344 E0.00696
G1 X112.558 Y113.139 E0.01280
G1 X112.760 Y113.047 E0.00696
G1 X113.146 Y112.916 E0.01280
G1 X113.359 Y112.866 E0.00685
G1 X113.570 Y112.831 E0.00670
G1 X113.977 Y112.804 E0.01279
G1 X114.199 Y112.811 E0.00696
G1 X114.612 Y112.866 E0.01306
G1 X115.009 Y112.972 E0.01290
G1 X115.217 Y113.050 E0.00696
G1 X115.583 Y113.230 E0.01280
G1 X115.772 Y113.347 E0.00696
G1 X116.096 Y113.595 E0.01280
G1 X116.255 Y113.744 E0.00685
G1 X116.401 Y113.900 E0.00670
G1 X116.653 Y114.228 E0.01295
G1 X116.767 Y114.412 E0.00680
G1 X116.950 Y114.783 E0.01295
G1 X117.026 Y114.986 E0.00680
G1 X117.133 Y115.385 E0.01295
G1 X117.169 Y115.599 E0.00680
G1 X117.196 Y116.015 E0.01306
G1 X117.169 Y116.430 E0.01306
G1 X117.134 Y116.641 E0.00669
G1 X117.085 Y116.849 E0.00669
G1 X116.952 Y117.243 E0.01306
G1 X116.770 Y117.612 E0.01290
G1 X116.653 Y117.801 E0.00696
G1 X116.401 Y118.129 E0.01296
G1 X116.253 Y118.287 E0.00680
G1 X115.946 Y118.556 E0.01279
G1 X115.766 Y118.686 E0.00696
G1 X115.413 Y118.890 E0.01280
G1 X115.211 Y118.982 E0.00696
G1 X114.820 Y119.114 E0.01296
G1 X114.612 Y119.163 E0.00669
G1 X114.401 Y119.198 E0.00669
G1 X114.049 Y119.221 E0.01107
G1 X113.883 Y119.414 F10800.000
G1 X113.985 Y123.427
G1 F1200.000
G1 X113.501 Y123.411 E0.01521
G1 X113.018 Y123.364 E0.01521
G1 X112.552 Y123.287 E0.01481
G1 X112.067 Y123.174 E0.01562
G1 X111.603 Y123.034 E0.01519
G1 X111.149 Y122.863 E0.01521
G1 X110.707 Y122.663 E0.01521
G1 X110.279 Y122.434 E0.01521
G1 X109.867 Y122.178 E0.01521
G1 X109.473 Y121.895 E0.01521
G1 X109.098 Y121.588 E0.01521
G1 X108.753 Y121.265 E0.01481
G1 X108.412 Y120.902 E0.01562
G1 X108.105 Y120.527 E0.01519
G1 X107.829 Y120.143 E0.01481
G1 X107.566 Y119.720 E0.01562
G1 X107.337 Y119.293 E0.01519
G1 X107.137 Y118.851 E0.01521
G1 X106.966 Y118.397 E0.01521
G1 X106.825 Y117.933 E0.01521
G1 X106.718 Y117.473 E0.01481
G1 X106.636 Y116.982 E0.01562
G1 X106.589 Y116.499 E0.01519
G1 X106.573 Y116.027 E0.01481
G1 X106.589 Y115.529 E0.01562
G1 X106.636 Y115.047 E0.01519
G1 X106.713 Y114.581 E0.01481
G1 X106.826 Y114.096 E0.01562
G1 X106.966 Y113.632 E0.01519
G1 X107.137 Y113.178 E0.01521
G1 X107.337 Y112.736 E0.01521
G1 X107.566 Y112.308 E0.01521
G1 X107.815 Y111.907 E0.01481
G1 X108.105 Y111.502 E0.01562
G1 X108.412 Y111.127 E0.01519
G1 X108.735 Y110.782 E0.01481
G1 X109.098 Y110.441 E0.01562
G1 X109.473 Y110.134 E0.01519
G1 X109.857 Y109.859 E0.01481
G1 X110.280 Y109.595 E0.01562
G1 X110.707 Y109.366 E0.01519
G1 X111.137 Y109.171 E0.01481
G1 X111.603 Y108.995 E0.01562
G1 X112.067 Y108.854 E0.01519
G1 X112.539 Y108.744 E0.01521
G1 X113.018 Y108.665 E0.01521
G1 X113.501 Y108.618 E0.01521
G1 X113.985 Y108.602 E0.01521
G1 X114.458 Y108.617 E0.01481
G1 X114.953 Y108.665 E0.01562
G1 X115.432 Y108.744 E0.01519
G1 X115.904 Y108.854 E0.01521
G1 X116.368 Y108.995 E0.01521
G1 X116.822 Y109.166 E0.01521
G1 X117.264 Y109.366 E0.01521
G1 X117.692 Y109.595 E0.01521
G1 X118.104 Y109.851 E0.01521
G1 X118.498 Y110.134 E0.01521
G1 X118.873 Y110.441 E0.01521
G1 X119.227 Y110.773 E0.01521
G1 X119.559 Y111.127 E0.01521
G1 X119.866 Y111.502 E0.01521
G1 X120.149 Y111.896 E0.01521
G1 X120.405 Y112.308 E0.01521
G1 X120.634 Y112.736 E0.01521
G1 X120.829 Y113.166 E0.01481
G1 X121.005 Y113.632 E0.01562
G1 X121.146 Y114.096 E0.01519
G1 X121.256 Y114.568 E0.01521
G1 X121.335 Y115.047 E0.01521
G1 X121.382 Y115.530 E0.01521
G1 X121.398 Y116.015 E0.01521
G1 X121.382 Y116.499 E0.01521
G1 X121.335 Y116.982 E0.01521
G1 X121.256 Y117.461 E0.01521
G1 X121.146 Y117.933 E0.01521
G1 X121.005 Y118.397 E0.01521
G1 X120.834 Y118.851 E0.01521
G1 X120.634 Y119.293 E0.01521
G1 X120.405 Y119.721 E0.01521
G1 X120.149 Y120.133 E0.01521
G1 X119.866 Y120.527 E0.01521
G1 X119.559 Y120.902 E0.01521
G1 X119.227 Y121.256 E0.01521
G1 X118.873 Y121.588 E0.01521
G1 X118.498 Y121.895 E0.01521
G1 X118.104 Y122.178 E0.01521
G1 X117.692 Y122.434 E0.01521
G1 X117.264 Y122.663 E0.01521
G1 X116.822 Y122.863 E0.01521
G1 X116.368 Y123.034 E0.01521
G1 X115.904 Y123.175 E0.01521
G1 X115.432 Y123.285 E0.01521
G1 X114.953 Y123.364 E0.01521
G1 X114.470 Y123.411 E0.01521
G1 X114.045 Y123.425 E0.01333
G1 X113.985 Y123.804 F10800.000
G1 F1200.000
G1 X113.476 Y123.788 E0.01598
G1 X112.969 Y123.738 E0.01598
G1 X112.478 Y123.657 E0.01558
G1 X111.969 Y123.539 E0.01639
G1 X111.481 Y123.391 E0.01598
G1 X111.004 Y123.211 E0.01598
G1 X110.540 Y123.001 E0.01598
G1 X110.091 Y122.761 E0.01598
G1 X109.658 Y122.492 E0.01598
G1 X109.243 Y122.195 E0.01598
G1 X108.849 Y121.871 E0.01598
G1 X108.487 Y121.532 E0.01558
G1 X108.129 Y121.151 E0.01639
G1 X107.805 Y120.757 E0.01598
G1 X107.516 Y120.353 E0.01558
G1 X107.239 Y119.909 E0.01639
G1 X106.999 Y119.460 E0.01598
G1 X106.789 Y118.996 E0.01598
G1 X106.609 Y118.518 E0.01598
G1 X106.461 Y118.031 E0.01598
G1 X106.348 Y117.547 E0.01558
G1 X106.262 Y117.031 E0.01639
G1 X106.212 Y116.524 E0.01598
G1 X106.196 Y116.027 E0.01558
G1 X106.212 Y115.505 E0.01639
G1 X106.262 Y114.998 E0.01598
G1 X106.343 Y114.508 E0.01558
G1 X106.461 Y113.998 E0.01639
G1 X106.609 Y113.511 E0.01598
G1 X106.789 Y113.033 E0.01598
G1 X106.999 Y112.569 E0.01598
G1 X107.239 Y112.120 E0.01598
G1 X107.502 Y111.698 E0.01558
G1 X107.805 Y111.272 E0.01639
G1 X108.129 Y110.878 E0.01598
G1 X108.468 Y110.516 E0.01558
G1 X108.849 Y110.158 E0.01639
G1 X109.243 Y109.834 E0.01598
G1 X109.647 Y109.545 E0.01558
G1 X110.091 Y109.268 E0.01639
G1 X110.540 Y109.028 E0.01598
G1 X110.993 Y108.823 E0.01558
G1 X111.482 Y108.638 E0.01639
G1 X111.969 Y108.490 E0.01598
G1 X112.466 Y108.374 E0.01598
G1 X112.969 Y108.291 E0.01598
G1 X113.476 Y108.241 E0.01598
G1 X113.985 Y108.225 E0.01598
G1 X114.482 Y108.241 E0.01558
G1 X115.002 Y108.291 E0.01639
G1 X115.505 Y108.374 E0.01598
G1 X116.002 Y108.490 E0.01598
G1 X116.489 Y108.638 E0.01598
G1 X116.967 Y108.818 E0.01598
G1 X117.431 Y109.028 E0.01598
G1 X117.880 Y109.268 E0.01598
G1 X118.313 Y109.537 E0.01598
G1 X118.728 Y109.834 E0.01598
G1 X119.122 Y110.158 E0.01598
G1 X119.494 Y110.506 E0.01598
G1 X119.842 Y110.878 E0.01598
G1 X120.166 Y111.272 E0.01598
G1 X120.463 Y111.687 E0.01598
G1 X120.732 Y112.120 E0.01598
G1 X120.972 Y112.569 E0.01598
G1 X121.177 Y113.022 E0.01558
G1 X121.362 Y113.511 E0.01639
G1 X121.510 Y113.998 E0.01598
G1 X121.626 Y114.495 E0.01598
G1 X121.709 Y114.998 E0.01598
G1 X121.759 Y115.505 E0.01598
G1 X121.775 Y116.015 E0.01598
G1 X121.759 Y116.524 E0.01598
G1 X121.709 Y117.031 E0.01598
G1 X121.626 Y117.534 E0.01598
G1 X121.510 Y118.031 E0.01598
G1 X121.362 Y118.518 E0.01598
G1 X121.182 Y118.996 E0.01598
G1 X120.972 Y119.460 E0.01598
G1 X120.732 Y119.909 E0.01598
G1 X120.463 Y120.342 E0.01598
G1 X120.166 Y120.757 E0.01598
G1 X119.842 Y121.151 E0.01598
G1 X119.494 Y121.523 E0.01598
G1 X119.122 Y121.871 E0.01598
G1 X118.728 Y122.195 E0.01598
G1 X118.313 Y122.492 E0.01598
G1 X117.880 Y122.761 E0.01598
G1 X117.431 Y123.001 E0.01598
G1 X116.967 Y123.211 E0.01598
G1 X116.489 Y123.391 E0.01598
G1 X116.002 Y123.539 E0.01598
G1 X115.505 Y123.655 E0.01598
G1 X115.002 Y123.738 E0.01598
G1 X114.495 Y123.788 E0.01598
G1 X114.045 Y123.802 E0.01410
G1 X113.785 Y123.458 F10800.000
G1 X114.956 Y123.249
G1 F1200.000
G1 X106.906 Y115.198 E0.36461
G1 X106.866 Y115.704 E0.01624
G1 X114.296 Y123.134 E0.33653
G1 X113.754 Y123.137 E0.01736
G1 X106.863 Y116.246 E0.31211
G1 X106.906 Y116.833 E0.01885
G1 X113.167 Y123.094 E0.28360
G1 X112.517 Y122.988 E0.02111
G1 X107.011 Y117.482 E0.24937
G1 X107.099 Y117.860 E0.01241
G1 X107.210 Y118.226 E0.01227
G1 X111.774 Y122.790 E0.20670
G1 X111.257 Y122.601 E0.01761
G1 X110.861 Y122.422 E0.01393
G1 X107.578 Y119.139 E0.14869
G1 X107.811 Y119.579 E0.01593
G1 X108.065 Y119.986 E0.01536
G1 X108.329 Y120.355 E0.01455
G1 X108.625 Y120.715 E0.01492
G1 X108.867 Y120.973 E0.01132
G1 X110.057 Y122.162 E0.05390
G1 E-0.80000 F2100.00000
G1 Z0.800 F10800.000
G1 X121.039 Y117.893
G1 Z0.200
G1 E0.80000 F2100.00000
G1 F1200.000
G1 X117.449 Y114.304 E0.16257
G1 X117.556 Y114.520 E0.00773
G1 X117.655 Y114.784 E0.00902
G1 X117.754 Y115.153 E0.01225
G1 X120.776 Y118.175 E0.13687
G1 X120.634 Y118.578 E0.01368
G1 X117.842 Y115.786 E0.12647
G1 X117.857 Y116.015 E0.00734
G1 X117.837 Y116.325 E0.00997
G1 X120.473 Y118.962 E0.11941
G1 X120.295 Y119.327 E0.01304
G1 X117.767 Y116.800 E0.11447
G1 X117.722 Y117.026 E0.00737
G1 X117.653 Y117.230 E0.00692
G1 X120.099 Y119.677 E0.11081
G1 X119.888 Y120.011 E0.01265
G1 X117.500 Y117.623 E0.10816
G1 X117.316 Y117.983 E0.01297
G1 X119.661 Y120.328 E0.10620
G1 X119.417 Y120.629 E0.01240
G1 X117.096 Y118.308 E0.10513
G1 X116.854 Y118.611 E0.01241
G1 X119.159 Y120.915 E0.10438
G1 X118.886 Y121.188 E0.01234
G1 X116.578 Y118.879 E0.10454
G1 X116.282 Y119.128 E0.01238
G1 X118.600 Y121.446 E0.10500
G1 X118.299 Y121.690 E0.01240
G1 X115.951 Y119.341 E0.10638
G1 X115.596 Y119.531 E0.01288
G1 X117.982 Y121.917 E0.10806
G1 X117.648 Y122.128 E0.01265
G1 X115.202 Y119.682 E0.11081
G1 X114.997 Y119.751 E0.00693
G1 X114.771 Y119.796 E0.00736
G1 X117.299 Y122.323 E0.11447
G1 X116.933 Y122.502 E0.01304
G1 X114.297 Y119.866 E0.11941
G1 X114.000 Y119.885 E0.00953
G1 X113.764 Y119.878 E0.00757
G1 X116.549 Y122.663 E0.12617
G1 X116.147 Y122.805 E0.01367
G1 X113.128 Y119.787 E0.13673
G1 X112.504 Y119.592 E0.02094
G1 X112.275 Y119.479 E0.00815
G1 X115.723 Y122.926 E0.15614
G1 X115.276 Y123.024 E0.01466
G1 X106.976 Y114.724 E0.37590
G1 X107.074 Y114.277 E0.01466
G1 X110.521 Y117.725 E0.15613
G1 X110.409 Y117.496 E0.00815
G1 X110.250 Y117.031 E0.01573
G1 X110.220 Y116.879 E0.00498
G1 X107.195 Y113.853 E0.13702
G1 X107.337 Y113.451 E0.01367
G1 X110.129 Y116.243 E0.12646
G1 X110.115 Y116.029 E0.00687
G1 X110.130 Y115.700 E0.01056
G1 X107.498 Y113.067 E0.11923
G1 X107.677 Y112.701 E0.01304
G1 X110.198 Y115.223 E0.11420
G1 X110.313 Y114.793 E0.01425
G1 X107.872 Y112.352 E0.11056
G1 X108.083 Y112.019 E0.01264
G1 X110.471 Y114.406 E0.10814
G1 X110.655 Y114.046 E0.01297
G1 X108.310 Y111.701 E0.10620
G1 X108.554 Y111.400 E0.01240
G1 X110.875 Y113.721 E0.10513
G1 X111.117 Y113.418 E0.01241
G1 X108.812 Y111.114 E0.10439
G1 X109.085 Y110.842 E0.01234
G1 X111.393 Y113.149 E0.10452
G1 X111.689 Y112.901 E0.01238
G1 X109.371 Y110.583 E0.10500
G1 X109.672 Y110.339 E0.01240
G1 X112.021 Y112.688 E0.10638
G1 X112.375 Y112.498 E0.01288
G1 X109.989 Y110.112 E0.10806
G1 X110.323 Y109.901 E0.01265
G1 X112.770 Y112.347 E0.11080
G1 X112.969 Y112.279 E0.00674
G1 X113.200 Y112.233 E0.00756
G1 X110.673 Y109.705 E0.11449
G1 X111.038 Y109.527 E0.01304
G1 X113.675 Y112.163 E0.11941
G1 X113.965 Y112.144 E0.00933
G1 X114.208 Y112.151 E0.00777
G1 X111.422 Y109.366 E0.12616
G1 X111.825 Y109.224 E0.01367
G1 X114.847 Y112.246 E0.13687
G1 X115.211 Y112.343 E0.01207
G1 X115.479 Y112.443 E0.00918
G1 X115.696 Y112.550 E0.00775
G1 X112.248 Y109.103 E0.15616
G1 X112.696 Y109.005 E0.01466
G1 X120.995 Y117.304 E0.37588
G1 X121.065 Y116.830 E0.01535
G1 X113.170 Y108.935 E0.35761
G1 X113.675 Y108.895 E0.01623
G1 X121.105 Y116.325 E0.33652
G1 X121.108 Y115.783 E0.01736
G1 X114.217 Y108.892 E0.31208
G1 X114.804 Y108.935 E0.01886
G1 X121.065 Y115.196 E0.28356
G1 X120.960 Y114.546 E0.02108
G1 X115.454 Y109.040 E0.24938
G1 X115.831 Y109.128 E0.01239
G1 X116.198 Y109.239 E0.01229
G1 X120.761 Y113.802 E0.20666
G1 X120.567 Y113.275 E0.01799
G1 X120.393 Y112.889 E0.01356
G1 X117.111 Y109.607 E0.14863
G1 X117.550 Y109.840 E0.01592
G1 X117.947 Y110.086 E0.01494
G1 X118.326 Y110.358 E0.01494
G1 X118.686 Y110.654 E0.01494
G1 X118.938 Y110.890 E0.01104
G1 X120.133 Y112.084 E0.05411
G1 E-0.80000 F2100.00000
G1 Z0.800 F10800.000
G1 X113.995 Y97.573
G1 Z0.200
G1 E0.80000 F2100.00000
G1 F1200.000
G1 X113.741 Y97.565 E0.00796
G1 X113.295 Y97.506 E0.01411
G1 X113.048 Y97.448 E0.00796
G1 X112.612 Y97.301 E0.01441
