; G-Code generated by Simplify3D(R) Version 4.0.0
; Jan 19, 2018 at 10:53:59 AM
; Settings Summary
;   processName,Process1
;   applyToModels,RoundTube,RoundTube(2),RoundTube(3),RoundTube(4)
;   profileName,Prusa Research Original Prusa i3 MK2 (modified)
;   profileVersion,2018-01-18 11:04:54
;   baseProfile,
;   printMaterial,PLA
;   printQuality,Medium
;   printExtruders,
;   extruderName,Primary Extruder
;   extruderToolheadNumber,0
;   extruderDiameter,0.4
;   extruderAutoWidth,0
;   extruderWidth,0.4
;   extrusionMultiplier,1
;   extruderUseRetract,1
;   extruderRetractionDistance,1.5
;   extruderExtraRestartDistance,0
;   extruderRetractionZLift,0
;   extruderRetractionSpeed,1800
;   extruderUseCoasting,1
;   extruderCoastingDistance,0.2
;   extruderUseWipe,1
;   extruderWipeDistance,2
;   primaryExtruder,0
;   layerHeight,0.2
;   topSolidLayers,3
;   bottomSolidLayers,3
;   perimeterOutlines,2
;   printPerimetersInsideOut,0
;   startPointOption,3
;   startPointOriginX,125
;   startPointOriginY,0
;   sequentialIslands,0
;   spiralVaseMode,0
;   firstLayerHeightPercentage,90
;   firstLayerWidthPercentage,100
;   firstLayerUnderspeed,0.5
;   useRaft,1
;   raftExtruder,0
;   raftTopLayers,2
;   raftBaseLayers,1
;   raftOffset,2
;   raftSeparationDistance,0.14
;   raftTopInfill,100
;   aboveRaftSpeedMultiplier,0.3
;   useSkirt,0
;   skirtExtruder,0
;   skirtLayers,1
;   skirtOutlines,1
;   skirtOffset,4
;   usePrimePillar,0
;   primePillarExtruder,999
;   primePillarWidth,12
;   primePillarLocation,7
;   primePillarSpeedMultiplier,1
;   useOozeShield,0
;   oozeShieldExtruder,999
;   oozeShieldOffset,2
;   oozeShieldOutlines,1
;   oozeShieldSidewallShape,1
;   oozeShieldSidewallAngle,30
;   oozeShieldSpeedMultiplier,1
;   infillExtruder,0
;   internalInfillPattern,Rectilinear
;   externalInfillPattern,Rectilinear
;   infillPercentage,15
;   outlineOverlapPercentage,30
;   infillExtrusionWidthPercentage,125
;   minInfillLength,1
;   infillLayerInterval,1
;   internalInfillAngles,45,-45
;   overlapInternalInfillAngles,0
;   externalInfillAngles,45,-45
;   generateSupport,1
;   supportExtruder,0
;   supportInfillPercentage,20
;   supportExtraInflation,1
;   supportBaseLayers,0
;   denseSupportExtruder,0
;   denseSupportLayers,0
;   denseSupportInfillPercentage,70
;   supportLayerInterval,1
;   supportHorizontalPartOffset,0.2
;   supportUpperSeparationLayers,1
;   supportLowerSeparationLayers,1
;   supportType,0
;   supportGridSpacing,4
;   maxOverhangAngle,45
;   supportAngles,0
;   temperatureName,Primary Extruder,Heated Bed
;   temperatureNumber,0,0
;   temperatureSetpointCount,1,1
;   temperatureSetpointLayers,1,1
;   temperatureSetpointTemperatures,230,55
;   temperatureStabilizeAtStartup,1,1
;   temperatureHeatedBed,0,1
;   temperatureRelayBetweenLayers,1,1
;   temperatureRelayBetweenLoops,0,0
;   fanLayers,1,2
;   fanSpeeds,0,100
;   blipFanToFullPower,0
;   adjustSpeedForCooling,1
;   minSpeedLayerTime,5
;   minCoolingSpeedSlowdown,10
;   increaseFanForCooling,1
;   minFanLayerTime,45
;   maxCoolingFanSpeed,100
;   increaseFanForBridging,1
;   bridgingFanSpeed,100
;   use5D,1
;   relativeEdistances,0
;   allowEaxisZeroing,1
;   independentExtruderAxes,0
;   includeM10123,0
;   stickySupport,1
;   applyToolheadOffsets,0
;   gcodeXoffset,0
;   gcodeYoffset,0
;   gcodeZoffset,0
;   overrideMachineDefinition,1
;   machineTypeOverride,0
;   strokeXoverride,250
;   strokeYoverride,210
;   strokeZoverride,200
;   originOffsetXoverride,0
;   originOffsetYoverride,0
;   originOffsetZoverride,0
;   homeXdirOverride,-1
;   homeYdirOverride,-1
;   homeZdirOverride,-1
;   flipXoverride,1
;   flipYoverride,-1
;   flipZoverride,1
;   toolheadOffsets,0,0|0,0|0,0|0,0|0,0|0,0
;   overrideFirmwareConfiguration,1
;   firmwareTypeOverride,RepRap (Marlin/Repetier/Sprinter)
;   GPXconfigOverride,r2
;   baudRateOverride,250000
;   overridePrinterModels,1
;   printerModelsOverride
;   startingGcode,M115 U3.0.7 ; use the latest firmware version,G28 W ; home all axes without mesh bed leveling,G80 ; run mesh bed leveling routine,G1 Y-3.0 F1000.0 ; prepare to prime,G92 E0 ; reset extrusion distance,G1 X60.0 E9.0  F1000.0 ; priming,G1 X100.0 E12.5  F1000.0 ; priming
;   layerChangeGcode,
;   retractionGcode,
;   toolChangeGcode,
;   endingGcode,M106 S0 ; turn off cooling fan,M104 S0 ; turn off extruder,M140 S0 ; turn off bed,G1 X0 Y200 ; part removal,M84 ; disable motors
;   exportFileFormat,gcode
;   celebration,0
;   celebrationSong,Random Song
;   postProcessing,
;   defaultSpeed,2400
;   outlineUnderspeed,1
;   solidInfillUnderspeed,1
;   supportUnderspeed,1
;   rapidXYspeed,4800
;   rapidZspeed,1002
;   minBridgingArea,50
;   bridgingExtraInflation,0
;   bridgingExtrusionMultiplier,1
;   bridgingSpeedMultiplier,1
;   useFixedBridgingAngle,0
;   fixedBridgingAngle,0
;   applyBridgingToPerimeters,0
;   filamentDiameters,1.75|1.75|1.75|1.75|1.75|1.75
;   filamentPricesPerKg,46|46|46|46|46|46
;   filamentDensities,1.25|1.25|1.25|1.25|1.25|1.25
;   useMinPrintHeight,0
;   minPrintHeight,1.18
;   useMaxPrintHeight,0
;   maxPrintHeight,2.98
;   useDiaphragm,0
;   diaphragmLayerInterval,20
;   robustSlicing,1
;   mergeAllIntoSolid,0
;   onlyRetractWhenCrossingOutline,1
;   retractBetweenLayers,0
;   useRetractionMinTravel,1
;   retractionMinTravel,3
;   retractWhileWiping,1
;   onlyWipeOutlines,1
;   avoidCrossingOutline,0
;   maxMovementDetourFactor,3
;   toolChangeRetractionDistance,12
;   toolChangeExtraRestartDistance,-0.5
;   toolChangeRetractionSpeed,600
;   externalThinWallType,0
;   internalThinWallType,0
;   thinWallAllowedOverlapPercentage,10
;   singleExtrusionMinLength,0.3
;   singleExtrusionMinPrintingWidthPercentage,25
;   singleExtrusionMaxPrintingWidthPercentage,200
;   singleExtrusionEndpointExtension,0.2
;   horizontalSizeCompensation,0
G90
M82
M106 S0
M140 S55
M190 S55
M104 S230 T0
M109 S230 T0
M115 U3.0.7 ; use the latest firmware version
G28 W ; home all axes without mesh bed leveling
G80 ; run mesh bed leveling routine
G1 Y-3.0 F1000.0 ; prepare to prime
G92 E0 ; reset extrusion distance
G1 X60.0 E9.0  F1000.0 ; priming
G1 X100.0 E12.5  F1000.0 ; priming
G92 E0
G1 E-1.5000 F1800
G1 Z0.450 F1002
; process Process1
; layer 1, Z = 0.450
M105
M105
T0
; tool H0.500 W0.800
; raft
G1 X96.691 Y75.117 F4800
G1 E0.0000 F540
G92 E0
G1 X97.628 Y74.180 E0.2204 F300
G1 X109.394 Y74.180 E2.1770
G1 X110.674 Y75.460 E2.4781
G1 X111.954 Y74.180 E2.7792
G1 X123.720 Y74.180 E4.7358
G1 X125.000 Y75.460 E5.0369
G1 X126.280 Y74.180 E5.3380
G1 X138.046 Y74.180 E7.2947
G1 X139.326 Y75.460 E7.5957
G1 X140.606 Y74.180 E7.8968
G1 X152.372 Y74.180 E9.8534
G1 X153.309 Y75.117 E10.0739
G1 X153.309 Y82.883 E11.3653
G1 X152.372 Y83.820 E11.5857
G1 X149.033 Y83.820 E12.1410
G1 X149.033 Y126.180 E19.1855
G1 X152.372 Y126.180 E19.7407
G1 X153.309 Y127.117 E19.9611
G1 X153.309 Y134.883 E21.2525
G1 X152.372 Y135.820 E21.4730
G1 X140.606 Y135.820 E23.4296
G1 X139.326 Y134.540 E23.7307
G1 X138.046 Y135.820 E24.0318
G1 X126.280 Y135.820 E25.9884
G1 X125.000 Y134.540 E26.2895
G1 X123.720 Y135.820 E26.5906
G1 X111.954 Y135.820 E28.5472
G1 X110.674 Y134.540 E28.8483
G1 X109.394 Y135.820 E29.1494
G1 X97.628 Y135.820 E31.1060
G1 X96.691 Y134.883 E31.3264
G1 X96.691 Y127.117 E32.6178
G1 X97.628 Y126.180 E32.8382
G1 X100.967 Y126.180 E33.3935
G1 X100.967 Y83.820 E40.4380
G1 X97.628 Y83.820 E40.9932
G1 X96.691 Y82.883 E41.2136
G1 X96.691 Y75.317 E42.4718
G1 X96.691 Y75.117 F300
G92 E0
G1 E-1.5000 F1800
G1 X106.055 Y83.820 F4800
G1 E0.0000 F1800
G92 E0
G1 X106.055 Y126.180 E7.0445 F300
G1 X109.394 Y126.180 E7.5997
G1 X110.674 Y127.460 E7.9008
G1 X111.954 Y126.180 E8.2019
G1 X115.293 Y126.180 E8.7572
G1 X115.293 Y83.820 E15.8017
G1 X111.954 Y83.820 E16.3569
G1 X110.674 Y82.540 E16.6580
G1 X109.394 Y83.820 E16.9591
G1 X106.255 Y83.820 E17.4811
G1 X106.055 Y83.820 F300
G92 E0
G1 E-1.5000 F1800
G1 X120.381 Y83.820 F4800
G1 E0.0000 F1800
G92 E0
G1 X120.381 Y126.180 E7.0445 F300
G1 X123.720 Y126.180 E7.5997
G1 X125.000 Y127.460 E7.9008
G1 X126.280 Y126.180 E8.2019
G1 X129.619 Y126.180 E8.7572
G1 X129.619 Y83.820 E15.8017
G1 X126.280 Y83.820 E16.3569
G1 X125.000 Y82.540 E16.6580
G1 X123.720 Y83.820 E16.9591
G1 X120.581 Y83.820 E17.4811
G1 X120.381 Y83.820 F300
G92 E0
G1 E-1.5000 F1800
G1 X134.707 Y83.820 F4800
G1 E0.0000 F1800
G92 E0
G1 X134.707 Y126.180 E7.0445 F300
G1 X138.046 Y126.180 E7.5997
G1 X139.326 Y127.460 E7.9008
G1 X140.606 Y126.180 E8.2019
G1 X143.945 Y126.180 E8.7572
G1 X143.945 Y83.820 E15.8017
G1 X140.606 Y83.820 E16.3569
G1 X139.326 Y82.540 E16.6580
G1 X138.046 Y83.820 E16.9591
G1 X134.907 Y83.820 E17.4811
G1 X134.707 Y83.820 F300
G92 E0
G1 E-1.5000 F1800
G1 X130.419 Y84.429 F4800
G1 E0.0000 F1800
G92 E0
G1 X133.907 Y84.429 E0.5801 F300
G1 X133.907 Y86.714 E0.9602
G1 X130.419 Y86.714 E1.5402
G1 X130.419 Y89.000 E1.9203
G1 X133.907 Y89.000 E2.5004
G1 X133.907 Y91.286 E2.8805
G1 X130.419 Y91.286 E3.4606
G1 X130.419 Y93.571 E3.8407
G1 X133.907 Y93.571 E4.4207
G1 X133.907 Y95.857 E4.8008
G1 X130.419 Y95.857 E5.3809
G1 X130.419 Y98.143 E5.7610
G1 X133.907 Y98.143 E6.3411
G1 X133.907 Y100.429 E6.7212
G1 X130.419 Y100.429 E7.3012
G1 X130.419 Y102.714 E7.6813
G1 X133.907 Y102.714 E8.2614
G1 X133.907 Y105.000 E8.6415
G1 X130.419 Y105.000 E9.2216
G1 X130.419 Y107.286 E9.6017
G1 X133.907 Y107.286 E10.1817
G1 X133.907 Y109.571 E10.5618
G1 X130.419 Y109.571 E11.1419
G1 X130.419 Y111.857 E11.5220
G1 X133.907 Y111.857 E12.1021
G1 X133.907 Y114.143 E12.4822
G1 X130.419 Y114.143 E13.0622
G1 X130.419 Y116.429 E13.4423
G1 X133.907 Y116.429 E14.0224
G1 X133.907 Y118.714 E14.4025
G1 X130.419 Y118.714 E14.9826
G1 X130.419 Y121.000 E15.3627
G1 X133.907 Y121.000 E15.9427
G1 X133.907 Y123.286 E16.3228
G1 X130.419 Y123.286 E16.9029
G1 X130.419 Y125.571 E17.2830
G1 X133.907 Y125.571 E17.8631
G1 X133.907 Y126.980 E18.0973
G1 X137.714 Y126.980 E18.7305
G1 X138.592 Y127.857 E18.9368
G1 X125.935 Y127.857 E21.0417
G1 X125.735 Y127.857 F300
G92 E0
G1 E-1.5000 F1800
G1 X140.060 Y127.857 F4800
G1 E0.0000 F1800
G92 E0
G1 X152.509 Y127.857 E2.0702 F300
G1 X152.509 Y127.449 E2.1381
G1 X152.040 Y126.980 E2.2484
G1 X148.233 Y126.980 E2.8815
G1 X148.233 Y125.571 E3.1158
G1 X144.745 Y125.571 E3.6958
G1 X144.745 Y123.286 E4.0759
G1 X148.233 Y123.286 E4.6560
G1 X148.233 Y121.000 E5.0361
G1 X144.745 Y121.000 E5.6162
G1 X144.745 Y118.714 E5.9963
G1 X148.233 Y118.714 E6.5763
G1 X148.233 Y116.429 E6.9564
G1 X144.745 Y116.429 E7.5365
G1 X144.745 Y114.143 E7.9166
G1 X148.233 Y114.143 E8.4966
G1 X148.233 Y111.857 E8.8768
G1 X144.745 Y111.857 E9.4568
G1 X144.745 Y109.571 E9.8369
G1 X148.233 Y109.571 E10.4170
G1 X148.233 Y107.286 E10.7971
G1 X144.745 Y107.286 E11.3771
G1 X144.745 Y105.000 E11.7573
G1 X148.233 Y105.000 E12.3373
G1 X148.233 Y102.714 E12.7174
G1 X144.745 Y102.714 E13.2975
G1 X144.745 Y100.429 E13.6776
G1 X148.233 Y100.429 E14.2576
G1 X148.233 Y98.143 E14.6377
G1 X144.745 Y98.143 E15.2178
G1 X144.745 Y95.857 E15.5979
G1 X148.233 Y95.857 E16.1780
G1 X148.233 Y93.571 E16.5581
G1 X144.745 Y93.571 E17.1381
G1 X144.745 Y91.286 E17.5182
G1 X148.233 Y91.286 E18.0983
G1 X148.233 Y89.000 E18.4784
G1 X144.745 Y89.000 E19.0585
G1 X144.745 Y86.714 E19.4386
G1 X148.233 Y86.714 E20.0186
G1 X148.233 Y84.429 E20.3987
G1 X144.945 Y84.429 E20.9455
G1 X144.745 Y84.429 F300
G92 E0
G1 E-1.5000 F1800
G1 X116.093 Y84.429 F4800
G1 E0.0000 F1800
G92 E0
G1 X119.581 Y84.429 E0.5801 F300
G1 X119.581 Y86.714 E0.9602
G1 X116.093 Y86.714 E1.5402
G1 X116.093 Y89.000 E1.9203
G1 X119.581 Y89.000 E2.5004
G1 X119.581 Y91.286 E2.8805
G1 X116.093 Y91.286 E3.4606
G1 X116.093 Y93.571 E3.8407
G1 X119.581 Y93.571 E4.4207
G1 X119.581 Y95.857 E4.8008
G1 X116.093 Y95.857 E5.3809
G1 X116.093 Y98.143 E5.7610
G1 X119.581 Y98.143 E6.3411
G1 X119.581 Y100.429 E6.7212
G1 X116.093 Y100.429 E7.3012
G1 X116.093 Y102.714 E7.6814
G1 X119.581 Y102.714 E8.2614
G1 X119.581 Y105.000 E8.6415
G1 X116.093 Y105.000 E9.2216
G1 X116.093 Y107.286 E9.6017
G1 X119.581 Y107.286 E10.1817
G1 X119.581 Y109.571 E10.5619
G1 X116.093 Y109.571 E11.1419
G1 X116.093 Y111.857 E11.5220
G1 X119.581 Y111.857 E12.1021
G1 X119.581 Y114.143 E12.4822
G1 X116.093 Y114.143 E13.0623
G1 X116.093 Y116.429 E13.4424
G1 X119.581 Y116.429 E14.0224
G1 X119.581 Y118.714 E14.4025
G1 X116.093 Y118.714 E14.9826
G1 X116.093 Y121.000 E15.3627
G1 X119.581 Y121.000 E15.9428
G1 X119.581 Y123.286 E16.3229
G1 X116.093 Y123.286 E16.9029
G1 X116.093 Y125.571 E17.2830
G1 X119.581 Y125.571 E17.8631
G1 X119.581 Y126.980 E18.0973
G1 X123.388 Y126.980 E18.7305
G1 X124.266 Y127.857 E18.9368
G1 X111.608 Y127.857 E21.0417
G1 X111.408 Y127.857 F300
G92 E0
G1 E-1.5000 F1800
G1 X152.346 Y134.714 F4800
G1 E0.0000 F1800
G92 E0
G1 X140.632 Y134.714 E1.9481 F300
G1 X139.326 Y133.408 E2.2552
G1 X138.020 Y134.714 E2.5623
G1 X126.306 Y134.714 E4.5104
G1 X125.000 Y133.408 E4.8175
G1 X123.694 Y134.714 E5.1247
G1 X111.980 Y134.714 E7.0727
G1 X110.674 Y133.408 E7.3799
G1 X109.368 Y134.714 E7.6870
G1 X97.654 Y134.714 E9.6351
G1 X97.491 Y134.551 E9.6734
G1 X97.491 Y132.429 E10.0264
G1 X152.509 Y132.429 E19.1760
G1 X152.509 Y130.143 E19.5561
G1 X97.491 Y130.143 E28.7056
G1 X97.491 Y127.857 E29.0857
G1 X109.940 Y127.857 E31.1559
G1 X109.062 Y126.980 E31.3622
G1 X105.255 Y126.980 E31.9954
G1 X105.255 Y125.571 E32.2296
G1 X101.767 Y125.571 E32.8097
G1 X101.767 Y123.286 E33.1898
G1 X105.255 Y123.286 E33.7699
G1 X105.255 Y121.000 E34.1500
G1 X101.767 Y121.000 E34.7300
G1 X101.767 Y118.714 E35.1101
G1 X105.255 Y118.714 E35.6902
G1 X105.255 Y116.429 E36.0703
G1 X101.767 Y116.429 E36.6504
G1 X101.767 Y114.143 E37.0305
G1 X105.255 Y114.143 E37.6105
G1 X105.255 Y111.857 E37.9906
G1 X101.767 Y111.857 E38.5707
G1 X101.767 Y109.571 E38.9508
G1 X105.255 Y109.571 E39.5309
G1 X105.255 Y107.286 E39.9110
G1 X101.767 Y107.286 E40.4910
G1 X101.767 Y105.000 E40.8711
G1 X105.255 Y105.000 E41.4512
G1 X105.255 Y102.714 E41.8313
G1 X101.767 Y102.714 E42.4114
G1 X101.767 Y100.429 E42.7915
G1 X105.255 Y100.429 E43.3715
G1 X105.255 Y98.143 E43.7516
G1 X101.767 Y98.143 E44.3317
G1 X101.767 Y95.857 E44.7118
G1 X105.255 Y95.857 E45.2919
G1 X105.255 Y93.571 E45.6720
G1 X101.767 Y93.571 E46.2520
G1 X101.767 Y91.286 E46.6321
G1 X105.255 Y91.286 E47.2122
G1 X105.255 Y89.000 E47.5923
G1 X101.767 Y89.000 E48.1724
G1 X101.767 Y86.714 E48.5525
G1 X105.255 Y86.714 E49.1325
G1 X105.255 Y84.429 E49.5126
G1 X101.767 Y84.429 E50.0927
G1 X101.767 Y83.020 E50.3270
G1 X97.960 Y83.020 E50.9601
G1 X97.491 Y82.551 E51.0703
G1 X97.491 Y82.143 E51.1383
G1 X109.940 Y82.143 E53.2085
G1 X110.674 Y81.408 E53.3812
G1 X111.409 Y82.143 E53.5539
G1 X124.266 Y82.143 E55.6921
G1 X125.000 Y81.408 E55.8648
G1 X125.735 Y82.143 E56.0376
G1 X138.592 Y82.143 E58.1757
G1 X139.326 Y81.408 E58.3484
G1 X140.061 Y82.143 E58.5212
G1 X152.509 Y82.143 E60.5914
G1 X152.509 Y79.857 E60.9715
G1 X97.491 Y79.857 E70.1210
G1 X97.491 Y77.571 E70.5011
G1 X152.509 Y77.571 E79.6507
G1 X152.509 Y75.449 E80.0037
G1 X152.346 Y75.286 E80.0420
G1 X140.632 Y75.286 E81.9901
G1 X139.326 Y76.592 E82.2972
G1 X138.020 Y75.286 E82.6043
G1 X126.306 Y75.286 E84.5524
G1 X125.000 Y76.592 E84.8595
G1 X123.694 Y75.286 E85.1667
G1 X111.980 Y75.286 E87.1148
G1 X110.674 Y76.592 E87.4219
G1 X109.368 Y75.286 E87.7290
G1 X97.854 Y75.286 E89.6438
G1 X97.654 Y75.286 F300
G92 E0
G1 E-1.5000 F1800
; layer 2, Z = 0.672
M106 S255
M105
M105
; tool H0.222 W0.400
G1 X97.797 Y84.020 F4800
G1 Z0.672 F1002
G1 E0.0000 F1800
G92 E0
G1 X96.491 Y82.714 E0.0683 F1800
G1 X96.491 Y82.148 E0.0892
G1 X98.363 Y84.020 E0.1870
G1 X98.929 Y84.020 E0.2079
G1 X96.491 Y81.582 E0.3353
G1 X96.491 Y81.016 E0.3562
G1 X99.495 Y84.020 E0.5132
G1 X100.060 Y84.020 E0.5341
G1 X96.491 Y80.451 E0.7207
G1 X96.491 Y79.885 E0.7416
G1 X100.626 Y84.020 E0.9577
G1 X100.767 Y84.020 E0.9629
G1 X100.767 Y84.161 E0.9681
G1 X106.255 Y89.649 E1.2549
G1 X106.255 Y89.083 E1.2758
G1 X96.491 Y79.319 E1.7861
G1 X96.491 Y78.754 E1.8070
G1 X106.255 Y88.518 E2.3173
G1 X106.255 Y87.952 E2.3382
G1 X96.491 Y78.188 E2.8485
G1 X96.491 Y77.622 E2.8694
G1 X106.255 Y87.386 E3.3797
