; generated by PrusaSlicer 2.1.1+win64 on 2020-04-21 at 21:14:25 UTC

; 

; external perimeters extrusion width = 0.45mm
; perimeters extrusion width = 0.45mm
; infill extrusion width = 0.45mm
; solid infill extrusion width = 0.45mm
; top infill extrusion width = 0.40mm
; support material extrusion width = 0.35mm
; first layer extrusion width = 0.42mm

M73 P0 R210
M201 X9000 Y9000 Z500 E10000 ; sets maximum accelerations, mm/sec^2
M203 X500 Y500 Z12 E120 ; sets maximum feedrates, mm/sec
M204 P2000 R1500 T2000 ; sets acceleration (P, T) and retract acceleration (R), mm/sec^2
M205 X10.00 Y10.00 Z0.20 E2.50 ; sets the jerk limits, mm/sec
M205 S0 T0 ; sets the minimum extruding and travel feed rate, mm/sec
M107
M862.3 P "MK2S" ; printer model check
M862.1 P0.4 ; nozzle diameter check
M115 U3.2.3 ; tell printer latest fw version
G90 ; use absolute coordinates
M83 ; extruder relative mode
M204 S2000 T1500 ; MK2 firmware only supports the old M204 format
M104 S215 ; set extruder temp
M140 S60 ; set bed temp
M190 S60 ; wait for bed temp
M109 S215 ; wait for extruder temp
G28 W ; home all without mesh bed level
G80 ; mesh bed leveling
G1 Y-3.0 F1000.0 ; go outside print area
G92 E0.0
G1 X60.0 E9.0  F1000.0 ; intro line
M73 P0 R210
G1 X100.0 E12.5 F1000.0 ; intro line
G92 E0.0
G21 ; set units to millimeters
G90 ; use absolute coordinates
M83 ; use relative distances for extrusion
M900 K30 ; Filament gcode
;BEFORE_LAYER_CHANGE
G92 E0.0
;0.2


G1 E-0.80000 F2100.00000
G1 Z0.600 F10800.000
;AFTER_LAYER_CHANGE
;0.2
G1 X103.671 Y108.676
G1 Z0.200
G1 E0.80000 F2100.00000
M204 S1000
G1 F1200
G1 X109.615 Y102.731 E0.26358
G1 X110.148 Y103.265 E0.02365
G1 X104.324 Y109.089 E0.25826
G1 X104.857 Y109.622 E0.02365
G1 X110.681 Y103.798 E0.25826
G1 X110.876 Y103.992 E0.00861
G1 X112.507 Y102.361 E0.07234
G1 X112.846 Y102.700 E0.01503
G1 X103.759 Y111.787 E0.40294
G1 X104.292 Y112.320 E0.02365
G1 X113.379 Y103.233 E0.40294
G1 X113.913 Y103.767 E0.02365
G1 X104.826 Y112.854 E0.40294
G1 X105.051 Y113.079 E0.01001
G1 X103.420 Y114.711 E0.07234
G1 X103.727 Y115.018 E0.01363
G1 X114.446 Y104.300 E0.47527
G1 X114.979 Y104.833 E0.02365
G1 X104.261 Y115.551 E0.47527
G1 X104.794 Y116.085 E0.02365
G1 X115.512 Y105.366 E0.47527
G1 X116.046 Y105.900 E0.02365
G1 X102.065 Y119.881 E0.61995
G1 X102.598 Y120.414 E0.02365
G1 X116.579 Y106.433 E0.61995
G1 X117.112 Y106.966 E0.02365
G1 X103.131 Y120.947 E0.61995
G1 X103.664 Y121.481 E0.02365
G1 X117.646 Y107.499 E0.61995
G1 X118.179 Y108.033 E0.02365
G1 X105.236 Y120.976 E0.57391
G1 X106.143 Y121.135 E0.02887
G1 X118.712 Y108.566 E0.55735
G1 X119.245 Y109.099 E0.02365
G1 X107.049 Y121.295 E0.54080
G1 X107.956 Y121.455 E0.02887
G1 X119.779 Y109.632 E0.52424
G1 X119.963 Y109.817 E0.00817
G1 X116.700 Y113.079 E0.14467
G1 X117.049 Y113.428 E0.01548
G1 X108.863 Y121.615 E0.36301
G1 X109.664 Y121.756 E0.02552
G1 X109.720 Y121.825 E0.00276
G1 X117.582 Y113.962 E0.34865
G1 X118.116 Y114.495 E0.02365
G1 X109.892 Y122.718 E0.36463
G1 X109.861 Y123.816 E0.03445
G1 X117.018 Y116.660 E0.31735
G1 X117.551 Y117.193 E0.02365
G1 X109.829 Y124.915 E0.34240
G1 X109.800 Y125.934 E0.03197
G1 X109.876 Y125.934 E0.00240
G1 X118.084 Y117.726 E0.36395
G1 X118.331 Y117.973 E0.01096
G1 X115.069 Y121.236 E0.14467
G1 X115.355 Y121.522 E0.01268
G1 X110.943 Y125.934 E0.19563
G1 X112.009 Y125.934 E0.03344
G1 X115.888 Y122.055 E0.17199
G1 X116.421 Y122.589 E0.02365
G1 X112.906 Y126.104 E0.15587
G1 E-0.80000 F2100.00000
G1 Z0.800 F10800.000
G1 X106.744 Y124.800
G1 Z0.200
G1 E0.80000 F2100.00000
G1 F1200
G1 X107.035 Y124.509 E0.01289
G1 X107.205 Y123.504 E0.03196
G1 X107.008 Y123.470 E0.00626
G1 X106.331 Y124.147 E0.03003
G1 X105.797 Y123.614 E0.02365
G1 X106.248 Y123.163 E0.01998
G1 X104.878 Y121.333 F10800.000
G1 F1200
G1 X104.078 Y122.134 E0.03549
G1 E-0.80000 F2100.00000
G1 Z0.800 F10800.000
G1 X108.304 Y127.840
G1 Z0.200
G1 E0.80000 F2100.00000
G1 F1200
G1 X107.600 Y127.840 E0.02207
G1 X108.474 Y122.677 E0.16418
G1 X108.779 Y122.731 E0.00970
G1 X108.654 Y127.047 E0.13540
G1 X121.458 Y127.047 E0.40145
G1 X121.458 Y127.840 E0.02485
G1 X108.364 Y127.840 E0.41054
G1 X107.247 Y127.840 F10800.000
G1 F1200
G1 X95.517 Y127.839 E0.36780
G1 X95.155 Y125.104 E0.08651
G1 X95.837 Y120.833 E0.13560
G1 X96.640 Y120.835 E0.02519
G1 X95.813 Y125.612 E0.15202
G1 X107.266 Y127.633 E0.36465
G1 X107.253 Y127.780 E0.00462
G1 X108.304 Y128.217 F10800.000
G1 F1200
G1 X95.186 Y128.217 E0.41130
G1 X94.774 Y125.099 E0.09860
G1 X95.515 Y120.456 E0.14743
G1 X98.073 Y120.460 E0.08020
G1 X99.658 Y120.739 E0.05047
G1 X99.585 Y121.390 E0.02052
G1 X97.005 Y120.935 E0.08214
G1 X96.248 Y125.306 E0.13910
G1 X107.316 Y127.259 E0.35238
G1 X108.053 Y122.906 E0.13842
G1 X105.310 Y122.423 E0.08731
G1 X105.396 Y121.751 E0.02122
G1 X109.165 Y122.416 E0.12000
G1 X109.042 Y126.670 E0.13345
G1 X121.835 Y126.670 E0.40110
G1 X121.835 Y128.217 E0.04850
G1 X108.364 Y128.217 E0.42236
G1 X108.091 Y127.878 F10800.000
G1 X108.460 Y127.443
G1 F1200
G1 X121.269 Y127.444 E0.44263
G1 E-0.80000 F2100.00000
G1 Z0.800 F10800.000
G1 X108.460 Y127.443
G1 Z0.200
G1 E0.80000 F2100.00000
G1 F1200
G1 X108.390 Y127.420 E0.00284
G1 X108.180 Y127.349 E0.00947
G1 X108.246 Y126.557 E0.03404
G1 X108.345 Y125.550 E0.03157
G1 X108.444 Y124.544 E0.01985
G1 X108.543 Y123.538 E0.00814
G1 X108.295 Y122.606 F10800.000
G1 F1200
G1 X105.539 Y122.120 E0.06964
G1 E-0.80000 F2100.00000
G1 Z0.800 F10800.000
G1 X105.155 Y127.552
G1 Z0.200
G1 E0.80000 F2100.00000
G1 F1200
G1 X104.291 Y127.477 E0.01680
G1 X103.426 Y127.401 E0.02668
G1 X103.138 Y127.376 E0.01218
G1 X102.991 Y127.726 F10800.000
G1 F1200
G1 X102.310 Y127.046 E0.03107
G1 X101.643 Y126.928 E0.02184
G1 X102.272 Y127.557 E0.02870
G1 X101.723 Y127.557 E0.01771
G1 X100.977 Y126.810 E0.03407
G1 X100.310 Y126.693 E0.02184
G1 X101.174 Y127.557 E0.03943
G1 X100.625 Y127.557 E0.01771
G1 X99.644 Y126.575 E0.04480
G1 X98.977 Y126.457 E0.02184
G1 X100.076 Y127.557 E0.05017
G1 X99.528 Y127.557 E0.01771
G1 X98.311 Y126.340 E0.05554
G1 X97.644 Y126.222 E0.02184
G1 X98.979 Y127.557 E0.06091
G1 X98.430 Y127.557 E0.01771
G1 X96.978 Y126.105 E0.06628
G1 X96.311 Y125.987 E0.02184
G1 X97.881 Y127.557 E0.07164
G1 X97.332 Y127.557 E0.01771
G1 X95.815 Y126.039 E0.06925
G1 X95.564 Y126.034 E0.00810
G1 X95.610 Y126.383 E0.01136
G1 X96.783 Y127.557 E0.05355
G1 X96.234 Y127.557 E0.01771
G1 X95.496 Y126.819 E0.03369
G1 X95.514 Y125.751 F10800.000
G1 F1200
G1 X95.517 Y125.590 E0.00313
G1 X95.520 Y125.430 E0.00368
G1 X95.524 Y125.269 E0.00423
G1 X95.527 Y125.109 E0.00477
G1 X95.867 Y123.066 E0.06615
G1 X96.207 Y121.022 E0.07066
G1 X96.858 Y120.682 F10800.000
G1 F1200
G1 X97.154 Y120.708 E0.00313
G1 X97.451 Y120.734 E0.00437
G1 X97.748 Y120.760 E0.00560
G1 X98.044 Y120.786 E0.00683
G1 X99.436 Y121.032 E0.03244
G1 E-0.80000 F2100.00000
G1 Z0.800 F10800.000
G1 X105.155 Y127.552
G1 Z0.200
G1 E0.80000 F2100.00000
G1 F1200
G1 X106.020 Y127.628 E0.00693
G1 E-0.80000 F2100.00000
G1 Z0.800 F10800.000
G1 X112.906 Y99.677
G1 Z0.200
G1 E0.80000 F2100.00000
G1 F1200
G1 X116.421 Y96.162 E0.15587
G1 X115.888 Y95.629 E0.02365
G1 X112.009 Y99.507 E0.17199
G1 X110.943 Y99.507 E0.03344
G1 X115.355 Y95.095 E0.19563
G1 X115.069 Y94.809 E0.01268
G1 X118.331 Y91.547 E0.14467
G1 X118.084 Y91.299 E0.01096
G1 X109.876 Y99.507 E0.36395
G1 X109.800 Y99.507 E0.00240
G1 X109.829 Y98.488 E0.03197
G1 X117.551 Y90.766 E0.34240
G1 X117.018 Y90.233 E0.02365
G1 X109.861 Y97.390 E0.31735
G1 X109.892 Y96.291 E0.03445
G1 X118.116 Y88.068 E0.36463
G1 X117.582 Y87.535 E0.02365
G1 X109.720 Y95.398 E0.34865
G1 X109.664 Y95.330 E0.00276
G1 X108.863 Y95.188 E0.02552
G1 X117.049 Y87.002 E0.36301
G1 X116.700 Y86.652 E0.01548
G1 X119.963 Y83.390 E0.14467
G1 X119.779 Y83.206 E0.00817
G1 X107.956 Y95.028 E0.52424
G1 X107.049 Y94.868 E0.02887
G1 X119.245 Y82.672 E0.54080
G1 X118.712 Y82.139 E0.02365
G1 X106.143 Y94.709 E0.55735
G1 X105.236 Y94.549 E0.02887
G1 X118.179 Y81.606 E0.57391
G1 X117.646 Y81.073 E0.02365
G1 X103.664 Y95.054 E0.61995
G1 X103.131 Y94.520 E0.02365
G1 X117.112 Y80.539 E0.61995
G1 X116.579 Y80.006 E0.02365
G1 X102.598 Y93.987 E0.61995
G1 X102.065 Y93.454 E0.02365
G1 X116.046 Y79.473 E0.61995
G1 X115.512 Y78.939 E0.02365
G1 X104.794 Y89.658 E0.47527
G1 X104.261 Y89.125 E0.02365
G1 X114.979 Y78.406 E0.47527
G1 X114.446 Y77.873 E0.02365
G1 X103.727 Y88.591 E0.47527
G1 X103.420 Y88.284 E0.01363
G1 X105.051 Y86.652 E0.07234
G1 X104.826 Y86.427 E0.01001
G1 X113.913 Y77.340 E0.40294
G1 X113.379 Y76.806 E0.02365
G1 X104.292 Y85.893 E0.40294
G1 X103.759 Y85.360 E0.02365
G1 X112.846 Y76.273 E0.40294
G1 X112.507 Y75.934 E0.01503
G1 X110.876 Y77.565 E0.07234
G1 X110.681 Y77.371 E0.00861
G1 X104.857 Y83.196 E0.25826
G1 X104.324 Y82.662 E0.02365
G1 X110.148 Y76.838 E0.25826
G1 X109.615 Y76.305 E0.02365
G1 X103.671 Y82.249 E0.26358
G1 E-0.80000 F2100.00000
G1 Z0.800 F10800.000
G1 X104.878 Y94.907
G1 Z0.200
G1 E0.80000 F2100.00000
G1 F1200
G1 X104.078 Y95.707 E0.03549
G1 X106.248 Y96.736 F10800.000
G1 F1200
G1 X105.797 Y97.187 E0.01998
G1 X106.331 Y97.720 E0.02365
G1 X107.008 Y97.043 E0.03003
G1 X107.205 Y97.077 E0.00626
G1 X107.035 Y98.083 E0.03196
G1 X106.744 Y98.373 E0.01289
G1 X108.304 Y101.413 F10800.000
G1 F1200
G1 X107.600 Y101.413 E0.02207
G1 X108.474 Y96.250 E0.16418
G1 X108.779 Y96.304 E0.00970
G1 X108.654 Y100.620 E0.13540
G1 X121.458 Y100.620 E0.40145
G1 X121.458 Y101.413 E0.02485
G1 X108.364 Y101.413 E0.41054
G1 X107.247 Y101.413 F10800.000
G1 F1200
G1 X95.517 Y101.413 E0.36780
G1 X95.155 Y98.677 E0.08651
G1 X95.837 Y94.406 E0.13560
G1 X96.640 Y94.408 E0.02519
G1 X95.813 Y99.185 E0.15202
G1 X107.266 Y101.206 E0.36465
M73 P0 R209
G1 X107.253 Y101.353 E0.00462
G1 X108.304 Y101.790 F10800.000
G1 F1200
G1 X95.186 Y101.790 E0.41130
G1 X94.774 Y98.672 E0.09860
G1 X95.515 Y94.029 E0.14743
G1 X98.073 Y94.033 E0.08020
G1 X99.658 Y94.313 E0.05047
G1 X99.585 Y94.963 E0.02052
G1 X97.005 Y94.508 E0.08214
G1 X96.248 Y98.879 E0.13910
G1 X107.316 Y100.832 E0.35238
G1 X108.053 Y96.480 E0.13842
G1 X105.310 Y95.996 E0.08731
G1 X105.396 Y95.324 E0.02122
G1 X109.165 Y95.989 E0.12000
G1 X109.042 Y100.243 E0.13345
G1 X121.835 Y100.243 E0.40110
G1 X121.835 Y101.790 E0.04850
G1 X108.364 Y101.790 E0.42236
G1 X108.091 Y101.451 F10800.000
G1 X108.460 Y101.017
G1 F1200
G1 X121.269 Y101.017 E0.44263
G1 E-0.80000 F2100.00000
G1 Z0.800 F10800.000
G1 X108.460 Y101.017
G1 Z0.200
G1 E0.80000 F2100.00000
G1 F1200
G1 X108.390 Y100.993 E0.00284
G1 X108.180 Y100.922 E0.00947
G1 X108.246 Y100.130 E0.03404
G1 X108.345 Y99.124 E0.03157
G1 X108.444 Y98.117 E0.01985
G1 X108.543 Y97.111 E0.00814
G1 X108.295 Y96.179 F10800.000
G1 F1200
G1 X105.539 Y95.693 E0.06964
G1 E-0.80000 F2100.00000
G1 Z0.800 F10800.000
G1 X105.155 Y101.125
G1 Z0.200
G1 E0.80000 F2100.00000
G1 F1200
G1 X104.291 Y101.050 E0.01680
G1 X103.426 Y100.974 E0.02668
G1 X103.138 Y100.949 E0.01218
G1 X102.991 Y101.300 F10800.000
G1 F1200
G1 X102.310 Y100.619 E0.03107
G1 X101.643 Y100.501 E0.02184
G1 X102.272 Y101.130 E0.02870
G1 X101.723 Y101.130 E0.01771
G1 X100.977 Y100.383 E0.03407
G1 X100.310 Y100.266 E0.02184
G1 X101.174 Y101.130 E0.03943
G1 X100.625 Y101.130 E0.01771
G1 X99.644 Y100.148 E0.04480
G1 X98.977 Y100.031 E0.02184
G1 X100.076 Y101.130 E0.05017
G1 X99.528 Y101.130 E0.01771
G1 X98.311 Y99.913 E0.05554
G1 X97.644 Y99.795 E0.02184
G1 X98.979 Y101.130 E0.06091
G1 X98.430 Y101.130 E0.01771
G1 X96.978 Y99.678 E0.06628
G1 X96.311 Y99.560 E0.02184
G1 X97.881 Y101.130 E0.07164
G1 X97.332 Y101.130 E0.01771
G1 X95.815 Y99.613 E0.06925
G1 X95.564 Y99.607 E0.00810
G1 X95.610 Y99.956 E0.01136
G1 X96.783 Y101.130 E0.05355
G1 X96.234 Y101.130 E0.01771
G1 X95.496 Y100.392 E0.03369
G1 X95.514 Y99.324 F10800.000
G1 F1200
G1 X95.517 Y99.163 E0.00313
G1 X95.520 Y99.003 E0.00368
G1 X95.524 Y98.842 E0.00423
G1 X95.527 Y98.682 E0.00477
G1 X95.867 Y96.639 E0.06615
G1 X96.207 Y94.596 E0.07066
G1 X96.858 Y94.255 F10800.000
G1 F1200
G1 X97.154 Y94.281 E0.00313
G1 X97.451 Y94.307 E0.00437
G1 X97.748 Y94.333 E0.00560
G1 X98.044 Y94.360 E0.00683
G1 X99.436 Y94.605 E0.03244
G1 E-0.80000 F2100.00000
G1 Z0.800 F10800.000
G1 X105.155 Y101.125
G1 Z0.200
G1 E0.80000 F2100.00000
G1 F1200
G1 X106.020 Y101.201 E0.00693
G1 E-0.80000 F2100.00000
G1 Z0.800 F10800.000
G1 X137.095 Y108.676
G1 Z0.200
G1 E0.80000 F2100.00000
G1 F1200
G1 X143.039 Y102.731 E0.26358
G1 X143.573 Y103.265 E0.02365
G1 X137.748 Y109.089 E0.25826
G1 X138.282 Y109.622 E0.02365
G1 X144.106 Y103.798 E0.25826
G1 X144.300 Y103.992 E0.00861
G1 X145.932 Y102.361 E0.07234
G1 X146.271 Y102.700 E0.01503
G1 X137.184 Y111.787 E0.40294
G1 X137.717 Y112.320 E0.02365
G1 X146.804 Y103.233 E0.40294
G1 X147.337 Y103.767 E0.02365
G1 X138.250 Y112.854 E0.40294
G1 X138.476 Y113.079 E0.01001
G1 X136.844 Y114.711 E0.07234
G1 X137.152 Y115.018 E0.01363
G1 X147.870 Y104.300 E0.47527
G1 X148.404 Y104.833 E0.02365
G1 X137.685 Y115.551 E0.47527
G1 X138.219 Y116.085 E0.02365
G1 X148.937 Y105.366 E0.47527
G1 X149.470 Y105.900 E0.02365
G1 X135.489 Y119.881 E0.61995
G1 X136.022 Y120.414 E0.02365
G1 X150.004 Y106.433 E0.61995
G1 X150.537 Y106.966 E0.02365
G1 X136.556 Y120.947 E0.61995
G1 X137.089 Y121.481 E0.02365
G1 X151.070 Y107.499 E0.61995
G1 X151.603 Y108.033 E0.02365
G1 X138.660 Y120.976 E0.57391
G1 X139.567 Y121.135 E0.02887
G1 X152.137 Y108.566 E0.55735
G1 X152.670 Y109.099 E0.02365
G1 X140.474 Y121.295 E0.54080
G1 X141.380 Y121.455 E0.02887
G1 X153.203 Y109.632 E0.52424
G1 X153.387 Y109.817 E0.00817
G1 X150.125 Y113.079 E0.14467
G1 X150.474 Y113.428 E0.01548
G1 X142.287 Y121.615 E0.36301
G1 X143.089 Y121.756 E0.02552
G1 X143.144 Y121.825 E0.00276
G1 X151.007 Y113.962 E0.34865
G1 X151.540 Y114.495 E0.02365
G1 X143.317 Y122.718 E0.36463
G1 X143.285 Y123.816 E0.03445
G1 X150.442 Y116.660 E0.31735
G1 X150.975 Y117.193 E0.02365
G1 X143.254 Y124.915 E0.34240
G1 X143.224 Y125.934 E0.03197
G1 X143.301 Y125.934 E0.00240
G1 X151.509 Y117.726 E0.36395
G1 X151.756 Y117.973 E0.01096
G1 X148.493 Y121.236 E0.14467
G1 X148.779 Y121.522 E0.01268
G1 X144.367 Y125.934 E0.19563
G1 X145.434 Y125.934 E0.03344
G1 X149.313 Y122.055 E0.17199
G1 X149.846 Y122.589 E0.02365
G1 X146.331 Y126.104 E0.15587
G1 E-0.80000 F2100.00000
G1 Z0.800 F10800.000
G1 X140.169 Y124.800
G1 Z0.200
G1 E0.80000 F2100.00000
G1 F1200
G1 X140.459 Y124.509 E0.01289
G1 X140.629 Y123.504 E0.03196
G1 X140.433 Y123.470 E0.00626
G1 X139.755 Y124.147 E0.03003
G1 X139.222 Y123.614 E0.02365
G1 X139.673 Y123.163 E0.01998
G1 X138.302 Y121.333 F10800.000
G1 F1200
G1 X137.502 Y122.134 E0.03549
G1 E-0.80000 F2100.00000
G1 Z0.800 F10800.000
G1 X141.729 Y127.840
G1 Z0.200
G1 E0.80000 F2100.00000
G1 F1200
G1 X141.025 Y127.840 E0.02207
G1 X141.898 Y122.677 E0.16418
G1 X142.203 Y122.731 E0.00970
G1 X142.079 Y127.047 E0.13540
G1 X154.882 Y127.047 E0.40145
G1 X154.882 Y127.840 E0.02485
G1 X141.789 Y127.840 E0.41054
G1 X140.672 Y127.840 F10800.000
G1 F1200
G1 X128.941 Y127.839 E0.36780
G1 X128.580 Y125.104 E0.08651
G1 X129.261 Y120.833 E0.13560
G1 X130.065 Y120.835 E0.02519
G1 X129.237 Y125.612 E0.15202
G1 X140.690 Y127.633 E0.36465
G1 X140.677 Y127.780 E0.00462
G1 X141.729 Y128.217 F10800.000
G1 F1200
G1 X128.611 Y128.217 E0.41130
G1 X128.199 Y125.099 E0.09860
G1 X128.940 Y120.456 E0.14743
G1 X131.497 Y120.460 E0.08020
G1 X133.083 Y120.739 E0.05047
G1 X133.010 Y121.390 E0.02052
G1 X130.430 Y120.935 E0.08214
G1 X129.673 Y125.306 E0.13910
G1 X140.740 Y127.259 E0.35238
G1 X141.477 Y122.906 E0.13842
G1 X138.735 Y122.423 E0.08731
G1 X138.820 Y121.751 E0.02122
G1 X142.589 Y122.416 E0.12000
G1 X142.467 Y126.670 E0.13345
G1 X155.259 Y126.670 E0.40110
G1 X155.259 Y128.217 E0.04850
G1 X141.789 Y128.217 E0.42236
G1 X141.516 Y127.878 F10800.000
G1 X141.884 Y127.443
G1 F1200
G1 X154.694 Y127.444 E0.44263
G1 E-0.80000 F2100.00000
G1 Z0.800 F10800.000
G1 X141.884 Y127.443
G1 Z0.200
G1 E0.80000 F2100.00000
G1 F1200
G1 X141.815 Y127.420 E0.00284
G1 X141.605 Y127.349 E0.00947
G1 X141.670 Y126.557 E0.03404
G1 X141.769 Y125.550 E0.03157
G1 X141.868 Y124.544 E0.01985
G1 X141.968 Y123.538 E0.00814
G1 X141.719 Y122.606 F10800.000
G1 F1200
