; generated by PrusaSlicer 2.1.1+win64 on 2020-04-21 at 21:14:06 UTC

; 

; external perimeters extrusion width = 0.45mm
; perimeters extrusion width = 0.45mm
; infill extrusion width = 0.45mm
; solid infill extrusion width = 0.45mm
; top infill extrusion width = 0.40mm
; support material extrusion width = 0.35mm
; first layer extrusion width = 0.42mm

M73 P0 R140
M201 X9000 Y9000 Z500 E10000 ; sets maximum accelerations, mm/sec^2
M203 X500 Y500 Z12 E120 ; sets maximum feedrates, mm/sec
M204 P2000 R1500 T2000 ; sets acceleration (P, T) and retract acceleration (R), mm/sec^2
M205 X10.00 Y10.00 Z0.20 E2.50 ; sets the jerk limits, mm/sec
M205 S0 T0 ; sets the minimum extruding and travel feed rate, mm/sec
M107
M862.3 P "MK2S" ; printer model check
M862.1 P0.4 ; nozzle diameter check
M115 U3.2.3 ; tell printer latest fw version
G90 ; use absolute coordinates
M83 ; extruder relative mode
M204 S2000 T1500 ; MK2 firmware only supports the old M204 format
M104 S215 ; set extruder temp
M140 S60 ; set bed temp
M190 S60 ; wait for bed temp
M109 S215 ; wait for extruder temp
G28 W ; home all without mesh bed level
G80 ; mesh bed leveling
G1 Y-3.0 F1000.0 ; go outside print area
G92 E0.0
G1 X60.0 E9.0  F1000.0 ; intro line
M73 P0 R140
G1 X100.0 E12.5 F1000.0 ; intro line
G92 E0.0
G21 ; set units to millimeters
G90 ; use absolute coordinates
M83 ; use relative distances for extrusion
M900 K30 ; Filament gcode
;BEFORE_LAYER_CHANGE
G92 E0.0
;0.2


G1 E-0.80000 F2100.00000
G1 Z0.600 F10800.000
;AFTER_LAYER_CHANGE
;0.2
G1 X120.383 Y82.249
G1 Z0.200
G1 E0.80000 F2100.00000
M204 S1000
G1 F1200
G1 X126.327 Y76.305 E0.26358
G1 X126.860 Y76.838 E0.02365
G1 X121.036 Y82.662 E0.25826
G1 X121.569 Y83.196 E0.02365
G1 X127.394 Y77.371 E0.25826
G1 X127.588 Y77.565 E0.00861
G1 X129.219 Y75.934 E0.07234
G1 X129.558 Y76.273 E0.01503
G1 X120.471 Y85.360 E0.40294
G1 X121.005 Y85.893 E0.02365
G1 X130.092 Y76.806 E0.40294
G1 X130.625 Y77.340 E0.02365
G1 X121.538 Y86.427 E0.40294
G1 X121.764 Y86.652 E0.01001
G1 X120.132 Y88.284 E0.07234
G1 X120.440 Y88.591 E0.01363
G1 X131.158 Y77.873 E0.47527
G1 X131.691 Y78.406 E0.02365
G1 X120.973 Y89.125 E0.47527
G1 X121.506 Y89.658 E0.02365
G1 X132.225 Y78.939 E0.47527
G1 X132.758 Y79.473 E0.02365
G1 X118.777 Y93.454 E0.61995
G1 X119.310 Y93.987 E0.02365
G1 X133.291 Y80.006 E0.61995
G1 X133.825 Y80.539 E0.02365
G1 X119.843 Y94.520 E0.61995
G1 X120.377 Y95.054 E0.02365
G1 X134.358 Y81.073 E0.61995
G1 X134.891 Y81.606 E0.02365
G1 X121.948 Y94.549 E0.57391
G1 X122.855 Y94.709 E0.02887
G1 X135.424 Y82.139 E0.55735
G1 X135.958 Y82.672 E0.02365
G1 X123.761 Y94.868 E0.54080
G1 X124.668 Y95.028 E0.02887
G1 X136.491 Y83.206 E0.52424
G1 X136.675 Y83.390 E0.00817
G1 X133.412 Y86.652 E0.14467
G1 X133.761 Y87.002 E0.01548
G1 X125.575 Y95.188 E0.36301
G1 X126.376 Y95.330 E0.02552
G1 X126.432 Y95.398 E0.00276
G1 X134.295 Y87.535 E0.34865
G1 X134.828 Y88.068 E0.02365
G1 X126.605 Y96.291 E0.36463
G1 X126.573 Y97.390 E0.03445
G1 X133.730 Y90.233 E0.31735
G1 X134.263 Y90.766 E0.02365
G1 X126.541 Y98.488 E0.34240
G1 X126.512 Y99.507 E0.03197
G1 X126.589 Y99.507 E0.00240
G1 X134.796 Y91.299 E0.36395
G1 X135.044 Y91.547 E0.01096
G1 X131.781 Y94.809 E0.14467
G1 X132.067 Y95.095 E0.01268
G1 X127.655 Y99.507 E0.19563
G1 X128.722 Y99.507 E0.03344
G1 X132.600 Y95.629 E0.17199
G1 X133.134 Y96.162 E0.02365
G1 X129.618 Y99.677 E0.15587
G1 E-0.80000 F2100.00000
G1 Z0.800 F10800.000
G1 X123.456 Y98.373
G1 Z0.200
G1 E0.80000 F2100.00000
G1 F1200
G1 X123.747 Y98.083 E0.01289
G1 X123.917 Y97.077 E0.03196
G1 X123.720 Y97.043 E0.00626
G1 X123.043 Y97.720 E0.03003
G1 X122.510 Y97.187 E0.02365
G1 X122.960 Y96.736 E0.01998
G1 X121.590 Y94.907 F10800.000
G1 F1200
G1 X120.790 Y95.707 E0.03549
G1 E-0.80000 F2100.00000
G1 Z0.800 F10800.000
G1 X125.016 Y101.413
G1 Z0.200
G1 E0.80000 F2100.00000
G1 F1200
G1 X124.312 Y101.413 E0.02207
G1 X125.186 Y96.250 E0.16418
G1 X125.491 Y96.304 E0.00970
G1 X125.366 Y100.620 E0.13540
G1 X138.170 Y100.620 E0.40145
G1 X138.170 Y101.413 E0.02485
G1 X125.076 Y101.413 E0.41054
G1 X123.960 Y101.413 F10800.000
G1 F1200
G1 X112.229 Y101.413 E0.36780
G1 X111.868 Y98.677 E0.08651
G1 X112.549 Y94.406 E0.13560
G1 X113.352 Y94.408 E0.02519
G1 X112.525 Y99.185 E0.15202
G1 X123.978 Y101.206 E0.36465
G1 X123.965 Y101.353 E0.00462
G1 X125.016 Y101.790 F10800.000
G1 F1200
G1 X111.899 Y101.790 E0.41130
G1 X111.487 Y98.672 E0.09860
G1 X112.227 Y94.029 E0.14743
G1 X114.785 Y94.033 E0.08020
G1 X116.370 Y94.313 E0.05047
G1 X116.298 Y94.963 E0.02052
G1 X113.718 Y94.508 E0.08214
G1 X112.961 Y98.879 E0.13910
G1 X124.028 Y100.832 E0.35238
G1 X124.765 Y96.480 E0.13842
G1 X122.023 Y95.996 E0.08731
G1 X122.108 Y95.324 E0.02122
G1 X125.877 Y95.989 E0.12000
G1 X125.754 Y100.243 E0.13345
G1 X138.547 Y100.243 E0.40110
G1 X138.547 Y101.790 E0.04850
G1 X125.076 Y101.790 E0.42236
G1 X124.803 Y101.451 F10800.000
G1 X125.172 Y101.017
G1 F1200
G1 X137.981 Y101.017 E0.44263
G1 E-0.80000 F2100.00000
G1 Z0.800 F10800.000
G1 X125.172 Y101.017
G1 Z0.200
G1 E0.80000 F2100.00000
G1 F1200
G1 X125.102 Y100.993 E0.00284
G1 X124.893 Y100.922 E0.00947
G1 X124.958 Y100.130 E0.03404
G1 X125.057 Y99.124 E0.03157
G1 X125.156 Y98.117 E0.01985
G1 X125.255 Y97.111 E0.00814
G1 X125.007 Y96.179 F10800.000
G1 F1200
G1 X122.251 Y95.693 E0.06964
G1 E-0.80000 F2100.00000
G1 Z0.800 F10800.000
G1 X121.867 Y101.125
G1 Z0.200
G1 E0.80000 F2100.00000
G1 F1200
G1 X121.003 Y101.050 E0.01680
G1 X120.138 Y100.974 E0.02668
G1 X119.850 Y100.949 E0.01218
G1 X119.703 Y101.300 F10800.000
G1 F1200
G1 X119.022 Y100.619 E0.03107
G1 X118.355 Y100.501 E0.02184
G1 X118.984 Y101.130 E0.02870
G1 X118.435 Y101.130 E0.01771
G1 X117.689 Y100.383 E0.03407
G1 X117.022 Y100.266 E0.02184
G1 X117.886 Y101.130 E0.03943
G1 X117.338 Y101.130 E0.01771
G1 X116.356 Y100.148 E0.04480
G1 X115.689 Y100.031 E0.02184
G1 X116.789 Y101.130 E0.05017
G1 X116.240 Y101.130 E0.01771
G1 X115.023 Y99.913 E0.05554
G1 X114.356 Y99.795 E0.02184
G1 X115.691 Y101.130 E0.06091
G1 X115.142 Y101.130 E0.01771
G1 X113.690 Y99.678 E0.06628
G1 X113.023 Y99.560 E0.02184
G1 X114.593 Y101.130 E0.07164
G1 X114.044 Y101.130 E0.01771
G1 X112.527 Y99.613 E0.06925
G1 X112.276 Y99.607 E0.00810
G1 X112.322 Y99.956 E0.01136
G1 X113.495 Y101.130 E0.05355
G1 X112.947 Y101.130 E0.01771
G1 X112.208 Y100.392 E0.03369
G1 X112.226 Y99.324 F10800.000
G1 F1200
G1 X112.229 Y99.163 E0.00313
G1 X112.233 Y99.003 E0.00368
G1 X112.236 Y98.842 E0.00423
G1 X112.239 Y98.682 E0.00477
G1 X112.579 Y96.639 E0.06615
G1 X112.919 Y94.596 E0.07066
G1 X113.570 Y94.255 F10800.000
G1 F1200
G1 X113.867 Y94.281 E0.00313
G1 X114.163 Y94.307 E0.00437
G1 X114.460 Y94.333 E0.00560
G1 X114.756 Y94.360 E0.00683
G1 X116.148 Y94.605 E0.03244
G1 E-0.80000 F2100.00000
G1 Z0.800 F10800.000
G1 X121.867 Y101.125
G1 Z0.200
G1 E0.80000 F2100.00000
G1 F1200
G1 X122.732 Y101.201 E0.00693
G1 E-0.80000 F2100.00000
G1 Z0.800 F10800.000
G1 X120.383 Y108.676
G1 Z0.200
G1 E0.80000 F2100.00000
G1 F1200
G1 X126.327 Y102.731 E0.26358
G1 X126.860 Y103.265 E0.02365
G1 X121.036 Y109.089 E0.25826
G1 X121.569 Y109.622 E0.02365
G1 X127.394 Y103.798 E0.25826
G1 X127.588 Y103.992 E0.00861
G1 X129.219 Y102.361 E0.07234
G1 X129.558 Y102.700 E0.01503
G1 X120.471 Y111.787 E0.40294
G1 X121.005 Y112.320 E0.02365
G1 X130.092 Y103.233 E0.40294
G1 X130.625 Y103.767 E0.02365
G1 X121.538 Y112.854 E0.40294
G1 X121.764 Y113.079 E0.01001
G1 X120.132 Y114.711 E0.07234
G1 X120.440 Y115.018 E0.01363
G1 X131.158 Y104.300 E0.47527
G1 X131.691 Y104.833 E0.02365
G1 X120.973 Y115.551 E0.47527
G1 X121.506 Y116.085 E0.02365
G1 X132.225 Y105.366 E0.47527
G1 X132.758 Y105.900 E0.02365
G1 X118.777 Y119.881 E0.61995
G1 X119.310 Y120.414 E0.02365
G1 X133.291 Y106.433 E0.61995
G1 X133.825 Y106.966 E0.02365
G1 X119.843 Y120.947 E0.61995
G1 X120.377 Y121.481 E0.02365
G1 X134.358 Y107.499 E0.61995
G1 X134.891 Y108.033 E0.02365
G1 X121.948 Y120.976 E0.57391
G1 X122.855 Y121.135 E0.02887
G1 X135.424 Y108.566 E0.55735
G1 X135.958 Y109.099 E0.02365
G1 X123.761 Y121.295 E0.54080
G1 X124.668 Y121.455 E0.02887
G1 X136.491 Y109.632 E0.52424
G1 X136.675 Y109.817 E0.00817
G1 X133.412 Y113.079 E0.14467
G1 X133.761 Y113.428 E0.01548
G1 X125.575 Y121.615 E0.36301
G1 X126.376 Y121.756 E0.02552
G1 X126.432 Y121.825 E0.00276
G1 X134.295 Y113.962 E0.34865
G1 X134.828 Y114.495 E0.02365
G1 X126.605 Y122.718 E0.36463
G1 X126.573 Y123.816 E0.03445
G1 X133.730 Y116.660 E0.31735
G1 X134.263 Y117.193 E0.02365
G1 X126.541 Y124.915 E0.34240
G1 X126.512 Y125.934 E0.03197
G1 X126.589 Y125.934 E0.00240
G1 X134.796 Y117.726 E0.36395
G1 X135.044 Y117.973 E0.01096
G1 X131.781 Y121.236 E0.14467
G1 X132.067 Y121.522 E0.01268
G1 X127.655 Y125.934 E0.19563
G1 X128.722 Y125.934 E0.03344
G1 X132.600 Y122.055 E0.17199
G1 X133.134 Y122.589 E0.02365
G1 X129.618 Y126.104 E0.15587
G1 E-0.80000 F2100.00000
G1 Z0.800 F10800.000
G1 X123.456 Y124.800
G1 Z0.200
G1 E0.80000 F2100.00000
G1 F1200
G1 X123.747 Y124.509 E0.01289
G1 X123.917 Y123.504 E0.03196
G1 X123.720 Y123.470 E0.00626
G1 X123.043 Y124.147 E0.03003
G1 X122.510 Y123.614 E0.02365
G1 X122.960 Y123.163 E0.01998
G1 X121.590 Y121.333 F10800.000
G1 F1200
G1 X120.790 Y122.134 E0.03549
G1 E-0.80000 F2100.00000
G1 Z0.800 F10800.000
G1 X125.016 Y127.840
G1 Z0.200
G1 E0.80000 F2100.00000
G1 F1200
G1 X124.312 Y127.840 E0.02207
G1 X125.186 Y122.677 E0.16418
G1 X125.491 Y122.731 E0.00970
G1 X125.366 Y127.047 E0.13540
G1 X138.170 Y127.047 E0.40145
G1 X138.170 Y127.840 E0.02485
G1 X125.076 Y127.840 E0.41054
G1 X123.960 Y127.840 F10800.000
G1 F1200
G1 X112.229 Y127.839 E0.36780
G1 X111.868 Y125.104 E0.08651
G1 X112.549 Y120.833 E0.13560
G1 X113.352 Y120.835 E0.02519
G1 X112.525 Y125.612 E0.15202
G1 X123.978 Y127.633 E0.36465
M73 P0 R139
G1 X123.965 Y127.780 E0.00462
G1 X125.016 Y128.217 F10800.000
G1 F1200
G1 X111.899 Y128.217 E0.41130
G1 X111.487 Y125.099 E0.09860
G1 X112.227 Y120.456 E0.14743
G1 X114.785 Y120.460 E0.08020
G1 X116.370 Y120.739 E0.05047
G1 X116.298 Y121.390 E0.02052
G1 X113.718 Y120.935 E0.08214
G1 X112.961 Y125.306 E0.13910
G1 X124.028 Y127.259 E0.35238
G1 X124.765 Y122.906 E0.13842
G1 X122.023 Y122.423 E0.08731
G1 X122.108 Y121.751 E0.02122
G1 X125.877 Y122.416 E0.12000
G1 X125.754 Y126.670 E0.13345
G1 X138.547 Y126.670 E0.40110
G1 X138.547 Y128.217 E0.04850
G1 X125.076 Y128.217 E0.42236
G1 X124.803 Y127.878 F10800.000
G1 X125.172 Y127.443
G1 F1200
G1 X137.981 Y127.444 E0.44263
G1 E-0.80000 F2100.00000
G1 Z0.800 F10800.000
G1 X125.172 Y127.443
G1 Z0.200
G1 E0.80000 F2100.00000
G1 F1200
G1 X125.102 Y127.420 E0.00284
G1 X124.893 Y127.349 E0.00947
G1 X124.958 Y126.557 E0.03404
G1 X125.057 Y125.550 E0.03157
G1 X125.156 Y124.544 E0.01985
G1 X125.255 Y123.538 E0.00814
G1 X125.007 Y122.606 F10800.000
G1 F1200
G1 X122.251 Y122.120 E0.06964
G1 E-0.80000 F2100.00000
G1 Z0.800 F10800.000
G1 X121.867 Y127.552
G1 Z0.200
G1 E0.80000 F2100.00000
G1 F1200
G1 X121.003 Y127.477 E0.01680
G1 X120.138 Y127.401 E0.02668
G1 X119.850 Y127.376 E0.01218
G1 X119.703 Y127.726 F10800.000
G1 F1200
G1 X119.022 Y127.046 E0.03107
G1 X118.355 Y126.928 E0.02184
G1 X118.984 Y127.557 E0.02870
G1 X118.435 Y127.557 E0.01771
G1 X117.689 Y126.810 E0.03407
G1 X117.022 Y126.693 E0.02184
G1 X117.886 Y127.557 E0.03943
G1 X117.338 Y127.557 E0.01771
G1 X116.356 Y126.575 E0.04480
G1 X115.689 Y126.457 E0.02184
G1 X116.789 Y127.557 E0.05017
G1 X116.240 Y127.557 E0.01771
G1 X115.023 Y126.340 E0.05554
G1 X114.356 Y126.222 E0.02184
G1 X115.691 Y127.557 E0.06091
G1 X115.142 Y127.557 E0.01771
G1 X113.690 Y126.105 E0.06628
G1 X113.023 Y125.987 E0.02184
G1 X114.593 Y127.557 E0.07164
G1 X114.044 Y127.557 E0.01771
G1 X112.527 Y126.039 E0.06925
G1 X112.276 Y126.034 E0.00810
G1 X112.322 Y126.383 E0.01136
G1 X113.495 Y127.557 E0.05355
G1 X112.947 Y127.557 E0.01771
G1 X112.208 Y126.819 E0.03369
G1 X112.226 Y125.751 F10800.000
G1 F1200
G1 X112.229 Y125.590 E0.00313
G1 X112.233 Y125.430 E0.00368
G1 X112.236 Y125.269 E0.00423
G1 X112.239 Y125.109 E0.00477
G1 X112.579 Y123.066 E0.06615
G1 X112.919 Y121.022 E0.07066
G1 X113.570 Y120.682 F10800.000
G1 F1200
G1 X113.867 Y120.708 E0.00313
G1 X114.163 Y120.734 E0.00437
G1 X114.460 Y120.760 E0.00560
G1 X114.756 Y120.786 E0.00683
G1 X116.148 Y121.032 E0.03244
G1 E-0.80000 F2100.00000
G1 Z0.800 F10800.000
G1 X121.867 Y127.552
G1 Z0.200
G1 E0.80000 F2100.00000
G1 F1200
G1 X122.732 Y127.628 E0.00693
M106 S255
;BEFORE_LAYER_CHANGE
G92 E0.0
;0.4


G1 E-0.80000 F2100.00000
G1 Z0.800 F10800.000
;AFTER_LAYER_CHANGE
;0.4
M104 S210 ; set temperature
G1 X125.016 Y101.368
G1 Z0.400
G1 E0.80000 F2100.00000
M204 S800
G1 F1340
G1 X124.366 Y101.368 E0.02202
G1 X125.217 Y96.334 E0.17280
G1 X125.444 Y96.357 E0.00771
G1 X125.320 Y100.665 E0.14591
G1 X138.125 Y100.665 E0.43343
G1 X138.125 Y101.368 E0.02378
G1 X125.076 Y101.368 E0.44168
M204 S1000
G1 X123.351 Y101.368 F10800.000
M204 S800
G1 F1340
G1 X112.269 Y101.368 E0.37513
G1 X111.913 Y98.678 E0.09184
G1 X112.587 Y94.451 E0.14489
G1 X113.299 Y94.451 E0.02409
G1 X112.473 Y99.221 E0.16389
G1 X123.371 Y101.145 E0.37458
G1 X123.356 Y101.308 E0.00554
M204 S1000
G1 X125.016 Y101.775 F10800.000
M204 S800
G1 F1340
G1 X111.912 Y101.775 E0.44357
G1 X111.502 Y98.672 E0.10593
G1 X112.240 Y94.043 E0.15866
G1 X114.758 Y94.043 E0.08521
G1 X116.354 Y94.325 E0.05487
G1 X116.285 Y94.946 E0.02114
G1 X113.705 Y94.490 E0.08865
G1 X112.943 Y98.891 E0.15118
G1 X124.040 Y100.850 E0.38143
G1 X124.782 Y96.467 E0.15044
G1 X122.039 Y95.983 E0.09427
G1 X122.121 Y95.342 E0.02189
G1 X125.862 Y96.001 E0.12857
G1 X125.739 Y100.258 E0.14415
G1 X138.532 Y100.258 E0.43303
G1 X138.532 Y101.775 E0.05134
G1 X125.076 Y101.775 E0.45546
M204 S1000
G1 X124.804 Y101.436 F10800.000
G1 X125.110 Y101.017
G1 F1340
G1 X137.921 Y101.017 E0.31486
G1 E-0.80000 F2100.00000
G1 Z1.000 F10800.000
G1 X125.110 Y101.017
G1 Z0.400
G1 E0.80000 F2100.00000
G1 F1340
G1 X125.054 Y100.995 E0.00171
G1
G1 X124.997 Y100.973 E0.00193
G1
G1 X124.884 Y100.930 E0.00404
G1 X124.956 Y100.146 E0.02620
G1
G1 X125.027 Y99.429 E0.01804
G1
G1 X125.098 Y98.713 E0.01212
G1
G1 X125.168 Y97.996 E0.00620
G1 X125.036 Y96.184 F10800.000
G1 F1340
G1 X122.281 Y95.698 E0.05568
G1 E-0.80000 F2100.00000
G1 Z1.000 F10800.000
G1 X122.028 Y101.140
G1 Z0.400
G1 E0.80000 F2100.00000
G1 F1340
G1 X121.405 Y101.085 E0.00537
G1
G1 X120.783 Y101.030 E0.01049
G1
G1 X120.160 Y100.976 E0.01561
G1
G1 X119.537 Y100.921 E0.02074
G1
G1 X118.915 Y100.867 E0.02586
G1 X117.886 Y101.246 F10800.000
M204 S2000
G1 F1340
G1 X118.531 Y100.601 E0.03261
G1 X118.014 Y100.509 E0.01876
G1 X117.461 Y101.062 E0.02795
G1 X116.853 Y101.062 E0.02173
G1 X117.497 Y100.418 E0.03257
G1 X116.981 Y100.327 E0.01876
G1 X116.245 Y101.062 E0.03718
G1 X115.637 Y101.062 E0.02173
G1 X116.464 Y100.236 E0.04179
G1 X115.947 Y100.145 E0.01876
G1 X115.029 Y101.062 E0.04640
G1 X114.421 Y101.062 E0.02173
G1 X115.430 Y100.053 E0.05101
G1 X114.913 Y99.962 E0.01876
G1 X113.813 Y101.062 E0.05562
G1 X113.205 Y101.062 E0.02173
G1 X114.397 Y99.871 E0.06023
G1 X113.880 Y99.780 E0.01876
G1 X112.597 Y101.062 E0.06484
G1 X112.536 Y101.062 E0.00218
G1 X112.472 Y100.579 E0.01742
G1 X113.363 Y99.689 E0.04503
G1 X112.846 Y99.597 E0.01876
G1 X112.238 Y100.205 E0.03074
M204 S1000
G1 X112.226 Y99.319 F10800.000
G1 F1340
G1 X112.229 Y99.159 E0.00132
G1
G1 X112.233 Y99.000 E0.00193
G1
G1 X112.236 Y98.841 E0.00254
G1
G1 X112.239 Y98.682 E0.00315
G1
G1 X112.574 Y96.668 E0.04483
G1
G1 X112.909 Y94.654 E0.04928
G1 X113.779 Y94.272 F10800.000
G1 F1340
G1 X114.017 Y94.292 E0.00188
G1
G1 X114.255 Y94.313 E0.00268
G1
G1 X114.493 Y94.334 E0.00348
G1
G1 X114.730 Y94.355 E0.00429
G1 X116.118 Y94.600 E0.02532
G1 E-0.80000 F2100.00000
G1 Z1.000 F10800.000
G1 X125.016 Y127.795
G1 Z0.400
G1 E0.80000 F2100.00000
M204 S800
G1 F1340
G1 X124.366 Y127.795 E0.02202
G1 X125.217 Y122.761 E0.17280
G1 X125.444 Y122.783 E0.00771
G1 X125.320 Y127.092 E0.14591
G1 X138.125 Y127.092 E0.43343
G1 X138.125 Y127.795 E0.02378
G1 X125.076 Y127.795 E0.44168
M204 S1000
G1 X123.351 Y127.795 F10800.000
M204 S800
G1 F1340
G1 X112.269 Y127.794 E0.37513
G1 X111.913 Y125.105 E0.09184
