; generated by PrusaSlicer 2.1.1+win64 on 2020-06-09 at 22:15:08 UTC

; 

; external perimeters extrusion width = 0.45mm
; perimeters extrusion width = 0.45mm
; infill extrusion width = 0.45mm
; solid infill extrusion width = 0.45mm
; top infill extrusion width = 0.40mm
; support material extrusion width = 0.35mm
; first layer extrusion width = 0.42mm

M73 P0 R73
M201 X9000 Y9000 Z500 E10000 ; sets maximum accelerations, mm/sec^2
M203 X500 Y500 Z12 E120 ; sets maximum feedrates, mm/sec
M204 P2000 R1500 T2000 ; sets acceleration (P, T) and retract acceleration (R), mm/sec^2
M205 X10.00 Y10.00 Z0.20 E2.50 ; sets the jerk limits, mm/sec
M205 S0 T0 ; sets the minimum extruding and travel feed rate, mm/sec
M107
M862.3 P "MK2S" ; printer model check
M862.1 P0.4 ; nozzle diameter check
M115 U3.2.3 ; tell printer latest fw version
G90 ; use absolute coordinates
M83 ; extruder relative mode
M204 S2000 T1500 ; MK2 firmware only supports the old M204 format
M104 S215 ; set extruder temp
M140 S60 ; set bed temp
M190 S60 ; wait for bed temp
M109 S215 ; wait for extruder temp
G28 W ; home all without mesh bed level
G80 ; mesh bed leveling
G1 Y-3.0 F1000.0 ; go outside print area
G92 E0.0
G1 X60.0 E9.0  F1000.0 ; intro line
M73 P0 R73
G1 X100.0 E12.5 F1000.0 ; intro line
G92 E0.0
G21 ; set units to millimeters
G90 ; use absolute coordinates
M83 ; use relative distances for extrusion
M900 K30 ; Filament gcode
;BEFORE_LAYER_CHANGE
G92 E0.0
;0.2


G1 E-0.80000 F2100.00000
G1 Z0.600 F10800.000
;AFTER_LAYER_CHANGE
;0.2
G1 X109.406 Y94.591
G1 Z0.200
G1 E0.80000 F2100.00000
M204 S1000
G1 F1200
G1 X110.203 Y93.794 E0.03533
G1 X111.270 Y93.794 E0.03344
G1 X109.576 Y95.488 E0.07510
G1 X109.576 Y96.461 E0.03051
G1 X109.669 Y96.461 E0.00293
G1 X112.336 Y93.794 E0.11825
G1 X113.403 Y93.794 E0.03344
G1 X110.736 Y96.461 E0.11825
G1 X111.803 Y96.461 E0.03344
G1 X114.469 Y93.794 E0.11825
G1 X115.536 Y93.794 E0.03344
G1 X112.765 Y96.565 E0.12286
G1 X112.969 Y96.769 E0.00905
G1 X112.969 Y97.427 E0.02064
G1 X116.602 Y93.794 E0.16110
G1 X117.669 Y93.794 E0.03344
G1 X112.969 Y98.494 E0.20839
G1 X112.969 Y99.560 E0.03344
G1 X118.735 Y93.794 E0.25568
G1 X119.802 Y93.794 E0.03344
G1 X112.969 Y100.627 E0.30298
G1 X112.969 Y101.693 E0.03344
G1 X120.869 Y93.794 E0.35027
G1 X121.935 Y93.794 E0.03344
G1 X109.593 Y106.136 E0.54725
G1 X110.127 Y106.669 E0.02365
G1 X123.002 Y93.794 E0.57090
G1 X124.068 Y93.794 E0.03344
G1 X110.660 Y107.202 E0.59454
G1 X111.193 Y107.735 E0.02365
G1 X125.135 Y93.794 E0.61819
G1 X126.201 Y93.794 E0.03344
G1 X111.726 Y108.269 E0.64184
G1 X112.260 Y108.802 E0.02365
G1 X127.268 Y93.794 E0.66548
G1 X128.334 Y93.794 E0.03344
G1 X114.424 Y107.704 E0.61679
G1 X114.958 Y108.237 E0.02365
G1 X129.401 Y93.794 E0.64044
G1 X130.467 Y93.794 E0.03344
G1 X115.491 Y108.770 E0.66408
G1 X115.864 Y109.144 E0.01656
G1 X117.496 Y107.512 E0.07234
G1 X117.656 Y107.672 E0.00709
G1 X131.534 Y93.794 E0.61539
G1 X132.600 Y93.794 E0.03344
G1 X118.189 Y108.206 E0.63904
G1 X118.722 Y108.739 E0.02365
G1 X133.667 Y93.794 E0.66269
G1 X134.734 Y93.794 E0.03344
G1 X120.887 Y107.641 E0.61399
G1 X121.420 Y108.174 E0.02365
G1 X135.800 Y93.794 E0.63764
G1 X136.867 Y93.794 E0.03344
G1 X121.953 Y108.707 E0.66129
G1 X122.390 Y109.144 E0.01936
G1 X124.021 Y107.512 E0.07234
G1 X124.118 Y107.609 E0.00429
G1 X137.933 Y93.794 E0.61260
G1 X139.000 Y93.794 E0.03344
G1 X124.531 Y108.263 E0.64156
G1 E-0.80000 F2100.00000
G1 Z0.800 F10800.000
G1 X135.291 Y109.234
G1 Z0.200
G1 E0.80000 F2100.00000
G1 F1200
G1 X142.000 Y102.526 E0.29746
G1 X140.933 Y102.526 E0.03344
G1 X134.878 Y108.581 E0.26849
G1 X134.345 Y108.048 E0.02365
G1 X139.866 Y102.526 E0.24485
G1 X138.800 Y102.526 E0.03344
G1 X132.178 Y109.144 E0.29354
G1 X131.647 Y108.613 E0.02355
G1 X137.733 Y102.526 E0.26989
G1 X137.339 Y102.526 E0.01237
G1 X137.031 Y102.218 E0.01366
G1 X137.031 Y102.162 E0.00175
G1 X131.113 Y108.079 E0.26238
G1 X130.580 Y107.546 E0.02365
G1 X137.031 Y101.096 E0.28603
G1 X137.031 Y100.029 E0.03344
G1 X128.416 Y108.644 E0.38201
G1 X127.882 Y108.111 E0.02365
G1 X137.031 Y98.962 E0.40566
G1 X137.031 Y97.896 E0.03344
G1 X127.349 Y107.578 E0.42931
G1 X127.284 Y107.512 E0.00289
G1 X125.652 Y109.144 E0.07234
G1 X125.184 Y108.676 E0.02075
G1 X140.066 Y93.794 E0.65989
G1 X140.424 Y93.794 E0.01121
G1 X140.424 Y94.503 E0.02223
G1 X138.466 Y96.461 E0.08682
G1 X139.533 Y96.461 E0.03344
G1 X140.594 Y95.400 E0.04705
G1 X142.806 Y96.387 F10800.000
G1 F1200
G1 X143.463 Y95.730 E0.02913
G1 X143.997 Y96.263 E0.02365
G1 X143.629 Y96.630 E0.01629
G1 E-0.80000 F2100.00000
G1 Z0.800 F10800.000
G1 X132.321 Y90.873
G1 Z0.200
G1 E0.80000 F2100.00000
G1 F1200
G1 X131.651 Y91.544 E0.02972
G1 X129.090 Y90.905 F10800.000
G1 F1200
G1 X128.451 Y91.544 E0.02833
G1 X125.859 Y90.936 F10800.000
G1 F1200
G1 X125.252 Y91.544 E0.02693
G1 X122.628 Y90.968 F10800.000
G1 F1200
G1 X122.052 Y91.544 E0.02553
G1 X119.397 Y90.999 F10800.000
G1 F1200
G1 X118.853 Y91.544 E0.02413
G1 X116.166 Y91.031 F10800.000
G1 F1200
G1 X115.653 Y91.544 E0.02273
G1 X112.934 Y91.063 F10800.000
G1 F1200
G1 X112.453 Y91.544 E0.02133
G1 E-0.80000 F2100.00000
G1 Z0.800 F10800.000
G1 X108.040 Y102.356
G1 Z0.200
G1 E0.80000 F2100.00000
G1 F1200
G1 X106.927 Y103.469 E0.04935
G1 X107.460 Y104.003 E0.02365
G1 X108.937 Y102.526 E0.06547
G1 X110.003 Y102.526 E0.03344
G1 X107.994 Y104.536 E0.08911
G1 X108.527 Y105.069 E0.02365
G1 X111.070 Y102.526 E0.11276
G1 X112.136 Y102.526 E0.03344
G1 X108.940 Y105.722 E0.14173
G1 E-0.80000 F2100.00000
G1 Z0.800 F10800.000
G1 X138.144 Y101.413
G1 Z0.200
G1 E0.80000 F2100.00000
G1 F1200
G1 X138.144 Y97.574 E0.12037
G1 X141.537 Y97.574 E0.10639
G1 X141.537 Y92.487 E0.15949
G1 X141.863 Y92.487 E0.01022
G1 X141.863 Y97.574 E0.15949
G1 X162.913 Y97.574 E0.66001
G1 X162.913 Y101.413 E0.12037
G1 X138.204 Y101.413 E0.77473
G1 E-0.80000 F2100.00000
G1 Z0.800 F10800.000
G1 X111.856 Y101.413
G1 Z0.200
G1 E0.80000 F2100.00000
G1 F1200
G1 X87.087 Y101.413 E0.77662
G1 X87.087 Y97.574 E0.12037
G1 X108.137 Y97.574 E0.66001
G1 X108.137 Y92.487 E0.15949
G1 X108.463 Y92.487 E0.01022
G1 X108.463 Y97.574 E0.15949
G1 X111.856 Y97.574 E0.10639
G1 X111.856 Y101.353 E0.11849
G1 E-0.80000 F2100.00000
G1 Z0.800 F10800.000
G1 X137.767 Y101.790
G1 Z0.200
G1 E0.80000 F2100.00000
G1 F1200
G1 X137.767 Y97.197 E0.14402
G1 X141.160 Y97.197 E0.10639
G1 X141.160 Y93.058 E0.12977
G1 X108.840 Y93.058 E1.01337
G1 X108.840 Y97.197 E0.12977
G1 X112.233 Y97.197 E0.10639
G1 X112.233 Y101.790 E0.14402
G1 X86.710 Y101.790 E0.80026
G1 X86.710 Y97.197 E0.14402
G1 X107.760 Y97.197 E0.66001
G1 X107.760 Y92.110 E0.15949
G1 X142.240 Y92.110 E1.08110
G1 X142.240 Y97.197 E0.15949
G1 X163.290 Y97.197 E0.66001
G1 X163.290 Y101.790 E0.14402
G1 X137.827 Y101.790 E0.79838
G1 X137.946 Y101.432 F10800.000
G1 X139.034 Y101.300
G1 F1200
G1 X138.427 Y100.693 E0.02740
G1 X138.427 Y100.150 E0.01733
G1 X139.407 Y101.130 E0.04425
G1 X139.950 Y101.130 E0.01733
G1 X138.427 Y99.607 E0.06876
G1 X138.427 Y99.064 E0.01733
G1 X140.493 Y101.130 E0.09326
G1 X141.036 Y101.130 E0.01733
G1 X138.427 Y98.521 E0.11777
G1 X138.427 Y97.978 E0.01733
G1 X141.578 Y101.130 E0.14228
G1 X142.121 Y101.130 E0.01733
G1 X138.848 Y97.857 E0.14778
G1 X139.391 Y97.857 E0.01733
G1 X142.664 Y101.130 E0.14778
G1 X143.207 Y101.130 E0.01733
G1 X139.934 Y97.857 E0.14778
G1 X140.477 Y97.857 E0.01733
G1 X143.750 Y101.130 E0.14778
G1 X144.293 Y101.130 E0.01733
G1 X141.019 Y97.857 E0.14778
G1 X141.562 Y97.857 E0.01733
G1 X144.836 Y101.130 E0.14778
G1 X145.379 Y101.130 E0.01733
G1 X142.105 Y97.857 E0.14778
G1 X142.648 Y97.857 E0.01733
G1 X145.922 Y101.130 E0.14778
G1 X146.465 Y101.130 E0.01733
G1 X143.191 Y97.857 E0.14778
G1 X143.734 Y97.857 E0.01733
G1 X147.008 Y101.130 E0.14778
G1 X147.550 Y101.130 E0.01733
G1 X144.277 Y97.857 E0.14778
G1 X144.820 Y97.857 E0.01733
G1 X148.093 Y101.130 E0.14778
G1 X148.636 Y101.130 E0.01733
G1 X145.363 Y97.857 E0.14778
G1 X145.906 Y97.857 E0.01733
G1 X149.179 Y101.130 E0.14778
G1 X149.722 Y101.130 E0.01733
G1 X146.448 Y97.857 E0.14778
G1 X146.991 Y97.857 E0.01733
G1 X150.265 Y101.130 E0.14778
G1 X150.808 Y101.130 E0.01733
G1 X147.534 Y97.857 E0.14778
G1 X148.077 Y97.857 E0.01733
G1 X151.351 Y101.130 E0.14778
G1 X151.894 Y101.130 E0.01733
G1 X148.620 Y97.857 E0.14778
M73 P1 R72
G1 X149.163 Y97.857 E0.01733
G1 X152.437 Y101.130 E0.14778
G1 X152.980 Y101.130 E0.01733
G1 X149.706 Y97.857 E0.14778
G1 X150.249 Y97.857 E0.01733
G1 X153.522 Y101.130 E0.14778
G1 X154.065 Y101.130 E0.01733
G1 X150.792 Y97.857 E0.14778
G1 X151.335 Y97.857 E0.01733
G1 X154.608 Y101.130 E0.14778
G1 X155.151 Y101.130 E0.01733
G1 X151.878 Y97.857 E0.14778
G1 X152.420 Y97.857 E0.01733
G1 X155.694 Y101.130 E0.14778
G1 X156.237 Y101.130 E0.01733
G1 X152.963 Y97.857 E0.14778
G1 X153.506 Y97.857 E0.01733
G1 X156.780 Y101.130 E0.14778
G1 X157.323 Y101.130 E0.01733
G1 X154.049 Y97.857 E0.14778
G1 X154.592 Y97.857 E0.01733
G1 X157.866 Y101.130 E0.14778
G1 X158.409 Y101.130 E0.01733
G1 X155.135 Y97.857 E0.14778
G1 X155.678 Y97.857 E0.01733
G1 X158.951 Y101.130 E0.14778
G1 X159.494 Y101.130 E0.01733
G1 X156.221 Y97.857 E0.14778
G1 X156.764 Y97.857 E0.01733
G1 X160.037 Y101.130 E0.14778
G1 X160.580 Y101.130 E0.01733
G1 X157.307 Y97.857 E0.14778
G1 X157.850 Y97.857 E0.01733
G1 X161.123 Y101.130 E0.14778
G1 X161.666 Y101.130 E0.01733
G1 X158.392 Y97.857 E0.14778
G1 X158.935 Y97.857 E0.01733
G1 X162.209 Y101.130 E0.14778
G1 X162.630 Y101.130 E0.01345
G1 X162.630 Y101.008 E0.00388
G1 X159.478 Y97.857 E0.14229
G1 X160.021 Y97.857 E0.01733
G1 X162.630 Y100.466 E0.11778
G1 X162.630 Y99.923 E0.01733
G1 X160.564 Y97.857 E0.09327
G1 X161.107 Y97.857 E0.01733
G1 X162.630 Y99.380 E0.06876
G1 X162.630 Y98.837 E0.01733
G1 X161.650 Y97.857 E0.04425
G1 X162.193 Y97.857 E0.01733
G1 X162.800 Y98.464 E0.02740
G1 E-0.80000 F2100.00000
G1 Z0.800 F10800.000
G1 X141.349 Y92.584
G1 Z0.200
G1 E0.80000 F2100.00000
G1 F1200
G1 X108.651 Y92.584 E1.55187
G1 E-0.80000 F2100.00000
G1 Z0.800 F10800.000
G1 X111.743 Y98.464
G1 Z0.200
G1 E0.80000 F2100.00000
G1 F1200
G1 X111.136 Y97.857 E0.02740
G1 X110.593 Y97.857 E0.01733
G1 X111.573 Y98.837 E0.04425
G1 X111.573 Y99.380 E0.01733
G1 X110.050 Y97.857 E0.06876
G1 X109.507 Y97.857 E0.01733
G1 X111.573 Y99.923 E0.09327
G1 X111.573 Y100.466 E0.01733
G1 X108.964 Y97.857 E0.11778
G1 X108.421 Y97.857 E0.01733
G1 X111.573 Y101.008 E0.14229
G1 X111.573 Y101.130 E0.00388
G1 X111.152 Y101.130 E0.01345
G1 X107.879 Y97.857 E0.14778
G1 X107.336 Y97.857 E0.01733
G1 X110.609 Y101.130 E0.14778
G1 X110.066 Y101.130 E0.01733
G1 X106.793 Y97.857 E0.14778
G1 X106.250 Y97.857 E0.01733
G1 X109.523 Y101.130 E0.14778
G1 X108.980 Y101.130 E0.01733
G1 X105.707 Y97.857 E0.14778
G1 X105.164 Y97.857 E0.01733
G1 X108.438 Y101.130 E0.14778
G1 X107.895 Y101.130 E0.01733
G1 X104.621 Y97.857 E0.14778
G1 X104.078 Y97.857 E0.01733
G1 X107.352 Y101.130 E0.14778
G1 X106.809 Y101.130 E0.01733
G1 X103.535 Y97.857 E0.14778
G1 X102.992 Y97.857 E0.01733
G1 X106.266 Y101.130 E0.14778
G1 X105.723 Y101.130 E0.01733
G1 X102.449 Y97.857 E0.14778
G1 X101.907 Y97.857 E0.01733
G1 X105.180 Y101.130 E0.14778
G1 X104.637 Y101.130 E0.01733
G1 X101.364 Y97.857 E0.14778
G1 X100.821 Y97.857 E0.01733
G1 X104.094 Y101.130 E0.14778
G1 X103.551 Y101.130 E0.01733
G1 X100.278 Y97.857 E0.14778
G1 X99.735 Y97.857 E0.01733
G1 X103.009 Y101.130 E0.14778
G1 X102.466 Y101.130 E0.01733
G1 X99.192 Y97.857 E0.14778
G1 X98.649 Y97.857 E0.01733
G1 X101.923 Y101.130 E0.14778
G1 X101.380 Y101.130 E0.01733
G1 X98.106 Y97.857 E0.14778
G1 X97.563 Y97.857 E0.01733
G1 X100.837 Y101.130 E0.14778
G1 X100.294 Y101.130 E0.01733
G1 X97.020 Y97.857 E0.14778
G1 X96.477 Y97.857 E0.01733
G1 X99.751 Y101.130 E0.14778
G1 X99.208 Y101.130 E0.01733
G1 X95.935 Y97.857 E0.14778
G1 X95.392 Y97.857 E0.01733
G1 X98.665 Y101.130 E0.14778
G1 X98.122 Y101.130 E0.01733
G1 X94.849 Y97.857 E0.14778
G1 X94.306 Y97.857 E0.01733
G1 X97.579 Y101.130 E0.14778
G1 X97.037 Y101.130 E0.01733
G1 X93.763 Y97.857 E0.14778
G1 X93.220 Y97.857 E0.01733
G1 X96.494 Y101.130 E0.14778
G1 X95.951 Y101.130 E0.01733
G1 X92.677 Y97.857 E0.14778
G1 X92.134 Y97.857 E0.01733
G1 X95.408 Y101.130 E0.14778
G1 X94.865 Y101.130 E0.01733
G1 X91.591 Y97.857 E0.14778
G1 X91.048 Y97.857 E0.01733
G1 X94.322 Y101.130 E0.14778
G1 X93.779 Y101.130 E0.01733
G1 X90.506 Y97.857 E0.14778
G1 X89.963 Y97.857 E0.01733
G1 X93.236 Y101.130 E0.14778
G1 X92.693 Y101.130 E0.01733
G1 X89.420 Y97.857 E0.14778
G1 X88.877 Y97.857 E0.01733
G1 X92.150 Y101.130 E0.14778
G1 X91.607 Y101.130 E0.01733
G1 X88.334 Y97.857 E0.14778
G1 X87.791 Y97.857 E0.01733
G1 X91.065 Y101.130 E0.14778
G1 X90.522 Y101.130 E0.01733
G1 X87.370 Y97.978 E0.14228
G1 X87.370 Y98.521 E0.01733
G1 X89.979 Y101.130 E0.11777
G1 X89.436 Y101.130 E0.01733
G1 X87.370 Y99.064 E0.09326
G1 X87.370 Y99.607 E0.01733
G1 X88.893 Y101.130 E0.06876
G1 X88.350 Y101.130 E0.01733
G1 X87.370 Y100.150 E0.04425
G1 X87.370 Y100.693 E0.01733
G1 X87.977 Y101.300 E0.02740
G1 E-0.80000 F2100.00000
G1 Z0.800 F10800.000
G1 X109.406 Y110.691
G1 Z0.200
G1 E0.80000 F2100.00000
G1 F1200
G1 X110.203 Y109.894 E0.03533
G1 X111.270 Y109.894 E0.03344
G1 X109.576 Y111.588 E0.07510
G1 X109.576 Y112.561 E0.03051
G1 X109.669 Y112.561 E0.00293
G1 X112.336 Y109.894 E0.11825
G1 X113.403 Y109.894 E0.03344
G1 X110.736 Y112.561 E0.11825
G1 X111.803 Y112.561 E0.03344
G1 X114.469 Y109.894 E0.11825
G1 X115.536 Y109.894 E0.03344
G1 X112.765 Y112.665 E0.12286
G1 X112.969 Y112.869 E0.00905
G1 X112.969 Y113.527 E0.02064
G1 X116.602 Y109.894 E0.16110
G1 X117.669 Y109.894 E0.03344
G1 X112.969 Y114.594 E0.20839
G1 X112.969 Y115.660 E0.03344
G1 X118.735 Y109.894 E0.25568
G1 X119.802 Y109.894 E0.03344
G1 X112.969 Y116.727 E0.30298
G1 X112.969 Y117.793 E0.03344
G1 X120.869 Y109.894 E0.35027
G1 X121.935 Y109.894 E0.03344
G1 X109.593 Y122.236 E0.54725
G1 X110.127 Y122.769 E0.02365
G1 X123.002 Y109.894 E0.57090
G1 X124.068 Y109.894 E0.03344
G1 X110.660 Y123.302 E0.59454
G1 X111.193 Y123.835 E0.02365
G1 X125.135 Y109.894 E0.61819
G1 X126.201 Y109.894 E0.03344
G1 X111.726 Y124.369 E0.64184
G1 X112.260 Y124.902 E0.02365
G1 X127.268 Y109.894 E0.66548
G1 X128.334 Y109.894 E0.03344
G1 X114.424 Y123.804 E0.61679
G1 X114.958 Y124.337 E0.02365
G1 X129.401 Y109.894 E0.64044
G1 X130.467 Y109.894 E0.03344
G1 X115.491 Y124.870 E0.66408
G1 X115.864 Y125.244 E0.01656
G1 X117.496 Y123.612 E0.07234
G1 X117.656 Y123.772 E0.00709
G1 X131.534 Y109.894 E0.61539
G1 X132.600 Y109.894 E0.03344
G1 X118.189 Y124.306 E0.63904
G1 X118.722 Y124.839 E0.02365
G1 X133.667 Y109.894 E0.66269
G1 X134.734 Y109.894 E0.03344
G1 X120.887 Y123.741 E0.61399
G1 X121.420 Y124.274 E0.02365
G1 X135.800 Y109.894 E0.63764
G1 X136.867 Y109.894 E0.03344
G1 X121.953 Y124.807 E0.66129
G1 X122.390 Y125.244 E0.01936
G1 X124.021 Y123.612 E0.07234
G1 X124.118 Y123.709 E0.00429
G1 X137.933 Y109.894 E0.61260
G1 X139.000 Y109.894 E0.03344
G1 X124.531 Y124.363 E0.64156
G1 E-0.80000 F2100.00000
G1 Z0.800 F10800.000
G1 X135.291 Y125.334
G1 Z0.200
G1 E0.80000 F2100.00000
G1 F1200
G1 X142.000 Y118.626 E0.29746
G1 X140.933 Y118.626 E0.03344
G1 X134.878 Y124.681 E0.26849
G1 X134.345 Y124.148 E0.02365
G1 X139.866 Y118.626 E0.24485
G1 X138.800 Y118.626 E0.03344
G1 X132.178 Y125.244 E0.29354
G1 X131.647 Y124.713 E0.02355
G1 X137.733 Y118.626 E0.26989
G1 X137.339 Y118.626 E0.01237
G1 X137.031 Y118.318 E0.01366
G1 X137.031 Y118.262 E0.00175
G1 X131.113 Y124.179 E0.26238
G1 X130.580 Y123.646 E0.02365
G1 X137.031 Y117.196 E0.28603
G1 X137.031 Y116.129 E0.03344
G1 X128.416 Y124.744 E0.38201
G1 X127.882 Y124.211 E0.02365
G1 X137.031 Y115.063 E0.40566
G1 X137.031 Y113.996 E0.03344
G1 X127.349 Y123.678 E0.42931
G1 X127.284 Y123.612 E0.00289
G1 X125.652 Y125.244 E0.07234
G1 X125.184 Y124.776 E0.02075
G1 X140.066 Y109.894 E0.65989
G1 X140.424 Y109.894 E0.01121
G1 X140.424 Y110.603 E0.02223
G1 X138.466 Y112.561 E0.08682
G1 X139.533 Y112.561 E0.03344
G1 X140.594 Y111.500 E0.04705
G1 X142.806 Y112.487 F10800.000
G1 F1200
G1 X143.463 Y111.830 E0.02913
G1 X143.997 Y112.363 E0.02365
G1 X143.629 Y112.730 E0.01629
G1 E-0.80000 F2100.00000
