; generated by PrusaSlicer 2.2.0+win64 on 2020-08-26 at 17:22:22 UTC

; 

; external perimeters extrusion width = 0.45mm
; perimeters extrusion width = 0.45mm
; infill extrusion width = 0.45mm
; solid infill extrusion width = 0.45mm
; top infill extrusion width = 0.40mm
; first layer extrusion width = 0.42mm

M73 P0 R102
M201 X9000 Y9000 Z500 E10000 ; sets maximum accelerations, mm/sec^2
M203 X500 Y500 Z12 E120 ; sets maximum feedrates, mm/sec
M204 P2000 R1500 T2000 ; sets acceleration (P, T) and retract acceleration (R), mm/sec^2
M205 X10.00 Y10.00 Z0.20 E2.50 ; sets the jerk limits, mm/sec
M205 S0 T0 ; sets the minimum extruding and travel feed rate, mm/sec
M107
M862.3 P "MK2S" ; printer model check
M862.1 P0.4 ; nozzle diameter check
M115 U3.2.3 ; tell printer latest fw version
G90 ; use absolute coordinates
M83 ; extruder relative mode
M204 S2000 T1500 ; MK2 firmware only supports the old M204 format
M104 S215 ; set extruder temp
M140 S60 ; set bed temp
M190 S60 ; wait for bed temp
M109 S215 ; wait for extruder temp
G28 W ; home all without mesh bed level
G80 ; mesh bed leveling
G1 Y-3.0 F1000.0 ; go outside print area
G92 E0.0
G1 X60.0 E9.0  F1000.0 ; intro line
M73 P0 R101
G1 X100.0 E12.5 F1000.0 ; intro line
G92 E0.0
G21 ; set units to millimeters
G90 ; use absolute coordinates
M83 ; use relative distances for extrusion
M900 K0.06 ; Filament gcode LA 1.5
M900 K30 ; Filament gcode LA 1.0
;BEFORE_LAYER_CHANGE
G92 E0.0
;0.2


G1 E-0.80000 F2100.00000
G1 Z0.600 F10800.000
;AFTER_LAYER_CHANGE
;0.2
G1 X112.200 Y110.162
G1 Z0.200
G1 E0.80000 F2100.00000
M204 S1000
G1 F1200.000
G1 X118.287 Y110.162 E0.19086
G1 X118.287 Y115.843 E0.17813
G1 X106.112 Y115.843 E0.38172
G1 X106.112 Y110.162 E0.17813
G1 X112.140 Y110.162 E0.18898
G1 E-0.80000 F2100.00000
G1 Z0.800 F10800.000
G1 X112.200 Y115.466
G1 Z0.200
G1 E0.80000 F2100.00000
G1 F1200.000
G1 X106.489 Y115.466 E0.17904
G1 X106.489 Y110.539 E0.15448
G1 X117.910 Y110.539 E0.35808
G1 X117.910 Y115.466 E0.15448
G1 X112.260 Y115.466 E0.17716
G1 X112.087 Y115.850 F10800.000
G1 X112.200 Y116.198
G1 F1200.000
G1 X102.986 Y116.198 E0.28887
G1 X102.986 Y109.280 E0.21693
G1 X103.703 Y105.773 E0.11222
G1 X109.242 Y105.773 E0.17368
G1 X109.929 Y106.161 E0.02472
G1 X110.341 Y106.331 E0.01399
G1 X110.814 Y106.478 E0.01554
G1 X111.256 Y106.575 E0.01419
G1 X111.734 Y106.638 E0.01511
G1 X112.200 Y106.658 E0.01461
G1 X112.665 Y106.638 E0.01461
G1 X113.143 Y106.575 E0.01511
G1 X113.585 Y106.478 E0.01419
G1 X114.058 Y106.330 E0.01554
G1 X114.466 Y106.163 E0.01384
G1 X114.919 Y105.929 E0.01599
G1 X115.160 Y105.773 E0.00901
G1 X120.709 Y105.773 E0.17396
G1 X121.413 Y109.219 E0.11027
G1 X121.413 Y116.198 E0.21884
G1 X112.260 Y116.198 E0.28700
G1 X112.200 Y116.575 F10800.000
G1 F1200.000
G1 X102.609 Y116.575 E0.30070
G1 X102.609 Y109.241 E0.22995
G1 X103.395 Y105.396 E0.12306
G1 X109.351 Y105.396 E0.18675
G1 X110.091 Y105.820 E0.02675
G1 X110.469 Y105.975 E0.01282
G1 X110.911 Y106.114 E0.01451
G1 X111.321 Y106.204 E0.01316
G1 X111.767 Y106.262 E0.01409
G1 X112.200 Y106.280 E0.01359
G1 X112.632 Y106.262 E0.01359
G1 X113.078 Y106.204 E0.01409
G1 X113.488 Y106.114 E0.01316
G1 X113.930 Y105.975 E0.01451
G1 X114.308 Y105.820 E0.01281
G1 X114.730 Y105.602 E0.01490
G1 X115.049 Y105.396 E0.01192
G1 X121.017 Y105.396 E0.18710
G1 X121.790 Y109.181 E0.12112
G1 X121.790 Y116.575 E0.23186
G1 X112.260 Y116.575 E0.29882
G1 X111.929 Y116.281 F10800.000
G1 E-0.80000 F2100.00000
G1 Z0.800 F10800.000
G1 X118.400 Y115.659
G1 Z0.200
G1 E0.80000 F2100.00000
G1 F1200.000
G1 X118.656 Y115.916 E0.01139
G1 X119.191 Y115.916 E0.01679
G1 X118.570 Y115.295 E0.02759
G1 X118.570 Y114.760 E0.01679
G1 X119.725 Y115.916 E0.05134
G1 X120.259 Y115.916 E0.01679
G1 X118.570 Y114.226 E0.07508
G1 X118.570 Y113.691 E0.01679
G1 X120.794 Y115.916 E0.09883
G1 X121.130 Y115.916 E0.01057
G1 X121.130 Y115.718 E0.00622
G1 X118.570 Y113.157 E0.11377
G1 X118.570 Y112.623 E0.01679
G1 X121.130 Y115.183 E0.11377
G1 X121.130 Y114.649 E0.01679
G1 X118.570 Y112.088 E0.11377
G1 X118.570 Y111.554 E0.01679
G1 X121.130 Y114.114 E0.11377
G1 X121.130 Y113.580 E0.01679
G1 X118.570 Y111.020 E0.11377
G1 X118.570 Y110.485 E0.01679
G1 X121.300 Y113.215 E0.12131
G1 E-0.80000 F2100.00000
G1 Z0.800 F10800.000
G1 X120.814 Y106.851
G1 Z0.200
G1 E0.80000 F2100.00000
G1 F1200.000
G1 X120.019 Y106.056 E0.03532
G1 X119.484 Y106.056 E0.01679
G1 X120.733 Y107.305 E0.05549
G1 X120.870 Y107.976 E0.02154
G1 X118.950 Y106.056 E0.08533
G1 X118.416 Y106.056 E0.01679
G1 X121.008 Y108.648 E0.11518
G1 X121.130 Y109.305 E0.02099
G1 X117.881 Y106.056 E0.14437
G1 X117.347 Y106.056 E0.01679
G1 X121.130 Y109.839 E0.16811
G1 X121.130 Y110.374 E0.01679
G1 X116.812 Y106.056 E0.19185
G1 X116.278 Y106.056 E0.01679
G1 X121.130 Y110.908 E0.21560
G1 X121.130 Y111.442 E0.01679
G1 X115.744 Y106.056 E0.23934
G1 X115.244 Y106.056 E0.01570
G1 X115.223 Y106.070 E0.00079
G1 X121.130 Y111.977 E0.26248
G1 X121.130 Y112.511 E0.01679
G1 X114.884 Y106.265 E0.27753
G1 X114.528 Y106.443 E0.01252
G1 X117.964 Y109.880 E0.15269
G1 X117.430 Y109.880 E0.01679
G1 X114.149 Y106.598 E0.14579
G1 X113.741 Y106.726 E0.01340
G1 X116.895 Y109.880 E0.14014
G1 X116.361 Y109.880 E0.01679
G1 X113.310 Y106.828 E0.13558
G1 X112.846 Y106.899 E0.01473
G1 X115.827 Y109.880 E0.13242
G1 X115.292 Y109.880 E0.01679
G1 X112.347 Y106.935 E0.13086
G1 X111.802 Y106.924 E0.01713
G1 X114.758 Y109.880 E0.13133
G1 X114.223 Y109.880 E0.01679
G1 X111.195 Y106.852 E0.13454
G1 X110.742 Y106.752 E0.01460
G1 X110.479 Y106.670 E0.00863
G1 X113.689 Y109.880 E0.14261
G1 X113.155 Y109.880 E0.01679
G1 X109.553 Y106.278 E0.16002
G1 X109.161 Y106.056 E0.01418
G1 X108.797 Y106.056 E0.01144
G1 X112.620 Y109.880 E0.16990
G1 X112.086 Y109.880 E0.01679
G1 X108.262 Y106.056 E0.16990
G1 X107.728 Y106.056 E0.01679
G1 X111.551 Y109.880 E0.16990
G1 X111.017 Y109.880 E0.01679
G1 X107.194 Y106.056 E0.16990
G1 X106.659 Y106.056 E0.01679
G1 X110.483 Y109.880 E0.16990
G1 X109.948 Y109.880 E0.01679
G1 X106.125 Y106.056 E0.16990
G1 X105.590 Y106.056 E0.01679
G1 X109.414 Y109.880 E0.16990
G1 X108.880 Y109.880 E0.01679
G1 X105.056 Y106.056 E0.16990
G1 X104.522 Y106.056 E0.01679
G1 X108.345 Y109.880 E0.16990
G1 X107.811 Y109.880 E0.01679
G1 X103.987 Y106.056 E0.16990
G1 X103.934 Y106.056 E0.00168
G1 X103.852 Y106.455 E0.01281
G1 X107.276 Y109.880 E0.15215
G1 X106.742 Y109.880 E0.01679
G1 X103.761 Y106.899 E0.13244
G1 X103.671 Y107.343 E0.01423
G1 X106.208 Y109.880 E0.11272
G1 X105.830 Y109.880 E0.01188
G1 X105.830 Y110.036 E0.00491
G1 X103.580 Y107.786 E0.09995
G1 X103.489 Y108.230 E0.01423
G1 X105.830 Y110.570 E0.10398
G1 X105.830 Y111.105 E0.01679
G1 X103.399 Y108.674 E0.10801
G1 X103.308 Y109.117 E0.01423
G1 X105.830 Y111.639 E0.11204
G1 X105.830 Y112.173 E0.01679
G1 X103.269 Y109.613 E0.11377
G1 X103.269 Y110.147 E0.01679
G1 X105.830 Y112.708 E0.11377
G1 X105.830 Y113.242 E0.01679
G1 X103.269 Y110.682 E0.11377
G1 X103.269 Y111.216 E0.01679
G1 X105.830 Y113.776 E0.11377
G1 X105.830 Y114.311 E0.01679
G1 X103.269 Y111.750 E0.11377
G1 X103.269 Y112.285 E0.01679
G1 X105.830 Y114.845 E0.11377
G1 X105.830 Y115.380 E0.01679
G1 X103.269 Y112.819 E0.11377
G1 X103.269 Y113.354 E0.01679
G1 X105.830 Y115.914 E0.11377
G1 X105.297 Y115.916 E0.01674
G1 X103.269 Y113.888 E0.09009
G1 X103.269 Y114.422 E0.01679
G1 X104.762 Y115.916 E0.06635
G1 X104.228 Y115.916 E0.01679
G1 X103.269 Y114.957 E0.04260
G1 X103.269 Y115.491 E0.01679
G1 X103.863 Y116.085 E0.02640
G1 E-0.80000 F2100.00000
G1 Z0.800 F10800.000
G1 X137.800 Y115.843
G1 Z0.200
G1 E0.80000 F2100.00000
G1 F1200.000
G1 X131.713 Y115.843 E0.19086
G1 X131.713 Y110.162 E0.17813
G1 X143.888 Y110.162 E0.38172
G1 X143.888 Y115.843 E0.17813
G1 X137.860 Y115.843 E0.18898
G1 X137.800 Y115.466 F10800.000
G1 F1200.000
G1 X132.090 Y115.466 E0.17904
G1 X132.090 Y110.539 E0.15448
G1 X143.511 Y110.539 E0.35808
G1 X143.511 Y115.466 E0.15448
G1 X137.860 Y115.466 E0.17716
G1 X137.687 Y115.850 F10800.000
G1 X137.800 Y116.198
G1 F1200.000
G1 X128.587 Y116.198 E0.28887
G1 X128.587 Y109.280 E0.21693
G1 X129.304 Y105.773 E0.11222
G1 X134.843 Y105.773 E0.17368
G1 X135.530 Y106.161 E0.02472
G1 X135.942 Y106.331 E0.01399
G1 X136.415 Y106.478 E0.01554
G1 X136.857 Y106.575 E0.01419
G1 X137.335 Y106.638 E0.01511
G1 X137.800 Y106.658 E0.01461
G1 X138.266 Y106.638 E0.01461
G1 X138.744 Y106.575 E0.01511
G1 X139.186 Y106.478 E0.01419
G1 X139.659 Y106.330 E0.01554
G1 X140.067 Y106.163 E0.01384
G1 X140.520 Y105.929 E0.01599
G1 X140.761 Y105.773 E0.00901
G1 X146.310 Y105.773 E0.17396
G1 X147.014 Y109.219 E0.11027
G1 X147.014 Y116.198 E0.21884
G1 X137.860 Y116.198 E0.28700
G1 X137.800 Y116.575 F10800.000
G1 F1200.000
G1 X128.210 Y116.575 E0.30070
G1 X128.210 Y109.241 E0.22995
G1 X128.996 Y105.396 E0.12306
G1 X134.952 Y105.396 E0.18675
G1 X135.692 Y105.820 E0.02675
G1 X136.070 Y105.975 E0.01282
G1 X136.512 Y106.114 E0.01451
G1 X136.922 Y106.204 E0.01316
G1 X137.367 Y106.262 E0.01409
G1 X137.800 Y106.280 E0.01359
G1 X138.233 Y106.262 E0.01359
G1 X138.679 Y106.204 E0.01409
G1 X139.089 Y106.114 E0.01316
G1 X139.530 Y105.975 E0.01451
G1 X139.909 Y105.820 E0.01281
G1 X140.331 Y105.602 E0.01490
G1 X140.650 Y105.396 E0.01192
G1 X146.617 Y105.396 E0.18710
G1 X147.391 Y109.181 E0.12112
G1 X147.391 Y116.575 E0.23186
G1 X137.860 Y116.575 E0.29882
G1 X137.530 Y116.281 F10800.000
G1 E-0.80000 F2100.00000
G1 Z0.800 F10800.000
G1 X144.001 Y115.659
G1 Z0.200
G1 E0.80000 F2100.00000
G1 F1200.000
G1 X144.257 Y115.916 E0.01139
G1 X144.791 Y115.916 E0.01679
G1 X144.171 Y115.295 E0.02759
G1 X144.171 Y114.760 E0.01679
G1 X145.326 Y115.916 E0.05134
G1 X145.860 Y115.916 E0.01679
G1 X144.171 Y114.226 E0.07508
G1 X144.171 Y113.691 E0.01679
G1 X146.395 Y115.916 E0.09883
G1 X146.731 Y115.916 E0.01057
G1 X146.731 Y115.718 E0.00622
G1 X144.171 Y113.157 E0.11377
G1 X144.171 Y112.623 E0.01679
G1 X146.731 Y115.183 E0.11377
G1 X146.731 Y114.649 E0.01679
G1 X144.171 Y112.088 E0.11377
G1 X144.171 Y111.554 E0.01679
G1 X146.731 Y114.114 E0.11377
G1 X146.731 Y113.580 E0.01679
G1 X144.171 Y111.020 E0.11377
G1 X144.171 Y110.485 E0.01679
G1 X146.901 Y113.215 E0.12131
G1 E-0.80000 F2100.00000
G1 Z0.800 F10800.000
G1 X146.414 Y106.851
G1 Z0.200
G1 E0.80000 F2100.00000
G1 F1200.000
G1 X145.619 Y106.056 E0.03532
G1 X145.085 Y106.056 E0.01679
G1 X146.334 Y107.305 E0.05549
G1 X146.471 Y107.976 E0.02154
G1 X144.551 Y106.056 E0.08533
G1 X144.016 Y106.056 E0.01679
G1 X146.608 Y108.648 E0.11518
G1 X146.731 Y109.305 E0.02099
G1 X143.482 Y106.056 E0.14437
G1 X142.948 Y106.056 E0.01679
G1 X146.731 Y109.839 E0.16811
G1 X146.731 Y110.374 E0.01679
G1 X142.413 Y106.056 E0.19185
G1 X141.879 Y106.056 E0.01679
G1 X146.731 Y110.908 E0.21560
G1 X146.731 Y111.442 E0.01679
G1 X141.344 Y106.056 E0.23934
G1 X140.845 Y106.056 E0.01570
G1 X140.824 Y106.070 E0.00079
G1 X146.731 Y111.977 E0.26248
G1 X146.731 Y112.511 E0.01679
G1 X140.485 Y106.265 E0.27753
G1 X140.129 Y106.443 E0.01252
G1 X143.565 Y109.880 E0.15269
G1 X143.030 Y109.880 E0.01679
G1 X139.749 Y106.598 E0.14579
G1 X139.342 Y106.726 E0.01340
G1 X142.496 Y109.880 E0.14014
G1 X141.962 Y109.880 E0.01679
G1 X138.911 Y106.828 E0.13558
G1 X138.447 Y106.899 E0.01473
G1 X141.427 Y109.880 E0.13242
G1 X140.893 Y109.880 E0.01679
G1 X137.948 Y106.935 E0.13086
G1 X137.403 Y106.924 E0.01713
G1 X140.359 Y109.880 E0.13133
G1 X139.824 Y109.880 E0.01679
G1 X136.796 Y106.852 E0.13454
G1 X136.342 Y106.752 E0.01460
G1 X136.080 Y106.670 E0.00863
G1 X139.290 Y109.880 E0.14261
G1 X138.755 Y109.880 E0.01679
G1 X135.154 Y106.278 E0.16002
G1 X134.761 Y106.056 E0.01418
G1 X134.397 Y106.056 E0.01144
G1 X138.221 Y109.880 E0.16990
G1 X137.687 Y109.880 E0.01679
G1 X133.863 Y106.056 E0.16990
G1 X133.329 Y106.056 E0.01679
G1 X137.152 Y109.880 E0.16990
G1 X136.618 Y109.880 E0.01679
G1 X132.794 Y106.056 E0.16990
G1 X132.260 Y106.056 E0.01679
G1 X136.083 Y109.880 E0.16990
G1 X135.549 Y109.880 E0.01679
G1 X131.726 Y106.056 E0.16990
G1 X131.191 Y106.056 E0.01679
G1 X135.015 Y109.880 E0.16990
G1 X134.480 Y109.880 E0.01679
G1 X130.657 Y106.056 E0.16990
G1 X130.122 Y106.056 E0.01679
G1 X133.946 Y109.880 E0.16990
G1 X133.412 Y109.880 E0.01679
G1 X129.588 Y106.056 E0.16990
G1 X129.535 Y106.056 E0.00168
G1 X129.453 Y106.455 E0.01281
G1 X132.877 Y109.880 E0.15215
G1 X132.343 Y109.880 E0.01679
G1 X129.362 Y106.899 E0.13244
G1 X129.272 Y107.343 E0.01423
G1 X131.808 Y109.880 E0.11272
G1 X131.430 Y109.880 E0.01188
G1 X131.430 Y110.036 E0.00491
G1 X129.181 Y107.786 E0.09995
G1 X129.090 Y108.230 E0.01423
G1 X131.430 Y110.570 E0.10398
G1 X131.430 Y111.105 E0.01679
G1 X129.000 Y108.674 E0.10801
G1 X128.909 Y109.117 E0.01423
G1 X131.430 Y111.639 E0.11204
G1 X131.430 Y112.173 E0.01679
G1 X128.870 Y109.613 E0.11377
G1 X128.870 Y110.147 E0.01679
G1 X131.430 Y112.708 E0.11377
G1 X131.430 Y113.242 E0.01679
G1 X128.870 Y110.682 E0.11377
G1 X128.870 Y111.216 E0.01679
G1 X131.430 Y113.776 E0.11377
G1 X131.430 Y114.311 E0.01679
G1 X128.870 Y111.750 E0.11377
G1 X128.870 Y112.285 E0.01679
G1 X131.430 Y114.845 E0.11377
G1 X131.430 Y115.380 E0.01679
G1 X128.870 Y112.819 E0.11377
G1 X128.870 Y113.354 E0.01679
G1 X131.430 Y115.914 E0.11377
G1 X130.898 Y115.916 E0.01674
G1 X128.870 Y113.888 E0.09009
G1 X128.870 Y114.422 E0.01679
G1 X130.363 Y115.916 E0.06635
G1 X129.829 Y115.916 E0.01679
G1 X128.870 Y114.957 E0.04260
G1 X128.870 Y115.491 E0.01679
G1 X129.464 Y116.085 E0.02640
M106 S255
;BEFORE_LAYER_CHANGE
G92 E0.0
;0.4


G1 E-0.80000 F2100.00000
G1 Z0.800 F10800.000
;AFTER_LAYER_CHANGE
;0.4
M104 S210 ; set temperature
G1 X112.200 Y115.888
G1 Z0.400
G1 E0.80000 F2100.00000
M204 S800
G1 F1500.000
G1 X106.067 Y115.888 E0.20757
G1 X106.067 Y110.117 E0.19534
G1 X118.332 Y110.117 E0.41514
G1 X118.332 Y115.888 E0.19534
G1 X112.260 Y115.888 E0.20554
M204 S1000
G1 X112.200 Y115.481 F10800.000
M204 S800
G1 F1500.000
G1 X106.474 Y115.481 E0.19379
G1 X106.474 Y110.524 E0.16779
G1 X117.925 Y110.524 E0.38758
G1 X117.925 Y115.481 E0.16779
G1 X112.260 Y115.481 E0.19176
M204 S1000
G1 X112.087 Y115.865 F10800.000
G1 X112.200 Y116.153
M204 S800
G1 F3000.000
G1 X103.031 Y116.153 E0.31033
G1 X103.031 Y109.284 E0.23251
G1 X103.754 Y105.750 E0.12211
G1 X109.139 Y105.750 E0.18230
G1 X109.447 Y105.963 E0.01267
G1 X109.919 Y106.206 E0.01796
G1 X110.326 Y106.373 E0.01491
G1 X110.805 Y106.522 E0.01698
G1 X111.249 Y106.620 E0.01537
G1 X111.733 Y106.683 E0.01653
G1 X112.200 Y106.703 E0.01582
G1 X112.674 Y106.682 E0.01607
G1 X113.151 Y106.620 E0.01628
G1 X113.601 Y106.520 E0.01561
G1 X114.073 Y106.373 E0.01674
G1 X114.487 Y106.203 E0.01516
G1 X114.946 Y105.966 E0.01747
G1 X115.269 Y105.750 E0.01315
G1 X120.658 Y105.750 E0.18241
G1 X121.368 Y109.223 E0.12001
G1 X121.368 Y116.153 E0.23457
G1 X112.260 Y116.153 E0.30831
M204 S1000
G1 X112.200 Y116.560 F10800.000
M204 S800
G1 F2400.000
G1 X102.624 Y116.560 E0.32411
G1 X102.624 Y109.243 E0.24769
G1 X103.421 Y105.343 E0.13475
G1 X109.257 Y105.343 E0.19753
G1 X109.658 Y105.614 E0.01638
G1 X110.089 Y105.836 E0.01643
G1 X110.464 Y105.990 E0.01372
G1 X110.910 Y106.129 E0.01579
G1 X111.319 Y106.218 E0.01417
G1 X111.768 Y106.277 E0.01533
G1 X112.200 Y106.295 E0.01463
G1 X112.639 Y106.276 E0.01488
G1 X113.081 Y106.218 E0.01509
G1 X113.497 Y106.127 E0.01442
G1 X113.935 Y105.990 E0.01554
G1 X114.316 Y105.833 E0.01396
G1 X114.739 Y105.615 E0.01610
G1 X115.146 Y105.343 E0.01655
G1 X120.990 Y105.343 E0.19784
G1 X121.775 Y109.182 E0.13265
G1 X121.775 Y116.560 E0.24975
G1 X112.260 Y116.560 E0.32208
M73 P1 R100
M204 S1000
G1 X111.929 Y116.266 F10800.000
G1 E-0.80000 F2100.00000
G1 Z1.000 F10800.000
G1 X105.945 Y115.206
G1 Z0.400
G1 E0.80000 F2100.00000
M204 S2000
G1 F3000.000
G1 X105.303 Y115.848 E0.03137
G1 X104.716 Y115.848 E0.02032
G1 X105.762 Y114.802 E0.05115
G1 X105.762 Y114.214 E0.02032
G1 X104.128 Y115.848 E0.07989
G1 X103.540 Y115.848 E0.02032
G1 X105.762 Y113.626 E0.10862
G1 X105.762 Y113.038 E0.02032
G1 X103.337 Y115.463 E0.11856
G1 X103.337 Y114.876 E0.02032
G1 X105.762 Y112.450 E0.11856
G1 X105.762 Y111.862 E0.02032
G1 X103.337 Y114.288 E0.11856
G1 X103.337 Y113.700 E0.02032
G1 X105.762 Y111.274 E0.11856
