; G-Code generated by Simplify3D(R) Version 4.0.0
; Nov 8, 2017 at 12:26:13 PM
; Settings Summary
;   processName,Process1
;   applyToModels,Tower floor,Tower floor(2),Tower floor(3),Tower floor(4)
;   profileName,Prusa Research Original Prusa i3 MK2 (modified)
;   profileVersion,2017-11-07 14:10:55
;   baseProfile,
;   printMaterial,PLA
;   printQuality,Fast
;   printExtruders,
;   extruderName,Primary Extruder
;   extruderToolheadNumber,0
;   extruderDiameter,0.4
;   extruderAutoWidth,0
;   extruderWidth,0.4
;   extrusionMultiplier,1
;   extruderUseRetract,1
;   extruderRetractionDistance,1.5
;   extruderExtraRestartDistance,0
;   extruderRetractionZLift,0
;   extruderRetractionSpeed,1800
;   extruderUseCoasting,1
;   extruderCoastingDistance,0.2
;   extruderUseWipe,1
;   extruderWipeDistance,2
;   primaryExtruder,0
;   layerHeight,0.3
;   topSolidLayers,2
;   bottomSolidLayers,2
;   perimeterOutlines,2
;   printPerimetersInsideOut,0
;   startPointOption,2
;   startPointOriginX,125
;   startPointOriginY,210
;   sequentialIslands,0
;   spiralVaseMode,0
;   firstLayerHeightPercentage,90
;   firstLayerWidthPercentage,105
;   firstLayerUnderspeed,0.5
;   useRaft,0
;   raftExtruder,0
;   raftTopLayers,2
;   raftBaseLayers,1
;   raftOffset,2
;   raftSeparationDistance,0.14
;   raftTopInfill,100
;   aboveRaftSpeedMultiplier,0.3
;   useSkirt,0
;   skirtExtruder,0
;   skirtLayers,1
;   skirtOutlines,1
;   skirtOffset,4
;   usePrimePillar,0
;   primePillarExtruder,999
;   primePillarWidth,12
;   primePillarLocation,7
;   primePillarSpeedMultiplier,1
;   useOozeShield,0
;   oozeShieldExtruder,999
;   oozeShieldOffset,2
;   oozeShieldOutlines,1
;   oozeShieldSidewallShape,1
;   oozeShieldSidewallAngle,30
;   oozeShieldSpeedMultiplier,1
;   infillExtruder,0
;   internalInfillPattern,Fast Honeycomb
;   externalInfillPattern,Rectilinear
;   infillPercentage,15
;   outlineOverlapPercentage,30
;   infillExtrusionWidthPercentage,125
;   minInfillLength,1
;   infillLayerInterval,1
;   internalInfillAngles,0
;   overlapInternalInfillAngles,0
;   externalInfillAngles,45,-45
;   generateSupport,0
;   supportExtruder,0
;   supportInfillPercentage,25
;   supportExtraInflation,0.3
;   supportBaseLayers,0
;   denseSupportExtruder,0
;   denseSupportLayers,0
;   denseSupportInfillPercentage,70
;   supportLayerInterval,1
;   supportHorizontalPartOffset,0.2
;   supportUpperSeparationLayers,1
;   supportLowerSeparationLayers,1
;   supportType,0
;   supportGridSpacing,4
;   maxOverhangAngle,45
;   supportAngles,0
;   temperatureName,Primary Extruder,Heated Bed
;   temperatureNumber,0,0
;   temperatureSetpointCount,1,1
;   temperatureSetpointLayers,1,1
;   temperatureSetpointTemperatures,220,55
;   temperatureStabilizeAtStartup,1,1
;   temperatureHeatedBed,0,1
;   temperatureRelayBetweenLayers,1,1
;   temperatureRelayBetweenLoops,0,0
;   fanLayers,1,2
;   fanSpeeds,0,100
;   blipFanToFullPower,0
;   adjustSpeedForCooling,1
;   minSpeedLayerTime,5
;   minCoolingSpeedSlowdown,10
;   increaseFanForCooling,1
;   minFanLayerTime,45
;   maxCoolingFanSpeed,100
;   increaseFanForBridging,1
;   bridgingFanSpeed,100
;   use5D,1
;   relativeEdistances,0
;   allowEaxisZeroing,1
;   independentExtruderAxes,0
;   includeM10123,0
;   stickySupport,1
;   applyToolheadOffsets,0
;   gcodeXoffset,0
;   gcodeYoffset,0
;   gcodeZoffset,0
;   overrideMachineDefinition,1
;   machineTypeOverride,0
;   strokeXoverride,250
;   strokeYoverride,210
;   strokeZoverride,200
;   originOffsetXoverride,0
;   originOffsetYoverride,0
;   originOffsetZoverride,0
;   homeXdirOverride,-1
;   homeYdirOverride,-1
;   homeZdirOverride,-1
;   flipXoverride,1
;   flipYoverride,-1
;   flipZoverride,1
;   toolheadOffsets,0,0|0,0|0,0|0,0|0,0|0,0
;   overrideFirmwareConfiguration,1
;   firmwareTypeOverride,RepRap (Marlin/Repetier/Sprinter)
;   GPXconfigOverride,r2
;   baudRateOverride,250000
;   overridePrinterModels,1
;   printerModelsOverride
;   startingGcode,M115 U3.0.7 ; use the latest firmware version,G28 W ; home all axes without mesh bed leveling,G80 ; run mesh bed leveling routine,G1 Y-3.0 F1000.0 ; prepare to prime,G92 E0 ; reset extrusion distance,G1 X60.0 E9.0  F1000.0 ; priming,G1 X100.0 E12.5  F1000.0 ; priming
;   layerChangeGcode,
;   retractionGcode,
;   toolChangeGcode,
;   endingGcode,M106 S0 ; turn off cooling fan,M104 S0 ; turn off extruder,M140 S0 ; turn off bed,G1 X0 Y200 ; part removal,M84 ; disable motors
;   exportFileFormat,gcode
;   celebration,0
;   celebrationSong,Random Song
;   postProcessing,
;   defaultSpeed,2400
;   outlineUnderspeed,0.8
;   solidInfillUnderspeed,0.8
;   supportUnderspeed,0.8
;   rapidXYspeed,4800
;   rapidZspeed,1002
;   minBridgingArea,50
;   bridgingExtraInflation,0
;   bridgingExtrusionMultiplier,1
;   bridgingSpeedMultiplier,1
;   useFixedBridgingAngle,0
;   fixedBridgingAngle,0
;   applyBridgingToPerimeters,0
;   filamentDiameters,1.75|1.75|1.75|1.75|1.75|1.75
;   filamentPricesPerKg,46|46|46|46|46|46
;   filamentDensities,1.25|1.25|1.25|1.25|1.25|1.25
;   useMinPrintHeight,0
;   minPrintHeight,10.34
;   useMaxPrintHeight,0
;   maxPrintHeight,0
;   useDiaphragm,0
;   diaphragmLayerInterval,20
;   robustSlicing,1
;   mergeAllIntoSolid,0
;   onlyRetractWhenCrossingOutline,1
;   retractBetweenLayers,0
;   useRetractionMinTravel,1
;   retractionMinTravel,3
;   retractWhileWiping,1
;   onlyWipeOutlines,1
;   avoidCrossingOutline,1
;   maxMovementDetourFactor,3
;   toolChangeRetractionDistance,12
;   toolChangeExtraRestartDistance,-0.5
;   toolChangeRetractionSpeed,600
;   externalThinWallType,1
;   internalThinWallType,1
;   thinWallAllowedOverlapPercentage,25
;   singleExtrusionMinLength,1
;   singleExtrusionMinPrintingWidthPercentage,50
;   singleExtrusionMaxPrintingWidthPercentage,200
;   singleExtrusionEndpointExtension,0.2
;   horizontalSizeCompensation,0
G90
M82
M106 S0
M140 S55
M190 S55
M104 S220 T0
M109 S220 T0
M115 U3.0.7 ; use the latest firmware version
G28 W ; home all axes without mesh bed leveling
G80 ; run mesh bed leveling routine
G1 Y-3.0 F1000.0 ; prepare to prime
G92 E0 ; reset extrusion distance
G1 X60.0 E9.0  F1000.0 ; priming
G1 X100.0 E12.5  F1000.0 ; priming
G92 E0
G1 E-1.5000 F1800
G1 Z0.270 F1002
; process Process1
; layer 1, Z = 0.270
M105
M105
T0
; tool H0.300 W0.420
; outer perimeter
G1 X85.275 Y17.839 F4800
G1 E0.0000 F540
G92 E0
G1 X164.725 Y17.839 E4.1620 F960
G1 X164.725 Y57.355 E6.2320
G1 X148.970 Y57.355 E7.0573
G1 X148.970 Y35.188 E8.2185
G1 X147.658 Y33.893 E8.3151
G1 X102.342 Y33.893 E10.6890
G1 X101.030 Y35.188 E10.7856
G1 X101.030 Y57.355 E11.9468
G1 X85.275 Y57.355 E12.7721
G1 X85.275 Y18.039 E14.8316
G1 X85.275 Y17.839 F960
G1 X87.275 Y17.839 F2400
; inner perimeter
G1 X85.695 Y18.259 F4800
G92 E0
G1 X164.305 Y18.259 E4.1180 F1080
G1 X164.305 Y56.935 E6.1440
G1 X149.390 Y56.935 E6.9253
G1 X149.390 Y35.012 E8.0737
G1 X147.831 Y33.473 E8.1885
G1 X102.169 Y33.473 E10.5805
G1 X100.610 Y35.012 E10.6953
G1 X100.610 Y56.935 E11.8437
G1 X85.695 Y56.935 E12.6250
G1 X85.695 Y18.459 E14.6405
G1 X85.695 Y18.259 F1080
; solid layer
G1 X85.989 Y56.485 F4800
G92 E0
G1 X86.144 Y56.641 E0.0115 F960
G1 X86.738 Y56.641 E0.0426
G1 X85.989 Y55.891 E0.0982
G1 X85.989 Y55.297 E0.1293
G1 X87.332 Y56.641 E0.2288
G1 X87.926 Y56.641 E0.2599
G1 X85.989 Y54.703 E0.4034
G1 X85.989 Y54.109 E0.4345
G1 X88.520 Y56.641 E0.6221
G1 X89.114 Y56.641 E0.6532
G1 X85.989 Y53.515 E0.8847
G1 X85.989 Y52.921 E0.9158
G1 X89.708 Y56.641 E1.1914
G1 X90.302 Y56.641 E1.2225
G1 X85.989 Y52.327 E1.5420
G1 X85.989 Y51.733 E1.5731
G1 X90.896 Y56.641 E1.9367
G1 X91.490 Y56.641 E1.9678
G1 X85.989 Y51.139 E2.3753
G1 X85.989 Y50.545 E2.4065
G1 X92.084 Y56.641 E2.8580
G1 X92.678 Y56.641 E2.8891
G1 X85.989 Y49.951 E3.3847
G1 X85.989 Y49.357 E3.4158
G1 X93.272 Y56.641 E3.9553
G1 X93.866 Y56.641 E3.9865
G1 X85.989 Y48.764 E4.5700
G1 X85.989 Y48.170 E4.6011
G1 X94.460 Y56.641 E5.2287
G1 X95.054 Y56.641 E5.2598
G1 X85.989 Y47.576 E5.9314
G1 X85.989 Y46.982 E5.9625
G1 X95.648 Y56.641 E6.6781
G1 X96.242 Y56.641 E6.7092
G1 X85.989 Y46.388 E7.4687
G1 X85.989 Y45.794 E7.4999
G1 X96.836 Y56.641 E8.3034
G1 X97.430 Y56.641 E8.3346
G1 X85.989 Y45.200 E9.1821
G1 X85.989 Y44.606 E9.2132
G1 X98.024 Y56.641 E10.1048
G1 X98.617 Y56.641 E10.1359
G1 X85.989 Y44.012 E11.0715
G1 X85.989 Y43.418 E11.1026
G1 X99.211 Y56.641 E12.0822
G1 X99.805 Y56.641 E12.1133
G1 X85.989 Y42.824 E13.1369
G1 X85.989 Y42.230 E13.1681
G1 X100.316 Y56.557 E14.2295
G1 X100.316 Y55.963 E14.2606
G1 X85.989 Y41.636 E15.3220
G1 X85.989 Y41.042 E15.3531
G1 X100.316 Y55.369 E16.4146
G1 X100.316 Y54.775 E16.4457
G1 X85.989 Y40.448 E17.5071
G1 X85.989 Y39.854 E17.5382
G1 X100.316 Y54.181 E18.5996
G1 X100.316 Y53.587 E18.6307
G1 X85.989 Y39.260 E19.6922
G1 X85.989 Y38.666 E19.7233
G1 X100.316 Y52.993 E20.7847
G1 X100.316 Y52.400 E20.8158
G1 X85.989 Y38.072 E21.8772
G1 X85.989 Y37.478 E21.9084
G1 X100.316 Y51.806 E22.9698
G1 X100.316 Y51.212 E23.0009
G1 X85.989 Y36.884 E24.0623
G1 X85.989 Y36.290 E24.0934
G1 X100.316 Y50.618 E25.1549
G1 X100.316 Y50.024 E25.1860
G1 X85.989 Y35.696 E26.2474
G1 X85.989 Y35.102 E26.2785
G1 X100.316 Y49.430 E27.3399
G1 X100.316 Y48.836 E27.3710
G1 X85.989 Y34.508 E28.4325
G1 X85.989 Y33.914 E28.4636
G1 X100.316 Y48.242 E29.5250
G1 X100.316 Y47.648 E29.5561
G1 X85.989 Y33.320 E30.6175
G1 X85.989 Y32.726 E30.6487
G1 X100.316 Y47.054 E31.7101
G1 X100.316 Y46.460 E31.7412
G1 X85.989 Y32.132 E32.8026
G1 X85.989 Y31.538 E32.8337
G1 X100.316 Y45.866 E33.8952
G1 X100.316 Y45.272 E33.9263
G1 X85.989 Y30.944 E34.9877
G1 X85.989 Y30.350 E35.0188
G1 X100.316 Y44.678 E36.0802
G1 X100.316 Y44.084 E36.1113
G1 X85.989 Y29.756 E37.1728
G1 X85.989 Y29.163 E37.2039
G1 X100.316 Y43.490 E38.2653
G1 X100.316 Y42.896 E38.2964
G1 X85.989 Y28.569 E39.3578
G1 X85.989 Y27.975 E39.3890
G1 X100.316 Y42.302 E40.4504
G1 X100.316 Y41.708 E40.4815
G1 X85.989 Y27.381 E41.5429
G1 X85.989 Y26.787 E41.5740
G1 X100.316 Y41.114 E42.6355
G1 X100.316 Y40.520 E42.6666
G1 X85.989 Y26.193 E43.7280
G1 X85.989 Y25.599 E43.7591
G1 X100.316 Y39.926 E44.8205
G1 X100.316 Y39.332 E44.8516
G1 X85.989 Y25.005 E45.9131
G1 X85.989 Y24.411 E45.9442
G1 X100.316 Y38.738 E47.0056
G1 X100.316 Y38.144 E47.0367
G1 X85.989 Y23.817 E48.0981
G1 X85.989 Y23.223 E48.1293
G1 X100.316 Y37.550 E49.1907
G1 X100.316 Y36.956 E49.2218
G1 X85.989 Y22.629 E50.2832
G1 X85.989 Y22.035 E50.3143
G1 X100.316 Y36.362 E51.3758
G1 X100.316 Y35.768 E51.4069
G1 X85.989 Y21.441 E52.4683
G1 X85.989 Y20.847 E52.4994
G1 X100.316 Y35.174 E53.5608
G1 X100.316 Y34.890 E53.5758
G1 X100.472 Y34.736 E53.5872
G1 X85.989 Y20.253 E54.6602
G1 X85.989 Y19.659 E54.6913
G1 X100.771 Y34.441 E55.7864
G1 X101.069 Y34.146 E55.8084
G1 X85.989 Y19.065 E56.9256
G1 X85.989 Y18.553 E56.9524
G1 X86.071 Y18.553 E56.9567
G1 X101.368 Y33.851 E58.0900
G1 X101.667 Y33.556 E58.1120
G1 X86.665 Y18.553 E59.2234
G1 X87.259 Y18.553 E59.2545
G1 X101.966 Y33.260 E60.3441
G1 X102.049 Y33.179 E60.3502
G1 X102.478 Y33.179 E60.3726
G1 X87.853 Y18.553 E61.4561
G1 X88.447 Y18.553 E61.4872
G1 X103.072 Y33.179 E62.5707
G1 X103.666 Y33.179 E62.6019
G1 X89.041 Y18.553 E63.6853
G1 X89.635 Y18.553 E63.7165
G1 X104.260 Y33.179 E64.7999
G1 X104.854 Y33.179 E64.8311
G1 X90.229 Y18.553 E65.9146
G1 X90.823 Y18.553 E65.9457
G1 X105.448 Y33.179 E67.0292
G1 X106.042 Y33.179 E67.0603
G1 X91.417 Y18.553 E68.1438
G1 X92.011 Y18.553 E68.1749
G1 X106.636 Y33.179 E69.2584
G1 X107.230 Y33.179 E69.2895
G1 X92.605 Y18.553 E70.3730
G1 X93.199 Y18.553 E70.4041
G1 X107.824 Y33.179 E71.4876
G1 X108.418 Y33.179 E71.5187
G1 X93.792 Y18.553 E72.6022
G1 X94.386 Y18.553 E72.6333
G1 X109.012 Y33.179 E73.7168
G1 X109.606 Y33.179 E73.7479
G1 X94.980 Y18.553 E74.8314
G1 X95.574 Y18.553 E74.8625
G1 X110.200 Y33.179 E75.9460
G1 X110.794 Y33.179 E75.9771
G1 X96.168 Y18.553 E77.0606
G1 X96.762 Y18.553 E77.0917
G1 X111.388 Y33.179 E78.1752
G1 X111.982 Y33.179 E78.2063
G1 X97.356 Y18.553 E79.2898
G1 X97.950 Y18.553 E79.3209
G1 X112.576 Y33.179 E80.4044
G1 X113.170 Y33.179 E80.4355
G1 X98.544 Y18.553 E81.5190
G1 X99.138 Y18.553 E81.5501
G1 X113.764 Y33.179 E82.6336
G1 X114.358 Y33.179 E82.6647
G1 X99.732 Y18.553 E83.7482
G1 X100.326 Y18.553 E83.7793
G1 X114.951 Y33.179 E84.8628
G1 X115.545 Y33.179 E84.8940
G1 X100.920 Y18.553 E85.9774
G1 X101.514 Y18.553 E86.0086
G1 X116.139 Y33.179 E87.0920
G1 X116.733 Y33.179 E87.1232
G1 X102.108 Y18.553 E88.2067
G1 X102.702 Y18.553 E88.2378
G1 X117.327 Y33.179 E89.3213
G1 X117.921 Y33.179 E89.3524
G1 X103.296 Y18.553 E90.4359
G1 X103.890 Y18.553 E90.4670
G1 X118.515 Y33.179 E91.5505
G1 X119.109 Y33.179 E91.5816
G1 X104.484 Y18.553 E92.6651
G1 X105.078 Y18.553 E92.6962
G1 X119.703 Y33.179 E93.7797
G1 X120.297 Y33.179 E93.8108
G1 X105.672 Y18.553 E94.8943
G1 X106.266 Y18.553 E94.9254
G1 X120.891 Y33.179 E96.0089
G1 X121.485 Y33.179 E96.0400
G1 X106.860 Y18.553 E97.1235
G1 X107.454 Y18.553 E97.1546
G1 X122.079 Y33.179 E98.2381
G1 X122.673 Y33.179 E98.2692
G1 X108.048 Y18.553 E99.3527
G1 X108.642 Y18.553 E99.3838
G1 X123.267 Y33.179 E100.4673
G1 X123.861 Y33.179 E100.4984
G1 X109.236 Y18.553 E101.5819
G1 X109.830 Y18.553 E101.6130
G1 X124.455 Y33.179 E102.6965
G1 X125.049 Y33.179 E102.7276
G1 X110.424 Y18.553 E103.8111
G1 X111.018 Y18.553 E103.8422
G1 X125.643 Y33.179 E104.9257
G1 X126.237 Y33.179 E104.9568
G1 X111.612 Y18.553 E106.0403
G1 X112.206 Y18.553 E106.0714
G1 X126.831 Y33.179 E107.1549
G1 X127.425 Y33.179 E107.1861
G1 X112.800 Y18.553 E108.2695
G1 X113.393 Y18.553 E108.3007
G1 X128.019 Y33.179 E109.3841
G1 X128.613 Y33.179 E109.4153
G1 X113.987 Y18.553 E110.4988
G1 X114.581 Y18.553 E110.5299
G1 X129.207 Y33.179 E111.6134
G1 X129.801 Y33.179 E111.6445
G1 X115.175 Y18.553 E112.7280
G1 X115.769 Y18.553 E112.7591
G1 X130.395 Y33.179 E113.8426
G1 X130.989 Y33.179 E113.8737
G1 X116.363 Y18.553 E114.9572
G1 X116.957 Y18.553 E114.9883
G1 X131.583 Y33.179 E116.0718
G1 X132.177 Y33.179 E116.1029
G1 X117.551 Y18.553 E117.1864
G1 X118.145 Y18.553 E117.2175
G1 X132.771 Y33.179 E118.3010
G1 X133.365 Y33.179 E118.3321
G1 X118.739 Y18.553 E119.4156
G1 X119.333 Y18.553 E119.4467
G1 X133.959 Y33.179 E120.5302
G1 X134.552 Y33.179 E120.5613
G1 X119.927 Y18.553 E121.6448
G1 X120.521 Y18.553 E121.6759
G1 X135.146 Y33.179 E122.7594
G1 X135.740 Y33.179 E122.7905
G1 X121.115 Y18.553 E123.8740
G1 X121.709 Y18.553 E123.9051
G1 X136.334 Y33.179 E124.9886
G1 X136.928 Y33.179 E125.0197
G1 X122.303 Y18.553 E126.1032
G1 X122.897 Y18.553 E126.1343
G1 X137.522 Y33.179 E127.2178
G1 X138.116 Y33.179 E127.2489
G1 X123.491 Y18.553 E128.3324
G1 X124.085 Y18.553 E128.3635
G1 X138.710 Y33.179 E129.4470
G1 X139.304 Y33.179 E129.4782
G1 X124.679 Y18.553 E130.5616
G1 X125.273 Y18.553 E130.5928
G1 X139.898 Y33.179 E131.6762
G1 X140.492 Y33.179 E131.7074
G1 X125.867 Y18.553 E132.7909
G1 X126.461 Y18.553 E132.8220
G1 X141.086 Y33.179 E133.9055
G1 X141.680 Y33.179 E133.9366
G1 X127.055 Y18.553 E135.0201
G1 X127.649 Y18.553 E135.0512
G1 X142.274 Y33.179 E136.1347
G1 X142.868 Y33.179 E136.1658
G1 X128.243 Y18.553 E137.2493
G1 X128.837 Y18.553 E137.2804
G1 X143.462 Y33.179 E138.3639
G1 X144.056 Y33.179 E138.3950
G1 X129.431 Y18.553 E139.4785
G1 X130.025 Y18.553 E139.5096
G1 X144.650 Y33.179 E140.5931
G1 X145.244 Y33.179 E140.6242
G1 X130.619 Y18.553 E141.7077
G1 X131.213 Y18.553 E141.7388
G1 X145.838 Y33.179 E142.8223
G1 X146.432 Y33.179 E142.8534
G1 X131.807 Y18.553 E143.9369
G1 X132.401 Y18.553 E143.9680
G1 X147.026 Y33.179 E145.0515
G1 X147.620 Y33.179 E145.0826
G1 X132.994 Y18.553 E146.1661
G1 X133.588 Y18.553 E146.1972
G1 X164.011 Y48.976 E148.4511
G1 X164.011 Y48.382 E148.4822
G1 X134.182 Y18.553 E150.6920
G1 X134.776 Y18.553 E150.7231
G1 X164.011 Y47.788 E152.8889
G1 X164.011 Y47.194 E152.9200
G1 X135.370 Y18.553 E155.0418
G1 X135.964 Y18.553 E155.0730
G1 X164.011 Y46.600 E157.1508
G1 X164.011 Y46.006 E157.1819
G1 X136.558 Y18.553 E159.2157
G1 X137.152 Y18.553 E159.2468
G1 X164.011 Y45.412 E161.2366
G1 X164.011 Y44.818 E161.2677
G1 X137.746 Y18.553 E163.2135
G1 X138.340 Y18.553 E163.2446
G1 X164.011 Y44.224 E165.1464
