; G-Code generated by Simplify3D(R) Version 4.1.1
; May 6, 2019 at 5:53:57 PM
; Settings Summary
;   processName,Process1
;   applyToModels,ring1,ring2,ring3,ring1(2),ring2(2),ring3(2)
;   profileName,Original Prusa i3 MK2 RC4 (modified)
;   profileVersion,2019-05-06 17:41:34
;   baseProfile,Prusa Mendel (modified)
;   printMaterial,PLA
;   printQuality,NORMAL 0.2mm
;   printExtruders,
;   extruderName,Primary Extruder
;   extruderToolheadNumber,0
;   extruderDiameter,0.4
;   extruderAutoWidth,0
;   extruderWidth,0.45
;   extrusionMultiplier,1
;   extruderUseRetract,1
;   extruderRetractionDistance,0.8
;   extruderExtraRestartDistance,0
;   extruderRetractionZLift,0
;   extruderRetractionSpeed,1800
;   extruderUseCoasting,1
;   extruderCoastingDistance,0.2
;   extruderUseWipe,1
;   extruderWipeDistance,2
;   primaryExtruder,0
;   layerHeight,0.2
;   topSolidLayers,3
;   bottomSolidLayers,3
;   perimeterOutlines,2
;   printPerimetersInsideOut,1
;   startPointOption,2
;   startPointOriginX,0
;   startPointOriginY,0
;   sequentialIslands,0
;   spiralVaseMode,0
;   firstLayerHeightPercentage,100
;   firstLayerWidthPercentage,95
;   firstLayerUnderspeed,0.6
;   useRaft,0
;   raftExtruder,0
;   raftTopLayers,3
;   raftBaseLayers,2
;   raftOffset,3
;   raftSeparationDistance,0.14
;   raftTopInfill,100
;   aboveRaftSpeedMultiplier,0.3
;   useSkirt,1
;   skirtExtruder,0
;   skirtLayers,1
;   skirtOutlines,1
;   skirtOffset,1.8
;   usePrimePillar,0
;   primePillarExtruder,999
;   primePillarWidth,12
;   primePillarLocation,7
;   primePillarSpeedMultiplier,1
;   useOozeShield,0
;   oozeShieldExtruder,999
;   oozeShieldOffset,2
;   oozeShieldOutlines,1
;   oozeShieldSidewallShape,1
;   oozeShieldSidewallAngle,30
;   oozeShieldSpeedMultiplier,1
;   infillExtruder,0
;   internalInfillPattern,Rectilinear
;   externalInfillPattern,Rectilinear
;   infillPercentage,10
;   outlineOverlapPercentage,21
;   infillExtrusionWidthPercentage,100
;   minInfillLength,2
;   infillLayerInterval,1
;   internalInfillAngles,45,-45
;   overlapInternalInfillAngles,0
;   externalInfillAngles,45,-45
;   generateSupport,0
;   supportExtruder,0
;   supportInfillPercentage,30
;   supportExtraInflation,0.5
;   supportBaseLayers,0
;   denseSupportExtruder,0
;   denseSupportLayers,0
;   denseSupportInfillPercentage,70
;   supportLayerInterval,1
;   supportHorizontalPartOffset,0.2
;   supportUpperSeparationLayers,1
;   supportLowerSeparationLayers,1
;   supportType,0
;   supportGridSpacing,4
;   maxOverhangAngle,45
;   supportAngles,0
;   temperatureName,Primary Extruder,Heated Bed
;   temperatureNumber,0,1
;   temperatureSetpointCount,1,1
;   temperatureSetpointLayers,1,1
;   temperatureSetpointTemperatures,230,55
;   temperatureStabilizeAtStartup,1,1
;   temperatureHeatedBed,0,1
;   fanLayers,1,2
;   fanSpeeds,0,100
;   blipFanToFullPower,1
;   adjustSpeedForCooling,1
;   minSpeedLayerTime,15
;   minCoolingSpeedSlowdown,5
;   increaseFanForCooling,0
;   minFanLayerTime,45
;   maxCoolingFanSpeed,100
;   increaseFanForBridging,1
;   bridgingFanSpeed,100
;   use5D,1
;   relativeEdistances,1
;   allowEaxisZeroing,1
;   independentExtruderAxes,0
;   includeM10123,0
;   stickySupport,1
;   applyToolheadOffsets,0
;   gcodeXoffset,0
;   gcodeYoffset,0
;   gcodeZoffset,0
;   overrideMachineDefinition,1
;   machineTypeOverride,0
;   strokeXoverride,250
;   strokeYoverride,210
;   strokeZoverride,200
;   originOffsetXoverride,0
;   originOffsetYoverride,0
;   originOffsetZoverride,0
;   homeXdirOverride,-1
;   homeYdirOverride,-1
;   homeZdirOverride,-1
;   flipXoverride,1
;   flipYoverride,-1
;   flipZoverride,1
;   toolheadOffsets,0,0|0,0|0,0|0,0|0,0|0,0
;   overrideFirmwareConfiguration,0
;   firmwareTypeOverride,RepRap (Marlin/Repetier/Sprinter)
;   GPXconfigOverride,r2
;   baudRateOverride,250000
;   overridePrinterModels,1
;   printerModelsOverride
;   startingGcode,M115 U3.0.7 ; tell the printer latest firmware varsion available,G28 W ; home all without mesh bed level,G80 ; mesh bed leveling,G1 Y-3.0 F1000.0 ; go outside printing area,G1 X60.0 E9.0  F1000.0 ; intro line,G1 X100.0 E12.5  F1000.0 ; intro line
;   layerChangeGcode,
;   retractionGcode,
;   toolChangeGcode,
;   endingGcode,M104 S0 ; turn off temperature,M140 S0 ; turn off heatbed,M107 ; turn off fan,G1 X0 Y200; home X axis,M84 ; disable motors
;   exportFileFormat,gcode
;   celebration,0
;   celebrationSong,Random Song
;   postProcessing,{REPLACE "; outer perimeter\n" "; outer perimeter\nM204 S600\n"},{REPLACE "; inner perimeter\n" "; inner perimeter\nM204 S1200\n"},{REPLACE "; solid layer\n" "; solid layer\nM204 S1500\n"},{REPLACE "; infill\n" "; infill\nM204 S2000\n"}
;   defaultSpeed,2400
;   outlineUnderspeed,0.8
;   solidInfillUnderspeed,0.8
;   supportUnderspeed,0.8
;   rapidXYspeed,4800
;   rapidZspeed,1002
;   minBridgingArea,50
;   bridgingExtraInflation,1
;   bridgingExtrusionMultiplier,1
;   bridgingSpeedMultiplier,1
;   useFixedBridgingAngle,0
;   fixedBridgingAngle,0
;   applyBridgingToPerimeters,0
;   filamentDiameters,1.75|1.75|1.75|1.75|1.75|1.75
;   filamentPricesPerKg,215|215|215|215|215|215
;   filamentDensities,1.25|1.25|1.25|1.25|1.25|1.25
;   useMinPrintHeight,0
;   minPrintHeight,0
;   useMaxPrintHeight,0
;   maxPrintHeight,0
;   useDiaphragm,0
;   diaphragmLayerInterval,20
;   robustSlicing,1
;   mergeAllIntoSolid,0
;   onlyRetractWhenCrossingOutline,0
;   retractBetweenLayers,0
;   useRetractionMinTravel,1
;   retractionMinTravel,3
;   retractWhileWiping,1
;   onlyWipeOutlines,0
;   avoidCrossingOutline,0
;   maxMovementDetourFactor,3
;   toolChangeRetractionDistance,12
;   toolChangeExtraRestartDistance,-0.5
;   toolChangeRetractionSpeed,600
;   externalThinWallType,0
;   internalThinWallType,2
;   thinWallAllowedOverlapPercentage,25
;   singleExtrusionMinLength,1
;   singleExtrusionMinPrintingWidthPercentage,50
;   singleExtrusionMaxPrintingWidthPercentage,200
;   singleExtrusionEndpointExtension,0.2
;   horizontalSizeCompensation,0
G90
M83
M127
M140 S55 T0
M134 T0
M104 S230 T0
M133 T0
M115 U3.0.7 ; tell the printer latest firmware varsion available
G28 W ; home all without mesh bed level
G80 ; mesh bed leveling
G1 Y-3.0 F1000.0 ; go outside printing area
G1 X60.0 E9.0  F1000.0 ; intro line
G1 X100.0 E12.5  F1000.0 ; intro line
; process Process1
; layer 1, Z = 0.200
M135 T0
G1 E-0.8000 F1800
; feature skirt
; tool H0.200 W0.428
G1 Z0.200 F1002
G1 X62.530 Y66.978 F4800
G1 E0.8000 F1800
G1 X63.659 Y65.926 E0.0549 F1440
G1 X63.713 Y65.879 E0.0026
G1 X64.915 Y64.911 E0.0549
G1 X64.973 Y64.868 E0.0026
G1 X66.240 Y63.988 E0.0549
G1 X66.301 Y63.949 E0.0026
G1 X67.628 Y63.162 E0.0549
G1 X67.691 Y63.127 E0.0026
G1 X69.071 Y62.436 E0.0549
G1 X69.136 Y62.407 E0.0026
G1 X70.562 Y61.816 E0.0549
G1 X70.629 Y61.791 E0.0026
G1 X72.093 Y61.303 E0.0549
G1 X72.162 Y61.283 E0.0026
G1 X73.658 Y60.902 E0.0549
G1 X73.728 Y60.886 E0.0026
G1 X75.246 Y60.612 E0.0549
G1 X75.318 Y60.602 E0.0026
G1 X76.852 Y60.437 E0.0549
G1 X76.924 Y60.432 E0.0026
G1 X78.466 Y60.377 E0.0549
G1 X78.538 Y60.377 E0.0026
G1 X80.085 Y60.432 E0.0551
G1 X80.168 Y60.439 E0.0030
G1 X81.967 Y60.652 E0.0644
G1 X82.028 Y60.661 E0.0022
G1 X83.276 Y60.886 E0.0451
G1 X83.346 Y60.902 E0.0026
G1 X84.841 Y61.283 E0.0549
G1 X84.910 Y61.303 E0.0026
G1 X86.380 Y61.793 E0.0551
G1 X86.457 Y61.822 E0.0030
G1 X88.123 Y62.534 E0.0644
G1 X88.179 Y62.559 E0.0022
G1 X89.313 Y63.127 E0.0451
G1 X89.376 Y63.162 E0.0026
G1 X90.703 Y63.949 E0.0549
G1 X90.763 Y63.988 E0.0026
G1 X92.031 Y64.868 E0.0549
G1 X92.089 Y64.911 E0.0026
G1 X93.290 Y65.879 E0.0549
G1 X93.344 Y65.926 E0.0026
G1 X94.474 Y66.978 E0.0549
G1 X94.525 Y67.029 E0.0026
G1 X95.576 Y68.158 E0.0549
G1 X95.623 Y68.213 E0.0026
G1 X96.592 Y69.414 E0.0549
G1 X96.635 Y69.472 E0.0026
G1 X97.515 Y70.739 E0.0549
G1 X97.554 Y70.800 E0.0026
G1 X98.341 Y72.127 E0.0549
G1 X98.376 Y72.190 E0.0026
G1 X99.066 Y73.570 E0.0549
G1 X99.096 Y73.635 E0.0026
G1 X99.687 Y75.061 E0.0549
G1 X99.712 Y75.128 E0.0026
G1 X100.199 Y76.592 E0.0549
G1 X100.219 Y76.661 E0.0026
G1 X100.601 Y78.157 E0.0549
G1 X100.616 Y78.227 E0.0026
G1 X100.890 Y79.746 E0.0549
G1 X100.901 Y79.817 E0.0026
G1 X101.066 Y81.351 E0.0549
G1 X101.071 Y81.423 E0.0026
G1 X101.126 Y82.965 E0.0549
G1 X101.126 Y83.037 E0.0026
G1 X101.071 Y84.579 E0.0549
G1 X101.066 Y84.651 E0.0026
G1 X100.901 Y86.185 E0.0549
G1 X100.890 Y86.256 E0.0026
G1 X100.616 Y87.775 E0.0549
G1 X100.601 Y87.845 E0.0026
G1 X100.219 Y89.340 E0.0549
G1 X100.199 Y89.409 E0.0026
G1 X99.710 Y90.879 E0.0551
G1 X99.681 Y90.956 E0.0030
G1 X98.969 Y92.623 E0.0644
G1 X98.943 Y92.678 E0.0022
G1 X98.376 Y93.812 E0.0451
G1 X98.341 Y93.875 E0.0026
G1 X97.554 Y95.202 E0.0549
G1 X97.515 Y95.263 E0.0026
G1 X96.635 Y96.530 E0.0549
G1 X96.592 Y96.588 E0.0026
G1 X95.623 Y97.789 E0.0549
G1 X95.576 Y97.844 E0.0026
G1 X94.525 Y98.973 E0.0549
G1 X94.474 Y99.024 E0.0026
G1 X93.344 Y100.075 E0.0549
G1 X93.290 Y100.122 E0.0026
G1 X92.089 Y101.091 E0.0549
G1 X92.031 Y101.134 E0.0026
G1 X90.763 Y102.014 E0.0549
G1 X90.703 Y102.053 E0.0026
G1 X89.376 Y102.840 E0.0549
G1 X89.313 Y102.875 E0.0026
G1 X87.933 Y103.565 E0.0549
G1 X87.867 Y103.595 E0.0026
G1 X86.442 Y104.186 E0.0549
G1 X86.374 Y104.211 E0.0026
G1 X84.910 Y104.698 E0.0549
G1 X84.841 Y104.719 E0.0026
G1 X83.346 Y105.100 E0.0549
G1 X83.276 Y105.115 E0.0026
G1 X81.757 Y105.389 E0.0549
G1 X81.686 Y105.400 E0.0026
G1 X80.152 Y105.565 E0.0549
G1 X80.080 Y105.570 E0.0026
G1 X78.538 Y105.625 E0.0549
G1 X78.466 Y105.625 E0.0026
G1 X76.924 Y105.570 E0.0549
G1 X76.852 Y105.565 E0.0026
G1 X75.318 Y105.400 E0.0549
G1 X75.246 Y105.389 E0.0026
G1 X73.728 Y105.115 E0.0549
G1 X73.658 Y105.100 E0.0026
G1 X72.162 Y104.719 E0.0549
G1 X72.093 Y104.698 E0.0026
G1 X70.629 Y104.211 E0.0549
G1 X70.562 Y104.186 E0.0026
G1 X69.136 Y103.595 E0.0549
G1 X69.071 Y103.565 E0.0026
G1 X67.691 Y102.875 E0.0549
G1 X67.628 Y102.840 E0.0026
G1 X66.301 Y102.053 E0.0549
G1 X66.240 Y102.014 E0.0026
G1 X64.973 Y101.134 E0.0549
G1 X64.915 Y101.091 E0.0026
G1 X63.713 Y100.122 E0.0549
G1 X63.659 Y100.075 E0.0026
G1 X62.530 Y99.024 E0.0549
G1 X62.479 Y98.973 E0.0026
G1 X61.427 Y97.844 E0.0549
G1 X61.380 Y97.789 E0.0026
G1 X60.408 Y96.583 E0.0551
G1 X60.359 Y96.517 E0.0030
G1 X59.342 Y95.017 E0.0644
G1 X59.310 Y94.966 E0.0022
G1 X58.662 Y93.875 E0.0451
G1 X58.628 Y93.812 E0.0026
G1 X57.937 Y92.432 E0.0549
G1 X57.907 Y92.367 E0.0026
G1 X57.317 Y90.941 E0.0549
G1 X57.292 Y90.873 E0.0026
G1 X56.804 Y89.409 E0.0549
G1 X56.784 Y89.340 E0.0026
G1 X56.403 Y87.845 E0.0549
G1 X56.387 Y87.775 E0.0026
G1 X56.113 Y86.256 E0.0549
G1 X56.103 Y86.185 E0.0026
G1 X55.938 Y84.651 E0.0549
G1 X55.933 Y84.579 E0.0026
G1 X55.878 Y83.037 E0.0549
G1 X55.878 Y82.965 E0.0026
G1 X55.933 Y81.423 E0.0549
G1 X55.938 Y81.351 E0.0026
G1 X56.103 Y79.817 E0.0549
G1 X56.113 Y79.746 E0.0026
G1 X56.387 Y78.227 E0.0549
G1 X56.403 Y78.157 E0.0026
G1 X56.784 Y76.661 E0.0549
G1 X56.804 Y76.592 E0.0026
G1 X57.292 Y75.128 E0.0549
G1 X57.317 Y75.061 E0.0026
G1 X57.907 Y73.635 E0.0549
G1 X57.937 Y73.570 E0.0026
G1 X58.628 Y72.190 E0.0549
G1 X58.662 Y72.127 E0.0026
G1 X59.453 Y70.795 E0.0551
G1 X59.498 Y70.725 E0.0030
G1 X60.548 Y69.249 E0.0644
G1 X60.584 Y69.200 E0.0022
G1 X61.380 Y68.213 E0.0451
G1 X61.427 Y68.158 E0.0026
G1 X62.479 Y67.029 E0.0549
G1 X62.530 Y66.978 E0.0026
G1 E-0.8000 F1800
G1 X71.759 Y109.827 F4800
G1 E0.8000 F1800
G1 X73.102 Y109.585 E0.0485 F1440
G1 X73.173 Y109.575 E0.0026
G1 X74.530 Y109.429 E0.0485
G1 X74.602 Y109.424 E0.0026
G1 X75.966 Y109.375 E0.0485
G1 X76.038 Y109.375 E0.0026
G1 X77.402 Y109.424 E0.0485
G1 X77.473 Y109.429 E0.0026
G1 X78.836 Y109.575 E0.0487
G1 X78.918 Y109.588 E0.0030
G1 X80.489 Y109.889 E0.0569
G1 X80.549 Y109.902 E0.0022
G1 X81.637 Y110.180 E0.0399
G1 X81.706 Y110.200 E0.0026
G1 X83.001 Y110.631 E0.0485
G1 X83.068 Y110.657 E0.0026
G1 X84.329 Y111.179 E0.0485
G1 X84.394 Y111.209 E0.0026
G1 X85.615 Y111.820 E0.0485
G1 X85.678 Y111.854 E0.0026
G1 X86.851 Y112.550 E0.0485
G1 X86.912 Y112.589 E0.0026
G1 X88.033 Y113.368 E0.0485
G1 X88.090 Y113.411 E0.0026
G1 X89.153 Y114.267 E0.0485
G1 X89.207 Y114.314 E0.0026
G1 X90.206 Y115.244 E0.0485
G1 X90.257 Y115.295 E0.0026
G1 X91.187 Y116.294 E0.0485
G1 X91.234 Y116.348 E0.0026
G1 X92.090 Y117.410 E0.0485
G1 X92.133 Y117.468 E0.0026
G1 X92.912 Y118.589 E0.0485
G1 X92.951 Y118.650 E0.0026
G1 X93.647 Y119.823 E0.0485
G1 X93.681 Y119.886 E0.0026
G1 X94.292 Y121.107 E0.0485
G1 X94.322 Y121.172 E0.0026
G1 X94.844 Y122.433 E0.0485
G1 X94.869 Y122.500 E0.0026
G1 X95.300 Y123.795 E0.0485
G1 X95.321 Y123.864 E0.0026
G1 X95.658 Y125.186 E0.0485
G1 X95.673 Y125.257 E0.0026
G1 X95.916 Y126.600 E0.0485
G1 X95.926 Y126.671 E0.0026
G1 X96.072 Y128.028 E0.0485
G1 X96.077 Y128.099 E0.0026
G1 X96.126 Y129.463 E0.0485
G1 X96.126 Y129.535 E0.0026
G1 X96.077 Y130.899 E0.0485
G1 X96.072 Y130.971 E0.0026
G1 X95.926 Y132.327 E0.0485
G1 X95.916 Y132.399 E0.0026
G1 X95.673 Y133.742 E0.0485
G1 X95.658 Y133.812 E0.0026
G1 X95.321 Y135.134 E0.0485
G1 X95.300 Y135.203 E0.0026
G1 X94.869 Y136.498 E0.0485
G1 X94.844 Y136.565 E0.0026
G1 X94.322 Y137.826 E0.0485
G1 X94.292 Y137.892 E0.0026
G1 X93.681 Y139.112 E0.0485
G1 X93.647 Y139.175 E0.0026
G1 X92.951 Y140.349 E0.0485
G1 X92.912 Y140.409 E0.0026
G1 X92.133 Y141.530 E0.0485
G1 X92.090 Y141.588 E0.0026
G1 X91.234 Y142.650 E0.0485
G1 X91.187 Y142.705 E0.0026
G1 X90.257 Y143.703 E0.0485
G1 X90.206 Y143.754 E0.0026
G1 X89.207 Y144.684 E0.0485
G1 X89.153 Y144.731 E0.0026
G1 X88.090 Y145.588 E0.0485
G1 X88.033 Y145.631 E0.0026
G1 X86.912 Y146.409 E0.0485
G1 X86.851 Y146.448 E0.0026
G1 X85.678 Y147.144 E0.0485
G1 X85.615 Y147.179 E0.0026
G1 X84.394 Y147.790 E0.0485
G1 X84.329 Y147.819 E0.0026
G1 X83.068 Y148.342 E0.0485
G1 X83.001 Y148.367 E0.0026
G1 X81.706 Y148.798 E0.0485
G1 X81.637 Y148.818 E0.0026
G1 X80.315 Y149.156 E0.0485
G1 X80.244 Y149.171 E0.0026
G1 X78.901 Y149.413 E0.0485
G1 X78.830 Y149.423 E0.0026
G1 X77.473 Y149.569 E0.0485
G1 X77.402 Y149.574 E0.0026
G1 X76.038 Y149.623 E0.0485
G1 X75.966 Y149.623 E0.0026
G1 X74.602 Y149.574 E0.0485
G1 X74.530 Y149.569 E0.0026
G1 X73.173 Y149.423 E0.0485
G1 X73.102 Y149.413 E0.0026
G1 X71.759 Y149.171 E0.0485
G1 X71.689 Y149.156 E0.0026
G1 X70.367 Y148.818 E0.0485
G1 X70.298 Y148.798 E0.0026
G1 X69.003 Y148.367 E0.0485
G1 X68.935 Y148.342 E0.0026
G1 X67.675 Y147.819 E0.0485
G1 X67.609 Y147.790 E0.0026
G1 X66.389 Y147.179 E0.0485
G1 X66.326 Y147.144 E0.0026
G1 X65.152 Y146.448 E0.0485
G1 X65.092 Y146.409 E0.0026
G1 X63.971 Y145.631 E0.0485
G1 X63.913 Y145.588 E0.0026
G1 X62.851 Y144.731 E0.0485
G1 X62.796 Y144.684 E0.0026
G1 X61.797 Y143.754 E0.0485
G1 X61.747 Y143.703 E0.0026
G1 X60.817 Y142.705 E0.0485
G1 X60.770 Y142.650 E0.0026
G1 X59.913 Y141.588 E0.0485
G1 X59.870 Y141.530 E0.0026
G1 X59.092 Y140.409 E0.0485
G1 X59.053 Y140.349 E0.0026
G1 X58.357 Y139.175 E0.0485
G1 X58.322 Y139.112 E0.0026
G1 X57.711 Y137.892 E0.0485
G1 X57.681 Y137.826 E0.0026
G1 X57.159 Y136.565 E0.0485
G1 X57.134 Y136.498 E0.0026
G1 X56.703 Y135.203 E0.0485
G1 X56.683 Y135.134 E0.0026
G1 X56.345 Y133.812 E0.0485
G1 X56.330 Y133.742 E0.0026
G1 X56.088 Y132.399 E0.0485
G1 X56.078 Y132.327 E0.0026
G1 X55.932 Y130.971 E0.0485
G1 X55.927 Y130.899 E0.0026
G1 X55.878 Y129.535 E0.0485
G1 X55.878 Y129.463 E0.0026
G1 X55.927 Y128.099 E0.0485
G1 X55.932 Y128.028 E0.0026
G1 X56.078 Y126.671 E0.0485
G1 X56.088 Y126.600 E0.0026
G1 X56.330 Y125.257 E0.0485
G1 X56.345 Y125.186 E0.0026
G1 X56.683 Y123.864 E0.0485
G1 X56.703 Y123.795 E0.0026
G1 X57.134 Y122.500 E0.0485
G1 X57.159 Y122.433 E0.0026
G1 X57.681 Y121.172 E0.0485
G1 X57.711 Y121.107 E0.0026
G1 X58.322 Y119.886 E0.0485
G1 X58.357 Y119.823 E0.0026
G1 X59.056 Y118.645 E0.0487
G1 X59.101 Y118.575 E0.0030
G1 X60.028 Y117.271 E0.0569
G1 X60.065 Y117.222 E0.0022
G1 X60.770 Y116.348 E0.0399
G1 X60.817 Y116.294 E0.0026
G1 X61.747 Y115.295 E0.0485
G1 X61.797 Y115.244 E0.0026
G1 X62.796 Y114.314 E0.0485
G1 X62.851 Y114.267 E0.0026
G1 X63.913 Y113.411 E0.0485
G1 X63.971 Y113.368 E0.0026
G1 X65.092 Y112.589 E0.0485
G1 X65.152 Y112.550 E0.0026
