; generated by PrusaSlicer 2.3.1+win64 on 2021-07-26 at 16:21:15 UTC

; 

; external perimeters extrusion width = 0.45mm
; perimeters extrusion width = 0.45mm
; infill extrusion width = 0.45mm
; solid infill extrusion width = 0.45mm
; top infill extrusion width = 0.40mm
; support material extrusion width = 0.35mm
; first layer extrusion width = 0.42mm

M73 P0 R5
M201 X9000 Y9000 Z500 E10000 ; sets maximum accelerations, mm/sec^2
M203 X500 Y500 Z12 E120 ; sets maximum feedrates, mm/sec
M204 P2000 R1500 T2000 ; sets acceleration (P, T) and retract acceleration (R), mm/sec^2
M205 X10.00 Y10.00 Z0.20 E2.50 ; sets the jerk limits, mm/sec
M205 S0 T0 ; sets the minimum extruding and travel feed rate, mm/sec
M107
;TYPE:Custom
M862.3 P "MK2S" ; printer model check
M862.1 P0.4 ; nozzle diameter check
M115 U3.2.3 ; tell printer latest fw version
G90 ; use absolute coordinates
M83 ; extruder relative mode
M204 S2000 T1500 ; MK2 firmware only supports the old M204 format
M104 S215 ; set extruder temp
M140 S60 ; set bed temp
M190 S60 ; wait for bed temp
M109 S215 ; wait for extruder temp
G28 W ; home all without mesh bed level
G80 ; mesh bed leveling
G1 Y-3.0 F1000.0 ; go outside print area
G92 E0.0
G1 X60.0 E9.0  F1000.0 ; intro line
M73 P1 R5
G1 X100.0 E12.5 F1000.0 ; intro line
G92 E0.0
G21 ; set units to millimeters
G90 ; use absolute coordinates
M83 ; use relative distances for extrusion
M900 K0.06 ; Filament gcode LA 1.5
M900 K30 ; Filament gcode LA 1.0
;LAYER_CHANGE
;Z:0.2
;HEIGHT:0.2
;BEFORE_LAYER_CHANGE
G92 E0.0
;0.2


G1 E-0.80000 F2100.000
M73 P2 R5
G1 Z0.600 F10800.000
;AFTER_LAYER_CHANGE
;0.2
G1 X118.981 Y115.758
G1 Z0.200
G1 E0.80000 F2100.000
M204 S1000
;TYPE:Perimeter
;WIDTH:0.42
G1 F900
G1 X119.296 Y115.810 E0.01004
G1 X119.596 Y115.923 E0.01004
G1 X119.868 Y116.092 E0.01004
G1 X120.102 Y116.311 E0.01004
G1 X120.289 Y116.571 E0.01004
G1 X120.421 Y116.863 E0.01004
G1 X120.494 Y117.174 E0.01004
G1 X120.504 Y117.494 E0.01004
G1 X120.452 Y117.810 E0.01004
G1 X120.340 Y118.110 E0.01004
G1 X120.171 Y118.382 E0.01004
G1 X119.952 Y118.616 E0.01004
G1 X119.692 Y118.803 E0.01004
G1 X119.400 Y118.935 E0.01004
G1 X119.089 Y119.008 E0.01004
G1 X118.769 Y119.018 E0.01004
G1 X118.453 Y118.966 E0.01004
G1 X118.153 Y118.854 E0.01004
G1 X117.881 Y118.685 E0.01004
G1 X117.647 Y118.466 E0.01004
G1 X117.460 Y118.206 E0.01004
G1 X117.328 Y117.914 E0.01004
G1 X117.255 Y117.602 E0.01004
G1 X117.245 Y117.282 E0.01004
G1 X117.297 Y116.966 E0.01004
G1 X117.409 Y116.667 E0.01004
G1 X117.578 Y116.395 E0.01004
G1 X117.797 Y116.161 E0.01004
G1 X118.057 Y115.974 E0.01004
G1 X118.349 Y115.842 E0.01004
G1 X118.661 Y115.769 E0.01004
G1 X118.921 Y115.760 E0.00816
G1 X118.744 Y119.396 F10800.000
;TYPE:External perimeter
G1 F900
G1 X118.355 Y119.332 E0.01237
G1 X117.985 Y119.194 E0.01237
G1 X117.650 Y118.985 E0.01237
G1 X117.362 Y118.716 E0.01237
G1 X117.132 Y118.395 E0.01237
G1 X116.969 Y118.036 E0.01237
G1 X116.880 Y117.652 E0.01237
G1 X116.866 Y117.258 E0.01237
G1 X116.931 Y116.869 E0.01237
G1 X117.069 Y116.499 E0.01237
G1 X117.277 Y116.164 E0.01237
G1 X117.547 Y115.876 E0.01237
G1 X117.868 Y115.646 E0.01237
G1 X118.227 Y115.483 E0.01237
G1 X118.611 Y115.393 E0.01237
G1 X119.005 Y115.380 E0.01237
G1 X119.394 Y115.444 E0.01237
G1 X119.764 Y115.583 E0.01237
G1 X120.099 Y115.791 E0.01237
G1 X120.387 Y116.061 E0.01237
G1 X120.617 Y116.381 E0.01237
G1 X120.780 Y116.741 E0.01237
G1 X120.869 Y117.125 E0.01237
G1 X120.883 Y117.519 E0.01237
G1 X120.819 Y117.908 E0.01237
G1 X120.680 Y118.278 E0.01237
G1 X120.472 Y118.613 E0.01237
G1 X120.202 Y118.901 E0.01237
G1 X119.882 Y119.131 E0.01237
G1 X119.522 Y119.294 E0.01237
G1 X119.138 Y119.383 E0.01237
G1 X118.804 Y119.394 E0.01049
G1 X118.569 Y119.043 F10800.000
G1 X120.322 Y116.936
;TYPE:Solid infill
;WIDTH:0.426775
G1 F900
G1 X119.695 Y116.318 E0.02810
G1 X119.471 Y116.178 E0.00844
G1 X119.223 Y116.085 E0.00844
G1 X118.888 Y116.045 E0.01078
G1 X120.218 Y117.374 E0.06003
G1 X120.221 Y117.476 E0.00325
G1 X120.178 Y117.737 E0.00844
G1 X120.140 Y117.839 E0.00349
G1 X118.420 Y116.120 E0.07760
M73 P3 R5
G1 X118.199 Y116.220 E0.00775
G1 X118.070 Y116.313 E0.00507
G1 X119.954 Y118.196 E0.08500
G1 X119.765 Y118.402 E0.00893
G1 X119.679 Y118.464 E0.00338
G1 X117.795 Y116.581 E0.08500
G1 X117.664 Y116.792 E0.00794
G1 X117.609 Y116.938 E0.00496
G1 X119.329 Y118.657 E0.07760
G1 X119.051 Y118.726 E0.00912
G1 X118.861 Y118.732 E0.00607
G1 X117.532 Y117.403 E0.06002
G1 X117.537 Y117.565 E0.00519
G1 X117.597 Y117.823 E0.00844
G1 X117.706 Y118.064 E0.00844
G1 X117.850 Y118.264 E0.00788
G1 X118.419 Y118.833 E0.02566
G1 E-0.80000 F2100.000
G1 Z0.800 F10800.000
G1 X118.769 Y106.481
G1 Z0.200
G1 E0.80000 F2100.000
;TYPE:Perimeter
;WIDTH:0.42
G1 F900
G1 X118.453 Y106.429 E0.01004
G1 X118.153 Y106.316 E0.01004
G1 X117.881 Y106.147 E0.01004
G1 X117.647 Y105.928 E0.01004
G1 X117.460 Y105.668 E0.01004
G1 X117.328 Y105.376 E0.01004
G1 X117.255 Y105.065 E0.01004
G1 X117.245 Y104.745 E0.01004
G1 X117.297 Y104.429 E0.01004
G1 X117.409 Y104.129 E0.01004
G1 X117.578 Y103.857 E0.01004
G1 X117.797 Y103.623 E0.01004
G1 X118.057 Y103.437 E0.01004
G1 X118.349 Y103.304 E0.01004
G1 X118.661 Y103.231 E0.01004
G1 X118.981 Y103.221 E0.01004
G1 X119.296 Y103.273 E0.01004
G1 X119.596 Y103.385 E0.01004
G1 X119.868 Y103.554 E0.01004
G1 X120.102 Y103.773 E0.01004
G1 X120.289 Y104.033 E0.01004
G1 X120.421 Y104.325 E0.01004
G1 X120.494 Y104.637 E0.01004
G1 X120.504 Y104.957 E0.01004
G1 X120.452 Y105.273 E0.01004
G1 X120.340 Y105.572 E0.01004
G1 X120.171 Y105.844 E0.01004
G1 X119.952 Y106.078 E0.01004
G1 X119.692 Y106.265 E0.01004
G1 X119.400 Y106.397 E0.01004
G1 X119.089 Y106.470 E0.01004
G1 X118.828 Y106.479 E0.00816
G1 X118.744 Y106.859 F10800.000
;TYPE:External perimeter
G1 F900
G1 X118.355 Y106.795 E0.01237
G1 X117.985 Y106.656 E0.01237
G1 X117.650 Y106.448 E0.01237
G1 X117.362 Y106.178 E0.01237
G1 X117.132 Y105.858 E0.01237
G1 X116.969 Y105.498 E0.01237
G1 X116.880 Y105.114 E0.01237
G1 X116.866 Y104.720 E0.01237
G1 X116.931 Y104.331 E0.01237
G1 X117.069 Y103.962 E0.01237
G1 X117.277 Y103.626 E0.01237
G1 X117.547 Y103.338 E0.01237
G1 X117.868 Y103.109 E0.01237
G1 X118.227 Y102.946 E0.01237
G1 X118.611 Y102.856 E0.01237
G1 X119.005 Y102.843 E0.01237
G1 X119.394 Y102.907 E0.01237
G1 X119.764 Y103.045 E0.01237
G1 X120.099 Y103.254 E0.01237
G1 X120.387 Y103.523 E0.01237
G1 X120.617 Y103.844 E0.01237
G1 X120.780 Y104.203 E0.01237
G1 X120.869 Y104.587 E0.01237
G1 X120.883 Y104.981 E0.01237
G1 X120.819 Y105.371 E0.01237
G1 X120.680 Y105.740 E0.01237
G1 X120.472 Y106.075 E0.01237
G1 X120.202 Y106.363 E0.01237
G1 X119.882 Y106.593 E0.01237
G1 X119.522 Y106.756 E0.01237
G1 X119.138 Y106.846 E0.01237
G1 X118.804 Y106.857 E0.01049
G1 X118.569 Y106.505 F10800.000
G1 X120.322 Y104.398
;TYPE:Solid infill
;WIDTH:0.426775
G1 F900
G1 X119.695 Y103.780 E0.02810
G1 X119.471 Y103.640 E0.00844
G1 X119.223 Y103.547 E0.00844
G1 X118.888 Y103.507 E0.01078
G1 X120.218 Y104.837 E0.06003
M73 P4 R5
G1 X120.221 Y104.938 E0.00325
G1 X120.178 Y105.199 E0.00844
G1 X120.140 Y105.301 E0.00349
G1 X118.420 Y103.582 E0.07760
G1 X118.199 Y103.683 E0.00775
G1 X118.070 Y103.775 E0.00507
G1 X119.954 Y105.658 E0.08500
G1 X119.765 Y105.865 E0.00893
G1 X119.679 Y105.926 E0.00338
G1 X117.795 Y104.043 E0.08500
G1 X117.664 Y104.255 E0.00794
G1 X117.609 Y104.400 E0.00496
G1 X119.329 Y106.119 E0.07760
G1 X119.051 Y106.188 E0.00912
G1 X118.861 Y106.195 E0.00607
G1 X117.532 Y104.865 E0.06002
G1 X117.537 Y105.027 E0.00519
G1 X117.597 Y105.285 E0.00844
G1 X117.706 Y105.526 E0.00844
G1 X117.850 Y105.727 E0.00788
G1 X118.419 Y106.295 E0.02566
G1 E-0.80000 F2100.000
G1 Z0.800 F10800.000
G1 X118.769 Y93.943
G1 Z0.200
G1 E0.80000 F2100.000
;TYPE:Perimeter
;WIDTH:0.42
G1 F900
G1 X118.453 Y93.891 E0.01004
G1 X118.153 Y93.778 E0.01004
G1 X117.881 Y93.609 E0.01004
G1 X117.647 Y93.391 E0.01004
G1 X117.460 Y93.130 E0.01004
G1 X117.328 Y92.839 E0.01004
G1 X117.255 Y92.527 E0.01004
G1 X117.245 Y92.207 E0.01004
G1 X117.297 Y91.891 E0.01004
G1 X117.409 Y91.591 E0.01004
G1 X117.578 Y91.319 E0.01004
G1 X117.797 Y91.085 E0.01004
G1 X118.057 Y90.899 E0.01004
G1 X118.349 Y90.767 E0.01004
G1 X118.661 Y90.694 E0.01004
G1 X118.981 Y90.683 E0.01004
G1 X119.296 Y90.735 E0.01004
G1 X119.596 Y90.848 E0.01004
G1 X119.868 Y91.017 E0.01004
G1 X120.102 Y91.235 E0.01004
G1 X120.289 Y91.496 E0.01004
G1 X120.421 Y91.787 E0.01004
G1 X120.494 Y92.099 E0.01004
G1 X120.504 Y92.419 E0.01004
G1 X120.452 Y92.735 E0.01004
G1 X120.340 Y93.035 E0.01004
G1 X120.171 Y93.307 E0.01004
G1 X119.952 Y93.540 E0.01004
G1 X119.692 Y93.727 E0.01004
G1 X119.400 Y93.859 E0.01004
G1 X119.089 Y93.932 E0.01004
G1 X118.828 Y93.941 E0.00816
G1 X118.744 Y94.321 F10800.000
;TYPE:External perimeter
G1 F900
G1 X118.355 Y94.257 E0.01237
G1 X117.985 Y94.118 E0.01237
G1 X117.650 Y93.910 E0.01237
G1 X117.362 Y93.641 E0.01237
G1 X117.132 Y93.320 E0.01237
G1 X116.969 Y92.961 E0.01237
G1 X116.880 Y92.577 E0.01237
G1 X116.866 Y92.182 E0.01237
G1 X116.931 Y91.793 E0.01237
G1 X117.069 Y91.424 E0.01237
G1 X117.277 Y91.089 E0.01237
G1 X117.547 Y90.801 E0.01237
G1 X117.868 Y90.571 E0.01237
G1 X118.227 Y90.408 E0.01237
G1 X118.611 Y90.318 E0.01237
G1 X119.005 Y90.305 E0.01237
G1 X119.394 Y90.369 E0.01237
G1 X119.764 Y90.508 E0.01237
G1 X120.099 Y90.716 E0.01237
G1 X120.387 Y90.985 E0.01237
G1 X120.617 Y91.306 E0.01237
G1 X120.780 Y91.665 E0.01237
G1 X120.869 Y92.049 E0.01237
G1 X120.883 Y92.444 E0.01237
G1 X120.819 Y92.833 E0.01237
G1 X120.680 Y93.202 E0.01237
G1 X120.472 Y93.537 E0.01237
G1 X120.202 Y93.825 E0.01237
G1 X119.882 Y94.055 E0.01237
M73 P5 R5
G1 X119.522 Y94.218 E0.01237
G1 X119.138 Y94.308 E0.01237
G1 X118.804 Y94.319 E0.01049
G1 X118.569 Y93.967 F10800.000
G1 X120.322 Y91.860
;TYPE:Solid infill
;WIDTH:0.426775
G1 F900
G1 X119.695 Y91.242 E0.02810
G1 X119.471 Y91.103 E0.00844
G1 X119.223 Y91.010 E0.00844
G1 X118.888 Y90.969 E0.01078
G1 X120.218 Y92.299 E0.06003
G1 X120.221 Y92.401 E0.00325
G1 X120.178 Y92.662 E0.00844
G1 X120.140 Y92.764 E0.00349
G1 X118.420 Y91.045 E0.07760
G1 X118.199 Y91.145 E0.00775
G1 X118.070 Y91.237 E0.00507
G1 X119.954 Y93.121 E0.08500
G1 X119.765 Y93.327 E0.00893
G1 X119.679 Y93.389 E0.00338
G1 X117.795 Y91.505 E0.08500
G1 X117.664 Y91.717 E0.00794
G1 X117.609 Y91.862 E0.00496
G1 X119.329 Y93.581 E0.07760
G1 X119.051 Y93.651 E0.00912
G1 X118.861 Y93.657 E0.00607
G1 X117.532 Y92.327 E0.06002
G1 X117.537 Y92.490 E0.00519
G1 X117.597 Y92.747 E0.00844
G1 X117.706 Y92.988 E0.00844
G1 X117.850 Y93.189 E0.00788
G1 X118.419 Y93.757 E0.02566
G1 E-0.80000 F2100.000
G1 Z0.800 F10800.000
G1 X131.597 Y93.943
G1 Z0.200
G1 E0.80000 F2100.000
;TYPE:Perimeter
;WIDTH:0.42
G1 F900
G1 X131.281 Y93.891 E0.01004
G1 X130.981 Y93.778 E0.01004
G1 X130.709 Y93.609 E0.01004
G1 X130.475 Y93.391 E0.01004
G1 X130.289 Y93.130 E0.01004
G1 X130.157 Y92.839 E0.01004
G1 X130.084 Y92.527 E0.01004
G1 X130.073 Y92.207 E0.01004
G1 X130.125 Y91.891 E0.01004
G1 X130.238 Y91.591 E0.01004
G1 X130.407 Y91.319 E0.01004
G1 X130.625 Y91.085 E0.01004
G1 X130.886 Y90.899 E0.01004
G1 X131.177 Y90.767 E0.01004
G1 X131.489 Y90.694 E0.01004
G1 X131.809 Y90.683 E0.01004
G1 X132.125 Y90.735 E0.01004
G1 X132.425 Y90.848 E0.01004
G1 X132.697 Y91.017 E0.01004
G1 X132.930 Y91.235 E0.01004
G1 X133.117 Y91.496 E0.01004
G1 X133.249 Y91.787 E0.01004
G1 X133.322 Y92.099 E0.01004
G1 X133.333 Y92.419 E0.01004
G1 X133.281 Y92.735 E0.01004
G1 X133.168 Y93.035 E0.01004
G1 X132.999 Y93.307 E0.01004
G1 X132.781 Y93.540 E0.01004
G1 X132.520 Y93.727 E0.01004
G1 X132.229 Y93.859 E0.01004
G1 X131.917 Y93.932 E0.01004
G1 X131.657 Y93.941 E0.00816
G1 X131.572 Y94.321 F10800.000
;TYPE:External perimeter
G1 F900
G1 X131.183 Y94.257 E0.01237
G1 X130.814 Y94.118 E0.01237
G1 X130.479 Y93.910 E0.01237
G1 X130.191 Y93.641 E0.01237
G1 X129.961 Y93.320 E0.01237
G1 X129.798 Y92.961 E0.01237
G1 X129.708 Y92.577 E0.01237
G1 X129.695 Y92.182 E0.01237
G1 X129.759 Y91.793 E0.01237
G1 X129.898 Y91.424 E0.01237
G1 X130.106 Y91.089 E0.01237
G1 X130.375 Y90.801 E0.01237
G1 X130.696 Y90.571 E0.01237
G1 X131.055 Y90.408 E0.01237
G1 X131.439 Y90.318 E0.01237
G1 X131.834 Y90.305 E0.01237
G1 X132.223 Y90.369 E0.01237
M73 P6 R5
G1 X132.592 Y90.508 E0.01237
G1 X132.927 Y90.716 E0.01237
G1 X133.215 Y90.985 E0.01237
G1 X133.445 Y91.306 E0.01237
G1 X133.608 Y91.665 E0.01237
G1 X133.698 Y92.049 E0.01237
G1 X133.711 Y92.444 E0.01237
G1 X133.647 Y92.833 E0.01237
G1 X133.508 Y93.202 E0.01237
G1 X133.300 Y93.537 E0.01237
G1 X133.031 Y93.825 E0.01237
G1 X132.710 Y94.055 E0.01237
G1 X132.351 Y94.218 E0.01237
G1 X131.967 Y94.308 E0.01237
G1 X131.632 Y94.319 E0.01049
G1 X131.398 Y93.967 F10800.000
G1 X133.150 Y91.860
;TYPE:Solid infill
;WIDTH:0.426775
G1 F900
G1 X132.524 Y91.242 E0.02810
G1 X132.299 Y91.103 E0.00844
G1 X132.052 Y91.010 E0.00844
G1 X131.716 Y90.969 E0.01078
G1 X133.046 Y92.299 E0.06003
G1 X133.049 Y92.401 E0.00325
G1 X133.006 Y92.662 E0.00844
G1 X132.968 Y92.764 E0.00349
G1 X131.249 Y91.045 E0.07760
G1 X131.028 Y91.145 E0.00775
G1 X130.899 Y91.237 E0.00507
G1 X132.782 Y93.121 E0.08500
G1 X132.593 Y93.327 E0.00893
G1 X132.507 Y93.389 E0.00338
G1 X130.624 Y91.505 E0.08500
G1 X130.493 Y91.717 E0.00794
G1 X130.438 Y91.862 E0.00496
G1 X132.157 Y93.581 E0.07760
G1 X131.880 Y93.651 E0.00912
G1 X131.690 Y93.657 E0.00607
G1 X130.360 Y92.327 E0.06002
G1 X130.365 Y92.490 E0.00519
G1 X130.426 Y92.747 E0.00844
G1 X130.535 Y92.988 E0.00844
G1 X130.679 Y93.189 E0.00788
G1 X131.247 Y93.757 E0.02566
G1 E-0.80000 F2100.000
G1 Z0.800 F10800.000
G1 X131.073 Y103.352
G1 Z0.200
G1 E0.80000 F2100.000
;TYPE:Perimeter
;WIDTH:0.42
G1 F900
G1 X131.177 Y103.304 E0.00359
G1 X131.489 Y103.231 E0.01004
G1 X131.809 Y103.221 E0.01004
G1 X132.125 Y103.273 E0.01004
G1 X132.425 Y103.385 E0.01004
G1 X132.697 Y103.554 E0.01004
G1 X132.930 Y103.773 E0.01004
G1 X133.117 Y104.033 E0.01004
G1 X133.249 Y104.325 E0.01004
G1 X133.322 Y104.637 E0.01004
G1 X133.333 Y104.957 E0.01004
G1 X133.281 Y105.273 E0.01004
G1 X133.168 Y105.572 E0.01004
G1 X132.999 Y105.844 E0.01004
G1 X132.781 Y106.078 E0.01004
G1 X132.520 Y106.265 E0.01004
G1 X132.229 Y106.397 E0.01004
G1 X131.917 Y106.470 E0.01004
G1 X131.597 Y106.481 E0.01004
G1 X131.281 Y106.429 E0.01004
G1 X130.981 Y106.316 E0.01004
G1 X130.709 Y106.147 E0.01004
G1 X130.475 Y105.928 E0.01004
G1 X130.289 Y105.668 E0.01004
G1 X130.157 Y105.376 E0.01004
G1 X130.084 Y105.065 E0.01004
G1 X130.073 Y104.745 E0.01004
G1 X130.125 Y104.429 E0.01004
G1 X130.238 Y104.129 E0.01004
G1 X130.407 Y103.857 E0.01004
G1 X130.625 Y103.623 E0.01004
G1 X130.886 Y103.437 E0.01004
G1 X131.018 Y103.376 E0.00457
G1 X131.572 Y106.859 F10800.000
;TYPE:External perimeter
G1 F900
G1 X131.183 Y106.795 E0.01237
G1 X130.814 Y106.656 E0.01237
G1 X130.479 Y106.448 E0.01237
G1 X130.191 Y106.178 E0.01237
M73 P7 R5
G1 X129.961 Y105.858 E0.01237
G1 X129.798 Y105.498 E0.01237
G1 X129.708 Y105.114 E0.01237
G1 X129.695 Y104.720 E0.01237
G1 X129.759 Y104.331 E0.01237
G1 X129.898 Y103.962 E0.01237
G1 X130.106 Y103.626 E0.01237
G1 X130.375 Y103.338 E0.01237
G1 X130.696 Y103.109 E0.01237
G1 X131.055 Y102.946 E0.01237
G1 X131.439 Y102.856 E0.01237
G1 X131.834 Y102.843 E0.01237
G1 X132.223 Y102.907 E0.01237
G1 X132.592 Y103.045 E0.01237
G1 X132.927 Y103.254 E0.01237
G1 X133.215 Y103.523 E0.01237
G1 X133.445 Y103.844 E0.01237
G1 X133.608 Y104.203 E0.01237
G1 X133.698 Y104.587 E0.01237
G1 X133.711 Y104.981 E0.01237
G1 X133.647 Y105.371 E0.01237
G1 X133.508 Y105.740 E0.01237
G1 X133.300 Y106.075 E0.01237
G1 X133.031 Y106.363 E0.01237
G1 X132.710 Y106.593 E0.01237
G1 X132.351 Y106.756 E0.01237
G1 X131.967 Y106.846 E0.01237
G1 X131.632 Y106.857 E0.01049
G1 X131.398 Y106.505 F10800.000
G1 X133.150 Y104.398
;TYPE:Solid infill
;WIDTH:0.426775
G1 F900
G1 X132.524 Y103.780 E0.02810
G1 X132.299 Y103.640 E0.00844
G1 X132.052 Y103.547 E0.00844
G1 X131.716 Y103.507 E0.01078
G1 X133.046 Y104.837 E0.06003
G1 X133.049 Y104.938 E0.00325
G1 X133.006 Y105.199 E0.00844
G1 X132.968 Y105.301 E0.00349
G1 X131.249 Y103.582 E0.07760
G1 X131.028 Y103.683 E0.00775
G1 X130.899 Y103.775 E0.00507
