; generated by PrusaSlicer 2.2.0+win64 on 2020-10-09 at 18:07:04 UTC

; 

; external perimeters extrusion width = 0.45mm
; perimeters extrusion width = 0.45mm
; infill extrusion width = 0.45mm
; solid infill extrusion width = 0.45mm
; top infill extrusion width = 0.40mm
; first layer extrusion width = 0.42mm

M73 P0 R27
M201 X9000 Y9000 Z500 E10000 ; sets maximum accelerations, mm/sec^2
M203 X500 Y500 Z12 E120 ; sets maximum feedrates, mm/sec
M204 P2000 R1500 T2000 ; sets acceleration (P, T) and retract acceleration (R), mm/sec^2
M205 X10.00 Y10.00 Z0.20 E2.50 ; sets the jerk limits, mm/sec
M205 S0 T0 ; sets the minimum extruding and travel feed rate, mm/sec
M107
M862.3 P "MK2S" ; printer model check
M862.1 P0.4 ; nozzle diameter check
M115 U3.2.3 ; tell printer latest fw version
G90 ; use absolute coordinates
M83 ; extruder relative mode
M204 S2000 T1500 ; MK2 firmware only supports the old M204 format
M104 S215 ; set extruder temp
M140 S60 ; set bed temp
M190 S60 ; wait for bed temp
M109 S215 ; wait for extruder temp
G28 W ; home all without mesh bed level
G80 ; mesh bed leveling
G1 Y-3.0 F1000.0 ; go outside print area
G92 E0.0
G1 X60.0 E9.0  F1000.0 ; intro line
M73 P0 R27
G1 X100.0 E12.5 F1000.0 ; intro line
G92 E0.0
G21 ; set units to millimeters
G90 ; use absolute coordinates
M83 ; use relative distances for extrusion
M900 K0.06 ; Filament gcode LA 1.5
M900 K30 ; Filament gcode LA 1.0
;BEFORE_LAYER_CHANGE
G92 E0.0
;0.2


G1 E-0.80000 F2100.00000
G1 Z0.600 F10800.000
;AFTER_LAYER_CHANGE
;0.2
G1 X125.002 Y79.059
G1 Z0.200
G1 E0.80000 F2100.00000
M204 S1000
G1 F1200.000
G1 X133.800 Y79.063 E0.27587
G1 X133.827 Y81.943 E0.09032
G1 X133.825 Y128.259 E1.45218
G1 X133.799 Y130.215 E0.06133
G1 X116.385 Y130.216 E0.54600
G1 X116.359 Y127.380 E0.08893
G1 X116.359 Y82.003 E1.42277
G1 X116.388 Y79.063 E0.09218
G1 X124.942 Y79.059 E0.26819
G1 E-0.80000 F2100.00000
G1 Z0.800 F10800.000
G1 X125.004 Y130.597
G1 Z0.200
G1 E0.80000 F2100.00000
G1 F1200.000
G1 X116.535 Y130.597 E0.26553
G1 X116.041 Y130.573 E0.01551
G1 X116.013 Y130.385 E0.00598
G1 X115.993 Y129.812 E0.01797
G1 X115.982 Y127.381 E0.07623
G1 X115.982 Y82.001 E1.42283
G1 X115.998 Y79.218 E0.08728
G1 X116.038 Y78.699 E0.01631
G1 X116.995 Y78.681 E0.03000
G1 X133.662 Y78.683 E0.52258
G1 X134.143 Y78.706 E0.01509
G1 X134.172 Y78.887 E0.00575
G1 X134.192 Y79.466 E0.01817
G1 X134.204 Y81.943 E0.07764
G1 X134.202 Y128.260 E1.45225
G1 X134.193 Y129.738 E0.04635
G1 X134.169 Y130.417 E0.02131
G1 X134.131 Y130.576 E0.00512
G1 X134.029 Y130.588 E0.00321
G1 X125.064 Y130.597 E0.28111
G1 X124.803 Y130.251 F10800.000
G1 E-0.80000 F2100.00000
G1 Z0.800 F10800.000
G1 X133.695 Y79.948
G1 Z0.200
G1 E0.80000 F2100.00000
G1 F1200.000
G1 X133.090 Y79.343 E0.02702
G1 X132.553 Y79.343 E0.01695
G1 X133.529 Y80.318 E0.04357
G1 X133.534 Y80.860 E0.01711
G1 X132.016 Y79.343 E0.06776
G1 X131.479 Y79.343 E0.01695
G1 X133.539 Y81.402 E0.09195
G1 X133.544 Y81.944 E0.01711
G1 X130.943 Y79.343 E0.11614
G1 X130.406 Y79.343 E0.01695
G1 X133.544 Y82.481 E0.14011
G1 X133.544 Y83.018 E0.01695
G1 X129.869 Y79.343 E0.16408
G1 X129.332 Y79.343 E0.01695
G1 X133.544 Y83.555 E0.18805
G1 X133.544 Y84.092 E0.01695
G1 X128.795 Y79.343 E0.21203
G1 X128.258 Y79.343 E0.01695
G1 X133.544 Y84.629 E0.23600
G1 X133.544 Y85.166 E0.01695
G1 X127.721 Y79.344 E0.25997
G1 X127.184 Y79.344 E0.01695
G1 X133.544 Y85.703 E0.28394
G1 X133.544 Y86.240 E0.01695
G1 X126.648 Y79.344 E0.30791
G1 X126.111 Y79.344 E0.01695
G1 X133.544 Y86.777 E0.33188
G1 X133.544 Y87.314 E0.01695
G1 X125.574 Y79.344 E0.35585
G1 X125.037 Y79.344 E0.01695
G1 X133.544 Y87.851 E0.37982
G1 X133.544 Y88.388 E0.01695
G1 X124.500 Y79.344 E0.40379
G1 X123.963 Y79.344 E0.01695
G1 X133.544 Y88.925 E0.42777
G1 X133.544 Y89.462 E0.01695
G1 X123.426 Y79.344 E0.45174
G1 X122.889 Y79.344 E0.01695
G1 X133.544 Y89.999 E0.47571
G1 X133.543 Y90.536 E0.01695
G1 X122.353 Y79.345 E0.49968
G1 X121.816 Y79.345 E0.01695
G1 X133.543 Y91.073 E0.52365
G1 X133.543 Y91.610 E0.01695
G1 X121.279 Y79.345 E0.54762
G1 X120.742 Y79.345 E0.01695
G1 X133.543 Y92.146 E0.57159
G1 X133.543 Y92.683 E0.01695
G1 X120.205 Y79.345 E0.59556
G1 X119.668 Y79.345 E0.01695
G1 X133.543 Y93.220 E0.61954
G1 X133.543 Y93.757 E0.01695
G1 X119.131 Y79.345 E0.64351
G1 X118.594 Y79.345 E0.01695
G1 X133.543 Y94.294 E0.66748
G1 X133.543 Y94.831 E0.01695
G1 X118.057 Y79.345 E0.69145
G1 X117.521 Y79.345 E0.01695
G1 X133.543 Y95.368 E0.71542
G1 X133.543 Y95.905 E0.01695
G1 X116.984 Y79.346 E0.73939
G1 X116.668 Y79.346 E0.00996
G1 X116.666 Y79.565 E0.00693
G1 X133.543 Y96.442 E0.75357
G1 X133.543 Y96.979 E0.01695
G1 X116.661 Y80.097 E0.75381
G1 X116.655 Y80.628 E0.01678
G1 X133.543 Y97.516 E0.75405
G1 X133.543 Y98.053 E0.01695
G1 X116.650 Y81.160 E0.75429
G1 X116.645 Y81.691 E0.01678
G1 X133.543 Y98.590 E0.75453
G1 X133.543 Y99.127 E0.01695
G1 X116.641 Y82.225 E0.75467
G1 X116.641 Y82.762 E0.01695
G1 X133.543 Y99.664 E0.75467
G1 X133.543 Y100.201 E0.01695
G1 X116.641 Y83.299 E0.75467
G1 X116.641 Y83.836 E0.01695
G1 X133.543 Y100.738 E0.75466
G1 X133.543 Y101.275 E0.01695
G1 X116.641 Y84.373 E0.75466
G1 X116.642 Y84.910 E0.01695
G1 X133.543 Y101.812 E0.75466
G1 X133.543 Y102.349 E0.01695
G1 X116.642 Y85.447 E0.75466
G1 X116.642 Y85.984 E0.01695
G1 X133.543 Y102.886 E0.75466
G1 X133.543 Y103.423 E0.01695
G1 X116.642 Y86.521 E0.75466
G1 X116.642 Y87.058 E0.01695
G1 X133.543 Y103.960 E0.75466
G1 X133.543 Y104.497 E0.01695
G1 X116.642 Y87.595 E0.75466
G1 X116.642 Y88.132 E0.01695
G1 X133.543 Y105.034 E0.75466
G1 X133.543 Y105.571 E0.01695
G1 X116.642 Y88.669 E0.75466
M73 P3 R26
G1 X116.642 Y89.206 E0.01695
G1 X133.543 Y106.108 E0.75466
G1 X133.543 Y106.645 E0.01695
G1 X116.642 Y89.743 E0.75466
G1 X116.642 Y90.280 E0.01695
G1 X133.543 Y107.182 E0.75466
G1 X133.543 Y107.719 E0.01695
G1 X116.642 Y90.817 E0.75465
G1 X116.642 Y91.354 E0.01695
G1 X133.543 Y108.255 E0.75465
G1 X133.543 Y108.792 E0.01695
G1 X116.642 Y91.891 E0.75465
G1 X116.642 Y92.428 E0.01695
G1 X133.543 Y109.329 E0.75465
G1 X133.543 Y109.866 E0.01695
G1 X116.642 Y92.965 E0.75465
G1 X116.642 Y93.502 E0.01695
G1 X133.543 Y110.403 E0.75465
G1 X133.543 Y110.940 E0.01695
G1 X116.642 Y94.039 E0.75465
G1 X116.642 Y94.576 E0.01695
G1 X133.543 Y111.477 E0.75465
G1 X133.543 Y112.014 E0.01695
G1 X116.642 Y95.113 E0.75465
G1 X116.642 Y95.650 E0.01695
G1 X133.543 Y112.551 E0.75465
G1 X133.543 Y113.088 E0.01695
G1 X116.642 Y96.187 E0.75465
G1 X116.642 Y96.724 E0.01695
G1 X133.543 Y113.625 E0.75465
G1 X133.543 Y114.162 E0.01695
G1 X116.642 Y97.261 E0.75465
G1 X116.642 Y97.798 E0.01695
G1 X133.543 Y114.699 E0.75465
G1 X133.543 Y115.236 E0.01695
G1 X116.642 Y98.335 E0.75464
G1 X116.642 Y98.872 E0.01695
G1 X133.543 Y115.773 E0.75464
G1 X133.543 Y116.310 E0.01695
G1 X116.642 Y99.409 E0.75464
G1 X116.642 Y99.946 E0.01695
G1 X133.543 Y116.847 E0.75464
G1 X133.543 Y117.384 E0.01695
G1 X116.642 Y100.483 E0.75464
G1 X116.642 Y101.020 E0.01695
G1 X133.543 Y117.921 E0.75464
G1 X133.543 Y118.458 E0.01695
G1 X116.642 Y101.557 E0.75464
G1 X116.642 Y102.094 E0.01695
G1 X133.543 Y118.995 E0.75464
G1 X133.543 Y119.532 E0.01695
G1 X116.642 Y102.631 E0.75464
G1 X116.642 Y103.168 E0.01695
G1 X133.543 Y120.069 E0.75464
G1 X133.543 Y120.606 E0.01695
G1 X116.642 Y103.705 E0.75464
G1 X116.642 Y104.242 E0.01695
G1 X133.543 Y121.143 E0.75464
G1 X133.543 Y121.680 E0.01695
G1 X116.642 Y104.779 E0.75464
G1 X116.642 Y105.316 E0.01695
G1 X133.543 Y122.217 E0.75463
G1 X133.543 Y122.754 E0.01695
G1 X116.642 Y105.853 E0.75463
G1 X116.642 Y106.390 E0.01695
G1 X133.543 Y123.291 E0.75463
G1 X133.543 Y123.827 E0.01695
G1 X116.642 Y106.927 E0.75463
G1 X116.642 Y107.463 E0.01695
G1 X133.543 Y124.364 E0.75463
G1 X133.543 Y124.901 E0.01695
G1 X116.642 Y108.000 E0.75463
G1 X116.642 Y108.537 E0.01695
G1 X133.543 Y125.438 E0.75463
G1 X133.543 Y125.975 E0.01695
G1 X116.642 Y109.074 E0.75463
G1 X116.642 Y109.611 E0.01695
G1 X133.543 Y126.512 E0.75463
G1 X133.543 Y127.049 E0.01695
G1 X116.642 Y110.148 E0.75463
G1 X116.642 Y110.685 E0.01695
G1 X133.542 Y127.586 E0.75463
G1 X133.542 Y128.123 E0.01695
G1 X116.642 Y111.222 E0.75463
G1 X116.642 Y111.759 E0.01695
G1 X133.537 Y128.655 E0.75438
G1 X133.530 Y129.185 E0.01673
G1 X116.642 Y112.296 E0.75406
G1 X116.642 Y112.833 E0.01695
G1 X133.523 Y129.714 E0.75374
G1 X133.520 Y129.932 E0.00687
G1 X133.203 Y129.932 E0.00999
G1 X116.642 Y113.370 E0.73948
G1 X116.642 Y113.907 E0.01695
G1 X132.666 Y129.932 E0.71551
G1 X132.129 Y129.932 E0.01695
G1 X116.642 Y114.444 E0.69153
G1 X116.642 Y114.981 E0.01695
G1 X131.592 Y129.932 E0.66756
G1 X131.056 Y129.932 E0.01695
G1 X116.642 Y115.518 E0.64358
M73 P7 R25
G1 X116.642 Y116.055 E0.01695
G1 X130.519 Y129.932 E0.61961
G1 X129.982 Y129.932 E0.01695
G1 X116.642 Y116.592 E0.59563
G1 X116.642 Y117.129 E0.01695
G1 X129.445 Y129.932 E0.57166
G1 X128.908 Y129.932 E0.01695
G1 X116.642 Y117.666 E0.54768
G1 X116.642 Y118.203 E0.01695
G1 X128.371 Y129.932 E0.52371
G1 X127.834 Y129.932 E0.01695
G1 X116.642 Y118.740 E0.49974
G1 X116.642 Y119.277 E0.01695
G1 X127.297 Y129.932 E0.47576
G1 X126.760 Y129.932 E0.01695
G1 X116.642 Y119.814 E0.45179
G1 X116.642 Y120.351 E0.01695
G1 X126.223 Y129.932 E0.42781
G1 X125.686 Y129.933 E0.01695
G1 X116.642 Y120.888 E0.40384
G1 X116.642 Y121.425 E0.01695
G1 X125.149 Y129.933 E0.37986
G1 X124.612 Y129.933 E0.01695
G1 X116.642 Y121.962 E0.35589
G1 X116.642 Y122.499 E0.01695
G1 X124.075 Y129.933 E0.33191
G1 X123.538 Y129.933 E0.01695
G1 X116.642 Y123.036 E0.30794
G1 X116.642 Y123.573 E0.01695
G1 X123.001 Y129.933 E0.28396
G1 X122.464 Y129.933 E0.01695
G1 X116.642 Y124.110 E0.25999
G1 X116.642 Y124.647 E0.01695
G1 X121.927 Y129.933 E0.23601
G1 X121.391 Y129.933 E0.01695
G1 X116.642 Y125.184 E0.21204
G1 X116.642 Y125.721 E0.01695
G1 X120.854 Y129.933 E0.18806
G1 X120.317 Y129.933 E0.01695
G1 X116.642 Y126.258 E0.16409
G1 X116.642 Y126.795 E0.01695
G1 X119.780 Y129.933 E0.14011
G1 X119.243 Y129.933 E0.01695
G1 X116.642 Y127.332 E0.11614
G1 X116.646 Y127.873 E0.01710
G1 X118.706 Y129.933 E0.09196
G1 X118.169 Y129.933 E0.01695
G1 X116.651 Y128.415 E0.06777
G1 X116.656 Y128.957 E0.01711
G1 X117.632 Y129.933 E0.04357
G1 X117.095 Y129.933 E0.01695
G1 X116.490 Y129.328 E0.02703
M106 S255
;BEFORE_LAYER_CHANGE
G92 E0.0
;0.4


G1 E-0.80000 F2100.00000
G1 Z0.800 F10800.000
;AFTER_LAYER_CHANGE
;0.4
M104 S210 ; set temperature
G1 X125.007 Y130.175
G1 Z0.400
G1 E0.80000 F2100.00000
M204 S800
G1 F3000.000
G1 X116.428 Y130.175 E0.29037
G1 X116.404 Y127.382 E0.09453
G1 X116.404 Y82.000 E1.53611
G1 X116.430 Y79.108 E0.09792
G1 X133.760 Y79.105 E0.58659
G1 X133.780 Y81.102 E0.06760
G1 X133.780 Y128.261 E1.59627
G1 X133.755 Y130.170 E0.06465
G1 X125.067 Y130.175 E0.29410
M204 S1000
G1 X125.007 Y130.582 F10800.000
M204 S800
G1 F2400.000
G1 X116.056 Y130.570 E0.30297
G1 X116.028 Y130.382 E0.00643
G1 X116.008 Y129.815 E0.01923
G1 X115.997 Y127.383 E0.08231
G1 X115.997 Y81.999 E1.53618
G1 X116.013 Y79.222 E0.09402
G1 X116.052 Y78.713 E0.01725
G1 X117.009 Y78.696 E0.03237
G1 X133.660 Y78.698 E0.56363
G1 X134.129 Y78.724 E0.01588
G1 X134.167 Y79.062 E0.01152
G1 X134.187 Y81.100 E0.06896
G1 X134.187 Y128.262 E1.59638
G1 X134.178 Y129.740 E0.05004
G1 X134.154 Y130.414 E0.02283
G1 X134.117 Y130.572 E0.00548
G1 X125.067 Y130.582 E0.30633
M204 S1000
G1 X124.805 Y130.237 F10800.000
G1 E-0.80000 F2100.00000
G1 Z1.000 F10800.000
G1 X116.544 Y80.061
G1 Z0.400
G1 E0.80000 F2100.00000
M204 S2000
G1 F3000.000
G1 X117.192 Y79.413 E0.03105
G1 X117.768 Y79.413 E0.01952
G1 X116.723 Y80.458 E0.05006
G1 X116.718 Y81.039 E0.01970
G1 X118.344 Y79.413 E0.07791
G1 X118.921 Y79.413 E0.01952
G1 X116.713 Y81.621 E0.10577
G1 X116.709 Y82.200 E0.01963
G1 X119.497 Y79.413 E0.13354
G1 X120.073 Y79.412 E0.01952
G1 X116.709 Y82.776 E0.16115
G1 X116.709 Y83.352 E0.01952
G1 X120.649 Y79.412 E0.18875
G1 X121.225 Y79.412 E0.01952
G1 X116.709 Y83.929 E0.21636
G1 X116.709 Y84.505 E0.01952
G1 X121.802 Y79.412 E0.24396
G1 X122.378 Y79.412 E0.01952
G1 X116.709 Y85.081 E0.27156
G1 X116.709 Y85.657 E0.01952
G1 X122.954 Y79.412 E0.29917
G1 X123.530 Y79.412 E0.01952
G1 X116.709 Y86.233 E0.32677
G1 X116.709 Y86.809 E0.01952
G1 X124.107 Y79.412 E0.35438
G1 X124.683 Y79.412 E0.01952
G1 X116.709 Y87.385 E0.38198
G1 X116.709 Y87.961 E0.01952
G1 X125.259 Y79.412 E0.40958
G1 X125.835 Y79.411 E0.01952
G1 X116.709 Y88.538 E0.43719
G1 X116.709 Y89.114 E0.01952
G1 X126.411 Y79.411 E0.46479
G1 X126.988 Y79.411 E0.01952
G1 X116.709 Y89.690 E0.49239
G1 X116.709 Y90.266 E0.01952
G1 X127.564 Y79.411 E0.52000
G1 X128.140 Y79.411 E0.01952
G1 X116.709 Y90.842 E0.54760
G1 X116.709 Y91.418 E0.01952
G1 X128.716 Y79.411 E0.57521
G1 X129.293 Y79.411 E0.01952
G1 X116.709 Y91.994 E0.60281
G1 X116.709 Y92.570 E0.01952
G1 X129.869 Y79.411 E0.63041
G1 X130.445 Y79.411 E0.01952
G1 X116.709 Y93.147 E0.65802
G1 X116.709 Y93.723 E0.01952
G1 X131.021 Y79.411 E0.68562
G1 X131.597 Y79.410 E0.01952
G1 X116.709 Y94.299 E0.71323
G1 X116.709 Y94.875 E0.01952
G1 X132.174 Y79.410 E0.74083
G1 X132.750 Y79.410 E0.01952
G1 X116.709 Y95.451 E0.76843
G1 X116.709 Y96.027 E0.01952
G1 X133.326 Y79.410 E0.79604
G1 X133.458 Y79.410 E0.00446
G1 X133.462 Y79.850 E0.01490
G1 X116.709 Y96.603 E0.80256
G1 X116.709 Y97.179 E0.01952
G1 X133.468 Y80.420 E0.80284
G1 X133.474 Y80.991 E0.01932
G1 X116.709 Y97.756 E0.80312
G1 X116.709 Y98.332 E0.01952
G1 X133.475 Y81.566 E0.80317
G1 X133.475 Y82.142 E0.01952
G1 X116.709 Y98.908 E0.80317
G1 X116.709 Y99.484 E0.01952
G1 X133.475 Y82.718 E0.80317
G1 X133.475 Y83.294 E0.01952
G1 X116.709 Y100.060 E0.80317
G1 X116.709 Y100.636 E0.01952
G1 X133.475 Y83.870 E0.80317
G1 X133.475 Y84.446 E0.01952
G1 X116.709 Y101.212 E0.80317
G1 X116.709 Y101.788 E0.01952
G1 X133.475 Y85.022 E0.80317
G1 X133.475 Y85.599 E0.01952
G1 X116.709 Y102.365 E0.80317
G1 X116.709 Y102.941 E0.01952
G1 X133.475 Y86.175 E0.80317
G1 X133.475 Y86.751 E0.01952
G1 X116.709 Y103.517 E0.80317
G1 X116.709 Y104.093 E0.01952
G1 X133.475 Y87.327 E0.80317
G1 X133.475 Y87.903 E0.01952
G1 X116.709 Y104.669 E0.80317
G1 X116.709 Y105.245 E0.01952
G1 X133.475 Y88.479 E0.80317
G1 X133.475 Y89.055 E0.01952
G1 X116.709 Y105.821 E0.80317
G1 X116.709 Y106.397 E0.01952
G1 X133.475 Y89.631 E0.80317
G1 X133.475 Y90.208 E0.01952
G1 X116.709 Y106.974 E0.80317
G1 X116.709 Y107.550 E0.01952
G1 X133.475 Y90.784 E0.80317
G1 X133.475 Y91.360 E0.01952
G1 X116.709 Y108.126 E0.80317
G1 X116.709 Y108.702 E0.01952
G1 X133.475 Y91.936 E0.80317
G1 X133.475 Y92.512 E0.01952
G1 X116.709 Y109.278 E0.80317
G1 X116.709 Y109.854 E0.01952
G1 X133.475 Y93.088 E0.80317
G1 X133.475 Y93.664 E0.01952
G1 X116.709 Y110.430 E0.80317
G1 X116.709 Y111.006 E0.01952
G1 X133.475 Y94.241 E0.80317
G1 X133.475 Y94.817 E0.01952
G1 X116.709 Y111.582 E0.80317
G1 X116.709 Y112.159 E0.01952
G1 X133.475 Y95.393 E0.80317
G1 X133.475 Y95.969 E0.01952
G1 X116.709 Y112.735 E0.80317
G1 X116.709 Y113.311 E0.01952
G1 X133.475 Y96.545 E0.80317
G1 X133.475 Y97.121 E0.01952
G1 X116.709 Y113.887 E0.80317
G1 X116.709 Y114.463 E0.01952
G1 X133.475 Y97.697 E0.80317
G1 X133.475 Y98.273 E0.01952
G1 X116.709 Y115.039 E0.80317
G1 X116.709 Y115.615 E0.01952
G1 X133.475 Y98.850 E0.80317
G1 X133.475 Y99.426 E0.01952
G1 X116.709 Y116.191 E0.80317
G1 X116.709 Y116.768 E0.01952
G1 X133.475 Y100.002 E0.80317
G1 X133.475 Y100.578 E0.01952
G1 X116.709 Y117.344 E0.80317
G1 X116.709 Y117.920 E0.01952
G1 X133.475 Y101.154 E0.80317
G1 X133.475 Y101.730 E0.01952
G1 X116.709 Y118.496 E0.80317
G1 X116.709 Y119.072 E0.01952
G1 X133.475 Y102.306 E0.80317
G1 X133.475 Y102.882 E0.01952
G1 X116.709 Y119.648 E0.80317
G1 X116.709 Y120.224 E0.01952
G1 X133.475 Y103.459 E0.80317
G1 X133.475 Y104.035 E0.01952
G1 X116.709 Y120.800 E0.80317
G1 X116.709 Y121.377 E0.01952
G1 X133.475 Y104.611 E0.80317
G1 X133.475 Y105.187 E0.01952
G1 X116.709 Y121.953 E0.80317
G1 X116.709 Y122.529 E0.01952
G1 X133.475 Y105.763 E0.80316
G1 X133.475 Y106.339 E0.01952
G1 X116.709 Y123.105 E0.80316
G1 X116.709 Y123.681 E0.01952
G1 X133.475 Y106.915 E0.80316
G1 X133.475 Y107.491 E0.01952
G1 X116.709 Y124.257 E0.80316
G1 X116.709 Y124.833 E0.01952
