; generated by PrusaSlicer 2.2.0+win64 on 2020-12-08 at 17:30:54 UTC

; 

; external perimeters extrusion width = 0.60mm
; perimeters extrusion width = 0.43mm
; infill extrusion width = 0.45mm
; solid infill extrusion width = 0.70mm
; top infill extrusion width = 0.43mm
; first layer extrusion width = 0.42mm

M73 P0 R16
M201 X9000 Y9000 Z500 E10000 ; sets maximum accelerations, mm/sec^2
M203 X500 Y500 Z12 E120 ; sets maximum feedrates, mm/sec
M204 P2000 R1500 T2000 ; sets acceleration (P, T) and retract acceleration (R), mm/sec^2
M205 X10.00 Y10.00 Z0.20 E2.50 ; sets the jerk limits, mm/sec
M205 S0 T0 ; sets the minimum extruding and travel feed rate, mm/sec
M107
M862.3 P "MK2S" ; printer model check
M862.1 P0.4 ; nozzle diameter check
M115 U3.2.3 ; tell printer latest fw version
G90 ; use absolute coordinates
M83 ; extruder relative mode
M204 S2000 T1500 ; MK2 firmware only supports the old M204 format
M104 S215 ; set extruder temp
M140 S60 ; set bed temp
M190 S60 ; wait for bed temp
M109 S215 ; wait for extruder temp
G28 W ; home all without mesh bed level
G80 ; mesh bed leveling
G1 Y-3.0 F1000.0 ; go outside print area
G92 E0.0
G1 X60.0 E9.0  F1000.0 ; intro line
M73 P0 R16
G1 X100.0 E12.5 F1000.0 ; intro line
G92 E0.0
G21 ; set units to millimeters
G90 ; use absolute coordinates
M83 ; use relative distances for extrusion
M900 K0.05 ; Filament gcode LA 1.5
M900 K30 ; Filament gcode LA 1.0
;BEFORE_LAYER_CHANGE
G92 E0.0
;0.2


G1 E-0.80000 F2100.00000
G1 Z0.600 F10800.000
;AFTER_LAYER_CHANGE
;0.2
G1 X99.221 Y80.527
G1 Z0.200
G1 E0.80000 F2100.00000
M204 S1000
G1 F1200.000
G1 X100.254 Y79.466 E0.04643
G1 X101.396 Y78.512 E0.04665
G1 X102.614 Y77.692 E0.04605
G1 X103.921 Y76.995 E0.04642
G1 X105.298 Y76.434 E0.04664
G1 X106.719 Y76.020 E0.04641
G1 X108.138 Y75.759 E0.04522
G1 X109.708 Y75.638 E0.04939
G1 X139.681 Y75.638 E0.93976
G1 X141.095 Y75.677 E0.04436
G1 X142.458 Y75.850 E0.04307
G1 X144.116 Y76.243 E0.05344
G1 X145.409 Y76.696 E0.04295
G1 X146.742 Y77.321 E0.04617
G1 X148.005 Y78.079 E0.04617
G1 X149.109 Y78.903 E0.04319
G1 X150.357 Y80.058 E0.05332
G1 X151.264 Y81.095 E0.04319
G1 X152.115 Y82.292 E0.04605
G1 X152.843 Y83.576 E0.04629
G1 X153.394 Y84.830 E0.04295
G1 X153.903 Y86.405 E0.05189
G1 X154.194 Y87.814 E0.04510
G1 X154.347 Y89.362 E0.04879
G1 X154.345 Y120.713 E0.98299
G1 X154.172 Y122.314 E0.05046
G1 X153.889 Y123.654 E0.04295
G1 X153.479 Y124.949 E0.04259
G1 X152.850 Y126.413 E0.04998
G1 X152.099 Y127.737 E0.04772
G1 X151.255 Y128.921 E0.04558
G1 X150.245 Y130.065 E0.04784
G1 X149.149 Y131.071 E0.04665
G1 X147.534 Y132.214 E0.06205
G1 X146.718 Y132.697 E0.02972
G1 X145.487 Y133.274 E0.04263
G1 X144.085 Y133.772 E0.04665
G1 X142.575 Y134.135 E0.04867
G1 X141.127 Y134.324 E0.04582
G1 X109.591 Y134.363 E0.98876
G1 X108.064 Y134.233 E0.04807
G1 X106.724 Y133.986 E0.04271
G1 X105.404 Y133.605 E0.04307
G1 X103.932 Y133.014 E0.04975
G1 X102.544 Y132.268 E0.04939
G1 X101.382 Y131.481 E0.04402
G1 X100.172 Y130.459 E0.04966
G1 X99.227 Y129.484 E0.04256
G1 X98.382 Y128.421 E0.04259
G1 X97.571 Y127.170 E0.04676
G1 X96.857 Y125.761 E0.04951
G1 X96.331 Y124.369 E0.04665
G1 X95.952 Y122.930 E0.04665
G1 X95.721 Y121.426 E0.04772
G1 X95.649 Y119.993 E0.04500
G1 X95.649 Y90.008 E0.94017
G1 X95.717 Y88.625 E0.04341
G1 X95.953 Y87.071 E0.04927
G1 X96.364 Y85.539 E0.04975
G1 X96.852 Y84.255 E0.04307
G1 X97.456 Y83.038 E0.04259
G1 X98.258 Y81.754 E0.04748
G1 X99.184 Y80.574 E0.04702
G1 X101.592 Y83.284 F10800.000
G1 F1200.000
G1 X102.397 Y82.383 E0.03789
G1 X103.299 Y81.577 E0.03793
G1 X104.286 Y80.877 E0.03793
G1 X105.346 Y80.291 E0.03796
G1 X106.463 Y79.829 E0.03791
G1 X107.625 Y79.494 E0.03793
G1 X108.818 Y79.291 E0.03793
G1 X110.002 Y79.224 E0.03718
G1 X111.233 Y79.291 E0.03866
G1 X112.426 Y79.494 E0.03795
G1 X113.589 Y79.829 E0.03793
G1 X114.707 Y80.291 E0.03793
G1 X115.766 Y80.877 E0.03793
G1 X116.752 Y81.577 E0.03793
G1 X117.654 Y82.383 E0.03793
G1 X118.460 Y83.285 E0.03793
G1 X119.161 Y84.272 E0.03793
G1 X119.746 Y85.331 E0.03793
G1 X120.200 Y86.426 E0.03718
G1 X120.544 Y87.610 E0.03866
G1 X120.746 Y88.804 E0.03795
G1 X120.814 Y90.011 E0.03793
G1 X120.746 Y91.219 E0.03793
G1 X120.544 Y92.412 E0.03793
G1 X120.209 Y93.575 E0.03793
G1 X119.746 Y94.692 E0.03793
G1 X119.161 Y95.751 E0.03793
G1 X118.460 Y96.738 E0.03793
G1 X117.654 Y97.641 E0.03796
G1 X116.718 Y98.472 E0.03925
G1 X115.763 Y99.148 E0.03668
G1 X114.707 Y99.731 E0.03783
G1 X113.589 Y100.194 E0.03793
G1 X112.426 Y100.529 E0.03793
G1 X111.234 Y100.732 E0.03793
G1 X110.026 Y100.800 E0.03794
G1 X108.814 Y100.731 E0.03806
G1 X107.625 Y100.529 E0.03780
G1 X106.463 Y100.194 E0.03793
G1 X105.345 Y99.731 E0.03793
G1 X104.286 Y99.146 E0.03793
G1 X103.319 Y98.460 E0.03718
G1 X102.398 Y97.640 E0.03866
G1 X101.591 Y96.738 E0.03795
G1 X100.891 Y95.751 E0.03793
G1 X100.306 Y94.692 E0.03793
G1 X99.843 Y93.575 E0.03793
G1 X99.508 Y92.412 E0.03793
G1 X99.305 Y91.219 E0.03793
G1 X99.238 Y90.011 E0.03793
G1 X99.305 Y88.804 E0.03793
G1 X99.508 Y87.611 E0.03793
G1 X99.843 Y86.448 E0.03793
G1 X100.306 Y85.331 E0.03793
G1 X100.889 Y84.275 E0.03780
G1 X101.557 Y83.333 E0.03623
G1 X101.865 Y83.551 F10800.000
G1 F1200.000
G1 X102.664 Y82.650 E0.03777
G1 X103.535 Y81.872 E0.03660
G1 X104.487 Y81.196 E0.03661
G1 X105.510 Y80.631 E0.03663
G1 X106.587 Y80.185 E0.03658
G1 X107.709 Y79.862 E0.03660
G1 X108.860 Y79.666 E0.03660
G1 X110.002 Y79.602 E0.03587
G1 X111.191 Y79.666 E0.03733
G1 X112.342 Y79.862 E0.03661
G1 X113.464 Y80.185 E0.03660
G1 X114.543 Y80.632 E0.03660
G1 X115.565 Y81.196 E0.03660
G1 X116.517 Y81.872 E0.03660
G1 X117.387 Y82.650 E0.03660
G1 X118.165 Y83.521 E0.03660
G1 X118.841 Y84.473 E0.03660
G1 X119.406 Y85.494 E0.03661
G1 X119.843 Y86.551 E0.03587
G1 X120.175 Y87.695 E0.03733
G1 X120.371 Y88.846 E0.03661
G1 X120.436 Y90.011 E0.03661
G1 X120.371 Y91.177 E0.03660
G1 X120.175 Y92.328 E0.03660
G1 X119.852 Y93.450 E0.03660
G1 X119.406 Y94.528 E0.03660
G1 X118.841 Y95.550 E0.03661
G1 X118.165 Y96.502 E0.03660
G1 X117.387 Y97.373 E0.03662
G1 X116.483 Y98.176 E0.03792
G1 X115.562 Y98.828 E0.03537
G1 X114.543 Y99.391 E0.03650
G1 X113.464 Y99.838 E0.03660
G1 X112.342 Y100.161 E0.03660
G1 X111.191 Y100.357 E0.03660
G1 X110.026 Y100.422 E0.03661
G1 X108.856 Y100.356 E0.03673
G1 X107.709 Y100.161 E0.03648
G1 X106.587 Y99.838 E0.03660
G1 X105.509 Y99.391 E0.03660
G1 X104.487 Y98.826 E0.03660
G1 X103.554 Y98.164 E0.03587
G1 X102.665 Y97.373 E0.03733
G1 X101.886 Y96.502 E0.03661
G1 X101.211 Y95.550 E0.03660
G1 X100.646 Y94.528 E0.03661
G1 X100.199 Y93.450 E0.03660
G1 X99.876 Y92.328 E0.03660
G1 X99.681 Y91.177 E0.03660
G1 X99.615 Y90.011 E0.03660
G1 X99.681 Y88.846 E0.03661
G1 X99.876 Y87.695 E0.03660
G1 X100.199 Y86.573 E0.03660
G1 X100.646 Y85.494 E0.03660
G1 X101.209 Y84.476 E0.03647
G1 X101.830 Y83.600 E0.03368
G1 X101.718 Y83.179 F10800.000
G1 X100.889 Y83.514
G1 F1200.000
G1 X101.604 Y82.610 E0.03614
G1 X102.410 Y81.783 E0.03620
G1 X103.296 Y81.044 E0.03619
G1 X104.257 Y80.397 E0.03632
G1 X105.272 Y79.857 E0.03603
G1 X106.342 Y79.422 E0.03623
G1 X107.451 Y79.099 E0.03619
G1 X108.586 Y78.892 E0.03619
G1 X109.737 Y78.803 E0.03619
G1 X110.891 Y78.833 E0.03619
G1 X112.036 Y78.981 E0.03619
G1 X113.159 Y79.246 E0.03619
G1 X114.250 Y79.626 E0.03619
G1 X115.295 Y80.115 E0.03619
G1 X116.285 Y80.709 E0.03619
G1 X117.208 Y81.402 E0.03619
G1 X118.055 Y82.186 E0.03619
G1 X118.817 Y83.053 E0.03619
G1 X119.486 Y83.994 E0.03619
G1 X120.055 Y84.999 E0.03619
G1 X120.517 Y86.056 E0.03619
G1 X120.868 Y87.156 E0.03619
G1 X121.104 Y88.286 E0.03619
G1 X121.223 Y89.434 E0.03619
G1 X121.223 Y90.589 E0.03619
G1 X121.104 Y91.737 E0.03619
G1 X120.868 Y92.867 E0.03619
G1 X120.517 Y93.966 E0.03619
G1 X120.055 Y95.024 E0.03619
G1 X119.486 Y96.029 E0.03619
G1 X118.817 Y96.970 E0.03619
G1 X118.055 Y97.837 E0.03619
G1 X117.208 Y98.621 E0.03619
G1 X116.284 Y99.314 E0.03621
G1 X115.295 Y99.908 E0.03618
G1 X114.250 Y100.397 E0.03619
G1 X113.159 Y100.777 E0.03619
G1 X112.036 Y101.042 E0.03619
G1 X110.889 Y101.190 E0.03626
G1 X109.740 Y101.220 E0.03603
G1 X108.586 Y101.131 E0.03629
G1 X107.451 Y100.924 E0.03619
G1 X106.342 Y100.601 E0.03619
G1 X105.273 Y100.166 E0.03619
G1 X104.254 Y99.624 E0.03619
G1 X103.296 Y98.979 E0.03619
G1 X102.410 Y98.240 E0.03619
G1 X101.604 Y97.413 E0.03619
G1 X100.888 Y96.508 E0.03619
G1 X100.268 Y95.534 E0.03619
G1 X99.752 Y94.501 E0.03619
G1 X99.345 Y93.421 E0.03619
G1 X99.051 Y92.305 E0.03619
G1 X98.873 Y91.164 E0.03619
G1 X98.814 Y90.011 E0.03619
G1 X98.873 Y88.859 E0.03619
G1 X99.051 Y87.718 E0.03619
G1 X99.345 Y86.602 E0.03619
G1 X99.752 Y85.522 E0.03619
G1 X100.268 Y84.489 E0.03619
G1 X100.857 Y83.564 E0.03437
G1 X100.538 Y83.362 F10800.000
G1 F1200.000
G1 X101.321 Y82.361 E0.03983
G1 X102.153 Y81.506 E0.03741
G1 X103.070 Y80.742 E0.03741
G1 X104.063 Y80.073 E0.03754
G1 X105.112 Y79.515 E0.03725
G1 X106.218 Y79.065 E0.03744
G1 X107.364 Y78.732 E0.03741
G1 X108.538 Y78.518 E0.03741
G1 X109.727 Y78.426 E0.03741
G1 X110.920 Y78.457 E0.03741
G1 X112.104 Y78.610 E0.03741
G1 X113.265 Y78.884 E0.03741
G1 X114.392 Y79.276 E0.03741
G1 X115.473 Y79.782 E0.03741
G1 X116.496 Y80.396 E0.03741
G1 X117.450 Y81.112 E0.03741
G1 X118.326 Y81.923 E0.03741
G1 X119.113 Y82.819 E0.03741
G1 X119.805 Y83.791 E0.03741
G1 X120.392 Y84.830 E0.03741
G1 X120.870 Y85.923 E0.03741
G1 X121.233 Y87.060 E0.03741
G1 X121.477 Y88.228 E0.03741
G1 X121.600 Y89.415 E0.03741
G1 X121.600 Y90.608 E0.03741
G1 X121.477 Y91.795 E0.03741
G1 X121.233 Y92.963 E0.03741
G1 X120.870 Y94.100 E0.03741
G1 X120.392 Y95.193 E0.03741
G1 X119.805 Y96.231 E0.03741
G1 X119.113 Y97.204 E0.03741
G1 X118.326 Y98.100 E0.03741
G1 X117.450 Y98.911 E0.03741
G1 X116.495 Y99.627 E0.03743
G1 X115.473 Y100.241 E0.03740
G1 X114.392 Y100.747 E0.03741
G1 X113.265 Y101.139 E0.03741
G1 X112.104 Y101.413 E0.03741
G1 X110.918 Y101.567 E0.03748
G1 X109.730 Y101.597 E0.03725
G1 X108.538 Y101.505 E0.03751
G1 X107.364 Y101.291 E0.03741
G1 X106.218 Y100.958 E0.03741
G1 X105.113 Y100.508 E0.03741
G1 X104.060 Y99.947 E0.03741
G1 X103.070 Y99.281 E0.03741
G1 X102.153 Y98.517 E0.03741
G1 X101.321 Y97.662 E0.03741
G1 X100.580 Y96.727 E0.03741
G1 X99.940 Y95.720 E0.03741
G1 X99.406 Y94.652 E0.03741
G1 X98.985 Y93.536 E0.03741
G1 X98.681 Y92.382 E0.03741
G1 X98.498 Y91.203 E0.03741
G1 X98.436 Y90.011 E0.03741
G1 X98.498 Y88.820 E0.03741
G1 X98.681 Y87.641 E0.03741
G1 X98.985 Y86.487 E0.03741
G1 X99.406 Y85.370 E0.03741
G1 X99.940 Y84.303 E0.03741
G1 X100.506 Y83.412 E0.03310
G1 X100.937 Y83.398 F10800.000
G1 X100.909 Y83.879
G1 F1200.000
G1 X101.233 Y83.422 E0.00296
G1 X101.620 Y82.934 F10800.000
G1 F1200.000
G1 X101.982 Y82.527 E0.00284
G1 X102.425 Y82.073 F10800.000
G1 F1200.000
G1 X102.825 Y81.715 E0.00274
G1 X103.318 Y81.303 F10800.000
G1 F1200.000
G1 X103.741 Y81.001 E0.00256
G1 X104.289 Y80.632 F10800.000
G1 F1200.000
G1 X104.728 Y80.389 E0.00236
G1 X105.325 Y80.070 F10800.000
G1 F1200.000
G1 X105.617 Y79.948 E0.00137
G1 X108.246 Y79.171 F10800.000
G1 F1200.000
G1 X108.684 Y79.098 E0.00202
G1 X109.355 Y79.047 F10800.000
G1 F1200.000
G1 X109.862 Y79.019 E0.00245
G1 X110.456 Y79.035 F10800.000
G1 F1200.000
G1 X110.506 Y79.037 E0.00021
G1 X111.046 Y79.068 E0.00277
G1 X111.672 Y79.149 F10800.000
G1 F1200.000
G1 X112.206 Y79.240 E0.00281
G1 X112.821 Y79.385 F10800.000
G1 F1200.000
G1 X113.345 Y79.537 E0.00286
G1 X113.941 Y79.744 F10800.000
G1 F1200.000
G1 X114.444 Y79.952 E0.00285
G1 X115.018 Y80.220 F10800.000
G1 F1200.000
G1 X115.489 Y80.480 E0.00277
G1 X116.039 Y80.810 F10800.000
G1 F1200.000
G1 X116.467 Y81.113 E0.00261
G1 X116.992 Y81.505 F10800.000
G1 F1200.000
G1 X117.359 Y81.832 E0.00232
G1 X117.865 Y82.300 F10800.000
G1 F1200.000
G1 X118.118 Y82.581 E0.00167
G1 X119.688 Y84.784 F10800.000
G1 F1200.000
G1 X119.889 Y85.150 E0.00187
G1 X120.160 Y85.773 F10800.000
G1 F1200.000
G1 X120.351 Y86.236 E0.00239
G1 X120.531 Y86.803 F10800.000
G1 F1200.000
G1 X120.695 Y87.370 E0.00299
G1 X120.824 Y87.990 F10800.000
G1 F1200.000
G1 X120.915 Y88.523 E0.00279
G1 X120.979 Y89.152 F10800.000
G1 F1200.000
G1 X121.010 Y89.696 E0.00286
G1 X121.010 Y90.327 F10800.000
G1 F1200.000
G1 X120.979 Y90.871 E0.00286
G1 X120.915 Y91.500 F10800.000
G1 F1200.000
G1 X120.824 Y92.033 E0.00279
G1 X120.694 Y92.658 F10800.000
G1 F1200.000
G1 X120.549 Y93.166 E0.00265
G1 X120.351 Y93.787 F10800.000
G1 F1200.000
G1 X120.160 Y94.250 E0.00239
G1 X119.889 Y94.873 F10800.000
G1 F1200.000
G1 X119.688 Y95.238 E0.00186
G1 X118.118 Y97.442 F10800.000
G1 F1200.000
G1 X117.865 Y97.723 E0.00166
G1 X117.425 Y98.129 F10800.000
G1 F1200.000
G1 X116.959 Y98.542 E0.00310
G1 X116.457 Y98.918 F10800.000
G1 F1200.000
G1 X116.037 Y99.215 E0.00256
G1 X115.490 Y99.542 F10800.000
G1 F1200.000
G1 X115.018 Y99.803 E0.00277
G1 X114.444 Y100.071 F10800.000
G1 F1200.000
G1 X113.941 Y100.279 E0.00285
G1 X113.345 Y100.486 F10800.000
G1 F1200.000
G1 X112.821 Y100.637 E0.00286
G1 X112.206 Y100.783 F10800.000
G1 F1200.000
G1 X111.672 Y100.874 E0.00281
G1 X111.041 Y100.956 F10800.000
G1 F1200.000
G1 X110.502 Y100.987 E0.00273
G1 X109.866 Y101.004 F10800.000
G1 F1200.000
G1 X109.343 Y100.975 E0.00254
G1 X108.685 Y100.925 F10800.000
G1 F1200.000
G1 X108.245 Y100.851 E0.00202
G1 X105.618 Y100.076 F10800.000
G1 F1200.000
G1 X105.326 Y99.954 E0.00137
G1 X104.708 Y99.623 F10800.000
G1 F1200.000
G1 X104.289 Y99.390 E0.00224
G1 X103.741 Y99.021 F10800.000
G1 F1200.000
G1 X103.318 Y98.720 E0.00256
G1 X102.863 Y98.340 F10800.000
G1 F1200.000
G1 X102.420 Y97.945 E0.00308
G1 X101.982 Y97.496 F10800.000
G1 F1200.000
G1 X101.620 Y97.090 E0.00284
G1 X101.229 Y96.595 F10800.000
G1 F1200.000
G1 X100.913 Y96.150 E0.00287
G1 X100.574 Y95.617 F10800.000
G1 F1200.000
G1 X100.311 Y95.142 E0.00283
G1 X100.027 Y94.574 F10800.000
G1 F1200.000
G1 X99.822 Y94.081 E0.00271
G1 X99.593 Y93.477 F10800.000
G1 F1200.000
G1 X99.450 Y92.983 E0.00251
G1 X99.280 Y92.339 F10800.000
G1 F1200.000
G1 X99.201 Y91.882 E0.00214
G1 X99.090 Y91.174 F10800.000
G1 F1200.000
G1 X99.077 Y90.971 E0.00086
G1 X99.077 Y89.052 F10800.000
G1 F1200.000
G1 X99.090 Y88.849 E0.00086
G1 X99.201 Y88.141 F10800.000
G1 F1200.000
G1 X99.280 Y87.683 E0.00214
G1 X99.450 Y87.040 F10800.000
G1 F1200.000
G1 X99.593 Y86.546 E0.00251
G1 X99.822 Y85.942 F10800.000
G1 F1200.000
G1 X100.027 Y85.449 E0.00271
G1 X100.311 Y84.881 F10800.000
G1 F1200.000
G1 X100.574 Y84.406 E0.00283
G1 E-0.80000 F2100.00000
G1 Z0.800 F10800.000
G1 X129.266 Y88.804
G1 Z0.200
G1 E0.80000 F2100.00000
G1 F1200.000
G1 X129.468 Y87.611 E0.03793
G1 X129.803 Y86.448 E0.03793
G1 X130.266 Y85.331 E0.03793
G1 X130.849 Y84.275 E0.03780
G1 X131.552 Y83.284 E0.03811
G1 X132.358 Y82.383 E0.03789
G1 X133.260 Y81.577 E0.03793
G1 X134.246 Y80.877 E0.03793
G1 X135.306 Y80.291 E0.03796
G1 X136.423 Y79.829 E0.03791
G1 X137.585 Y79.494 E0.03793
G1 X138.778 Y79.291 E0.03793
G1 X139.962 Y79.224 E0.03718
G1 X141.193 Y79.291 E0.03866
G1 X142.387 Y79.494 E0.03795
G1 X143.549 Y79.829 E0.03793
G1 X144.667 Y80.291 E0.03793
G1 X145.726 Y80.877 E0.03793
G1 X146.712 Y81.577 E0.03793
G1 X147.615 Y82.383 E0.03793
G1 X148.421 Y83.285 E0.03793
G1 X149.121 Y84.272 E0.03793
G1 X149.706 Y85.331 E0.03793
G1 X150.160 Y86.426 E0.03718
G1 X150.504 Y87.610 E0.03866
G1 X150.707 Y88.804 E0.03795
G1 X150.774 Y90.011 E0.03793
G1 X150.707 Y91.219 E0.03793
G1 X150.504 Y92.412 E0.03793
G1 X150.169 Y93.575 E0.03793
G1 X149.706 Y94.692 E0.03793
G1 X149.121 Y95.751 E0.03793
G1 X148.421 Y96.738 E0.03793
G1 X147.614 Y97.641 E0.03796
G1 X146.678 Y98.472 E0.03925
G1 X145.723 Y99.148 E0.03668
G1 X144.667 Y99.731 E0.03783
G1 X143.549 Y100.194 E0.03793
G1 X142.387 Y100.529 E0.03793
G1 X141.194 Y100.732 E0.03793
G1 X139.986 Y100.800 E0.03794
G1 X138.774 Y100.731 E0.03806
G1 X137.585 Y100.529 E0.03780
G1 X136.423 Y100.194 E0.03793
G1 X135.305 Y99.731 E0.03793
G1 X134.246 Y99.146 E0.03793
G1 X133.279 Y98.460 E0.03718
G1 X132.358 Y97.640 E0.03866
G1 X131.551 Y96.738 E0.03795
G1 X130.851 Y95.751 E0.03793
G1 X130.266 Y94.692 E0.03793
G1 X129.803 Y93.575 E0.03793
G1 X129.468 Y92.412 E0.03793
G1 X129.266 Y91.219 E0.03793
G1 X129.198 Y90.011 E0.03793
