; generated by PrusaSlicer 2.2.0+win64 on 2021-05-03 at 21:45:22 UTC

; 

; external perimeters extrusion width = 0.45mm
; perimeters extrusion width = 0.45mm
; infill extrusion width = 0.45mm
; solid infill extrusion width = 0.45mm
; top infill extrusion width = 0.40mm
; first layer extrusion width = 0.42mm

M73 P0 R43
M201 X9000 Y9000 Z500 E10000 ; sets maximum accelerations, mm/sec^2
M203 X500 Y500 Z12 E120 ; sets maximum feedrates, mm/sec
M204 P2000 R1500 T2000 ; sets acceleration (P, T) and retract acceleration (R), mm/sec^2
M205 X10.00 Y10.00 Z0.20 E2.50 ; sets the jerk limits, mm/sec
M205 S0 T0 ; sets the minimum extruding and travel feed rate, mm/sec
M107
M862.3 P "MK2S" ; printer model check
M862.1 P0.4 ; nozzle diameter check
M115 U3.2.3 ; tell printer latest fw version
G90 ; use absolute coordinates
M83 ; extruder relative mode
M204 S2000 T1500 ; MK2 firmware only supports the old M204 format
M104 S215 ; set extruder temp
M140 S60 ; set bed temp
M190 S60 ; wait for bed temp
M109 S215 ; wait for extruder temp
G28 W ; home all without mesh bed level
G80 ; mesh bed leveling
G1 Y-3.0 F1000.0 ; go outside print area
G92 E0.0
G1 X60.0 E9.0  F1000.0 ; intro line
M73 P0 R43
G1 X100.0 E12.5 F1000.0 ; intro line
G92 E0.0
G21 ; set units to millimeters
G90 ; use absolute coordinates
M83 ; use relative distances for extrusion
M900 K0.05 ; Filament gcode LA 1.5
M900 K30 ; Filament gcode LA 1.0
;BEFORE_LAYER_CHANGE
G92 E0.0
;0.2


G1 E-0.80000 F2100.00000
G1 Z0.600 F10800.000
;AFTER_LAYER_CHANGE
;0.2
G1 X154.564 Y123.273
G1 Z0.200
G1 E0.80000 F2100.00000
M204 S1000
G1 F1200.000
G1 X154.868 Y123.289 E0.00955
G1 X155.152 Y123.331 E0.00900
G1 X156.046 Y123.385 E0.02806
G1 X157.007 Y123.542 E0.03055
G1 X157.985 Y123.786 E0.03161
G1 X158.768 Y124.057 E0.02597
G1 X159.374 Y124.337 E0.02094
G1 X160.198 Y124.761 E0.02905
G1 X161.049 Y125.310 E0.03176
G1 X161.435 Y125.590 E0.01494
G1 X161.941 Y126.005 E0.02052
G1 X162.589 Y126.589 E0.02736
G1 X162.832 Y126.833 E0.01080
G1 X163.766 Y127.956 E0.04580
G1 X164.039 Y128.389 E0.01604
G1 X164.189 Y128.584 E0.00772
G1 X164.463 Y129.051 E0.01696
G1 X164.935 Y129.949 E0.03183
G1 X165.146 Y130.440 E0.01674
G1 X165.336 Y130.944 E0.01690
G1 X165.471 Y131.469 E0.01698
G1 X165.551 Y131.692 E0.00743
G1 X165.639 Y132.161 E0.01499
G1 X165.735 Y132.548 E0.01250
G1 X165.806 Y133.056 E0.01607
G1 X165.892 Y134.087 E0.03246
G1 X165.905 Y134.469 E0.01197
G1 X165.852 Y135.621 E0.03616
G1 X165.738 Y136.641 E0.03218
G1 X165.611 Y137.113 E0.01533
G1 X165.536 Y137.525 E0.01313
G1 X165.364 Y138.141 E0.02006
G1 X165.305 Y138.266 E0.00435
G1 X165.147 Y138.754 E0.01606
G1 X164.604 Y139.904 E0.03990
G1 X163.987 Y140.913 E0.03705
G1 X163.364 Y141.746 E0.03263
G1 X162.480 Y142.678 E0.04027
G1 X161.803 Y143.310 E0.02904
G1 X160.976 Y143.919 E0.03219
G1 X160.270 Y144.374 E0.02635
G1 X159.478 Y144.805 E0.02826
G1 X158.879 Y145.078 E0.02063
G1 X158.451 Y145.242 E0.01439
G1 X158.188 Y145.310 E0.00851
G1 X157.612 Y145.506 E0.01909
G1 X156.982 Y145.650 E0.02027
G1 X155.794 Y145.839 E0.03772
G1 X155.112 Y145.874 E0.02140
G1 X153.775 Y145.864 E0.04191
G1 X153.343 Y145.833 E0.01357
G1 X152.740 Y145.722 E0.01924
G1 X152.392 Y145.680 E0.01099
G1 X151.358 Y145.436 E0.03332
G1 X151.088 Y145.326 E0.00914
G1 X150.774 Y145.250 E0.01012
G1 X150.093 Y144.966 E0.02312
G1 X149.474 Y144.669 E0.02156
G1 X148.767 Y144.271 E0.02543
G1 X147.664 Y143.511 E0.04199
G1 X146.730 Y142.691 E0.03896
G1 X146.401 Y142.346 E0.01496
G1 X145.709 Y141.554 E0.03297
G1 X145.090 Y140.704 E0.03298
G1 X144.530 Y139.738 E0.03500
G1 X144.341 Y139.341 E0.01379
G1 X144.648 Y139.241 E0.01013
G1 X144.975 Y139.172 E0.01050
G1 X145.204 Y139.633 E0.01615
G1 X145.561 Y140.272 E0.02294
G1 X146.259 Y141.267 E0.03811
G1 X147.095 Y142.197 E0.03922
G1 X148.192 Y143.132 E0.04518
G1 X148.828 Y143.572 E0.02425
G1 X149.741 Y144.086 E0.03285
G1 X150.658 Y144.487 E0.03138
G1 X151.106 Y144.649 E0.01495
G1 X151.259 Y144.724 E0.00532
G1 X151.732 Y144.845 E0.01531
G1 X152.195 Y144.997 E0.01528
G1 X152.879 Y145.133 E0.02188
G1 X153.448 Y145.216 E0.01802
G1 X154.567 Y145.262 E0.03512
G1 X155.461 Y145.237 E0.02804
G1 X155.931 Y145.199 E0.01478
G1 X156.411 Y145.119 E0.01526
G1 X157.098 Y144.983 E0.02197
G1 X157.484 Y144.849 E0.01279
G1 X158.009 Y144.708 E0.01704
G1 X159.324 Y144.162 E0.04464
G1 X160.353 Y143.602 E0.03676
G1 X161.286 Y142.934 E0.03597
G1 X162.157 Y142.156 E0.03662
G1 X163.020 Y141.191 E0.04060
G1 X163.534 Y140.468 E0.02780
G1 X164.060 Y139.555 E0.03304
G1 X164.301 Y139.037 E0.01793
G1 X164.669 Y138.120 E0.03098
G1 X164.737 Y137.887 E0.00760
G1 X164.805 Y137.748 E0.00487
G1 X164.941 Y137.189 E0.01804
G1 X165.063 Y136.805 E0.01261
G1 X165.156 Y136.140 E0.02106
G1 X165.248 Y135.769 E0.01197
G1 X165.294 Y134.664 E0.03470
G1 X165.239 Y133.376 E0.04040
G1 X165.150 Y133.019 E0.01154
G1 X165.048 Y132.311 E0.02242
G1 X164.697 Y131.119 E0.03898
G1 X164.377 Y130.323 E0.02689
G1 X164.074 Y129.670 E0.02258
G1 X163.896 Y129.337 E0.01182
G1 X163.490 Y128.668 E0.02456
G1 X163.080 Y128.081 E0.02245
G1 X162.790 Y127.708 E0.01480
G1 X162.140 Y127.004 E0.03005
G1 X161.479 Y126.406 E0.02794
G1 X161.136 Y126.131 E0.01380
G1 X160.259 Y125.534 E0.03324
G1 X159.531 Y125.132 E0.02609
G1 X159.117 Y124.932 E0.01444
G1 X158.113 Y124.516 E0.03406
G1 X157.863 Y124.450 E0.00809
G1 X157.521 Y124.324 E0.01143
G1 X157.146 Y124.243 E0.01204
G1 X156.778 Y124.125 E0.01213
G1 X156.161 Y124.045 E0.01949
G1 X155.791 Y123.964 E0.01189
G1 X155.077 Y123.911 E0.02244
G1 X154.235 Y123.912 E0.02641
G1 X153.266 Y123.979 E0.03044
G1 X152.991 Y124.050 E0.00890
G1 X152.440 Y124.124 E0.01746
G1 X152.272 Y124.160 E0.00538
G1 X152.029 Y124.254 E0.00817
G1 X151.702 Y124.324 E0.01048
G1 X151.365 Y124.447 E0.01124
G1 X151.160 Y124.498 E0.00662
G1 X149.852 Y125.037 E0.04437
G1 X148.941 Y125.541 E0.03264
G1 X147.899 Y126.269 E0.03985
G1 X146.983 Y127.098 E0.03872
G1 X146.263 Y127.905 E0.03393
G1 X145.741 Y128.637 E0.02819
G1 X145.488 Y129.034 E0.01476
G1 X145.155 Y129.640 E0.02166
G1 X144.713 Y130.631 E0.03404
G1 X144.424 Y131.402 E0.02579
G1 X144.355 Y131.723 E0.01030
G1 X144.255 Y131.976 E0.00853
G1 X144.174 Y132.324 E0.01121
G1 X144.129 Y132.658 E0.01059
G1 X144.018 Y133.135 E0.01534
G1 X143.970 Y133.651 E0.01625
G1 X143.935 Y134.587 E0.02938
G1 X143.974 Y135.669 E0.03394
G1 X143.698 Y135.737 E0.00891
G1 X143.377 Y135.845 E0.01062
G1 X143.317 Y134.847 E0.03136
G1 X143.308 Y134.242 E0.01897
G1 X143.373 Y133.331 E0.02864
G1 X143.540 Y132.240 E0.03461
G1 X143.758 Y131.383 E0.02773
G1 X143.848 Y131.130 E0.00840
G1 X143.935 Y130.803 E0.01060
G1 X144.121 Y130.315 E0.01638
G1 X144.335 Y129.848 E0.01612
G1 X144.715 Y129.103 E0.02623
G1 X144.897 Y128.787 E0.01144
G1 X145.048 Y128.587 E0.00786
G1 X145.296 Y128.182 E0.01488
G1 X145.599 Y127.771 E0.01603
G1 X146.102 Y127.154 E0.02493
G1 X146.795 Y126.448 E0.03104
G1 X147.244 Y126.033 E0.01916
G1 X148.119 Y125.340 E0.03500
G1 X148.595 Y125.025 E0.01791
G1 X149.432 Y124.533 E0.03042
G1 X150.031 Y124.232 E0.02101
G1 X151.019 Y123.845 E0.03328
G1 X151.299 Y123.784 E0.00898
G1 X151.703 Y123.659 E0.01327
G1 X152.593 Y123.467 E0.02854
G1 X153.028 Y123.403 E0.01380
G1 X154.068 Y123.331 E0.03267
G1 X154.504 Y123.280 E0.01378
G1 X154.714 Y123.538 F10800.000
G1 E-0.80000 F2100.00000
G1 Z0.800 F10800.000
G1 X143.665 Y135.551
G1 Z0.200
G1 E0.80000 F2100.00000
G1 F1200.000
G1 X143.624 Y134.583 E0.01668
G1 X143.683 Y133.366 E0.02097
G1 X143.860 Y132.273 E0.01906
G1 X144.123 Y131.303 E0.01729
G1 X144.429 Y130.445 E0.01569
G1 X144.998 Y129.257 E0.02268
G1 X145.163 Y128.963 E0.00579
G1 X145.556 Y128.357 E0.01243
G1 X146.025 Y127.723 E0.01358
G1 X146.333 Y127.361 E0.00817
G1 X146.778 Y126.886 E0.01121
G1 X147.718 Y126.031 E0.02187
G1 X148.304 Y125.599 E0.01253
G1 X148.770 Y125.282 E0.00970
G1 X149.722 Y124.745 E0.01882
G1 X150.171 Y124.540 E0.00849
G1 X151.068 Y124.183 E0.01662
G1 X152.194 Y123.865 E0.02013
G1 X153.229 Y123.686 E0.01808
G1 X154.574 Y123.593 E0.02322
G1 X155.826 Y123.669 E0.02159
G1 X156.834 Y123.824 E0.01755
G1 X157.619 Y124.021 E0.01393
G1 X158.208 Y124.206 E0.01064
G1 X158.642 Y124.370 E0.00798
G1 X159.252 Y124.638 E0.01148
G1 X160.036 Y125.041 E0.01517
G1 X160.871 Y125.570 E0.01702
G1 X161.313 Y125.884 E0.00933
G1 X161.677 Y126.179 E0.00807
G1 X162.351 Y126.784 E0.01558
G1 X162.601 Y127.043 E0.00621
G1 X163.326 Y127.903 E0.01935
G1 X163.509 Y128.143 E0.00520
G1 X163.923 Y128.764 E0.01285
G1 X164.185 Y129.205 E0.00883
G1 X164.636 Y130.092 E0.01713
G1 X165.015 Y131.029 E0.01740
G1 X165.236 Y131.777 E0.01343
G1 X165.348 Y132.256 E0.00846
G1 X165.532 Y133.333 E0.01880
G1 X165.584 Y134.105 E0.01334
G1 X165.597 Y134.661 E0.00956
G1 X165.536 Y135.821 E0.02000
G1 X165.362 Y136.863 E0.01902
G1 X165.113 Y137.844 E0.01822
G1 X164.831 Y138.629 E0.01502
G1 X164.347 Y139.698 E0.02113
G1 X163.791 Y140.640 E0.01970
G1 X163.262 Y141.376 E0.01632
G1 X162.362 Y142.370 E0.02414
G1 X161.482 Y143.168 E0.02240
G1 X160.519 Y143.854 E0.02227
G1 X159.457 Y144.453 E0.02299
G1 X158.418 Y144.902 E0.02132
G1 X157.172 Y145.286 E0.02459
G1 X155.964 Y145.503 E0.02312
G1 X155.475 Y145.546 E0.00925
G1 X154.569 Y145.566 E0.01707
G1 X153.425 Y145.527 E0.02157
G1 X152.447 Y145.369 E0.01867
G1 X151.459 Y145.118 E0.01921
G1 X150.540 Y144.795 E0.01836
G1 X149.592 Y144.369 E0.01959
G1 X148.669 Y143.836 E0.02009
G1 X147.859 Y143.266 E0.01867
G1 X146.888 Y142.418 E0.02427
G1 X146.018 Y141.450 E0.02454
G1 X145.949 Y141.362 E0.00221
G1 X145.293 Y140.432 E0.02345
G1 X144.921 Y139.779 E0.01624
G1 X144.735 Y139.415 E0.00930
G1 E-0.80000 F2100.00000
G1 Z0.800 F10800.000
G1 X155.112 Y116.288
G1 Z0.200
G1 E0.80000 F2100.00000
G1 F1200.000
G1 X153.775 Y116.277 E0.04191
G1 X153.343 Y116.247 E0.01357
G1 X152.740 Y116.136 E0.01924
G1 X152.392 Y116.094 E0.01099
G1 X151.358 Y115.849 E0.03332
G1 X151.088 Y115.740 E0.00914
G1 X150.774 Y115.664 E0.01012
G1 X150.093 Y115.380 E0.02312
G1 X149.474 Y115.083 E0.02156
G1 X148.767 Y114.685 E0.02543
G1 X147.664 Y113.925 E0.04199
G1 X146.730 Y113.105 E0.03896
G1 X146.401 Y112.759 E0.01496
G1 X145.709 Y111.968 E0.03297
G1 X145.090 Y111.117 E0.03298
G1 X144.530 Y110.152 E0.03500
G1 X144.341 Y109.755 E0.01379
G1 X144.648 Y109.655 E0.01013
G1 X144.975 Y109.585 E0.01050
G1 X145.204 Y110.047 E0.01615
G1 X145.561 Y110.685 E0.02294
G1 X146.259 Y111.681 E0.03811
G1 X147.095 Y112.611 E0.03922
G1 X148.192 Y113.546 E0.04518
G1 X148.828 Y113.985 E0.02425
G1 X149.741 Y114.500 E0.03285
G1 X150.658 Y114.901 E0.03138
G1 X151.106 Y115.063 E0.01495
G1 X151.259 Y115.137 E0.00532
G1 X151.732 Y115.259 E0.01531
G1 X152.195 Y115.410 E0.01528
G1 X152.879 Y115.546 E0.02188
G1 X153.448 Y115.629 E0.01802
G1 X154.567 Y115.675 E0.03512
G1 X155.461 Y115.651 E0.02804
G1 X155.931 Y115.612 E0.01478
G1 X156.411 Y115.532 E0.01526
G1 X157.098 Y115.396 E0.02197
G1 X157.484 Y115.263 E0.01279
G1 X158.009 Y115.122 E0.01704
G1 X159.324 Y114.576 E0.04464
G1 X160.353 Y114.015 E0.03676
G1 X161.286 Y113.348 E0.03597
G1 X162.157 Y112.569 E0.03662
G1 X163.020 Y111.605 E0.04060
G1 X163.534 Y110.882 E0.02780
G1 X164.060 Y109.969 E0.03304
G1 X164.301 Y109.450 E0.01793
G1 X164.669 Y108.533 E0.03098
G1 X164.737 Y108.300 E0.00760
G1 X164.805 Y108.161 E0.00487
G1 X164.941 Y107.602 E0.01804
G1 X165.063 Y107.219 E0.01261
G1 X165.156 Y106.553 E0.02106
G1 X165.248 Y106.183 E0.01197
G1 X165.294 Y105.077 E0.03470
G1 X165.239 Y103.790 E0.04040
G1 X165.150 Y103.433 E0.01154
G1 X165.048 Y102.725 E0.02242
G1 X164.697 Y101.532 E0.03898
G1 X164.377 Y100.737 E0.02689
G1 X164.074 Y100.083 E0.02258
G1 X163.896 Y99.751 E0.01182
G1 X163.490 Y99.081 E0.02456
G1 X163.080 Y98.494 E0.02245
G1 X162.790 Y98.122 E0.01480
G1 X162.140 Y97.417 E0.03005
G1 X161.479 Y96.820 E0.02794
G1 X161.136 Y96.545 E0.01380
G1 X160.259 Y95.948 E0.03324
G1 X159.531 Y95.545 E0.02609
G1 X159.117 Y95.345 E0.01444
G1 X158.113 Y94.930 E0.03406
G1 X157.863 Y94.863 E0.00809
G1 X157.521 Y94.737 E0.01143
G1 X157.146 Y94.656 E0.01204
G1 X156.778 Y94.539 E0.01213
G1 X156.161 Y94.458 E0.01949
G1 X155.791 Y94.377 E0.01189
G1 X155.077 Y94.324 E0.02244
G1 X154.235 Y94.325 E0.02641
G1 X153.266 Y94.393 E0.03044
G1 X152.991 Y94.464 E0.00890
G1 X152.440 Y94.538 E0.01746
G1 X152.272 Y94.573 E0.00538
G1 X152.029 Y94.667 E0.00817
G1 X151.702 Y94.738 E0.01048
G1 X151.365 Y94.861 E0.01124
G1 X151.160 Y94.911 E0.00662
G1 X149.852 Y95.451 E0.04437
G1 X148.941 Y95.955 E0.03264
G1 X147.899 Y96.683 E0.03985
G1 X146.983 Y97.511 E0.03872
G1 X146.263 Y98.319 E0.03393
G1 X145.741 Y99.051 E0.02819
G1 X145.488 Y99.448 E0.01476
G1 X145.155 Y100.053 E0.02166
G1 X144.713 Y101.045 E0.03404
G1 X144.424 Y101.815 E0.02579
G1 X144.355 Y102.136 E0.01030
G1 X144.255 Y102.389 E0.00853
G1 X144.174 Y102.738 E0.01121
G1 X144.129 Y103.072 E0.01059
G1 X144.018 Y103.549 E0.01534
G1 X143.970 Y104.065 E0.01625
G1 X143.935 Y105.001 E0.02938
G1 X143.974 Y106.083 E0.03394
G1 X143.698 Y106.150 E0.00891
G1 X143.377 Y106.259 E0.01062
G1 X143.317 Y105.261 E0.03136
G1 X143.308 Y104.656 E0.01897
G1 X143.373 Y103.744 E0.02864
G1 X143.540 Y102.653 E0.03461
G1 X143.758 Y101.796 E0.02773
G1 X143.848 Y101.544 E0.00840
G1 X143.935 Y101.217 E0.01060
G1 X144.121 Y100.729 E0.01638
G1 X144.335 Y100.262 E0.01612
G1 X144.715 Y99.517 E0.02623
G1 X144.897 Y99.200 E0.01144
G1 X145.048 Y99.001 E0.00786
G1 X145.296 Y98.596 E0.01488
G1 X145.599 Y98.184 E0.01603
G1 X146.102 Y97.568 E0.02493
G1 X146.795 Y96.861 E0.03104
G1 X147.244 Y96.447 E0.01916
G1 X148.119 Y95.753 E0.03500
G1 X148.595 Y95.438 E0.01791
G1 X149.432 Y94.947 E0.03042
G1 X150.031 Y94.646 E0.02101
G1 X151.019 Y94.259 E0.03328
G1 X151.299 Y94.198 E0.00898
G1 X151.703 Y94.073 E0.01327
G1 X152.593 Y93.881 E0.02854
G1 X153.028 Y93.817 E0.01380
G1 X154.068 Y93.744 E0.03267
G1 X154.564 Y93.686 E0.01566
G1 X154.868 Y93.702 E0.00955
G1 X155.152 Y93.744 E0.00900
G1 X156.046 Y93.799 E0.02806
G1 X157.007 Y93.955 E0.03055
G1 X157.985 Y94.199 E0.03161
G1 X158.768 Y94.470 E0.02597
G1 X159.374 Y94.750 E0.02094
G1 X160.198 Y95.175 E0.02905
G1 X161.049 Y95.723 E0.03176
G1 X161.435 Y96.003 E0.01494
G1 X161.941 Y96.418 E0.02052
G1 X162.589 Y97.002 E0.02736
G1 X162.832 Y97.247 E0.01080
G1 X163.766 Y98.370 E0.04580
G1 X164.039 Y98.803 E0.01604
G1 X164.189 Y98.997 E0.00772
G1 X164.463 Y99.464 E0.01696
G1 X164.935 Y100.363 E0.03183
G1 X165.146 Y100.853 E0.01674
G1 X165.336 Y101.358 E0.01690
G1 X165.471 Y101.882 E0.01698
G1 X165.551 Y102.105 E0.00743
G1 X165.639 Y102.575 E0.01499
G1 X165.735 Y102.962 E0.01250
G1 X165.806 Y103.470 E0.01607
G1 X165.892 Y104.501 E0.03246
G1 X165.905 Y104.882 E0.01197
G1 X165.852 Y106.035 E0.03616
G1 X165.738 Y107.055 E0.03218
G1 X165.611 Y107.527 E0.01533
G1 X165.536 Y107.939 E0.01313
G1 X165.364 Y108.555 E0.02006
G1 X165.305 Y108.680 E0.00435
G1 X165.147 Y109.168 E0.01606
G1 X164.604 Y110.318 E0.03990
G1 X163.987 Y111.326 E0.03705
G1 X163.364 Y112.160 E0.03263
G1 X162.480 Y113.091 E0.04027
G1 X161.803 Y113.724 E0.02904
G1 X160.976 Y114.333 E0.03219
G1 X160.270 Y114.788 E0.02635
G1 X159.478 Y115.219 E0.02826
G1 X158.879 Y115.492 E0.02063
G1 X158.451 Y115.656 E0.01439
G1 X158.188 Y115.723 E0.00851
G1 X157.612 Y115.919 E0.01909
G1 X156.982 Y116.064 E0.02027
G1 X155.794 Y116.253 E0.03772
G1 X155.172 Y116.285 E0.01952
G1 X154.900 Y115.948 F10800.000
G1 E-0.80000 F2100.00000
G1 Z0.800 F10800.000
G1 X162.362 Y112.784
G1 Z0.200
G1 E0.80000 F2100.00000
G1 F1200.000
G1 X161.482 Y113.582 E0.02240
G1 X160.519 Y114.268 E0.02227
G1 X159.457 Y114.866 E0.02299
G1 X158.418 Y115.316 E0.02132
G1 X157.172 Y115.700 E0.02459
G1 X155.964 Y115.916 E0.02312
G1 X155.475 Y115.959 E0.00925
G1 X154.569 Y115.979 E0.01707
G1 X153.425 Y115.940 E0.02157
G1 X152.447 Y115.782 E0.01867
G1 X151.459 Y115.532 E0.01921
G1 X150.540 Y115.209 E0.01836
G1 X149.592 Y114.783 E0.01959
G1 X148.669 Y114.249 E0.02009
G1 X147.859 Y113.679 E0.01867
G1 X146.888 Y112.832 E0.02427
G1 X146.018 Y111.863 E0.02454
G1 X145.949 Y111.776 E0.00221
G1 X145.293 Y110.846 E0.02345
G1 X144.921 Y110.192 E0.01624
G1 X144.735 Y109.829 E0.00930
G1 X143.665 Y105.964 F10800.000
G1 F1200.000
G1 X143.624 Y104.996 E0.01668
G1 X143.683 Y103.779 E0.02097
