; generated by PrusaSlicer 2.2.0+win64 on 2021-05-03 at 21:45:02 UTC

; 

; external perimeters extrusion width = 0.45mm
; perimeters extrusion width = 0.45mm
; infill extrusion width = 0.45mm
; solid infill extrusion width = 0.45mm
; top infill extrusion width = 0.40mm
; first layer extrusion width = 0.42mm

M73 P0 R22
M201 X9000 Y9000 Z500 E10000 ; sets maximum accelerations, mm/sec^2
M203 X500 Y500 Z12 E120 ; sets maximum feedrates, mm/sec
M204 P2000 R1500 T2000 ; sets acceleration (P, T) and retract acceleration (R), mm/sec^2
M205 X10.00 Y10.00 Z0.20 E2.50 ; sets the jerk limits, mm/sec
M205 S0 T0 ; sets the minimum extruding and travel feed rate, mm/sec
M107
M862.3 P "MK2S" ; printer model check
M862.1 P0.4 ; nozzle diameter check
M115 U3.2.3 ; tell printer latest fw version
G90 ; use absolute coordinates
M83 ; extruder relative mode
M204 S2000 T1500 ; MK2 firmware only supports the old M204 format
M104 S215 ; set extruder temp
M140 S60 ; set bed temp
M190 S60 ; wait for bed temp
M109 S215 ; wait for extruder temp
G28 W ; home all without mesh bed level
G80 ; mesh bed leveling
G1 Y-3.0 F1000.0 ; go outside print area
G92 E0.0
G1 X60.0 E9.0  F1000.0 ; intro line
M73 P0 R22
G1 X100.0 E12.5 F1000.0 ; intro line
G92 E0.0
G21 ; set units to millimeters
G90 ; use absolute coordinates
M83 ; use relative distances for extrusion
M900 K0.05 ; Filament gcode LA 1.5
M900 K30 ; Filament gcode LA 1.0
;BEFORE_LAYER_CHANGE
G92 E0.0
;0.2


G1 E-0.80000 F2100.00000
G1 Z0.600 F10800.000
;AFTER_LAYER_CHANGE
;0.2
G1 X110.152 Y108.480
G1 Z0.200
G1 E0.80000 F2100.00000
M204 S1000
G1 F1200.000
G1 X110.456 Y108.495 E0.00955
G1 X110.740 Y108.537 E0.00900
G1 X111.634 Y108.592 E0.02806
G1 X112.595 Y108.748 E0.03055
G1 X113.573 Y108.993 E0.03161
G1 X114.356 Y109.263 E0.02597
G1 X114.962 Y109.543 E0.02094
G1 X115.786 Y109.968 E0.02905
G1 X116.637 Y110.517 E0.03176
G1 X117.023 Y110.797 E0.01494
G1 X117.529 Y111.212 E0.02052
G1 X118.177 Y111.796 E0.02736
G1 X118.420 Y112.040 E0.01080
G1 X119.354 Y113.163 E0.04580
G1 X119.627 Y113.596 E0.01604
G1 X119.777 Y113.791 E0.00772
G1 X120.051 Y114.257 E0.01696
G1 X120.523 Y115.156 E0.03183
G1 X120.734 Y115.646 E0.01674
G1 X120.924 Y116.151 E0.01690
G1 X121.059 Y116.675 E0.01698
G1 X121.139 Y116.898 E0.00743
G1 X121.227 Y117.368 E0.01499
G1 X121.323 Y117.755 E0.01250
G1 X121.394 Y118.263 E0.01607
G1 X121.480 Y119.294 E0.03246
G1 X121.493 Y119.676 E0.01197
G1 X121.440 Y120.828 E0.03616
G1 X121.326 Y121.848 E0.03218
G1 X121.199 Y122.320 E0.01533
G1 X121.124 Y122.732 E0.01313
G1 X120.952 Y123.348 E0.02006
G1 X120.893 Y123.473 E0.00435
G1 X120.735 Y123.961 E0.01606
G1 X120.192 Y125.111 E0.03990
G1 X119.575 Y126.119 E0.03705
G1 X118.952 Y126.953 E0.03263
G1 X118.068 Y127.884 E0.04027
G1 X117.391 Y128.517 E0.02904
G1 X116.565 Y129.126 E0.03219
G1 X115.858 Y129.581 E0.02635
G1 X115.066 Y130.012 E0.02826
G1 X114.467 Y130.285 E0.02063
G1 X114.039 Y130.449 E0.01439
G1 X113.776 Y130.516 E0.00851
G1 X113.200 Y130.712 E0.01909
G1 X112.570 Y130.857 E0.02027
G1 X111.382 Y131.046 E0.03772
G1 X110.700 Y131.081 E0.02140
G1 X109.363 Y131.070 E0.04191
G1 X108.931 Y131.040 E0.01357
G1 X108.328 Y130.929 E0.01924
G1 X107.980 Y130.887 E0.01099
G1 X106.946 Y130.643 E0.03332
G1 X106.676 Y130.533 E0.00914
G1 X106.362 Y130.457 E0.01012
G1 X105.682 Y130.173 E0.02312
G1 X105.062 Y129.876 E0.02156
G1 X104.355 Y129.478 E0.02543
G1 X103.252 Y128.718 E0.04199
G1 X102.318 Y127.898 E0.03896
G1 X101.989 Y127.552 E0.01496
G1 X101.297 Y126.761 E0.03297
G1 X100.678 Y125.910 E0.03298
G1 X100.118 Y124.945 E0.03500
G1 X99.929 Y124.548 E0.01379
G1 X100.236 Y124.448 E0.01013
G1 X100.563 Y124.378 E0.01050
G1 X100.792 Y124.840 E0.01615
G1 X101.149 Y125.478 E0.02294
G1 X101.847 Y126.474 E0.03811
G1 X102.683 Y127.404 E0.03922
G1 X103.780 Y128.339 E0.04518
G1 X104.416 Y128.778 E0.02425
G1 X105.329 Y129.293 E0.03285
G1 X106.246 Y129.694 E0.03138
G1 X106.694 Y129.856 E0.01495
G1 X106.847 Y129.930 E0.00532
G1 X107.320 Y130.052 E0.01531
G1 X107.783 Y130.204 E0.01528
G1 X108.467 Y130.340 E0.02188
G1 X109.036 Y130.423 E0.01802
G1 X110.155 Y130.469 E0.03512
G1 X111.049 Y130.444 E0.02804
G1 X111.519 Y130.406 E0.01478
G1 X111.999 Y130.325 E0.01526
G1 X112.686 Y130.189 E0.02197
G1 X113.072 Y130.056 E0.01279
G1 X113.597 Y129.915 E0.01704
G1 X114.912 Y129.369 E0.04464
G1 X115.941 Y128.808 E0.03676
G1 X116.874 Y128.141 E0.03597
G1 X117.745 Y127.363 E0.03662
G1 X118.609 Y126.398 E0.04060
G1 X119.122 Y125.675 E0.02780
G1 X119.648 Y124.762 E0.03304
G1 X119.889 Y124.243 E0.01793
G1 X120.257 Y123.326 E0.03098
G1 X120.325 Y123.094 E0.00760
G1 X120.393 Y122.954 E0.00487
G1 X120.529 Y122.395 E0.01804
G1 X120.651 Y122.012 E0.01261
G1 X120.744 Y121.347 E0.02106
G1 X120.836 Y120.976 E0.01197
G1 X120.882 Y119.870 E0.03470
G1 X120.827 Y118.583 E0.04040
G1 X120.738 Y118.226 E0.01154
G1 X120.636 Y117.518 E0.02242
G1 X120.285 Y116.326 E0.03898
G1 X119.965 Y115.530 E0.02689
G1 X119.662 Y114.877 E0.02258
G1 X119.484 Y114.544 E0.01182
G1 X119.078 Y113.874 E0.02456
G1 X118.668 Y113.287 E0.02245
G1 X118.378 Y112.915 E0.01480
G1 X117.728 Y112.211 E0.03005
G1 X117.067 Y111.613 E0.02794
G1 X116.724 Y111.338 E0.01380
G1 X115.848 Y110.741 E0.03324
G1 X115.119 Y110.339 E0.02609
G1 X114.705 Y110.138 E0.01444
G1 X113.701 Y109.723 E0.03406
G1 X113.451 Y109.656 E0.00809
G1 X113.110 Y109.530 E0.01143
G1 X112.734 Y109.450 E0.01204
G1 X112.366 Y109.332 E0.01213
G1 X111.749 Y109.251 E0.01949
G1 X111.379 Y109.170 E0.01189
G1 X110.665 Y109.117 E0.02244
G1 X109.823 Y109.119 E0.02641
G1 X108.854 Y109.186 E0.03044
G1 X108.579 Y109.257 E0.00890
G1 X108.028 Y109.331 E0.01746
G1 X107.860 Y109.367 E0.00538
G1 X107.617 Y109.460 E0.00817
G1 X107.290 Y109.531 E0.01048
G1 X106.953 Y109.654 E0.01124
G1 X106.748 Y109.704 E0.00662
G1 X105.440 Y110.244 E0.04437
G1 X104.529 Y110.748 E0.03264
G1 X103.487 Y111.476 E0.03985
G1 X102.571 Y112.304 E0.03872
G1 X101.851 Y113.112 E0.03393
G1 X101.329 Y113.844 E0.02819
G1 X101.076 Y114.241 E0.01476
G1 X100.743 Y114.847 E0.02166
G1 X100.301 Y115.838 E0.03404
G1 X100.012 Y116.608 E0.02579
G1 X99.943 Y116.930 E0.01030
G1 X99.843 Y117.182 E0.00853
G1 X99.762 Y117.531 E0.01121
G1 X99.717 Y117.865 E0.01059
G1 X99.606 Y118.342 E0.01534
G1 X99.558 Y118.858 E0.01625
G1 X99.523 Y119.794 E0.02938
G1 X99.562 Y120.876 E0.03394
G1 X99.286 Y120.943 E0.00891
G1 X98.965 Y121.052 E0.01062
G1 X98.905 Y120.054 E0.03136
G1 X98.896 Y119.449 E0.01897
G1 X98.961 Y118.538 E0.02864
G1 X99.128 Y117.447 E0.03461
G1 X99.346 Y116.590 E0.02773
G1 X99.436 Y116.337 E0.00840
G1 X99.523 Y116.010 E0.01060
G1 X99.709 Y115.522 E0.01638
G1 X99.923 Y115.055 E0.01612
G1 X100.303 Y114.310 E0.02623
G1 X100.485 Y113.994 E0.01144
G1 X100.636 Y113.794 E0.00786
G1 X100.884 Y113.389 E0.01488
G1 X101.187 Y112.977 E0.01603
G1 X101.690 Y112.361 E0.02493
G1 X102.383 Y111.655 E0.03104
G1 X102.832 Y111.240 E0.01916
G1 X103.707 Y110.546 E0.03500
G1 X104.183 Y110.231 E0.01791
G1 X105.020 Y109.740 E0.03042
G1 X105.619 Y109.439 E0.02101
G1 X106.607 Y109.052 E0.03328
G1 X106.887 Y108.991 E0.00898
G1 X107.291 Y108.866 E0.01327
G1 X108.181 Y108.674 E0.02854
G1 X108.616 Y108.610 E0.01380
G1 X109.656 Y108.538 E0.03267
G1 X110.092 Y108.487 E0.01378
G1 X110.303 Y108.744 F10800.000
G1 E-0.80000 F2100.00000
G1 Z0.800 F10800.000
G1 X99.253 Y120.757
G1 Z0.200
G1 E0.80000 F2100.00000
G1 F1200.000
G1 X99.212 Y119.789 E0.01668
G1 X99.271 Y118.572 E0.02097
G1 X99.448 Y117.479 E0.01906
G1 X99.711 Y116.510 E0.01729
G1 X100.017 Y115.652 E0.01569
G1 X100.586 Y114.463 E0.02268
G1 X100.751 Y114.170 E0.00579
G1 X101.144 Y113.564 E0.01243
G1 X101.613 Y112.930 E0.01358
G1 X101.921 Y112.568 E0.00817
G1 X102.366 Y112.093 E0.01121
G1 X103.306 Y111.238 E0.02187
G1 X103.892 Y110.805 E0.01253
G1 X104.358 Y110.489 E0.00970
G1 X105.310 Y109.952 E0.01882
G1 X105.759 Y109.747 E0.00849
G1 X106.656 Y109.389 E0.01662
G1 X107.782 Y109.072 E0.02013
G1 X108.817 Y108.892 E0.01808
G1 X110.162 Y108.799 E0.02322
G1 X111.414 Y108.876 E0.02159
G1 X112.422 Y109.030 E0.01755
G1 X113.207 Y109.228 E0.01393
G1 X113.796 Y109.413 E0.01064
G1 X114.230 Y109.577 E0.00798
G1 X114.840 Y109.845 E0.01148
G1 X115.624 Y110.248 E0.01517
G1 X116.459 Y110.777 E0.01702
G1 X116.901 Y111.090 E0.00933
G1 X117.265 Y111.385 E0.00807
G1 X117.939 Y111.990 E0.01558
G1 X118.189 Y112.250 E0.00621
G1 X118.914 Y113.109 E0.01935
G1 X119.097 Y113.349 E0.00520
G1 X119.511 Y113.970 E0.01285
G1 X119.773 Y114.412 E0.00883
G1 X120.224 Y115.299 E0.01713
G1 X120.603 Y116.236 E0.01740
G1 X120.824 Y116.984 E0.01343
G1 X120.936 Y117.463 E0.00846
G1 X121.120 Y118.539 E0.01880
G1 X121.172 Y119.312 E0.01334
G1 X121.185 Y119.868 E0.00956
G1 X121.124 Y121.028 E0.02000
G1 X120.951 Y122.070 E0.01902
G1 X120.701 Y123.051 E0.01822
G1 X120.419 Y123.835 E0.01502
G1 X119.935 Y124.904 E0.02113
G1 X119.379 Y125.847 E0.01970
G1 X118.850 Y126.582 E0.01632
G1 X117.950 Y127.577 E0.02414
G1 X117.070 Y128.375 E0.02240
G1 X116.108 Y129.061 E0.02227
G1 X115.045 Y129.660 E0.02299
G1 X114.006 Y130.109 E0.02132
G1 X112.760 Y130.493 E0.02459
G1 X111.552 Y130.709 E0.02312
G1 X111.063 Y130.753 E0.00925
G1 X110.157 Y130.773 E0.01707
G1 X109.013 Y130.734 E0.02157
G1 X108.035 Y130.576 E0.01867
G1 X107.047 Y130.325 E0.01921
G1 X106.128 Y130.002 E0.01836
G1 X105.180 Y129.576 E0.01959
G1 X104.257 Y129.043 E0.02009
G1 X103.447 Y128.473 E0.01867
G1 X102.476 Y127.625 E0.02427
G1 X101.606 Y126.656 E0.02454
G1 X101.537 Y126.569 E0.00221
G1 X100.881 Y125.639 E0.02345
G1 X100.509 Y124.985 E0.01624
G1 X100.323 Y124.622 E0.00930
G1 E-0.80000 F2100.00000
G1 Z0.800 F10800.000
G1 X110.700 Y101.495
G1 Z0.200
G1 E0.80000 F2100.00000
G1 F1200.000
G1 X109.363 Y101.484 E0.04191
G1 X108.931 Y101.454 E0.01357
G1 X108.328 Y101.342 E0.01924
G1 X107.980 Y101.301 E0.01099
G1 X106.946 Y101.056 E0.03332
G1 X106.676 Y100.947 E0.00914
G1 X106.362 Y100.870 E0.01012
G1 X105.682 Y100.587 E0.02312
G1 X105.062 Y100.289 E0.02156
G1 X104.355 Y99.892 E0.02543
G1 X103.252 Y99.131 E0.04199
G1 X102.318 Y98.312 E0.03896
G1 X101.989 Y97.966 E0.01496
G1 X101.297 Y97.175 E0.03297
G1 X100.678 Y96.324 E0.03298
G1 X100.118 Y95.359 E0.03500
G1 X99.929 Y94.961 E0.01379
G1 X100.236 Y94.862 E0.01013
G1 X100.563 Y94.792 E0.01050
G1 X100.792 Y95.253 E0.01615
G1 X101.149 Y95.892 E0.02294
G1 X101.847 Y96.887 E0.03811
G1 X102.683 Y97.818 E0.03922
G1 X103.780 Y98.753 E0.04518
G1 X104.416 Y99.192 E0.02425
G1 X105.329 Y99.707 E0.03285
G1 X106.246 Y100.108 E0.03138
G1 X106.694 Y100.269 E0.01495
G1 X106.847 Y100.344 E0.00532
G1 X107.320 Y100.466 E0.01531
G1 X107.783 Y100.617 E0.01528
G1 X108.467 Y100.753 E0.02188
G1 X109.036 Y100.836 E0.01802
G1 X110.155 Y100.882 E0.03512
G1 X111.049 Y100.857 E0.02804
G1 X111.519 Y100.819 E0.01478
G1 X111.999 Y100.739 E0.01526
G1 X112.686 Y100.603 E0.02197
G1 X113.072 Y100.470 E0.01279
G1 X113.597 Y100.328 E0.01704
G1 X114.912 Y99.783 E0.04464
G1 X115.941 Y99.222 E0.03676
G1 X116.874 Y98.555 E0.03597
G1 X117.745 Y97.776 E0.03662
G1 X118.609 Y96.811 E0.04060
G1 X119.122 Y96.089 E0.02780
G1 X119.648 Y95.175 E0.03304
G1 X119.889 Y94.657 E0.01793
G1 X120.257 Y93.740 E0.03098
G1 X120.325 Y93.507 E0.00760
G1 X120.393 Y93.368 E0.00487
G1 X120.529 Y92.809 E0.01804
G1 X120.651 Y92.425 E0.01261
G1 X120.744 Y91.760 E0.02106
G1 X120.836 Y91.390 E0.01197
G1 X120.882 Y90.284 E0.03470
G1 X120.827 Y88.997 E0.04040
G1 X120.738 Y88.640 E0.01154
G1 X120.636 Y87.932 E0.02242
G1 X120.285 Y86.739 E0.03898
G1 X119.965 Y85.944 E0.02689
G1 X119.662 Y85.290 E0.02258
G1 X119.484 Y84.958 E0.01182
G1 X119.078 Y84.288 E0.02456
G1 X118.668 Y83.701 E0.02245
G1 X118.378 Y83.329 E0.01480
G1 X117.728 Y82.624 E0.03005
G1 X117.067 Y82.026 E0.02794
G1 X116.724 Y81.751 E0.01380
G1 X115.848 Y81.155 E0.03324
G1 X115.119 Y80.752 E0.02609
G1 X114.705 Y80.552 E0.01444
G1 X113.701 Y80.137 E0.03406
G1 X113.451 Y80.070 E0.00809
G1 X113.110 Y79.944 E0.01143
G1 X112.734 Y79.863 E0.01204
G1 X112.366 Y79.746 E0.01213
G1 X111.749 Y79.665 E0.01949
G1 X111.379 Y79.584 E0.01189
G1 X110.665 Y79.531 E0.02244
G1 X109.823 Y79.532 E0.02641
G1 X108.854 Y79.599 E0.03044
G1 X108.579 Y79.670 E0.00890
G1 X108.028 Y79.744 E0.01746
G1 X107.860 Y79.780 E0.00538
G1 X107.617 Y79.874 E0.00817
G1 X107.290 Y79.945 E0.01048
G1 X106.953 Y80.068 E0.01124
G1 X106.748 Y80.118 E0.00662
G1 X105.440 Y80.657 E0.04437
G1 X104.529 Y81.161 E0.03264
G1 X103.487 Y81.890 E0.03985
G1 X102.571 Y82.718 E0.03872
G1 X101.851 Y83.526 E0.03393
G1 X101.329 Y84.257 E0.02819
G1 X101.076 Y84.655 E0.01476
G1 X100.743 Y85.260 E0.02166
G1 X100.301 Y86.252 E0.03404
G1 X100.012 Y87.022 E0.02579
G1 X99.943 Y87.343 E0.01030
G1 X99.843 Y87.596 E0.00853
G1 X99.762 Y87.944 E0.01121
G1 X99.717 Y88.279 E0.01059
G1 X99.606 Y88.756 E0.01534
G1 X99.558 Y89.271 E0.01625
G1 X99.523 Y90.208 E0.02938
G1 X99.562 Y91.289 E0.03394
G1 X99.286 Y91.357 E0.00891
G1 X98.965 Y91.466 E0.01062
G1 X98.905 Y90.467 E0.03136
G1 X98.896 Y89.862 E0.01897
G1 X98.961 Y88.951 E0.02864
G1 X99.128 Y87.860 E0.03461
G1 X99.346 Y87.003 E0.02773
G1 X99.436 Y86.751 E0.00840
G1 X99.523 Y86.424 E0.01060
G1 X99.709 Y85.936 E0.01638
G1 X99.923 Y85.469 E0.01612
G1 X100.303 Y84.723 E0.02623
G1 X100.485 Y84.407 E0.01144
G1 X100.636 Y84.207 E0.00786
G1 X100.884 Y83.803 E0.01488
G1 X101.187 Y83.391 E0.01603
G1 X101.690 Y82.775 E0.02493
G1 X102.383 Y82.068 E0.03104
G1 X102.832 Y81.654 E0.01916
G1 X103.707 Y80.960 E0.03500
G1 X104.183 Y80.645 E0.01791
G1 X105.020 Y80.153 E0.03042
G1 X105.619 Y79.853 E0.02101
G1 X106.607 Y79.466 E0.03328
G1 X106.887 Y79.405 E0.00898
G1 X107.291 Y79.280 E0.01327
G1 X108.181 Y79.087 E0.02854
G1 X108.616 Y79.024 E0.01380
G1 X109.656 Y78.951 E0.03267
G1 X110.152 Y78.893 E0.01566
G1 X110.456 Y78.909 E0.00955
G1 X110.740 Y78.951 E0.00900
G1 X111.634 Y79.005 E0.02806
G1 X112.595 Y79.162 E0.03055
G1 X113.573 Y79.406 E0.03161
G1 X114.356 Y79.677 E0.02597
G1 X114.962 Y79.957 E0.02094
G1 X115.786 Y80.382 E0.02905
G1 X116.637 Y80.930 E0.03176
G1 X117.023 Y81.210 E0.01494
G1 X117.529 Y81.625 E0.02052
G1 X118.177 Y82.209 E0.02736
G1 X118.420 Y82.453 E0.01080
G1 X119.354 Y83.577 E0.04580
G1 X119.627 Y84.009 E0.01604
G1 X119.777 Y84.204 E0.00772
G1 X120.051 Y84.671 E0.01696
G1 X120.523 Y85.570 E0.03183
G1 X120.734 Y86.060 E0.01674
G1 X120.924 Y86.565 E0.01690
G1 X121.059 Y87.089 E0.01698
G1 X121.139 Y87.312 E0.00743
G1 X121.227 Y87.782 E0.01499
G1 X121.323 Y88.169 E0.01250
G1 X121.394 Y88.676 E0.01607
G1 X121.480 Y89.708 E0.03246
G1 X121.493 Y90.089 E0.01197
G1 X121.440 Y91.241 E0.03616
G1 X121.326 Y92.261 E0.03218
G1 X121.199 Y92.734 E0.01533
G1 X121.124 Y93.145 E0.01313
G1 X120.952 Y93.762 E0.02006
G1 X120.893 Y93.887 E0.00435
G1 X120.735 Y94.374 E0.01606
G1 X120.192 Y95.525 E0.03990
G1 X119.575 Y96.533 E0.03705
G1 X118.952 Y97.366 E0.03263
G1 X118.068 Y98.298 E0.04027
G1 X117.391 Y98.930 E0.02904
G1 X116.565 Y99.539 E0.03219
G1 X115.858 Y99.995 E0.02635
G1 X115.066 Y100.425 E0.02826
G1 X114.467 Y100.698 E0.02063
G1 X114.039 Y100.863 E0.01439
G1 X113.776 Y100.930 E0.00851
G1 X113.200 Y101.126 E0.01909
G1 X112.570 Y101.271 E0.02027
G1 X111.382 Y101.459 E0.03772
G1 X110.760 Y101.491 E0.01952
G1 X110.488 Y101.155 F10800.000
G1 E-0.80000 F2100.00000
G1 Z0.800 F10800.000
G1 X117.950 Y97.990
G1 Z0.200
G1 E0.80000 F2100.00000
G1 F1200.000
G1 X117.070 Y98.789 E0.02240
G1 X116.108 Y99.474 E0.02227
G1 X115.045 Y100.073 E0.02299
G1 X114.006 Y100.522 E0.02132
G1 X112.760 Y100.907 E0.02459
G1 X111.552 Y101.123 E0.02312
G1 X111.063 Y101.166 E0.00925
G1 X110.157 Y101.186 E0.01707
G1 X109.013 Y101.147 E0.02157
G1 X108.035 Y100.989 E0.01867
G1 X107.047 Y100.739 E0.01921
G1 X106.128 Y100.416 E0.01836
G1 X105.180 Y99.990 E0.01959
G1 X104.257 Y99.456 E0.02009
G1 X103.447 Y98.886 E0.01867
G1 X102.476 Y98.039 E0.02427
G1 X101.606 Y97.070 E0.02454
G1 X101.537 Y96.982 E0.00221
G1 X100.881 Y96.053 E0.02345
G1 X100.509 Y95.399 E0.01624
G1 X100.323 Y95.036 E0.00930
G1 X99.253 Y91.171 F10800.000
G1 F1200.000
G1 X99.212 Y90.203 E0.01668
G1 X99.271 Y88.986 E0.02097
G1 X99.448 Y87.893 E0.01906
G1 X99.711 Y86.924 E0.01729
G1 X100.017 Y86.066 E0.01569
G1 X100.586 Y84.877 E0.02268
G1 X100.751 Y84.584 E0.00579
