; generated by PrusaSlicer 2.2.0+win64 on 2020-12-08 at 17:31:12 UTC

; 

; external perimeters extrusion width = 0.60mm
; perimeters extrusion width = 0.43mm
; infill extrusion width = 0.45mm
; solid infill extrusion width = 0.70mm
; top infill extrusion width = 0.43mm
; first layer extrusion width = 0.42mm

M73 P0 R32
M201 X9000 Y9000 Z500 E10000 ; sets maximum accelerations, mm/sec^2
M203 X500 Y500 Z12 E120 ; sets maximum feedrates, mm/sec
M204 P2000 R1500 T2000 ; sets acceleration (P, T) and retract acceleration (R), mm/sec^2
M205 X10.00 Y10.00 Z0.20 E2.50 ; sets the jerk limits, mm/sec
M205 S0 T0 ; sets the minimum extruding and travel feed rate, mm/sec
M107
M862.3 P "MK2S" ; printer model check
M862.1 P0.4 ; nozzle diameter check
M115 U3.2.3 ; tell printer latest fw version
G90 ; use absolute coordinates
M83 ; extruder relative mode
M204 S2000 T1500 ; MK2 firmware only supports the old M204 format
M104 S215 ; set extruder temp
M140 S60 ; set bed temp
M190 S60 ; wait for bed temp
M109 S215 ; wait for extruder temp
G28 W ; home all without mesh bed level
G80 ; mesh bed leveling
G1 Y-3.0 F1000.0 ; go outside print area
G92 E0.0
G1 X60.0 E9.0  F1000.0 ; intro line
M73 P0 R32
G1 X100.0 E12.5 F1000.0 ; intro line
G92 E0.0
G21 ; set units to millimeters
G90 ; use absolute coordinates
M83 ; use relative distances for extrusion
M900 K0.05 ; Filament gcode LA 1.5
M900 K30 ; Filament gcode LA 1.0
;BEFORE_LAYER_CHANGE
G92 E0.0
;0.2


G1 E-0.80000 F2100.00000
G1 Z0.600 F10800.000
;AFTER_LAYER_CHANGE
;0.2
G1 X83.594 Y66.340
G1 Z0.200
G1 E0.80000 F2100.00000
M204 S1000
G1 F1200.000
G1 X84.269 Y65.505 E0.03365
G1 X85.313 Y64.439 E0.04678
G1 X86.428 Y63.513 E0.04546
G1 X87.761 Y62.626 E0.05019
G1 X88.951 Y62.000 E0.04216
G1 X90.343 Y61.434 E0.04711
G1 X91.758 Y61.025 E0.04617
G1 X93.317 Y60.750 E0.04962
G1 X94.732 Y60.648 E0.04450
G1 X154.661 Y60.648 E1.87903
G1 X156.075 Y60.686 E0.04436
G1 X157.438 Y60.860 E0.04307
G1 X159.096 Y61.252 E0.05344
G1 X160.389 Y61.706 E0.04295
G1 X161.723 Y62.330 E0.04617
G1 X162.985 Y63.088 E0.04617
G1 X164.092 Y63.914 E0.04331
G1 X165.340 Y65.070 E0.05332
G1 X166.244 Y66.104 E0.04307
G1 X167.097 Y67.304 E0.04617
G1 X167.823 Y68.586 E0.04617
G1 X168.376 Y69.843 E0.04307
G1 X168.893 Y71.459 E0.05320
G1 X169.174 Y72.823 E0.04367
G1 X169.327 Y74.375 E0.04891
G1 X169.323 Y105.768 E0.98431
G1 X169.173 Y107.210 E0.04546
G1 X168.897 Y108.548 E0.04283
G1 X168.418 Y110.077 E0.05022
G1 X167.830 Y111.423 E0.04605
G1 X167.160 Y112.613 E0.04283
G1 X166.235 Y113.930 E0.05046
G1 X165.244 Y115.055 E0.04701
G1 X135.246 Y145.074 E1.33062
G1 X134.210 Y146.028 E0.04415
G1 X133.026 Y146.916 E0.04641
G1 X131.761 Y147.675 E0.04625
G1 X130.423 Y148.301 E0.04633
G1 X129.032 Y148.785 E0.04617
G1 X127.670 Y149.110 E0.04390
G1 X125.715 Y149.337 E0.06171
G1 X94.638 Y149.355 E0.97439
G1 X93.204 Y149.242 E0.04510
G1 X91.860 Y149.001 E0.04283
G1 X90.316 Y148.560 E0.05034
G1 X88.958 Y148.008 E0.04594
G1 X87.744 Y147.366 E0.04307
G1 X86.363 Y146.441 E0.05213
G1 X85.275 Y145.530 E0.04450
G1 X84.237 Y144.464 E0.04665
G1 X83.320 Y143.302 E0.04641
G1 X82.476 Y141.957 E0.04978
G1 X81.872 Y140.741 E0.04256
G1 X81.390 Y139.471 E0.04259
G1 X81.000 Y138.040 E0.04652
G1 X80.747 Y136.478 E0.04963
G1 X80.670 Y135.064 E0.04438
G1 X80.671 Y74.922 E1.88572
G1 X80.745 Y73.543 E0.04329
G1 X80.953 Y72.189 E0.04295
G1 X81.364 Y70.606 E0.05129
G1 X81.872 Y69.264 E0.04498
G1 X82.495 Y68.010 E0.04390
G1 X83.561 Y66.390 E0.06082
G1 E-0.80000 F2100.00000
G1 Z0.800 F10800.000
G1 X119.266 Y125.849
G1 Z0.200
G1 E0.80000 F2100.00000
G1 F1200.000
G1 X120.326 Y125.263 E0.03796
G1 X121.443 Y124.801 E0.03791
G1 X122.605 Y124.466 E0.03793
G1 X123.798 Y124.263 E0.03793
G1 X124.982 Y124.197 E0.03718
G1 X126.213 Y124.263 E0.03866
G1 X127.407 Y124.466 E0.03795
G1 X128.569 Y124.801 E0.03793
G1 X129.687 Y125.264 E0.03793
G1 X130.746 Y125.849 E0.03793
G1 X131.732 Y126.549 E0.03793
G1 X132.634 Y127.355 E0.03793
G1 X133.441 Y128.257 E0.03793
G1 X134.141 Y129.244 E0.03793
G1 X134.726 Y130.303 E0.03793
G1 X135.180 Y131.398 E0.03718
G1 X135.524 Y132.582 E0.03866
G1 X135.726 Y133.776 E0.03795
G1 X135.794 Y134.984 E0.03793
G1 X135.726 Y136.191 E0.03793
G1 X135.524 Y137.384 E0.03793
G1 X135.189 Y138.547 E0.03793
G1 X134.726 Y139.664 E0.03793
G1 X134.141 Y140.723 E0.03793
G1 X133.441 Y141.710 E0.03793
G1 X132.634 Y142.613 E0.03796
G1 X131.698 Y143.444 E0.03925
G1 X130.743 Y144.120 E0.03668
G1 X129.687 Y144.703 E0.03783
G1 X128.569 Y145.166 E0.03793
G1 X127.407 Y145.501 E0.03793
G1 X126.214 Y145.704 E0.03793
G1 X125.006 Y145.772 E0.03794
G1 X123.794 Y145.703 E0.03806
G1 X122.605 Y145.501 E0.03780
G1 X121.443 Y145.166 E0.03793
G1 X120.325 Y144.703 E0.03793
G1 X119.266 Y144.118 E0.03793
G1 X118.299 Y143.432 E0.03718
G1 X117.378 Y142.613 E0.03866
G1 X116.571 Y141.710 E0.03795
G1 X115.871 Y140.723 E0.03793
G1 X115.286 Y139.664 E0.03793
G1 X114.823 Y138.547 E0.03793
G1 X114.488 Y137.384 E0.03793
G1 X114.285 Y136.191 E0.03793
G1 X114.218 Y134.984 E0.03793
G1 X114.285 Y133.776 E0.03793
G1 X114.488 Y132.583 E0.03793
G1 X114.823 Y131.420 E0.03793
G1 X115.286 Y130.303 E0.03793
G1 X115.869 Y129.248 E0.03780
G1 X116.572 Y128.256 E0.03811
G1 X117.377 Y127.355 E0.03789
G1 X118.280 Y126.549 E0.03793
G1 X119.217 Y125.884 E0.03605
G1 X119.436 Y126.191 F10800.000
G1 F1200.000
G1 X120.490 Y125.604 E0.03784
G1 X121.568 Y125.157 E0.03658
G1 X122.689 Y124.834 E0.03660
G1 X123.840 Y124.638 E0.03660
G1 X124.982 Y124.574 E0.03587
G1 X126.171 Y124.638 E0.03733
G1 X127.323 Y124.834 E0.03661
G1 X128.444 Y125.157 E0.03660
G1 X129.523 Y125.604 E0.03660
G1 X130.545 Y126.169 E0.03660
G1 X131.497 Y126.844 E0.03660
G1 X132.367 Y127.622 E0.03660
G1 X133.145 Y128.493 E0.03660
G1 X133.821 Y129.445 E0.03660
G1 X134.386 Y130.467 E0.03661
G1 X134.823 Y131.523 E0.03587
G1 X135.156 Y132.667 E0.03733
G1 X135.351 Y133.818 E0.03661
G1 X135.417 Y134.984 E0.03661
G1 X135.351 Y136.149 E0.03660
G1 X135.156 Y137.300 E0.03660
G1 X134.832 Y138.422 E0.03660
G1 X134.386 Y139.501 E0.03660
G1 X133.821 Y140.522 E0.03661
G1 X133.145 Y141.474 E0.03660
G1 X132.367 Y142.345 E0.03662
G1 X131.463 Y143.148 E0.03792
G1 X130.542 Y143.800 E0.03537
G1 X129.523 Y144.363 E0.03650
G1 X128.444 Y144.810 E0.03660
G1 X127.323 Y145.133 E0.03660
G1 X126.172 Y145.329 E0.03660
G1 X125.006 Y145.394 E0.03661
G1 X123.836 Y145.328 E0.03673
G1 X122.689 Y145.133 E0.03648
G1 X121.568 Y144.810 E0.03660
G1 X120.489 Y144.363 E0.03660
G1 X119.467 Y143.798 E0.03660
G1 X118.534 Y143.137 E0.03587
G1 X117.645 Y142.345 E0.03733
G1 X116.867 Y141.474 E0.03661
G1 X116.191 Y140.522 E0.03660
G1 X115.626 Y139.501 E0.03661
G1 X115.180 Y138.422 E0.03660
G1 X114.856 Y137.300 E0.03660
G1 X114.661 Y136.149 E0.03660
G1 X114.595 Y134.984 E0.03660
G1 X114.661 Y133.818 E0.03661
G1 X114.856 Y132.667 E0.03660
G1 X115.180 Y131.545 E0.03660
G1 X115.626 Y130.467 E0.03660
G1 X116.189 Y129.448 E0.03647
G1 X116.868 Y128.492 E0.03678
G1 X117.645 Y127.622 E0.03656
G1 X118.515 Y126.844 E0.03660
G1 X119.387 Y126.226 E0.03351
G1 X119.419 Y125.791 F10800.000
G1 X119.238 Y125.369
G1 F1200.000
G1 X120.252 Y124.829 E0.03603
G1 X121.322 Y124.394 E0.03623
G1 X122.431 Y124.071 E0.03619
G1 X123.566 Y123.864 E0.03619
G1 X124.717 Y123.775 E0.03619
G1 X125.871 Y123.805 E0.03619
G1 X127.016 Y123.953 E0.03619
G1 X128.140 Y124.218 E0.03619
G1 X129.230 Y124.598 E0.03619
G1 X130.275 Y125.087 E0.03619
G1 X131.265 Y125.681 E0.03619
G1 X132.188 Y126.374 E0.03619
G1 X133.035 Y127.158 E0.03619
G1 X133.797 Y128.025 E0.03619
G1 X134.466 Y128.966 E0.03619
G1 X135.035 Y129.971 E0.03619
G1 X135.497 Y131.029 E0.03619
G1 X135.848 Y132.128 E0.03619
G1 X136.084 Y133.258 E0.03619
G1 X136.203 Y134.406 E0.03619
G1 X136.203 Y135.561 E0.03619
G1 X136.084 Y136.709 E0.03619
G1 X135.848 Y137.839 E0.03619
G1 X135.497 Y138.939 E0.03619
G1 X135.035 Y139.996 E0.03619
G1 X134.466 Y141.001 E0.03619
G1 X133.797 Y141.942 E0.03619
G1 X133.035 Y142.809 E0.03619
G1 X132.188 Y143.593 E0.03619
G1 X131.265 Y144.286 E0.03621
G1 X130.275 Y144.880 E0.03618
G1 X129.230 Y145.369 E0.03619
G1 X128.140 Y145.749 E0.03619
G1 X127.016 Y146.014 E0.03619
G1 X125.869 Y146.162 E0.03626
G1 X124.720 Y146.192 E0.03603
G1 X123.566 Y146.103 E0.03629
G1 X122.431 Y145.896 E0.03619
G1 X121.322 Y145.573 E0.03619
G1 X120.253 Y145.138 E0.03619
G1 X119.234 Y144.596 E0.03619
G1 X118.276 Y143.951 E0.03619
G1 X117.390 Y143.212 E0.03619
G1 X116.584 Y142.385 E0.03619
G1 X115.868 Y141.480 E0.03619
G1 X115.248 Y140.506 E0.03619
G1 X114.732 Y139.473 E0.03619
G1 X114.325 Y138.393 E0.03619
G1 X114.031 Y137.277 E0.03619
G1 X113.853 Y136.136 E0.03619
G1 X113.794 Y134.984 E0.03619
G1 X113.853 Y133.831 E0.03619
G1 X114.031 Y132.690 E0.03619
G1 X114.325 Y131.574 E0.03619
G1 X114.732 Y130.494 E0.03619
G1 X115.248 Y129.461 E0.03619
G1 X115.869 Y128.486 E0.03625
G1 X116.584 Y127.582 E0.03614
G1 X117.390 Y126.755 E0.03620
G1 X118.276 Y126.016 E0.03619
G1 X119.188 Y125.403 E0.03444
G1 X118.977 Y125.090 F10800.000
G1 F1200.000
G1 X120.092 Y124.487 E0.03973
G1 X121.198 Y124.037 E0.03744
G1 X122.344 Y123.704 E0.03741
G1 X123.518 Y123.490 E0.03741
G1 X124.708 Y123.398 E0.03741
G1 X125.900 Y123.429 E0.03741
G1 X127.084 Y123.582 E0.03741
G1 X128.245 Y123.856 E0.03741
G1 X129.372 Y124.248 E0.03741
G1 X130.453 Y124.754 E0.03741
G1 X131.476 Y125.368 E0.03741
G1 X132.430 Y126.084 E0.03741
G1 X133.306 Y126.895 E0.03741
G1 X134.093 Y127.791 E0.03741
G1 X134.785 Y128.764 E0.03741
G1 X135.373 Y129.802 E0.03741
G1 X135.850 Y130.895 E0.03741
G1 X136.213 Y132.032 E0.03741
G1 X136.457 Y133.200 E0.03741
G1 X136.580 Y134.387 E0.03741
G1 X136.580 Y135.580 E0.03741
G1 X136.457 Y136.767 E0.03741
G1 X136.213 Y137.935 E0.03741
G1 X135.850 Y139.072 E0.03741
G1 X135.373 Y140.165 E0.03741
G1 X134.785 Y141.204 E0.03741
G1 X134.093 Y142.176 E0.03741
G1 X133.306 Y143.072 E0.03741
G1 X132.430 Y143.883 E0.03741
G1 X131.475 Y144.599 E0.03743
G1 X130.453 Y145.213 E0.03740
G1 X129.372 Y145.719 E0.03741
G1 X128.245 Y146.111 E0.03741
G1 X127.084 Y146.385 E0.03741
G1 X125.898 Y146.539 E0.03748
G1 X124.711 Y146.569 E0.03725
G1 X123.518 Y146.477 E0.03751
G1 X122.344 Y146.263 E0.03741
G1 X121.198 Y145.930 E0.03741
G1 X120.093 Y145.480 E0.03741
G1 X119.040 Y144.919 E0.03741
G1 X118.050 Y144.253 E0.03741
G1 X117.134 Y143.489 E0.03741
G1 X116.301 Y142.634 E0.03741
G1 X115.560 Y141.699 E0.03741
G1 X114.920 Y140.692 E0.03741
G1 X114.386 Y139.625 E0.03741
G1 X113.965 Y138.508 E0.03741
G1 X113.662 Y137.354 E0.03741
G1 X113.478 Y136.175 E0.03741
G1 X113.416 Y134.984 E0.03741
G1 X113.478 Y133.792 E0.03741
G1 X113.662 Y132.613 E0.03741
G1 X113.965 Y131.459 E0.03741
G1 X114.386 Y130.343 E0.03741
G1 X114.920 Y129.275 E0.03741
G1 X115.561 Y128.267 E0.03747
G1 X116.301 Y127.333 E0.03736
G1 X117.134 Y126.478 E0.03741
G1 X118.050 Y125.714 E0.03741
G1 X118.928 Y125.123 E0.03317
G1 X119.328 Y125.282 F10800.000
G1 X119.269 Y125.605
G1 F1200.000
G1 X119.708 Y125.361 E0.00236
G1 X120.305 Y125.042 F10800.000
G1 F1200.000
G1 X120.597 Y124.920 E0.00137
G1 X118.722 Y125.974 F10800.000
G1 F1200.000
G1 X118.298 Y126.275 E0.00256
G1 X117.805 Y126.687 F10800.000
G1 F1200.000
G1 X117.405 Y127.045 E0.00274
G1 X116.962 Y127.500 F10800.000
G1 F1200.000
G1 X116.600 Y127.906 E0.00284
G1 X116.213 Y128.394 F10800.000
G1 F1200.000
G1 X115.889 Y128.851 E0.00296
G1 X115.554 Y129.378 F10800.000
G1 F1200.000
G1 X115.291 Y129.853 E0.00283
G1 X115.007 Y130.421 F10800.000
G1 F1200.000
G1 X114.802 Y130.914 E0.00271
G1 X114.574 Y131.518 F10800.000
G1 F1200.000
G1 X114.430 Y132.012 E0.00251
G1 X114.260 Y132.656 F10800.000
G1 F1200.000
G1 X114.181 Y133.113 E0.00214
G1 X114.070 Y133.821 F10800.000
G1 F1200.000
G1 X114.057 Y134.024 E0.00086
G1 X114.057 Y135.943 F10800.000
G1 F1200.000
G1 X114.070 Y136.146 E0.00086
G1 X114.181 Y136.854 F10800.000
G1 F1200.000
G1 X114.260 Y137.312 E0.00214
G1 X114.430 Y137.955 F10800.000
G1 F1200.000
G1 X114.574 Y138.449 E0.00251
G1 X114.802 Y139.053 F10800.000
G1 F1200.000
G1 X115.007 Y139.546 E0.00271
G1 X115.291 Y140.114 F10800.000
G1 F1200.000
G1 X115.554 Y140.589 E0.00283
G1 X115.893 Y141.122 F10800.000
G1 F1200.000
G1 X116.209 Y141.567 E0.00287
G1 X116.600 Y142.062 F10800.000
G1 F1200.000
G1 X116.962 Y142.468 E0.00284
G1 X117.400 Y142.917 F10800.000
G1 F1200.000
G1 X117.843 Y143.312 E0.00308
G1 X118.298 Y143.692 F10800.000
G1 F1200.000
G1 X118.722 Y143.994 E0.00256
G1 X119.269 Y144.363 F10800.000
G1 F1200.000
G1 X119.688 Y144.595 E0.00224
G1 X120.306 Y144.926 F10800.000
G1 F1200.000
G1 X120.598 Y145.048 E0.00137
G1 X123.226 Y145.823 F10800.000
G1 F1200.000
G1 X123.665 Y145.897 E0.00202
G1 X124.323 Y145.947 F10800.000
G1 F1200.000
G1 X124.846 Y145.976 E0.00254
G1 X125.482 Y145.959 F10800.000
G1 F1200.000
G1 X126.021 Y145.928 E0.00273
G1 X126.652 Y145.846 F10800.000
G1 F1200.000
G1 X127.186 Y145.755 E0.00281
G1 X127.801 Y145.609 F10800.000
G1 F1200.000
G1 X128.325 Y145.458 E0.00286
G1 X128.921 Y145.251 F10800.000
G1 F1200.000
G1 X129.424 Y145.043 E0.00285
G1 X129.998 Y144.775 F10800.000
G1 F1200.000
G1 X130.470 Y144.514 E0.00277
G1 X131.017 Y144.187 F10800.000
G1 F1200.000
G1 X131.437 Y143.890 E0.00256
G1 X131.939 Y143.514 F10800.000
G1 F1200.000
G1 X132.405 Y143.101 E0.00310
G1 X132.845 Y142.695 F10800.000
G1 F1200.000
G1 X133.098 Y142.414 E0.00166
G1 X134.668 Y140.211 F10800.000
G1 F1200.000
G1 X134.869 Y139.845 E0.00186
G1 X135.140 Y139.222 F10800.000
G1 F1200.000
G1 X135.331 Y138.759 E0.00239
G1 X135.529 Y138.138 F10800.000
G1 F1200.000
G1 X135.674 Y137.630 E0.00265
G1 X135.805 Y137.005 F10800.000
G1 F1200.000
G1 X135.895 Y136.472 E0.00279
G1 X135.959 Y135.843 F10800.000
G1 F1200.000
G1 X135.990 Y135.299 E0.00286
G1 X135.990 Y134.668 F10800.000
G1 F1200.000
G1 X135.959 Y134.124 E0.00286
G1 X135.895 Y133.495 F10800.000
G1 F1200.000
G1 X135.805 Y132.962 E0.00279
G1 X135.675 Y132.342 F10800.000
G1 F1200.000
G1 X135.511 Y131.775 E0.00299
G1 X135.331 Y131.208 F10800.000
G1 F1200.000
G1 X135.140 Y130.745 E0.00239
G1 X134.869 Y130.122 F10800.000
G1 F1200.000
G1 X134.668 Y129.756 E0.00187
G1 X133.098 Y127.553 F10800.000
G1 F1200.000
G1 X132.845 Y127.272 E0.00167
G1 X132.339 Y126.804 F10800.000
G1 F1200.000
G1 X131.972 Y126.478 E0.00232
G1 X131.447 Y126.085 F10800.000
G1 F1200.000
G1 X131.019 Y125.782 E0.00261
G1 X130.470 Y125.453 F10800.000
G1 F1200.000
G1 X129.998 Y125.192 E0.00277
G1 X129.424 Y124.924 F10800.000
G1 F1200.000
G1 X128.921 Y124.716 E0.00285
G1 X128.325 Y124.509 F10800.000
G1 F1200.000
G1 X127.801 Y124.358 E0.00286
G1 X127.186 Y124.212 F10800.000
G1 F1200.000
G1 X126.652 Y124.121 E0.00281
G1 X126.026 Y124.040 F10800.000
G1 F1200.000
G1 X125.486 Y124.009 E0.00277
G1 X125.436 Y124.007 E0.00021
G1 X124.842 Y123.991 F10800.000
G1 F1200.000
G1 X124.335 Y124.019 E0.00245
G1 X123.665 Y124.070 F10800.000
G1 F1200.000
G1 X123.226 Y124.144 E0.00202
G1 E-0.80000 F2100.00000
G1 Z0.800 F10800.000
G1 X105.219 Y131.398
G1 Z0.200
G1 E0.80000 F2100.00000
G1 F1200.000
G1 X105.563 Y132.582 E0.03866
G1 X105.766 Y133.776 E0.03795
G1 X105.834 Y134.984 E0.03793
G1 X105.766 Y136.191 E0.03793
G1 X105.564 Y137.384 E0.03793
G1 X105.229 Y138.547 E0.03793
G1 X104.766 Y139.664 E0.03793
G1 X104.180 Y140.723 E0.03793
G1 X103.480 Y141.710 E0.03793
G1 X102.674 Y142.613 E0.03796
G1 X101.737 Y143.444 E0.03925
G1 X100.782 Y144.120 E0.03668
G1 X99.727 Y144.703 E0.03783
G1 X98.609 Y145.166 E0.03793
G1 X97.446 Y145.501 E0.03793
G1 X96.254 Y145.704 E0.03793
G1 X95.046 Y145.772 E0.03794
G1 X93.834 Y145.703 E0.03806
G1 X92.645 Y145.501 E0.03780
G1 X91.483 Y145.166 E0.03793
G1 X90.365 Y144.703 E0.03793
G1 X89.306 Y144.118 E0.03793
G1 X88.339 Y143.432 E0.03718
G1 X87.418 Y142.613 E0.03866
G1 X86.611 Y141.710 E0.03795
G1 X85.911 Y140.723 E0.03793
G1 X85.326 Y139.664 E0.03793
G1 X84.863 Y138.547 E0.03793
G1 X84.528 Y137.384 E0.03793
G1 X84.325 Y136.191 E0.03793
G1 X84.257 Y134.984 E0.03793
G1 X84.325 Y133.776 E0.03793
G1 X84.528 Y132.583 E0.03793
G1 X84.863 Y131.420 E0.03793
G1 X85.326 Y130.303 E0.03793
G1 X85.909 Y129.248 E0.03780
G1 X86.612 Y128.256 E0.03811
G1 X87.417 Y127.355 E0.03789
G1 X88.319 Y126.549 E0.03793
G1 X89.306 Y125.849 E0.03793
