; generated by PrusaSlicer 2.2.0+win64 on 2020-11-18 at 22:38:03 UTC

; 

; external perimeters extrusion width = 0.60mm
; perimeters extrusion width = 0.43mm
; infill extrusion width = 0.45mm
; solid infill extrusion width = 0.70mm
; top infill extrusion width = 0.43mm
; first layer extrusion width = 0.42mm

M73 P0 R11
M201 X9000 Y9000 Z500 E10000 ; sets maximum accelerations, mm/sec^2
M203 X500 Y500 Z12 E120 ; sets maximum feedrates, mm/sec
M204 P2000 R1500 T2000 ; sets acceleration (P, T) and retract acceleration (R), mm/sec^2
M205 X10.00 Y10.00 Z0.20 E2.50 ; sets the jerk limits, mm/sec
M205 S0 T0 ; sets the minimum extruding and travel feed rate, mm/sec
M107
M862.3 P "MK2S" ; printer model check
M862.1 P0.4 ; nozzle diameter check
M115 U3.2.3 ; tell printer latest fw version
G90 ; use absolute coordinates
M83 ; extruder relative mode
M204 S2000 T1500 ; MK2 firmware only supports the old M204 format
M104 S215 ; set extruder temp
M140 S60 ; set bed temp
M190 S60 ; wait for bed temp
M109 S215 ; wait for extruder temp
G28 W ; home all without mesh bed level
G80 ; mesh bed leveling
G1 Y-3.0 F1000.0 ; go outside print area
G92 E0.0
G1 X60.0 E9.0  F1000.0 ; intro line
M73 P0 R11
G1 X100.0 E12.5 F1000.0 ; intro line
G92 E0.0
G21 ; set units to millimeters
G90 ; use absolute coordinates
M83 ; use relative distances for extrusion
M900 K0.05 ; Filament gcode LA 1.5
M900 K30 ; Filament gcode LA 1.0
;BEFORE_LAYER_CHANGE
G92 E0.0
;0.2


G1 E-0.80000 F2100.00000
G1 Z0.600 F10800.000
;AFTER_LAYER_CHANGE
;0.2
G1 X96.023 Y71.942
G1 Z0.200
G1 E0.80000 F2100.00000
M204 S1000
G1 F1200.000
G1 X96.393 Y71.554 E0.01680
G1 X96.840 Y71.258 E0.01680
G1 X97.338 Y71.072 E0.01668
G1 X97.869 Y71.001 E0.01680
G1 X141.763 Y71.000 E1.37626
G1 X142.425 Y71.095 E0.02095
G1 X143.037 Y71.372 E0.02107
G1 X152.462 Y77.824 E0.35811
G1 X153.043 Y78.405 E0.02579
G1 X153.392 Y79.150 E0.02579
G1 X160.381 Y123.362 E1.40345
G1 X160.334 Y136.709 E0.41851
G1 X160.197 Y137.421 E0.02272
G1 X159.853 Y138.059 E0.02272
G1 X159.477 Y138.451 E0.01704
G1 X159.025 Y138.747 E0.01692
G1 X158.515 Y138.934 E0.01704
G1 X157.976 Y139.000 E0.01704
G1 X92.023 Y139.000 E2.06791
G1 X91.275 Y138.873 E0.02378
G1 X90.605 Y138.517 E0.02378
G1 X90.234 Y138.167 E0.01597
G1 X89.949 Y137.750 E0.01585
G1 X89.758 Y137.282 E0.01585
G1 X89.670 Y136.780 E0.01597
G1 X89.612 Y123.429 E0.41862
G1 X94.364 Y75.546 E1.50870
G1 X94.563 Y74.849 E0.02272
G1 X95.996 Y71.995 E0.10013
G1 E-0.80000 F2100.00000
G1 Z0.800 F10800.000
G1 X92.782 Y133.910
G1 Z0.200
G1 E0.80000 F2100.00000
G1 F1200.000
G1 X157.218 Y133.910 E2.02035
G1 X157.185 Y135.836 E0.06039
G1 X92.815 Y135.836 E2.01826
G1 X92.783 Y133.970 E0.05851
G1 X92.398 Y133.533 F10800.000
G1 F1200.000
G1 X157.602 Y133.533 E2.04440
G1 X157.555 Y136.213 E0.08404
G1 X92.445 Y136.213 E2.04151
G1 X92.399 Y133.593 E0.08216
G1 X92.798 Y133.538 F10800.000
G1 E-0.80000 F2100.00000
G1 Z0.800 F10800.000
G1 X157.090 Y134.776
G1 Z0.200
G1 E0.80000 F2100.00000
G1 F1200.000
G1 X156.506 Y134.193 E0.02602
G1 X155.970 Y134.193 E0.01690
G1 X156.914 Y135.137 E0.04208
G1 X156.907 Y135.553 E0.01313
G1 X156.794 Y135.553 E0.00355
G1 X155.434 Y134.193 E0.06065
G1 X154.898 Y134.193 E0.01690
G1 X156.258 Y135.553 E0.06065
G1 X155.722 Y135.553 E0.01690
G1 X154.362 Y134.193 E0.06065
G1 X153.825 Y134.193 E0.01690
G1 X155.186 Y135.553 E0.06065
G1 X154.649 Y135.553 E0.01690
G1 X153.289 Y134.193 E0.06065
G1 X152.753 Y134.193 E0.01690
G1 X154.113 Y135.553 E0.06065
G1 X153.577 Y135.553 E0.01690
G1 X152.217 Y134.193 E0.06065
G1 X151.681 Y134.193 E0.01690
G1 X153.041 Y135.553 E0.06065
G1 X152.505 Y135.553 E0.01690
G1 X151.144 Y134.193 E0.06065
G1 X150.608 Y134.193 E0.01690
G1 X151.968 Y135.553 E0.06065
G1 X151.432 Y135.553 E0.01690
G1 X150.072 Y134.193 E0.06065
G1 X149.536 Y134.193 E0.01690
G1 X150.896 Y135.553 E0.06065
G1 X150.360 Y135.553 E0.01690
G1 X149.000 Y134.193 E0.06065
G1 X148.463 Y134.193 E0.01690
G1 X149.824 Y135.553 E0.06065
G1 X149.287 Y135.553 E0.01690
G1 X147.927 Y134.193 E0.06065
G1 X147.391 Y134.193 E0.01690
G1 X148.751 Y135.553 E0.06065
G1 X148.215 Y135.553 E0.01690
G1 X146.855 Y134.193 E0.06065
G1 X146.319 Y134.193 E0.01690
G1 X147.679 Y135.553 E0.06065
G1 X147.143 Y135.553 E0.01690
G1 X145.782 Y134.193 E0.06065
G1 X145.246 Y134.193 E0.01690
G1 X146.607 Y135.553 E0.06065
G1 X146.070 Y135.553 E0.01690
G1 X144.710 Y134.193 E0.06065
G1 X144.174 Y134.193 E0.01690
G1 X145.534 Y135.553 E0.06065
G1 X144.998 Y135.553 E0.01690
G1 X143.638 Y134.193 E0.06065
G1 X143.102 Y134.193 E0.01690
G1 X144.462 Y135.553 E0.06065
G1 X143.926 Y135.553 E0.01690
G1 X142.565 Y134.193 E0.06065
G1 X142.029 Y134.193 E0.01690
G1 X143.389 Y135.553 E0.06065
G1 X142.853 Y135.553 E0.01690
G1 X141.493 Y134.193 E0.06065
G1 X140.957 Y134.193 E0.01690
G1 X142.317 Y135.553 E0.06065
G1 X141.781 Y135.553 E0.01690
G1 X140.421 Y134.193 E0.06065
G1 X139.884 Y134.193 E0.01690
G1 X141.245 Y135.553 E0.06065
G1 X140.708 Y135.553 E0.01690
G1 X139.348 Y134.193 E0.06065
G1 X138.812 Y134.193 E0.01690
G1 X140.172 Y135.553 E0.06065
G1 X139.636 Y135.553 E0.01690
G1 X138.276 Y134.193 E0.06065
G1 X137.740 Y134.193 E0.01690
G1 X139.100 Y135.553 E0.06065
G1 X138.564 Y135.553 E0.01690
G1 X137.203 Y134.193 E0.06065
G1 X136.667 Y134.193 E0.01690
G1 X138.027 Y135.553 E0.06065
G1 X137.491 Y135.553 E0.01690
G1 X136.131 Y134.193 E0.06065
G1 X135.595 Y134.193 E0.01690
G1 X136.955 Y135.553 E0.06065
G1 X136.419 Y135.553 E0.01690
G1 X135.059 Y134.193 E0.06065
G1 X134.522 Y134.193 E0.01690
G1 X135.883 Y135.553 E0.06065
G1 X135.347 Y135.553 E0.01690
G1 X133.986 Y134.193 E0.06065
G1 X133.450 Y134.193 E0.01690
G1 X134.810 Y135.553 E0.06065
G1 X134.274 Y135.553 E0.01690
G1 X132.914 Y134.193 E0.06065
G1 X132.378 Y134.193 E0.01690
G1 X133.738 Y135.553 E0.06065
G1 X133.202 Y135.553 E0.01690
G1 X131.842 Y134.193 E0.06065
G1 X131.305 Y134.193 E0.01690
G1 X132.666 Y135.553 E0.06065
G1 X132.129 Y135.553 E0.01690
G1 X130.769 Y134.193 E0.06065
G1 X130.233 Y134.193 E0.01690
G1 X131.593 Y135.553 E0.06065
G1 X131.057 Y135.553 E0.01690
G1 X129.697 Y134.193 E0.06065
G1 X129.161 Y134.193 E0.01690
G1 X130.521 Y135.553 E0.06065
G1 X129.985 Y135.553 E0.01690
G1 X128.624 Y134.193 E0.06065
G1 X128.088 Y134.193 E0.01690
G1 X129.448 Y135.553 E0.06065
G1 X128.912 Y135.553 E0.01690
G1 X127.552 Y134.193 E0.06065
G1 X127.016 Y134.193 E0.01690
G1 X128.376 Y135.553 E0.06065
G1 X127.840 Y135.553 E0.01690
G1 X126.480 Y134.193 E0.06065
G1 X125.943 Y134.193 E0.01690
G1 X127.304 Y135.553 E0.06065
G1 X126.767 Y135.553 E0.01690
G1 X125.407 Y134.193 E0.06065
G1 X124.871 Y134.193 E0.01690
G1 X126.231 Y135.553 E0.06065
G1 X125.695 Y135.553 E0.01690
G1 X124.335 Y134.193 E0.06065
G1 X123.799 Y134.193 E0.01690
G1 X125.159 Y135.553 E0.06065
G1 X124.623 Y135.553 E0.01690
G1 X123.262 Y134.193 E0.06065
G1 X122.726 Y134.193 E0.01690
G1 X124.087 Y135.553 E0.06065
G1 X123.550 Y135.553 E0.01690
G1 X122.190 Y134.193 E0.06065
G1 X121.654 Y134.193 E0.01690
G1 X123.014 Y135.553 E0.06065
G1 X122.478 Y135.553 E0.01690
G1 X121.118 Y134.193 E0.06065
G1 X120.582 Y134.193 E0.01690
G1 X121.942 Y135.553 E0.06065
G1 X121.406 Y135.553 E0.01690
G1 X120.045 Y134.193 E0.06065
G1 X119.509 Y134.193 E0.01690
G1 X120.869 Y135.553 E0.06065
G1 X120.333 Y135.553 E0.01690
G1 X118.973 Y134.193 E0.06065
G1 X118.437 Y134.193 E0.01690
G1 X119.797 Y135.553 E0.06065
G1 X119.261 Y135.553 E0.01690
G1 X117.901 Y134.193 E0.06065
G1 X117.364 Y134.193 E0.01690
G1 X118.725 Y135.553 E0.06065
G1 X118.188 Y135.553 E0.01690
G1 X116.828 Y134.193 E0.06065
G1 X116.292 Y134.193 E0.01690
G1 X117.652 Y135.553 E0.06065
G1 X117.116 Y135.553 E0.01690
G1 X115.756 Y134.193 E0.06065
G1 X115.220 Y134.193 E0.01690
G1 X116.580 Y135.553 E0.06065
G1 X116.044 Y135.553 E0.01690
G1 X114.683 Y134.193 E0.06065
G1 X114.147 Y134.193 E0.01690
G1 X115.507 Y135.553 E0.06065
G1 X114.971 Y135.553 E0.01690
G1 X113.611 Y134.193 E0.06065
G1 X113.075 Y134.193 E0.01690
G1 X114.435 Y135.553 E0.06065
G1 X113.899 Y135.553 E0.01690
G1 X112.539 Y134.193 E0.06065
G1 X112.002 Y134.193 E0.01690
G1 X113.363 Y135.553 E0.06065
G1 X112.827 Y135.553 E0.01690
G1 X111.466 Y134.193 E0.06065
G1 X110.930 Y134.193 E0.01690
G1 X112.290 Y135.553 E0.06065
G1 X111.754 Y135.553 E0.01690
G1 X110.394 Y134.193 E0.06065
G1 X109.858 Y134.193 E0.01690
G1 X111.218 Y135.553 E0.06065
G1 X110.682 Y135.553 E0.01690
G1 X109.322 Y134.193 E0.06065
G1 X108.785 Y134.193 E0.01690
G1 X110.146 Y135.553 E0.06065
G1 X109.609 Y135.553 E0.01690
G1 X108.249 Y134.193 E0.06065
G1 X107.713 Y134.193 E0.01690
G1 X109.073 Y135.553 E0.06065
G1 X108.537 Y135.553 E0.01690
G1 X107.177 Y134.193 E0.06065
G1 X106.641 Y134.193 E0.01690
G1 X108.001 Y135.553 E0.06065
G1 X107.465 Y135.553 E0.01690
G1 X106.104 Y134.193 E0.06065
G1 X105.568 Y134.193 E0.01690
G1 X106.928 Y135.553 E0.06065
G1 X106.392 Y135.553 E0.01690
G1 X105.032 Y134.193 E0.06065
G1 X104.496 Y134.193 E0.01690
G1 X105.856 Y135.553 E0.06065
G1 X105.320 Y135.553 E0.01690
G1 X103.960 Y134.193 E0.06065
G1 X103.423 Y134.193 E0.01690
G1 X104.784 Y135.553 E0.06065
G1 X104.247 Y135.553 E0.01690
G1 X102.887 Y134.193 E0.06065
G1 X102.351 Y134.193 E0.01690
G1 X103.711 Y135.553 E0.06065
G1 X103.175 Y135.553 E0.01690
G1 X101.815 Y134.193 E0.06065
G1 X101.279 Y134.193 E0.01690
G1 X102.639 Y135.553 E0.06065
G1 X102.103 Y135.553 E0.01690
G1 X100.742 Y134.193 E0.06065
G1 X100.206 Y134.193 E0.01690
G1 X101.567 Y135.553 E0.06065
G1 X101.030 Y135.553 E0.01690
G1 X99.670 Y134.193 E0.06065
G1 X99.134 Y134.193 E0.01690
G1 X100.494 Y135.553 E0.06065
G1 X99.958 Y135.553 E0.01690
G1 X98.598 Y134.193 E0.06065
G1 X98.062 Y134.193 E0.01690
G1 X99.422 Y135.553 E0.06065
G1 X98.886 Y135.553 E0.01690
G1 X97.525 Y134.193 E0.06065
G1 X96.989 Y134.193 E0.01690
G1 X98.349 Y135.553 E0.06065
G1 X97.813 Y135.553 E0.01690
G1 X96.453 Y134.193 E0.06065
G1 X95.917 Y134.193 E0.01690
G1 X97.277 Y135.553 E0.06065
G1 X96.741 Y135.553 E0.01690
G1 X95.381 Y134.193 E0.06065
G1 X94.844 Y134.193 E0.01690
G1 X96.205 Y135.553 E0.06065
G1 X95.668 Y135.553 E0.01690
G1 X94.308 Y134.193 E0.06065
G1 X93.772 Y134.193 E0.01690
G1 X95.132 Y135.553 E0.06065
G1 X94.596 Y135.553 E0.01690
G1 X93.236 Y134.193 E0.06065
G1 X93.070 Y134.193 E0.00524
G1 X93.076 Y134.569 E0.01187
G1 X94.060 Y135.553 E0.04385
G1 X93.524 Y135.553 E0.01690
G1 X92.913 Y134.942 E0.02723
G1 E-0.80000 F2100.00000
G1 Z0.800 F10800.000
G1 X92.913 Y126.336
G1 Z0.200
G1 E0.80000 F2100.00000
G1 F1200.000
G1 X92.815 Y126.336 E0.00306
G1 X92.782 Y124.410 E0.06039
G1 X157.218 Y124.410 E2.02035
G1 X157.185 Y126.336 E0.06039
G1 X92.973 Y126.336 E2.01332
G1 X92.445 Y126.713 F10800.000
G1 F1200.000
G1 X92.398 Y124.033 E0.08404
G1 X157.602 Y124.033 E2.04440
G1 X157.555 Y126.713 E0.08404
G1 X92.505 Y126.713 E2.03962
M73 P9 R10
G1 X92.636 Y126.361 F10800.000
G1 E-0.80000 F2100.00000
G1 Z0.800 F10800.000
G1 X157.090 Y125.276
G1 Z0.200
G1 E0.80000 F2100.00000
G1 F1200.000
G1 X156.506 Y124.693 E0.02602
G1 X155.970 Y124.693 E0.01690
G1 X156.914 Y125.637 E0.04208
G1 X156.907 Y126.053 E0.01313
G1 X156.794 Y126.053 E0.00355
G1 X155.434 Y124.693 E0.06065
G1 X154.898 Y124.693 E0.01690
G1 X156.258 Y126.053 E0.06065
G1 X155.722 Y126.053 E0.01690
G1 X154.362 Y124.693 E0.06065
G1 X153.825 Y124.693 E0.01690
G1 X155.186 Y126.053 E0.06065
G1 X154.649 Y126.053 E0.01690
G1 X153.289 Y124.693 E0.06065
G1 X152.753 Y124.693 E0.01690
G1 X154.113 Y126.053 E0.06065
G1 X153.577 Y126.053 E0.01690
G1 X152.217 Y124.693 E0.06065
G1 X151.681 Y124.693 E0.01690
G1 X153.041 Y126.053 E0.06065
G1 X152.505 Y126.053 E0.01690
G1 X151.144 Y124.693 E0.06065
G1 X150.608 Y124.693 E0.01690
G1 X151.968 Y126.053 E0.06065
G1 X151.432 Y126.053 E0.01690
G1 X150.072 Y124.693 E0.06065
G1 X149.536 Y124.693 E0.01690
G1 X150.896 Y126.053 E0.06065
G1 X150.360 Y126.053 E0.01690
G1 X149.000 Y124.693 E0.06065
G1 X148.463 Y124.693 E0.01690
G1 X149.824 Y126.053 E0.06065
G1 X149.287 Y126.053 E0.01690
G1 X147.927 Y124.693 E0.06065
G1 X147.391 Y124.693 E0.01690
G1 X148.751 Y126.053 E0.06065
G1 X148.215 Y126.053 E0.01690
G1 X146.855 Y124.693 E0.06065
G1 X146.319 Y124.693 E0.01690
G1 X147.679 Y126.053 E0.06065
G1 X147.143 Y126.053 E0.01690
G1 X145.782 Y124.693 E0.06065
G1 X145.246 Y124.693 E0.01690
G1 X146.607 Y126.053 E0.06065
G1 X146.070 Y126.053 E0.01690
G1 X144.710 Y124.693 E0.06065
G1 X144.174 Y124.693 E0.01690
G1 X145.534 Y126.053 E0.06065
G1 X144.998 Y126.053 E0.01690
G1 X143.638 Y124.693 E0.06065
G1 X143.102 Y124.693 E0.01690
G1 X144.462 Y126.053 E0.06065
G1 X143.926 Y126.053 E0.01690
G1 X142.565 Y124.693 E0.06065
G1 X142.029 Y124.693 E0.01690
G1 X143.389 Y126.053 E0.06065
G1 X142.853 Y126.053 E0.01690
G1 X141.493 Y124.693 E0.06065
G1 X140.957 Y124.693 E0.01690
G1 X142.317 Y126.053 E0.06065
G1 X141.781 Y126.053 E0.01690
G1 X140.421 Y124.693 E0.06065
G1 X139.884 Y124.693 E0.01690
G1 X141.245 Y126.053 E0.06065
G1 X140.708 Y126.053 E0.01690
G1 X139.348 Y124.693 E0.06065
G1 X138.812 Y124.693 E0.01690
G1 X140.172 Y126.053 E0.06065
G1 X139.636 Y126.053 E0.01690
G1 X138.276 Y124.693 E0.06065
G1 X137.740 Y124.693 E0.01690
G1 X139.100 Y126.053 E0.06065
G1 X138.564 Y126.053 E0.01690
G1 X137.203 Y124.693 E0.06065
G1 X136.667 Y124.693 E0.01690
G1 X138.027 Y126.053 E0.06065
G1 X137.491 Y126.053 E0.01690
G1 X136.131 Y124.693 E0.06065
G1 X135.595 Y124.693 E0.01690
G1 X136.955 Y126.053 E0.06065
G1 X136.419 Y126.053 E0.01690
G1 X135.059 Y124.693 E0.06065
G1 X134.522 Y124.693 E0.01690
G1 X135.883 Y126.053 E0.06065
G1 X135.347 Y126.053 E0.01690
G1 X133.986 Y124.693 E0.06065
G1 X133.450 Y124.693 E0.01690
G1 X134.810 Y126.053 E0.06065
G1 X134.274 Y126.053 E0.01690
G1 X132.914 Y124.693 E0.06065
G1 X132.378 Y124.693 E0.01690
G1 X133.738 Y126.053 E0.06065
G1 X133.202 Y126.053 E0.01690
G1 X131.842 Y124.693 E0.06065
G1 X131.305 Y124.693 E0.01690
G1 X132.666 Y126.053 E0.06065
G1 X132.129 Y126.053 E0.01690
G1 X130.769 Y124.693 E0.06065
G1 X130.233 Y124.693 E0.01690
G1 X131.593 Y126.053 E0.06065
G1 X131.057 Y126.053 E0.01690
G1 X129.697 Y124.693 E0.06065
G1 X129.161 Y124.693 E0.01690
G1 X130.521 Y126.053 E0.06065
G1 X129.985 Y126.053 E0.01690
G1 X128.624 Y124.693 E0.06065
G1 X128.088 Y124.693 E0.01690
G1 X129.448 Y126.053 E0.06065
G1 X128.912 Y126.053 E0.01690
G1 X127.552 Y124.693 E0.06065
G1 X127.016 Y124.693 E0.01690
G1 X128.376 Y126.053 E0.06065
G1 X127.840 Y126.053 E0.01690
G1 X126.480 Y124.693 E0.06065
G1 X125.943 Y124.693 E0.01690
G1 X127.304 Y126.053 E0.06065
G1 X126.767 Y126.053 E0.01690
G1 X125.407 Y124.693 E0.06065
G1 X124.871 Y124.693 E0.01690
G1 X126.231 Y126.053 E0.06065
G1 X125.695 Y126.053 E0.01690
G1 X124.335 Y124.693 E0.06065
G1 X123.799 Y124.693 E0.01690
G1 X125.159 Y126.053 E0.06065
G1 X124.623 Y126.053 E0.01690
G1 X123.262 Y124.693 E0.06065
G1 X122.726 Y124.693 E0.01690
G1 X124.087 Y126.053 E0.06065
G1 X123.550 Y126.053 E0.01690
G1 X122.190 Y124.693 E0.06065
G1 X121.654 Y124.693 E0.01690
G1 X123.014 Y126.053 E0.06065
G1 X122.478 Y126.053 E0.01690
G1 X121.118 Y124.693 E0.06065
G1 X120.582 Y124.693 E0.01690
G1 X121.942 Y126.053 E0.06065
G1 X121.406 Y126.053 E0.01690
G1 X120.045 Y124.693 E0.06065
G1 X119.509 Y124.693 E0.01690
G1 X120.869 Y126.053 E0.06065
G1 X120.333 Y126.053 E0.01690
G1 X118.973 Y124.693 E0.06065
G1 X118.437 Y124.693 E0.01690
G1 X119.797 Y126.053 E0.06065
G1 X119.261 Y126.053 E0.01690
G1 X117.901 Y124.693 E0.06065
G1 X117.364 Y124.693 E0.01690
G1 X118.725 Y126.053 E0.06065
G1 X118.188 Y126.053 E0.01690
G1 X116.828 Y124.693 E0.06065
G1 X116.292 Y124.693 E0.01690
G1 X117.652 Y126.053 E0.06065
G1 X117.116 Y126.053 E0.01690
G1 X115.756 Y124.693 E0.06065
G1 X115.220 Y124.693 E0.01690
G1 X116.580 Y126.053 E0.06065
G1 X116.044 Y126.053 E0.01690
G1 X114.683 Y124.693 E0.06065
G1 X114.147 Y124.693 E0.01690
G1 X115.507 Y126.053 E0.06065
G1 X114.971 Y126.053 E0.01690
G1 X113.611 Y124.693 E0.06065
G1 X113.075 Y124.693 E0.01690
G1 X114.435 Y126.053 E0.06065
G1 X113.899 Y126.053 E0.01690
G1 X112.539 Y124.693 E0.06065
G1 X112.002 Y124.693 E0.01690
G1 X113.363 Y126.053 E0.06065
G1 X112.827 Y126.053 E0.01690
G1 X111.466 Y124.693 E0.06065
G1 X110.930 Y124.693 E0.01690
G1 X112.290 Y126.053 E0.06065
