; generated by PrusaSlicer 2.2.0+win64 on 2020-11-18 at 22:38:29 UTC

; 

; external perimeters extrusion width = 0.60mm
; perimeters extrusion width = 0.43mm
; infill extrusion width = 0.45mm
; solid infill extrusion width = 0.70mm
; top infill extrusion width = 0.43mm
; first layer extrusion width = 0.42mm

M73 P0 R44
M201 X9000 Y9000 Z500 E10000 ; sets maximum accelerations, mm/sec^2
M203 X500 Y500 Z12 E120 ; sets maximum feedrates, mm/sec
M204 P2000 R1500 T2000 ; sets acceleration (P, T) and retract acceleration (R), mm/sec^2
M205 X10.00 Y10.00 Z0.20 E2.50 ; sets the jerk limits, mm/sec
M205 S0 T0 ; sets the minimum extruding and travel feed rate, mm/sec
M107
M862.3 P "MK2S" ; printer model check
M862.1 P0.4 ; nozzle diameter check
M115 U3.2.3 ; tell printer latest fw version
G90 ; use absolute coordinates
M83 ; extruder relative mode
M204 S2000 T1500 ; MK2 firmware only supports the old M204 format
M104 S215 ; set extruder temp
M140 S60 ; set bed temp
M190 S60 ; wait for bed temp
M109 S215 ; wait for extruder temp
G28 W ; home all without mesh bed level
G80 ; mesh bed leveling
G1 Y-3.0 F1000.0 ; go outside print area
G92 E0.0
G1 X60.0 E9.0  F1000.0 ; intro line
M73 P0 R44
G1 X100.0 E12.5 F1000.0 ; intro line
G92 E0.0
G21 ; set units to millimeters
G90 ; use absolute coordinates
M83 ; use relative distances for extrusion
M900 K0.05 ; Filament gcode LA 1.5
M900 K30 ; Filament gcode LA 1.0
;BEFORE_LAYER_CHANGE
G92 E0.0
;0.2


G1 E-0.80000 F2100.00000
G1 Z0.600 F10800.000
;AFTER_LAYER_CHANGE
;0.2
G1 X55.734 Y43.445
G1 Z0.200
G1 E0.80000 F2100.00000
M204 S1000
G1 F1200.000
G1 X56.563 Y43.234 E0.02684
G1 X118.814 Y39.588 E1.95518
G1 X162.757 Y39.576 E1.37781
G1 X163.422 Y39.672 E0.02107
G1 X164.034 Y39.950 E0.02107
G1 X173.551 Y46.470 E0.36169
G1 X204.667 Y71.359 E1.24933
G1 X205.211 Y72.000 E0.02637
G1 X205.498 Y72.791 E0.02637
G1 X206.662 Y80.253 E0.23681
G1 X206.612 Y105.669 E0.79690
G1 X185.730 Y168.801 E2.08493
G1 X185.501 Y169.290 E0.01692
G1 X185.169 Y169.715 E0.01692
G1 X184.405 Y170.234 E0.02896
G1 X183.501 Y170.424 E0.02896
G1 X117.399 Y170.418 E2.07260
G1 X45.091 Y160.901 E2.28670
G1 X44.366 Y160.679 E0.02378
G1 X43.748 Y160.240 E0.02378
G1 X43.248 Y159.521 E0.02743
G1 X43.043 Y158.667 E0.02755
G1 X42.990 Y145.319 E0.41853
G1 X53.171 Y47.789 E3.07459
G1 X53.391 Y47.035 E0.02461
G1 X54.624 Y44.494 E0.08858
G1 X55.033 Y43.937 E0.02166
G1 X55.685 Y43.480 E0.02496
G1 E-0.80000 F2100.00000
G1 Z0.800 F10800.000
G1 X180.744 Y69.215
G1 Z0.200
G1 E0.80000 F2100.00000
G1 F1200.000
G1 X181.533 Y67.588 E0.05668
G1 X193.306 Y67.588 E0.36915
G1 X193.522 Y68.073 E0.01663
G1 X194.058 Y69.011 E0.03390
G1 X194.686 Y69.892 E0.03390
G1 X195.398 Y70.705 E0.03390
G1 X196.189 Y71.442 E0.03390
G1 X197.050 Y72.098 E0.03395
G1 X198.026 Y72.689 E0.03577
G1 X198.944 Y73.132 E0.03196
G1 X199.960 Y73.502 E0.03390
G1 X201.007 Y73.769 E0.03390
G1 X202.077 Y73.929 E0.03390
G1 X202.478 Y73.949 E0.01260
G1 X203.391 Y79.716 E0.18309
G1 X182.324 Y84.119 E0.67482
G1 X181.322 Y84.360 E0.03231
G1 X181.151 Y84.421 E0.00571
G1 X181.338 Y84.160 E0.01009
G1 X181.582 Y83.744 E0.01511
G1 X182.116 Y82.542 E0.04124
G1 X182.536 Y81.303 E0.04101
G1 X182.845 Y80.033 E0.04101
G1 X183.040 Y78.739 E0.04101
G1 X183.119 Y77.434 E0.04101
G1 X183.082 Y76.127 E0.04101
G1 X182.928 Y74.828 E0.04100
G1 X182.659 Y73.548 E0.04101
G1 X182.278 Y72.297 E0.04101
G1 X181.787 Y71.085 E0.04101
G1 X181.190 Y69.921 E0.04101
G1 X180.776 Y69.266 E0.02431
G1 X180.313 Y69.239 F10800.000
G1 F1200.000
G1 X181.296 Y67.211 E0.07066
G1 X193.551 Y67.211 E0.38424
G1 X193.859 Y67.902 E0.02371
G1 X194.376 Y68.808 E0.03271
G1 X194.982 Y69.657 E0.03271
G1 X195.669 Y70.442 E0.03271
G1 X196.432 Y71.154 E0.03271
G1 X197.263 Y71.786 E0.03273
G1 X198.206 Y72.357 E0.03459
G1 X199.091 Y72.784 E0.03081
G1 X200.071 Y73.142 E0.03271
G1 X201.082 Y73.399 E0.03271
G1 X202.114 Y73.554 E0.03271
G1 X202.802 Y73.587 E0.02161
G1 X203.820 Y80.012 E0.20396
G1 X182.407 Y84.487 E0.68591
G1 X181.430 Y84.721 E0.03149
G1 X180.942 Y84.896 E0.01623
G1 X180.492 Y85.091 E0.01538
G1 X180.052 Y85.183 E0.01411
G1 X180.219 Y84.936 E0.00937
G1 X180.467 Y84.625 E0.01248
G1 X180.766 Y84.311 E0.01358
G1 X181.022 Y83.954 E0.01378
G1 X181.246 Y83.572 E0.01389
G1 X181.764 Y82.405 E0.04003
G1 X182.174 Y81.198 E0.03995
G1 X182.475 Y79.960 E0.03995
G1 X182.665 Y78.700 E0.03995
G1 X182.742 Y77.428 E0.03995
G1 X182.705 Y76.154 E0.03995
G1 X182.555 Y74.889 E0.03995
G1 X182.294 Y73.642 E0.03995
G1 X181.922 Y72.423 E0.03995
G1 X181.444 Y71.242 E0.03995
G1 X180.862 Y70.108 E0.03995
G1 X180.345 Y69.290 E0.03035
G1 X180.683 Y69.086 F10800.000
G1 E-0.80000 F2100.00000
G1 Z0.800 F10800.000
G1 X194.037 Y69.177
G1 Z0.200
G1 E0.80000 F2100.00000
G1 F1200.000
G1 X192.731 Y67.871 E0.05842
G1 X192.193 Y67.871 E0.01702
G1 X202.929 Y78.607 E0.48027
G1 X202.828 Y77.968 E0.02047
G1 X197.655 Y72.795 E0.23140
G1 X197.891 Y72.938 E0.00873
G1 X198.752 Y73.353 E0.03022
G1 X202.727 Y77.328 E0.17783
G1 X202.625 Y76.689 E0.02047
G1 X199.613 Y73.677 E0.13474
G1 X199.876 Y73.773 E0.00885
G1 X200.374 Y73.900 E0.01624
G1 X202.524 Y76.050 E0.09620
G1 X202.423 Y75.411 E0.02047
G1 X201.078 Y74.066 E0.06018
G1 X201.711 Y74.160 E0.02025
G1 X202.526 Y74.976 E0.03646
G1 X203.235 Y79.450 F10800.000
G1 F1200.000
G1 X191.655 Y67.871 E0.51800
G1 X191.117 Y67.871 E0.01702
G1 X202.798 Y79.552 E0.52253
G1 X202.353 Y79.645 E0.01438
G1 X190.579 Y67.871 E0.52669
G1 X190.041 Y67.871 E0.01702
G1 X201.908 Y79.738 E0.53085
G1 X201.463 Y79.831 E0.01438
G1 X189.503 Y67.871 E0.53501
G1 X188.965 Y67.871 E0.01702
G1 X201.018 Y79.924 E0.53917
G1 X200.573 Y80.017 E0.01438
G1 X188.427 Y67.871 E0.54333
G1 X187.889 Y67.871 E0.01702
G1 X200.128 Y80.110 E0.54749
G1 X199.683 Y80.203 E0.01438
G1 X187.351 Y67.871 E0.55165
G1 X186.813 Y67.871 E0.01702
G1 X199.238 Y80.296 E0.55581
G1 X198.793 Y80.389 E0.01438
G1 X186.275 Y67.871 E0.55997
G1 X185.737 Y67.871 E0.01702
G1 X198.348 Y80.482 E0.56413
G1 X197.903 Y80.575 E0.01438
G1 X185.199 Y67.871 E0.56829
G1 X184.661 Y67.871 E0.01702
G1 X197.458 Y80.668 E0.57245
G1 X197.013 Y80.761 E0.01438
G1 X184.123 Y67.871 E0.57661
G1 X183.585 Y67.871 E0.01702
G1 X196.568 Y80.854 E0.58077
G1 X196.123 Y80.947 E0.01438
G1 X183.047 Y67.871 E0.58493
G1 X182.509 Y67.871 E0.01702
G1 X195.678 Y81.040 E0.58909
G1 X195.233 Y81.133 E0.01438
G1 X181.971 Y67.871 E0.59325
G1 X181.710 Y67.871 E0.00827
G1 X181.620 Y68.057 E0.00655
G1 X194.788 Y81.226 E0.58908
G1 X194.343 Y81.319 E0.01438
G1 X181.444 Y68.420 E0.57703
G1 X181.268 Y68.782 E0.01274
G1 X193.898 Y81.412 E0.56498
M73 P2 R43
G1 X193.453 Y81.505 E0.01438
G1 X181.093 Y69.144 E0.55293
G1 X181.067 Y69.197 E0.00185
G1 X181.436 Y69.781 E0.02185
G1 X181.693 Y70.283 E0.01785
G1 X193.008 Y81.598 E0.50615
G1 X192.563 Y81.691 E0.01438
G1 X182.184 Y71.312 E0.46430
G1 X182.548 Y72.214 E0.03079
G1 X192.118 Y81.783 E0.42808
G1 X191.673 Y81.876 E0.01438
G1 X182.784 Y72.988 E0.39762
G1 X182.934 Y73.478 E0.01619
G1 X182.986 Y73.728 E0.00808
G1 X191.228 Y81.969 E0.36869
G1 X190.783 Y82.062 E0.01438
G1 X183.129 Y74.409 E0.34240
G1 X183.207 Y74.782 E0.01208
G1 X183.240 Y75.058 E0.00877
G1 X190.338 Y82.155 E0.31752
G1 X189.893 Y82.248 E0.01438
G1 X183.312 Y75.668 E0.29439
G1 X183.368 Y76.262 E0.01888
G1 X189.448 Y82.341 E0.27196
G1 X189.003 Y82.434 E0.01438
G1 X183.384 Y76.816 E0.25134
G1 X183.400 Y77.370 E0.01753
G1 X188.558 Y82.527 E0.23073
G1 X188.113 Y82.620 E0.01438
G1 X183.375 Y77.883 E0.21193
G1 X183.345 Y78.390 E0.01608
G1 X187.668 Y82.713 E0.19340
G1 X187.223 Y82.806 E0.01438
G1 X183.304 Y78.888 E0.17531
G1 X183.233 Y79.355 E0.01496
G1 X186.778 Y82.899 E0.15856
G1 X186.333 Y82.992 E0.01438
G1 X183.163 Y79.823 E0.14180
G1 X183.078 Y80.275 E0.01457
G1 X185.888 Y83.085 E0.12572
G1 X185.443 Y83.178 E0.01438
G1 X182.972 Y80.708 E0.11052
G1 X182.867 Y81.141 E0.01409
G1 X184.998 Y83.271 E0.09532
G1 X184.553 Y83.364 E0.01438
G1 X182.748 Y81.560 E0.08074
G1 X182.612 Y81.961 E0.01342
G1 X184.108 Y83.457 E0.06693
G1 X183.663 Y83.550 E0.01438
G1 X182.475 Y82.363 E0.05313
G1 X182.330 Y82.756 E0.01325
G1 X183.218 Y83.643 E0.03971
G1 X182.773 Y83.736 E0.01438
G1 X182.165 Y83.128 E0.02720
G1 X181.999 Y83.501 E0.01290
G1 X182.328 Y83.829 E0.01469
G1 X181.892 Y83.932 E0.01415
G1 X181.706 Y83.745 E0.00836
G1 X180.997 Y84.531 F10800.000
G1 F1200.000
G1 X180.561 Y84.825 E0.00795
G1 E-0.80000 F2100.00000
G1 Z0.800 F10800.000
G1 X181.533 Y92.436
G1 Z0.200
G1 E0.80000 F2100.00000
G1 F1200.000
G1 X193.306 Y92.436 E0.36915
G1 X193.522 Y92.921 E0.01663
G1 X194.058 Y93.859 E0.03390
G1 X194.686 Y94.740 E0.03390
G1 X195.398 Y95.553 E0.03390
G1 X196.189 Y96.290 E0.03390
G1 X197.050 Y96.946 E0.03395
G1 X198.026 Y97.537 E0.03577
G1 X198.944 Y97.980 E0.03196
G1 X199.960 Y98.350 E0.03390
G1 X201.007 Y98.617 E0.03390
G1 X202.077 Y98.777 E0.03390
G1 X202.478 Y98.797 E0.01260
G1 X203.391 Y104.564 E0.18309
G1 X182.324 Y108.967 E0.67482
G1 X181.322 Y109.207 E0.03231
G1 X181.151 Y109.269 E0.00571
G1 X181.338 Y109.007 E0.01009
G1 X181.582 Y108.592 E0.01511
G1 X182.116 Y107.390 E0.04124
G1 X182.536 Y106.151 E0.04101
G1 X182.845 Y104.881 E0.04101
G1 X183.040 Y103.587 E0.04101
G1 X183.119 Y102.282 E0.04101
G1 X183.082 Y100.975 E0.04101
G1 X182.928 Y99.676 E0.04100
G1 X182.659 Y98.396 E0.04101
G1 X182.278 Y97.145 E0.04101
G1 X181.787 Y95.933 E0.04101
G1 X181.190 Y94.769 E0.04101
G1 X180.744 Y94.063 E0.02619
G1 X181.506 Y92.490 E0.05480
G1 X181.296 Y92.059 F10800.000
G1 F1200.000
G1 X193.551 Y92.059 E0.38424
G1 X193.859 Y92.750 E0.02371
G1 X194.376 Y93.656 E0.03271
G1 X194.982 Y94.505 E0.03271
G1 X195.669 Y95.290 E0.03271
G1 X196.432 Y96.001 E0.03271
G1 X197.263 Y96.634 E0.03273
G1 X198.206 Y97.205 E0.03459
G1 X199.091 Y97.632 E0.03081
G1 X200.071 Y97.990 E0.03271
G1 X201.082 Y98.247 E0.03271
G1 X202.114 Y98.402 E0.03271
G1 X202.802 Y98.435 E0.02161
G1 X203.820 Y104.860 E0.20396
G1 X182.407 Y109.335 E0.68591
G1 X181.430 Y109.569 E0.03149
G1 X180.942 Y109.744 E0.01623
G1 X180.492 Y109.939 E0.01538
G1 X180.052 Y110.031 E0.01411
G1 X180.219 Y109.784 E0.00937
G1 X180.467 Y109.472 E0.01248
G1 X180.766 Y109.159 E0.01358
G1 X181.022 Y108.802 E0.01378
G1 X181.246 Y108.419 E0.01389
G1 X181.764 Y107.252 E0.04003
G1 X182.174 Y106.046 E0.03995
G1 X182.475 Y104.808 E0.03995
G1 X182.665 Y103.548 E0.03995
G1 X182.742 Y102.276 E0.03995
G1 X182.705 Y101.002 E0.03995
G1 X182.555 Y99.737 E0.03995
G1 X182.294 Y98.490 E0.03995
G1 X181.922 Y97.271 E0.03995
G1 X181.444 Y96.090 E0.03995
G1 X180.862 Y94.956 E0.03995
G1 X180.313 Y94.087 E0.03223
G1 X181.270 Y92.113 E0.06878
G1 X181.632 Y92.276 F10800.000
G1 E-0.80000 F2100.00000
G1 Z0.800 F10800.000
G1 X194.037 Y94.025
G1 Z0.200
G1 E0.80000 F2100.00000
G1 F1200.000
G1 X192.731 Y92.719 E0.05842
G1 X192.193 Y92.719 E0.01702
G1 X202.929 Y103.455 E0.48027
G1 X202.828 Y102.816 E0.02047
G1 X197.655 Y97.643 E0.23140
G1 X197.891 Y97.786 E0.00873
G1 X198.752 Y98.201 E0.03022
G1 X202.727 Y102.176 E0.17783
G1 X202.625 Y101.537 E0.02047
G1 X199.613 Y98.525 E0.13474
G1 X199.876 Y98.621 E0.00885
G1 X200.374 Y98.747 E0.01624
G1 X202.524 Y100.898 E0.09620
G1 X202.423 Y100.259 E0.02047
G1 X201.078 Y98.913 E0.06018
G1 X201.711 Y99.008 E0.02025
G1 X202.526 Y99.823 E0.03646
G1 X203.235 Y104.298 F10800.000
G1 F1200.000
G1 X191.655 Y92.719 E0.51800
G1 X191.117 Y92.719 E0.01702
G1 X202.798 Y104.399 E0.52253
G1 X202.353 Y104.492 E0.01438
G1 X190.579 Y92.719 E0.52669
G1 X190.041 Y92.719 E0.01702
G1 X201.908 Y104.585 E0.53085
G1 X201.463 Y104.678 E0.01438
G1 X189.503 Y92.719 E0.53501
G1 X188.965 Y92.719 E0.01702
G1 X201.018 Y104.771 E0.53917
G1 X200.573 Y104.864 E0.01438
G1 X188.427 Y92.719 E0.54333
G1 X187.889 Y92.719 E0.01702
G1 X200.128 Y104.957 E0.54749
G1 X199.683 Y105.050 E0.01438
G1 X187.351 Y92.719 E0.55165
G1 X186.813 Y92.719 E0.01702
G1 X199.238 Y105.143 E0.55581
G1 X198.793 Y105.236 E0.01438
G1 X186.275 Y92.719 E0.55997
G1 X185.737 Y92.719 E0.01702
G1 X198.348 Y105.329 E0.56413
G1 X197.903 Y105.422 E0.01438
G1 X185.199 Y92.719 E0.56829
G1 X184.661 Y92.719 E0.01702
G1 X197.458 Y105.515 E0.57245
G1 X197.013 Y105.608 E0.01438
G1 X184.123 Y92.719 E0.57661
G1 X183.585 Y92.719 E0.01702
G1 X196.568 Y105.701 E0.58077
G1 X196.123 Y105.794 E0.01438
G1 X183.047 Y92.719 E0.58493
G1 X182.509 Y92.719 E0.01702
G1 X195.678 Y105.887 E0.58909
G1 X195.233 Y105.980 E0.01438
G1 X181.971 Y92.719 E0.59325
G1 X181.710 Y92.719 E0.00827
G1 X181.620 Y92.905 E0.00655
G1 X194.788 Y106.073 E0.58908
G1 X194.343 Y106.166 E0.01438
G1 X181.444 Y93.267 E0.57703
G1 X181.268 Y93.630 E0.01274
G1 X193.898 Y106.259 E0.56498
G1 X193.453 Y106.352 E0.01438
G1 X181.093 Y93.992 E0.55293
G1 X181.067 Y94.045 E0.00185
G1 X181.436 Y94.629 E0.02185
G1 X181.693 Y95.131 E0.01785
G1 X193.008 Y106.445 E0.50615
G1 X192.563 Y106.538 E0.01438
G1 X182.184 Y96.159 E0.46430
G1 X182.548 Y97.062 E0.03079
G1 X192.118 Y106.631 E0.42808
G1 X191.673 Y106.724 E0.01438
G1 X182.784 Y97.836 E0.39762
G1 X182.934 Y98.326 E0.01619
G1 X182.986 Y98.576 E0.00808
G1 X191.228 Y106.817 E0.36869
G1 X190.783 Y106.910 E0.01438
G1 X183.129 Y99.256 E0.34240
G1 X183.207 Y99.630 E0.01208
G1 X183.240 Y99.905 E0.00877
G1 X190.338 Y107.003 E0.31752
G1 X189.893 Y107.096 E0.01438
G1 X183.312 Y100.516 E0.29439
G1 X183.368 Y101.110 E0.01888
G1 X189.448 Y107.189 E0.27196
G1 X189.003 Y107.282 E0.01438
G1 X183.384 Y101.664 E0.25134
G1 X183.400 Y102.218 E0.01753
G1 X188.558 Y107.375 E0.23073
G1 X188.113 Y107.468 E0.01438
G1 X183.375 Y102.731 E0.21193
G1 X183.345 Y103.238 E0.01608
G1 X187.668 Y107.561 E0.19340
G1 X187.223 Y107.654 E0.01438
G1 X183.304 Y103.735 E0.17531
G1 X183.233 Y104.203 E0.01496
G1 X186.778 Y107.747 E0.15856
G1 X186.333 Y107.840 E0.01438
G1 X183.163 Y104.671 E0.14180
G1 X183.078 Y105.123 E0.01457
G1 X185.888 Y107.933 E0.12572
G1 X185.443 Y108.026 E0.01438
G1 X182.972 Y105.556 E0.11052
G1 X182.867 Y105.989 E0.01409
G1 X184.998 Y108.119 E0.09532
G1 X184.553 Y108.212 E0.01438
G1 X182.748 Y106.408 E0.08074
G1 X182.612 Y106.809 E0.01342
G1 X184.108 Y108.305 E0.06693
G1 X183.663 Y108.398 E0.01438
G1 X182.475 Y107.211 E0.05313
G1 X182.330 Y107.604 E0.01325
G1 X183.218 Y108.491 E0.03971
G1 X182.773 Y108.584 E0.01438
G1 X182.165 Y107.976 E0.02720
G1 X181.999 Y108.349 E0.01290
G1 X182.328 Y108.677 E0.01469
G1 X181.892 Y108.780 E0.01415
G1 X181.706 Y108.593 E0.00836
G1 X180.997 Y109.379 F10800.000
G1 F1200.000
G1 X180.561 Y109.673 E0.00795
G1 E-0.80000 F2100.00000
G1 Z0.800 F10800.000
G1 X182.735 Y165.334
G1 Z0.200
G1 E0.80000 F2100.00000
G1 F1200.000
G1 X182.702 Y167.260 E0.06039
G1 X118.332 Y167.260 E2.01826
G1 X118.299 Y165.334 E0.06039
G1 X182.675 Y165.334 E2.01846
G1 X183.119 Y164.957 F10800.000
G1 F1200.000
G1 X183.072 Y167.637 E0.08404
G1 X117.961 Y167.637 E2.04151
M73 P4 R42
G1 X117.915 Y164.957 E0.08404
G1 X183.059 Y164.957 E2.04252
G1 X182.919 Y165.304 F10800.000
G1 E-0.80000 F2100.00000
G1 Z0.800 F10800.000
G1 X118.430 Y166.366
G1 Z0.200
G1 E0.80000 F2100.00000
G1 F1200.000
G1 X119.041 Y166.977 E0.02723
G1 X119.577 Y166.977 E0.01690
G1 X118.593 Y165.993 E0.04385
G1 X118.587 Y165.617 E0.01187
G1 X118.753 Y165.617 E0.00524
G1 X120.113 Y166.977 E0.06065
G1 X120.649 Y166.977 E0.01690
G1 X119.289 Y165.617 E0.06065
G1 X119.825 Y165.617 E0.01690
G1 X121.185 Y166.977 E0.06065
G1 X121.722 Y166.977 E0.01690
G1 X120.361 Y165.617 E0.06065
G1 X120.897 Y165.617 E0.01690
G1 X122.258 Y166.977 E0.06065
G1 X122.794 Y166.977 E0.01690
G1 X121.434 Y165.617 E0.06065
G1 X121.970 Y165.617 E0.01690
G1 X123.330 Y166.977 E0.06065
G1 X123.866 Y166.977 E0.01690
G1 X122.506 Y165.617 E0.06065
G1 X123.042 Y165.617 E0.01690
G1 X124.402 Y166.977 E0.06065
G1 X124.939 Y166.977 E0.01690
G1 X123.578 Y165.617 E0.06065
G1 X124.115 Y165.617 E0.01690
G1 X125.475 Y166.977 E0.06065
G1 X126.011 Y166.977 E0.01690
G1 X124.651 Y165.617 E0.06065
G1 X125.187 Y165.617 E0.01690
G1 X126.547 Y166.977 E0.06065
G1 X127.083 Y166.977 E0.01690
G1 X125.723 Y165.617 E0.06065
G1 X126.259 Y165.617 E0.01690
G1 X127.620 Y166.977 E0.06065
G1 X128.156 Y166.977 E0.01690
G1 X126.796 Y165.617 E0.06065
G1 X127.332 Y165.617 E0.01690
G1 X128.692 Y166.977 E0.06065
G1 X129.228 Y166.977 E0.01690
