; generated by PrusaSlicer 2.2.0+win64 on 2020-11-11 at 22:06:25 UTC

; 

; external perimeters extrusion width = 0.60mm
; perimeters extrusion width = 0.43mm
; infill extrusion width = 0.45mm
; solid infill extrusion width = 0.70mm
; top infill extrusion width = 0.43mm
; first layer extrusion width = 0.42mm

M73 P0 R111
M201 X9000 Y9000 Z500 E10000 ; sets maximum accelerations, mm/sec^2
M203 X500 Y500 Z12 E120 ; sets maximum feedrates, mm/sec
M204 P2000 R1500 T2000 ; sets acceleration (P, T) and retract acceleration (R), mm/sec^2
M205 X10.00 Y10.00 Z0.20 E2.50 ; sets the jerk limits, mm/sec
M205 S0 T0 ; sets the minimum extruding and travel feed rate, mm/sec
M107
M862.3 P "MK2S" ; printer model check
M862.1 P0.4 ; nozzle diameter check
M115 U3.2.3 ; tell printer latest fw version
G90 ; use absolute coordinates
M83 ; extruder relative mode
M204 S2000 T1500 ; MK2 firmware only supports the old M204 format
M104 S215 ; set extruder temp
M140 S60 ; set bed temp
M190 S60 ; wait for bed temp
M109 S215 ; wait for extruder temp
G28 W ; home all without mesh bed level
G80 ; mesh bed leveling
G1 Y-3.0 F1000.0 ; go outside print area
G92 E0.0
G1 X60.0 E9.0  F1000.0 ; intro line
M73 P0 R111
G1 X100.0 E12.5 F1000.0 ; intro line
G92 E0.0
G21 ; set units to millimeters
G90 ; use absolute coordinates
M83 ; use relative distances for extrusion
M900 K0.05 ; Filament gcode LA 1.5
M900 K30 ; Filament gcode LA 1.0
;BEFORE_LAYER_CHANGE
G92 E0.0
;0.2


G1 E-0.80000 F2100.00000
G1 Z0.600 F10800.000
;AFTER_LAYER_CHANGE
;0.2
G1 X48.322 Y56.564
G1 Z0.200
G1 E0.80000 F2100.00000
M204 S1000
G1 F1200.000
G1 X48.652 Y55.927 E0.02249
G1 X49.157 Y55.418 E0.02249
G1 X49.791 Y55.082 E0.02249
G1 X50.496 Y54.951 E0.02249
G1 X97.906 Y54.949 E1.48654
G1 X187.096 Y56.378 E2.79683
G1 X187.848 Y56.561 E0.02426
G1 X200.387 Y62.021 E0.42882
G1 X200.855 Y62.297 E0.01704
G1 X201.248 Y62.673 E0.01704
G1 X201.572 Y63.182 E0.01894
G1 X201.758 Y63.761 E0.01906
G1 X202.258 Y68.152 E0.13857
G1 X203.586 Y101.527 E1.04729
G1 X203.066 Y119.880 E0.57568
G1 X202.745 Y120.650 E0.02614
G1 X181.303 Y153.966 E1.24227
G1 X180.830 Y154.500 E0.02237
G1 X180.233 Y154.863 E0.02190
G1 X179.553 Y155.038 E0.02201
G1 X175.541 Y155.050 E0.12580
G1 X67.012 Y152.317 E3.40391
G1 X66.511 Y152.249 E0.01585
G1 X66.039 Y152.079 E0.01574
G1 X65.610 Y151.812 E0.01585
G1 X65.250 Y151.462 E0.01574
G1 X64.939 Y150.980 E0.01799
G1 X51.700 Y123.669 E0.95162
G1 X51.499 Y123.048 E0.02048
G1 X48.199 Y57.438 E2.05976
G1 X48.314 Y56.623 E0.02578
G1 E-0.80000 F2100.00000
G1 Z0.800 F10800.000
G1 X190.687 Y69.545
G1 Z0.200
G1 E0.80000 F2100.00000
G1 F1200.000
G1 X196.859 Y69.545 E0.19351
G1 X196.859 Y80.556 E0.34526
G1 X195.523 Y80.830 E0.04276
G1 X190.711 Y69.600 E0.38309
G1 X191.259 Y69.922 F10800.000
G1 F1200.000
G1 X196.482 Y69.922 E0.16376
G1 X196.482 Y80.249 E0.32379
G1 X195.748 Y80.399 E0.02348
G1 X191.282 Y69.977 E0.35552
G1 X191.197 Y69.527 F10800.000
G1 X189.851 Y67.594
G1 F1200.000
G1 X196.859 Y67.594 E0.21972
G1 X196.859 Y64.980 E0.08197
G1 X198.718 Y64.980 E0.05828
G1 X199.084 Y68.215 E0.10210
G1 X198.633 Y69.626 E0.04644
G1 X198.633 Y85.270 E0.49049
G1 X196.192 Y85.270 E0.07655
G1 X183.718 Y59.536 E0.89667
G1 X186.398 Y59.536 E0.08402
G1 X189.827 Y67.539 E0.27301
G1 X190.100 Y67.217 F10800.000
G1 F1200.000
G1 X196.482 Y67.217 E0.20010
G1 X196.482 Y64.603 E0.08197
G1 X199.054 Y64.603 E0.08066
G1 X199.468 Y68.253 E0.11519
G1 X199.011 Y69.685 E0.04713
G1 X199.011 Y85.647 E0.50047
G1 X195.956 Y85.647 E0.09578
G1 X183.117 Y59.158 E0.92295
G1 X186.647 Y59.158 E0.11069
G1 X190.076 Y67.162 E0.27301
G1 X190.194 Y67.606 F10800.000
G1 X192.017 Y69.432
G1 F1200.000
G1 X190.462 Y67.877 E0.06921
G1 X190.997 Y67.877 E0.01685
G1 X192.382 Y69.262 E0.06166
G1 X192.918 Y69.262 E0.01685
G1 X191.533 Y67.877 E0.06166
G1 X192.068 Y67.877 E0.01685
G1 X193.453 Y69.262 E0.06166
G1 X193.988 Y69.262 E0.01685
G1 X192.603 Y67.877 E0.06166
G1 X193.139 Y67.877 E0.01685
G1 X194.524 Y69.262 E0.06166
G1 X195.059 Y69.262 E0.01685
G1 X193.674 Y67.877 E0.06166
G1 X194.209 Y67.877 E0.01685
G1 X195.594 Y69.262 E0.06166
G1 X196.130 Y69.262 E0.01685
G1 X194.745 Y67.877 E0.06166
G1 X195.280 Y67.877 E0.01685
G1 X196.835 Y69.432 E0.06921
G1 X198.715 Y65.958 F10800.000
G1 F1200.000
G1 X198.019 Y65.263 E0.03097
G1 X197.484 Y65.263 E0.01685
G1 X198.590 Y66.369 E0.04927
G1 X198.659 Y66.973 E0.01912
G1 X197.142 Y65.456 E0.06753
G1 X197.142 Y65.991 E0.01685
G1 X198.727 Y67.577 E0.07058
G1 X198.796 Y68.181 E0.01912
G1 X197.142 Y66.527 E0.07362
G1 X197.142 Y67.062 E0.01685
G1 X198.668 Y68.588 E0.06795
G1 X198.538 Y68.994 E0.01341
G1 X197.142 Y67.597 E0.06218
G1 X197.142 Y67.877 E0.00880
G1 X196.886 Y67.877 E0.00805
G1 X198.409 Y69.400 E0.06779
G1 X198.351 Y69.582 E0.00602
G1 X198.351 Y69.877 E0.00928
G1 X196.350 Y67.877 E0.08903
G1 X195.815 Y67.877 E0.01685
G1 X198.351 Y70.412 E0.11286
G1 X198.351 Y70.948 E0.01685
G1 X197.142 Y69.739 E0.05382
G1 X197.142 Y70.274 E0.01685
G1 X198.351 Y71.483 E0.05382
G1 X198.351 Y72.018 E0.01685
G1 X197.142 Y70.809 E0.05382
G1 X197.142 Y71.345 E0.01685
G1 X198.351 Y72.554 E0.05382
G1 X198.351 Y73.089 E0.01685
G1 X197.142 Y71.880 E0.05382
G1 X197.142 Y72.415 E0.01685
G1 X198.351 Y73.624 E0.05382
G1 X198.351 Y74.160 E0.01685
G1 X197.142 Y72.951 E0.05382
G1 X197.142 Y73.486 E0.01685
G1 X198.351 Y74.695 E0.05382
G1 X198.351 Y75.230 E0.01685
G1 X197.142 Y74.021 E0.05382
G1 X197.142 Y74.557 E0.01685
G1 X198.351 Y75.766 E0.05382
G1 X198.351 Y76.301 E0.01685
G1 X197.142 Y75.092 E0.05382
G1 X197.142 Y75.627 E0.01685
G1 X198.351 Y76.836 E0.05382
G1 X198.351 Y77.372 E0.01685
G1 X197.142 Y76.163 E0.05382
G1 X197.142 Y76.698 E0.01685
G1 X198.351 Y77.907 E0.05382
G1 X198.351 Y78.442 E0.01685
G1 X197.142 Y77.233 E0.05382
G1 X197.142 Y77.768 E0.01685
G1 X198.351 Y78.977 E0.05382
G1 X198.351 Y79.513 E0.01685
G1 X197.142 Y78.304 E0.05382
G1 X197.142 Y78.839 E0.01685
G1 X198.351 Y80.048 E0.05382
G1 X198.351 Y80.583 E0.01685
G1 X197.142 Y79.374 E0.05382
G1 X197.142 Y79.910 E0.01685
G1 X198.351 Y81.119 E0.05382
G1 X198.351 Y81.654 E0.01685
G1 X197.142 Y80.445 E0.05382
G1 X197.142 Y80.787 E0.01076
G1 X196.981 Y80.820 E0.00516
G1 X198.351 Y82.189 E0.06096
G1 X198.351 Y82.725 E0.01685
G1 X196.537 Y80.911 E0.08073
G1 X196.093 Y81.002 E0.01427
G1 X198.351 Y83.260 E0.10050
G1 X198.351 Y83.795 E0.01685
G1 X195.649 Y81.093 E0.12028
G1 X195.354 Y81.154 E0.00947
G1 X195.087 Y80.532 E0.02129
G1 X193.385 Y78.829 E0.07579
G1 X192.881 Y77.791 E0.03634
G1 X194.686 Y79.595 E0.08034
G1 X194.285 Y78.659 E0.03207
G1 X192.378 Y76.752 E0.08489
G1 X191.874 Y75.713 E0.03634
G1 X193.883 Y77.722 E0.08943
G1 X193.482 Y76.785 E0.03207
G1 X191.370 Y74.674 E0.09398
G1 X190.867 Y73.635 E0.03634
G1 X193.080 Y75.849 E0.09853
G1 X192.679 Y74.912 E0.03207
G1 X190.363 Y72.596 E0.10308
G1 X189.860 Y71.557 E0.03634
G1 X192.278 Y73.975 E0.10763
G1 X191.876 Y73.039 E0.03207
G1 X189.356 Y70.518 E0.11218
G1 X188.853 Y69.480 E0.03634
G1 X191.475 Y72.102 E0.11673
G1 X191.074 Y71.165 E0.03207
G1 X188.349 Y68.441 E0.12128
G1 X187.846 Y67.402 E0.03634
G1 X190.672 Y70.229 E0.12583
G1 X190.271 Y69.292 E0.03207
G1 X187.342 Y66.363 E0.13038
G1 X186.838 Y65.324 E0.03634
G1 X190.776 Y69.262 E0.17529
G1 X191.312 Y69.262 E0.01685
G1 X186.335 Y64.285 E0.22153
G1 X185.831 Y63.246 E0.03634
G1 X189.067 Y66.482 E0.14402
G1 X188.665 Y65.545 E0.03207
G1 X185.328 Y62.207 E0.14857
G1 X184.824 Y61.168 E0.03634
G1 X188.264 Y64.608 E0.15312
G1 X187.863 Y63.672 E0.03207
G1 X184.321 Y60.130 E0.15767
G1 X184.170 Y59.818 E0.01089
G1 X184.545 Y59.818 E0.01180
G1 X187.461 Y62.735 E0.12983
G1 X187.060 Y61.798 E0.03207
G1 X185.080 Y59.818 E0.08813
G1 X185.615 Y59.818 E0.01685
G1 X186.659 Y60.862 E0.04644
G1 X186.257 Y59.925 E0.03207
G1 X185.981 Y59.649 E0.01230
G1 E-0.80000 F2100.00000
G1 Z0.800 F10800.000
G1 X195.537 Y83.658
G1 Z0.200
G1 E0.80000 F2100.00000
G1 F1200.000
G1 X196.866 Y84.987 E0.05916
G1 X197.401 Y84.987 E0.01685
G1 X195.399 Y82.985 E0.08911
G1 X194.895 Y81.946 E0.03634
G1 X197.936 Y84.987 E0.13536
G1 X198.351 Y84.987 E0.01304
G1 X198.351 Y84.866 E0.00381
G1 X194.392 Y80.907 E0.17622
G1 X193.888 Y79.868 E0.03634
G1 X198.520 Y84.500 E0.20619
G1 E-0.80000 F2100.00000
G1 Z0.800 F10800.000
G1 X175.422 Y80.556
G1 Z0.200
G1 E0.80000 F2100.00000
G1 F1200.000
G1 X174.086 Y80.830 E0.04276
G1 X169.250 Y69.545 E0.38497
G1 X175.422 Y69.545 E0.19351
G1 X175.422 Y80.496 E0.34338
G1 X175.045 Y80.249 F10800.000
G1 F1200.000
G1 X174.311 Y80.399 E0.02348
G1 X169.822 Y69.922 E0.35740
G1 X175.045 Y69.922 E0.16376
G1 X175.045 Y80.189 E0.32191
G1 X175.159 Y80.632 F10800.000
G1 E-0.80000 F2100.00000
G1 Z0.800 F10800.000
G1 X168.414 Y67.594
G1 Z0.200
G1 E0.80000 F2100.00000
G1 F1200.000
G1 X175.422 Y67.594 E0.21972
G1 X175.422 Y64.980 E0.08197
G1 X177.280 Y64.980 E0.05828
G1 X177.647 Y68.215 E0.10210
G1 X177.196 Y69.626 E0.04644
G1 X177.196 Y85.270 E0.49049
G1 X174.755 Y85.270 E0.07655
G1 X162.281 Y59.536 E0.89667
G1 X164.961 Y59.536 E0.08402
G1 X168.390 Y67.539 E0.27301
G1 X168.663 Y67.217 F10800.000
G1 F1200.000
G1 X175.045 Y67.217 E0.20010
G1 X175.045 Y64.603 E0.08197
M73 P0 R110
G1 X177.617 Y64.603 E0.08066
G1 X178.031 Y68.253 E0.11519
G1 X177.573 Y69.685 E0.04713
G1 X177.573 Y85.647 E0.50047
G1 X174.519 Y85.647 E0.09578
G1 X161.679 Y59.158 E0.92295
G1 X165.210 Y59.158 E0.11069
G1 X168.639 Y67.162 E0.27301
G1 X168.757 Y67.606 F10800.000
G1 X170.580 Y69.432
G1 F1200.000
G1 X169.025 Y67.877 E0.06921
G1 X169.560 Y67.877 E0.01685
G1 X170.945 Y69.262 E0.06166
G1 X171.481 Y69.262 E0.01685
G1 X170.095 Y67.877 E0.06166
G1 X170.631 Y67.877 E0.01685
G1 X172.016 Y69.262 E0.06166
G1 X172.551 Y69.262 E0.01685
G1 X171.166 Y67.877 E0.06166
G1 X171.701 Y67.877 E0.01685
G1 X173.087 Y69.262 E0.06166
G1 X173.622 Y69.262 E0.01685
G1 X172.237 Y67.877 E0.06166
G1 X172.772 Y67.877 E0.01685
G1 X174.157 Y69.262 E0.06166
G1 X174.693 Y69.262 E0.01685
G1 X173.307 Y67.877 E0.06166
G1 X173.843 Y67.877 E0.01685
G1 X175.398 Y69.432 E0.06921
G1 X177.277 Y65.958 F10800.000
G1 F1200.000
G1 X176.582 Y65.263 E0.03097
G1 X176.046 Y65.263 E0.01685
G1 X177.153 Y66.369 E0.04927
G1 X177.222 Y66.973 E0.01912
G1 X175.704 Y65.456 E0.06753
G1 X175.704 Y65.991 E0.01685
G1 X177.290 Y67.577 E0.07058
G1 X177.358 Y68.181 E0.01912
G1 X175.704 Y66.527 E0.07362
G1 X175.704 Y67.062 E0.01685
G1 X177.231 Y68.588 E0.06795
G1 X177.101 Y68.994 E0.01341
G1 X175.704 Y67.597 E0.06218
G1 X175.704 Y67.877 E0.00880
G1 X175.449 Y67.877 E0.00805
G1 X176.972 Y69.400 E0.06779
G1 X176.913 Y69.582 E0.00602
G1 X176.913 Y69.877 E0.00928
G1 X174.913 Y67.877 E0.08903
G1 X174.378 Y67.877 E0.01685
G1 X176.913 Y70.412 E0.11286
G1 X176.913 Y70.948 E0.01685
G1 X175.704 Y69.739 E0.05382
G1 X175.704 Y70.274 E0.01685
G1 X176.913 Y71.483 E0.05382
G1 X176.913 Y72.018 E0.01685
G1 X175.704 Y70.809 E0.05382
G1 X175.704 Y71.345 E0.01685
G1 X176.913 Y72.554 E0.05382
G1 X176.913 Y73.089 E0.01685
G1 X175.704 Y71.880 E0.05382
G1 X175.704 Y72.415 E0.01685
G1 X176.913 Y73.624 E0.05382
G1 X176.913 Y74.160 E0.01685
G1 X175.704 Y72.951 E0.05382
G1 X175.704 Y73.486 E0.01685
G1 X176.913 Y74.695 E0.05382
G1 X176.913 Y75.230 E0.01685
G1 X175.704 Y74.021 E0.05382
G1 X175.704 Y74.557 E0.01685
G1 X176.913 Y75.766 E0.05382
G1 X176.913 Y76.301 E0.01685
G1 X175.704 Y75.092 E0.05382
G1 X175.704 Y75.627 E0.01685
G1 X176.913 Y76.836 E0.05382
G1 X176.913 Y77.372 E0.01685
G1 X175.704 Y76.163 E0.05382
G1 X175.704 Y76.698 E0.01685
G1 X176.913 Y77.907 E0.05382
G1 X176.913 Y78.442 E0.01685
G1 X175.704 Y77.233 E0.05382
G1 X175.704 Y77.768 E0.01685
G1 X176.913 Y78.977 E0.05382
G1 X176.913 Y79.513 E0.01685
G1 X175.704 Y78.304 E0.05382
G1 X175.704 Y78.839 E0.01685
G1 X176.913 Y80.048 E0.05382
G1 X176.913 Y80.583 E0.01685
G1 X175.704 Y79.374 E0.05382
G1 X175.704 Y79.910 E0.01685
G1 X176.913 Y81.119 E0.05382
G1 X176.913 Y81.654 E0.01685
G1 X175.704 Y80.445 E0.05382
G1 X175.704 Y80.787 E0.01076
G1 X175.544 Y80.820 E0.00516
G1 X176.913 Y82.189 E0.06096
G1 X176.913 Y82.725 E0.01685
G1 X175.100 Y80.911 E0.08073
G1 X174.656 Y81.002 E0.01427
G1 X176.913 Y83.260 E0.10050
G1 X176.913 Y83.795 E0.01685
G1 X174.211 Y81.093 E0.12028
G1 X173.917 Y81.154 E0.00947
G1 X173.650 Y80.532 E0.02129
G1 X171.948 Y78.829 E0.07579
G1 X171.444 Y77.791 E0.03634
G1 X173.249 Y79.595 E0.08034
G1 X172.847 Y78.659 E0.03207
G1 X170.940 Y76.752 E0.08489
G1 X170.437 Y75.713 E0.03634
G1 X172.446 Y77.722 E0.08943
G1 X172.045 Y76.785 E0.03207
G1 X169.933 Y74.674 E0.09398
G1 X169.430 Y73.635 E0.03634
G1 X171.643 Y75.849 E0.09853
G1 X171.242 Y74.912 E0.03207
G1 X168.926 Y72.596 E0.10308
G1 X168.423 Y71.557 E0.03634
G1 X170.841 Y73.975 E0.10763
G1 X170.439 Y73.039 E0.03207
G1 X167.919 Y70.518 E0.11218
G1 X167.416 Y69.480 E0.03634
G1 X170.038 Y72.102 E0.11673
G1 X169.637 Y71.165 E0.03207
G1 X166.912 Y68.441 E0.12128
G1 X166.408 Y67.402 E0.03634
G1 X169.235 Y70.229 E0.12583
G1 X168.834 Y69.292 E0.03207
G1 X165.905 Y66.363 E0.13038
G1 X165.401 Y65.324 E0.03634
G1 X169.339 Y69.262 E0.17529
G1 X169.875 Y69.262 E0.01685
G1 X164.898 Y64.285 E0.22153
G1 X164.394 Y63.246 E0.03634
G1 X167.630 Y66.482 E0.14402
G1 X167.228 Y65.545 E0.03207
G1 X163.891 Y62.207 E0.14857
G1 X163.387 Y61.168 E0.03634
G1 X166.827 Y64.608 E0.15312
G1 X166.426 Y63.672 E0.03207
G1 X162.883 Y60.130 E0.15767
G1 X162.733 Y59.818 E0.01089
G1 X163.108 Y59.818 E0.01180
G1 X166.024 Y62.735 E0.12983
G1 X165.623 Y61.798 E0.03207
G1 X163.643 Y59.818 E0.08813
G1 X164.178 Y59.818 E0.01685
G1 X165.222 Y60.862 E0.04644
G1 X164.820 Y59.925 E0.03207
G1 X164.544 Y59.649 E0.01230
G1 E-0.80000 F2100.00000
G1 Z0.800 F10800.000
G1 X174.099 Y83.658
G1 Z0.200
G1 E0.80000 F2100.00000
G1 F1200.000
G1 X175.428 Y84.987 E0.05916
G1 X175.964 Y84.987 E0.01685
G1 X173.962 Y82.985 E0.08911
G1 X173.458 Y81.946 E0.03634
G1 X176.499 Y84.987 E0.13536
G1 X176.913 Y84.987 E0.01304
G1 X176.913 Y84.866 E0.00381
G1 X172.955 Y80.907 E0.17622
G1 X172.451 Y79.868 E0.03634
G1 X177.083 Y84.500 E0.20619
G1 E-0.80000 F2100.00000
G1 Z0.800 F10800.000
G1 X153.985 Y80.556
G1 Z0.200
G1 E0.80000 F2100.00000
G1 F1200.000
G1 X152.649 Y80.830 E0.04276
G1 X147.813 Y69.545 E0.38497
G1 X153.985 Y69.545 E0.19351
G1 X153.985 Y80.496 E0.34338
G1 X153.607 Y80.249 F10800.000
G1 F1200.000
G1 X152.874 Y80.399 E0.02348
G1 X148.385 Y69.922 E0.35740
G1 X153.607 Y69.922 E0.16376
G1 X153.607 Y80.189 E0.32191
G1 X153.722 Y80.632 F10800.000
G1 E-0.80000 F2100.00000
G1 Z0.800 F10800.000
G1 X146.977 Y67.594
G1 Z0.200
G1 E0.80000 F2100.00000
G1 F1200.000
G1 X153.985 Y67.594 E0.21972
G1 X153.985 Y64.980 E0.08197
G1 X155.843 Y64.980 E0.05828
G1 X156.210 Y68.215 E0.10210
G1 X155.759 Y69.626 E0.04644
G1 X155.759 Y85.270 E0.49049
G1 X153.318 Y85.270 E0.07655
G1 X140.844 Y59.536 E0.89667
G1 X143.524 Y59.536 E0.08402
G1 X146.953 Y67.539 E0.27301
G1 X147.226 Y67.217 F10800.000
G1 F1200.000
G1 X153.607 Y67.217 E0.20010
G1 X153.607 Y64.603 E0.08197
G1 X156.180 Y64.603 E0.08066
G1 X156.594 Y68.253 E0.11519
G1 X156.136 Y69.685 E0.04713
G1 X156.136 Y85.647 E0.50047
G1 X153.082 Y85.647 E0.09578
G1 X140.242 Y59.158 E0.92295
G1 X143.773 Y59.158 E0.11069
G1 X147.202 Y67.162 E0.27301
G1 X147.320 Y67.606 F10800.000
G1 X149.142 Y69.432
G1 F1200.000
G1 X147.588 Y67.877 E0.06921
G1 X148.123 Y67.877 E0.01685
G1 X149.508 Y69.262 E0.06166
G1 X150.043 Y69.262 E0.01685
G1 X148.658 Y67.877 E0.06166
G1 X149.194 Y67.877 E0.01685
G1 X150.579 Y69.262 E0.06166
G1 X151.114 Y69.262 E0.01685
G1 X149.729 Y67.877 E0.06166
G1 X150.264 Y67.877 E0.01685
G1 X151.649 Y69.262 E0.06166
G1 X152.185 Y69.262 E0.01685
G1 X150.800 Y67.877 E0.06166
G1 X151.335 Y67.877 E0.01685
G1 X152.720 Y69.262 E0.06166
G1 X153.255 Y69.262 E0.01685
G1 X151.870 Y67.877 E0.06166
G1 X152.406 Y67.877 E0.01685
G1 X153.960 Y69.432 E0.06921
G1 X155.840 Y65.958 F10800.000
G1 F1200.000
G1 X155.145 Y65.263 E0.03097
G1 X154.609 Y65.263 E0.01685
G1 X155.716 Y66.369 E0.04927
G1 X155.785 Y66.973 E0.01912
G1 X154.267 Y65.456 E0.06753
G1 X154.267 Y65.991 E0.01685
G1 X155.853 Y67.577 E0.07058
G1 X155.921 Y68.181 E0.01912
G1 X154.267 Y66.527 E0.07362
G1 X154.267 Y67.062 E0.01685
G1 X155.794 Y68.588 E0.06795
G1 X155.664 Y68.994 E0.01341
