; generated by PrusaSlicer 2.2.0+win64 on 2020-11-04 at 17:27:23 UTC

; 

; external perimeters extrusion width = 0.60mm
; perimeters extrusion width = 0.43mm
; infill extrusion width = 0.45mm
; solid infill extrusion width = 0.70mm
; top infill extrusion width = 0.43mm
; first layer extrusion width = 0.42mm

M73 P0 R36
M201 X9000 Y9000 Z500 E10000 ; sets maximum accelerations, mm/sec^2
M203 X500 Y500 Z12 E120 ; sets maximum feedrates, mm/sec
M204 P2000 R1500 T2000 ; sets acceleration (P, T) and retract acceleration (R), mm/sec^2
M205 X10.00 Y10.00 Z0.20 E2.50 ; sets the jerk limits, mm/sec
M205 S0 T0 ; sets the minimum extruding and travel feed rate, mm/sec
M107
M862.3 P "MK2S" ; printer model check
M862.1 P0.4 ; nozzle diameter check
M115 U3.2.3 ; tell printer latest fw version
G90 ; use absolute coordinates
M83 ; extruder relative mode
M204 S2000 T1500 ; MK2 firmware only supports the old M204 format
M104 S215 ; set extruder temp
M140 S60 ; set bed temp
M190 S60 ; wait for bed temp
M109 S215 ; wait for extruder temp
G28 W ; home all without mesh bed level
G80 ; mesh bed leveling
G1 Y-3.0 F1000.0 ; go outside print area
G92 E0.0
G1 X60.0 E9.0  F1000.0 ; intro line
M73 P0 R36
G1 X100.0 E12.5 F1000.0 ; intro line
G92 E0.0
G21 ; set units to millimeters
G90 ; use absolute coordinates
M83 ; use relative distances for extrusion
M900 K0.05 ; Filament gcode LA 1.5
M900 K30 ; Filament gcode LA 1.0
;BEFORE_LAYER_CHANGE
G92 E0.0
;0.2


G1 E-0.80000 F2100.00000
G1 Z0.600 F10800.000
;AFTER_LAYER_CHANGE
;0.2
G1 X80.164 Y63.408
G1 Z0.200
G1 E0.80000 F2100.00000
M204 S1000
G1 F1200.000
G1 X80.903 Y62.684 E0.03242
G1 X82.150 Y61.895 E0.04628
G1 X108.587 Y51.229 E0.89383
G1 X109.556 Y50.960 E0.03152
G1 X110.627 Y50.859 E0.03375
G1 X149.639 Y50.859 E1.22317
G1 X150.625 Y50.943 E0.03102
G1 X151.560 Y51.184 E0.03030
G1 X152.464 Y51.585 E0.03102
G1 X153.174 Y52.050 E0.02660
G1 X154.153 Y52.983 E0.04239
G1 X154.659 Y53.688 E0.02720
G1 X155.104 Y54.584 E0.03137
G1 X170.943 Y103.002 E1.59727
G1 X171.129 Y103.830 E0.02662
G1 X171.215 Y104.707 E0.02763
G1 X171.144 Y106.037 E0.04174
G1 X170.979 Y106.848 E0.02596
G1 X163.332 Y138.127 E1.00961
G1 X162.743 Y139.609 E0.05002
G1 X161.816 Y140.955 E0.05125
G1 X160.739 Y141.965 E0.04626
G1 X159.493 Y142.726 E0.04579
G1 X128.039 Y158.429 E1.10229
G1 X127.180 Y158.761 E0.02887
G1 X125.769 Y159.060 E0.04524
G1 X124.331 Y159.069 E0.04507
G1 X123.393 Y158.921 E0.02978
G1 X122.030 Y158.464 E0.04508
G1 X93.196 Y146.177 E0.98272
G1 X92.652 Y145.851 E0.01989
G1 X92.106 Y145.231 E0.02590
G1 X78.989 Y123.440 E0.79749
G1 X78.816 Y122.940 E0.01657
G1 X78.758 Y122.418 E0.01650
G1 X78.758 Y67.213 E1.73089
G1 X78.815 Y66.405 E0.02539
G1 X78.965 Y65.684 E0.02310
G1 X79.349 Y64.658 E0.03436
G1 X80.131 Y63.458 E0.04491
G1 E-0.80000 F2100.00000
G1 Z0.800 F10800.000
G1 X87.348 Y121.630
G1 Z0.200
G1 E0.80000 F2100.00000
G1 F1200.000
G1 X81.922 Y121.630 E0.17012
G1 X81.922 Y110.401 E0.35210
G1 X81.952 Y109.987 E0.01301
G1 X82.034 Y109.609 E0.01213
G1 X82.169 Y109.246 E0.01213
G1 X82.354 Y108.907 E0.01213
G1 X82.586 Y108.597 E0.01213
G1 X82.860 Y108.324 E0.01213
G1 X83.169 Y108.092 E0.01213
G1 X83.509 Y107.907 E0.01213
G1 X83.871 Y107.771 E0.01213
G1 X84.249 Y107.689 E0.01213
G1 X84.635 Y107.662 E0.01213
G1 X85.021 Y107.689 E0.01213
G1 X85.399 Y107.771 E0.01213
G1 X85.761 Y107.907 E0.01213
G1 X86.101 Y108.092 E0.01213
G1 X86.410 Y108.324 E0.01213
G1 X86.684 Y108.597 E0.01213
G1 X86.916 Y108.907 E0.01213
G1 X87.101 Y109.246 E0.01213
G1 X87.236 Y109.609 E0.01213
G1 X87.318 Y109.987 E0.01213
G1 X87.348 Y110.401 E0.01301
G1 X87.348 Y121.570 E0.35022
G1 X87.725 Y122.008 F10800.000
G1 F1200.000
G1 X81.545 Y122.008 E0.19377
G1 X81.545 Y110.387 E0.36435
G1 X81.577 Y109.933 E0.01428
G1 X81.671 Y109.502 E0.01382
G1 X81.825 Y109.089 E0.01382
G1 X82.036 Y108.703 E0.01382
G1 X82.300 Y108.350 E0.01382
G1 X82.612 Y108.038 E0.01382
G1 X82.965 Y107.774 E0.01382
G1 X83.352 Y107.563 E0.01382
G1 X83.765 Y107.409 E0.01382
G1 X84.195 Y107.315 E0.01382
G1 X84.635 Y107.284 E0.01382
G1 X85.075 Y107.315 E0.01382
G1 X85.505 Y107.409 E0.01382
G1 X85.918 Y107.563 E0.01382
G1 X86.305 Y107.774 E0.01382
G1 X86.658 Y108.038 E0.01382
G1 X86.969 Y108.350 E0.01382
G1 X87.234 Y108.703 E0.01382
G1 X87.445 Y109.089 E0.01382
G1 X87.599 Y109.502 E0.01382
G1 X87.692 Y109.933 E0.01382
G1 X87.725 Y110.387 E0.01428
G1 X87.725 Y121.948 E0.36247
G1 X87.378 Y121.808 F10800.000
G1 E-0.80000 F2100.00000
G1 Z0.800 F10800.000
G1 X87.012 Y109.332
G1 Z0.200
G1 E0.80000 F2100.00000
G1 F1200.000
G1 X86.199 Y108.519 E0.03692
G1 X85.947 Y108.330 E0.01009
G1 X85.643 Y108.164 E0.01112
G1 X85.319 Y108.043 E0.01112
G1 X85.138 Y108.004 E0.00593
G1 X87.003 Y109.869 E0.08468
G1 X87.038 Y110.027 E0.00518
G1 X87.065 Y110.477 E0.01447
G1 X84.540 Y107.952 E0.11465
G1 X84.289 Y107.970 E0.00806
G1 X84.061 Y108.019 E0.00749
G1 X87.065 Y111.023 E0.13637
G1 X87.065 Y111.569 E0.01753
G1 X83.651 Y108.155 E0.15500
G1 X83.298 Y108.349 E0.01291
G1 X87.065 Y112.115 E0.17101
G1 X87.065 Y112.661 E0.01753
G1 X82.994 Y108.590 E0.18485
G1 X82.732 Y108.874 E0.01241
G1 X87.065 Y113.207 E0.19673
G1 X87.065 Y113.753 E0.01753
G1 X82.515 Y109.203 E0.20659
G1 X82.427 Y109.364 E0.00589
G1 X82.346 Y109.580 E0.00741
G1 X87.065 Y114.299 E0.21425
G1 X87.065 Y114.845 E0.01753
G1 X82.235 Y110.015 E0.21930
G1 X82.205 Y110.531 E0.01659
G1 X87.065 Y115.391 E0.22067
G1 X87.065 Y115.937 E0.01753
G1 X82.205 Y111.077 E0.22067
G1 X82.205 Y111.623 E0.01753
G1 X87.065 Y116.483 E0.22067
G1 X87.065 Y117.029 E0.01753
G1 X82.205 Y112.169 E0.22067
G1 X82.205 Y112.715 E0.01753
G1 X87.065 Y117.575 E0.22067
G1 X87.065 Y118.122 E0.01753
G1 X82.205 Y113.261 E0.22067
G1 X82.205 Y113.807 E0.01753
G1 X87.065 Y118.668 E0.22067
G1 X87.065 Y119.214 E0.01753
G1 X82.205 Y114.353 E0.22067
G1 X82.205 Y114.899 E0.01753
G1 X87.065 Y119.760 E0.22067
G1 X87.065 Y120.306 E0.01753
G1 X82.205 Y115.445 E0.22067
G1 X82.205 Y115.991 E0.01753
G1 X87.065 Y120.852 E0.22067
G1 X87.065 Y121.348 E0.01592
G1 X87.015 Y121.348 E0.00161
G1 X82.205 Y116.537 E0.21840
G1 X82.205 Y117.083 E0.01753
G1 X86.469 Y121.348 E0.19360
G1 X85.923 Y121.348 E0.01753
G1 X82.205 Y117.630 E0.16881
G1 X82.205 Y118.176 E0.01753
G1 X85.377 Y121.348 E0.14402
G1 X84.831 Y121.348 E0.01753
G1 X82.205 Y118.722 E0.11923
G1 X82.205 Y119.268 E0.01753
G1 X84.285 Y121.348 E0.09444
G1 X83.739 Y121.348 E0.01753
G1 X82.205 Y119.814 E0.06965
G1 X82.205 Y120.360 E0.01753
G1 X83.193 Y121.348 E0.04486
G1 X82.647 Y121.348 E0.01753
G1 X82.035 Y120.736 E0.02777
G1 E-0.80000 F2100.00000
G1 Z0.800 F10800.000
G1 X94.922 Y121.630
G1 Z0.200
G1 E0.80000 F2100.00000
G1 F1200.000
G1 X94.922 Y110.401 E0.35210
G1 X94.952 Y109.987 E0.01301
G1 X95.034 Y109.609 E0.01213
G1 X95.169 Y109.246 E0.01213
G1 X95.354 Y108.907 E0.01213
G1 X95.586 Y108.597 E0.01213
G1 X95.860 Y108.324 E0.01213
G1 X96.169 Y108.092 E0.01213
G1 X96.509 Y107.907 E0.01213
G1 X96.871 Y107.771 E0.01213
G1 X97.249 Y107.689 E0.01213
G1 X97.635 Y107.662 E0.01213
G1 X98.021 Y107.689 E0.01213
G1 X98.399 Y107.771 E0.01213
G1 X98.761 Y107.907 E0.01213
G1 X99.101 Y108.092 E0.01213
G1 X99.410 Y108.324 E0.01213
G1 X99.684 Y108.597 E0.01213
G1 X99.916 Y108.907 E0.01213
G1 X100.101 Y109.246 E0.01213
G1 X100.236 Y109.609 E0.01213
G1 X100.318 Y109.987 E0.01213
G1 X100.348 Y110.401 E0.01301
G1 X100.348 Y121.630 E0.35210
G1 X94.982 Y121.630 E0.16824
G1 X94.545 Y122.008 F10800.000
G1 F1200.000
G1 X94.545 Y110.387 E0.36435
G1 X94.577 Y109.933 E0.01428
G1 X94.671 Y109.502 E0.01382
G1 X94.825 Y109.089 E0.01382
G1 X95.036 Y108.703 E0.01382
G1 X95.300 Y108.350 E0.01382
G1 X95.612 Y108.038 E0.01382
G1 X95.965 Y107.774 E0.01382
G1 X96.352 Y107.563 E0.01382
G1 X96.765 Y107.409 E0.01382
G1 X97.195 Y107.315 E0.01382
G1 X97.635 Y107.284 E0.01382
G1 X98.075 Y107.315 E0.01382
G1 X98.505 Y107.409 E0.01382
G1 X98.918 Y107.563 E0.01382
G1 X99.305 Y107.774 E0.01382
G1 X99.658 Y108.038 E0.01382
G1 X99.969 Y108.350 E0.01382
G1 X100.234 Y108.703 E0.01382
G1 X100.445 Y109.089 E0.01382
G1 X100.599 Y109.502 E0.01382
G1 X100.692 Y109.933 E0.01382
G1 X100.725 Y110.387 E0.01428
G1 X100.725 Y122.008 E0.36435
G1 X94.605 Y122.008 E0.19189
G1 X94.610 Y121.613 F10800.000
G1 E-0.80000 F2100.00000
G1 Z0.800 F10800.000
G1 X100.012 Y109.332
G1 Z0.200
G1 E0.80000 F2100.00000
G1 F1200.000
G1 X99.199 Y108.519 E0.03692
G1 X98.947 Y108.330 E0.01009
G1 X98.643 Y108.164 E0.01112
G1 X98.319 Y108.043 E0.01112
G1 X98.138 Y108.004 E0.00593
G1 X100.003 Y109.869 E0.08468
G1 X100.038 Y110.027 E0.00518
G1 X100.065 Y110.477 E0.01447
G1 X97.540 Y107.952 E0.11465
G1 X97.289 Y107.970 E0.00806
G1 X97.061 Y108.019 E0.00749
G1 X100.065 Y111.023 E0.13637
G1 X100.065 Y111.569 E0.01753
G1 X96.651 Y108.155 E0.15500
G1 X96.298 Y108.349 E0.01291
G1 X100.065 Y112.115 E0.17101
G1 X100.065 Y112.661 E0.01753
G1 X95.994 Y108.590 E0.18485
G1 X95.732 Y108.874 E0.01241
G1 X100.065 Y113.207 E0.19673
G1 X100.065 Y113.753 E0.01753
G1 X95.515 Y109.203 E0.20659
G1 X95.427 Y109.364 E0.00589
G1 X95.346 Y109.580 E0.00741
G1 X100.065 Y114.299 E0.21425
G1 X100.065 Y114.845 E0.01753
G1 X95.235 Y110.015 E0.21930
G1 X95.205 Y110.531 E0.01659
G1 X100.065 Y115.391 E0.22067
G1 X100.065 Y115.937 E0.01753
G1 X95.205 Y111.077 E0.22067
G1 X95.205 Y111.623 E0.01753
G1 X100.065 Y116.483 E0.22067
G1 X100.065 Y117.029 E0.01753
G1 X95.205 Y112.169 E0.22067
G1 X95.205 Y112.715 E0.01753
G1 X100.065 Y117.575 E0.22067
G1 X100.065 Y118.122 E0.01753
G1 X95.205 Y113.261 E0.22067
G1 X95.205 Y113.807 E0.01753
G1 X100.065 Y118.668 E0.22067
G1 X100.065 Y119.214 E0.01753
G1 X95.205 Y114.353 E0.22067
G1 X95.205 Y114.899 E0.01753
G1 X100.065 Y119.760 E0.22067
G1 X100.065 Y120.306 E0.01753
G1 X95.205 Y115.445 E0.22067
G1 X95.205 Y115.991 E0.01753
G1 X100.065 Y120.852 E0.22067
G1 X100.065 Y121.348 E0.01592
G1 X100.015 Y121.348 E0.00161
G1 X95.205 Y116.537 E0.21840
G1 X95.205 Y117.083 E0.01753
G1 X99.469 Y121.348 E0.19360
G1 X98.923 Y121.348 E0.01753
G1 X95.205 Y117.630 E0.16881
G1 X95.205 Y118.176 E0.01753
G1 X98.377 Y121.348 E0.14402
G1 X97.831 Y121.348 E0.01753
G1 X95.205 Y118.722 E0.11923
G1 X95.205 Y119.268 E0.01753
G1 X97.285 Y121.348 E0.09444
G1 X96.739 Y121.348 E0.01753
G1 X95.205 Y119.814 E0.06965
G1 X95.205 Y120.360 E0.01753
G1 X96.193 Y121.348 E0.04486
G1 X95.647 Y121.348 E0.01753
G1 X95.035 Y120.736 E0.02777
G1 E-0.80000 F2100.00000
G1 Z0.800 F10800.000
G1 X100.348 Y143.206
G1 Z0.200
G1 E0.80000 F2100.00000
G1 F1200.000
G1 X94.922 Y143.206 E0.17012
G1 X94.922 Y131.976 E0.35210
G1 X94.952 Y131.563 E0.01301
G1 X95.034 Y131.185 E0.01213
G1 X95.169 Y130.822 E0.01213
G1 X95.354 Y130.483 E0.01213
G1 X95.586 Y130.173 E0.01213
G1 X95.860 Y129.900 E0.01213
G1 X96.169 Y129.668 E0.01213
G1 X96.509 Y129.482 E0.01213
G1 X96.871 Y129.347 E0.01213
G1 X97.249 Y129.265 E0.01213
G1 X97.635 Y129.237 E0.01213
G1 X98.021 Y129.265 E0.01213
G1 X98.399 Y129.347 E0.01213
G1 X98.761 Y129.482 E0.01213
G1 X99.101 Y129.668 E0.01213
G1 X99.410 Y129.900 E0.01213
G1 X99.684 Y130.173 E0.01213
G1 X99.916 Y130.483 E0.01213
G1 X100.101 Y130.822 E0.01213
G1 X100.236 Y131.185 E0.01213
G1 X100.318 Y131.563 E0.01213
G1 X100.348 Y131.976 E0.01301
G1 X100.348 Y143.146 E0.35022
G1 X100.725 Y143.583 F10800.000
G1 F1200.000
G1 X94.545 Y143.583 E0.19377
G1 X94.545 Y131.963 E0.36435
G1 X94.577 Y131.509 E0.01428
G1 X94.671 Y131.078 E0.01382
G1 X94.825 Y130.665 E0.01382
G1 X95.036 Y130.278 E0.01382
G1 X95.300 Y129.926 E0.01382
G1 X95.612 Y129.614 E0.01382
G1 X95.965 Y129.350 E0.01382
G1 X96.352 Y129.139 E0.01382
G1 X96.765 Y128.985 E0.01382
G1 X97.195 Y128.891 E0.01382
G1 X97.635 Y128.859 E0.01382
G1 X98.075 Y128.891 E0.01382
G1 X98.505 Y128.985 E0.01382
G1 X98.918 Y129.139 E0.01382
G1 X99.305 Y129.350 E0.01382
G1 X99.658 Y129.614 E0.01382
G1 X99.969 Y129.926 E0.01382
G1 X100.234 Y130.278 E0.01382
G1 X100.445 Y130.665 E0.01382
G1 X100.599 Y131.078 E0.01382
G1 X100.692 Y131.509 E0.01382
G1 X100.725 Y131.963 E0.01428
G1 X100.725 Y143.523 E0.36247
G1 X100.378 Y143.384 F10800.000
G1 E-0.80000 F2100.00000
G1 Z0.800 F10800.000
G1 X100.012 Y130.908
G1 Z0.200
G1 E0.80000 F2100.00000
G1 F1200.000
G1 X99.199 Y130.095 E0.03692
G1 X98.947 Y129.906 E0.01009
G1 X98.643 Y129.740 E0.01112
G1 X98.319 Y129.619 E0.01112
G1 X98.138 Y129.580 E0.00593
G1 X100.003 Y131.445 E0.08468
G1 X100.038 Y131.603 E0.00518
G1 X100.065 Y132.053 E0.01447
G1 X97.540 Y129.528 E0.11465
G1 X97.289 Y129.546 E0.00806
G1 X97.061 Y129.595 E0.00749
G1 X100.065 Y132.599 E0.13637
G1 X100.065 Y133.145 E0.01753
G1 X96.651 Y129.731 E0.15500
G1 X96.298 Y129.924 E0.01291
G1 X100.065 Y133.691 E0.17101
G1 X100.065 Y134.237 E0.01753
G1 X95.994 Y130.166 E0.18485
G1 X95.732 Y130.450 E0.01241
G1 X100.065 Y134.783 E0.19673
G1 X100.065 Y135.329 E0.01753
G1 X95.515 Y130.779 E0.20659
G1 X95.427 Y130.940 E0.00589
G1 X95.346 Y131.156 E0.00741
G1 X100.065 Y135.875 E0.21425
G1 X100.065 Y136.421 E0.01753
G1 X95.235 Y131.591 E0.21930
G1 X95.205 Y132.107 E0.01659
G1 X100.065 Y136.967 E0.22067
G1 X100.065 Y137.513 E0.01753
G1 X95.205 Y132.653 E0.22067
G1 X95.205 Y133.199 E0.01753
G1 X100.065 Y138.059 E0.22067
G1 X100.065 Y138.605 E0.01753
G1 X95.205 Y133.745 E0.22067
G1 X95.205 Y134.291 E0.01753
G1 X100.065 Y139.151 E0.22067
G1 X100.065 Y139.697 E0.01753
G1 X95.205 Y134.837 E0.22067
G1 X95.205 Y135.383 E0.01753
G1 X100.065 Y140.243 E0.22067
G1 X100.065 Y140.789 E0.01753
G1 X95.205 Y135.929 E0.22067
G1 X95.205 Y136.475 E0.01753
G1 X100.065 Y141.335 E0.22067
G1 X100.065 Y141.881 E0.01753
G1 X95.205 Y137.021 E0.22067
G1 X95.205 Y137.567 E0.01753
G1 X100.065 Y142.428 E0.22067
G1 X100.065 Y142.923 E0.01592
G1 X100.015 Y142.923 E0.00161
G1 X95.205 Y138.113 E0.21840
M73 P2 R35
G1 X95.205 Y138.659 E0.01753
G1 X99.469 Y142.923 E0.19360
G1 X98.923 Y142.923 E0.01753
G1 X95.205 Y139.205 E0.16881
G1 X95.205 Y139.751 E0.01753
G1 X98.377 Y142.923 E0.14402
G1 X97.831 Y142.923 E0.01753
G1 X95.205 Y140.297 E0.11923
G1 X95.205 Y140.843 E0.01753
G1 X97.285 Y142.923 E0.09444
G1 X96.739 Y142.923 E0.01753
G1 X95.205 Y141.389 E0.06965
G1 X95.205 Y141.936 E0.01753
G1 X96.193 Y142.923 E0.04486
G1 X95.647 Y142.923 E0.01753
G1 X95.035 Y142.312 E0.02777
G1 E-0.80000 F2100.00000
G1 Z0.800 F10800.000
G1 X107.922 Y143.206
G1 Z0.200
G1 E0.80000 F2100.00000
G1 F1200.000
G1 X107.922 Y131.976 E0.35210
G1 X107.952 Y131.563 E0.01301
G1 X108.034 Y131.185 E0.01213
G1 X108.169 Y130.822 E0.01213
G1 X108.354 Y130.483 E0.01213
G1 X108.586 Y130.173 E0.01213
G1 X108.860 Y129.900 E0.01213
G1 X109.169 Y129.668 E0.01213
G1 X109.509 Y129.482 E0.01213
G1 X109.871 Y129.347 E0.01213
G1 X110.249 Y129.265 E0.01213
G1 X110.635 Y129.237 E0.01213
G1 X111.021 Y129.265 E0.01213
G1 X111.399 Y129.347 E0.01213
G1 X111.761 Y129.482 E0.01213
G1 X112.101 Y129.668 E0.01213
G1 X112.410 Y129.900 E0.01213
G1 X112.684 Y130.173 E0.01213
G1 X112.916 Y130.483 E0.01213
G1 X113.101 Y130.822 E0.01213
G1 X113.236 Y131.185 E0.01213
G1 X113.318 Y131.563 E0.01213
G1 X113.348 Y131.976 E0.01301
G1 X113.348 Y143.206 E0.35210
G1 X107.982 Y143.206 E0.16824
G1 X107.545 Y143.583 F10800.000
G1 F1200.000
G1 X107.545 Y131.963 E0.36435
G1 X107.577 Y131.509 E0.01428
G1 X107.671 Y131.078 E0.01382
G1 X107.825 Y130.665 E0.01382
G1 X108.036 Y130.278 E0.01382
G1 X108.300 Y129.926 E0.01382
G1 X108.612 Y129.614 E0.01382
G1 X108.965 Y129.350 E0.01382
G1 X109.352 Y129.139 E0.01382
G1 X109.765 Y128.985 E0.01382
G1 X110.195 Y128.891 E0.01382
G1 X110.635 Y128.859 E0.01382
G1 X111.075 Y128.891 E0.01382
G1 X111.505 Y128.985 E0.01382
G1 X111.918 Y129.139 E0.01382
G1 X112.305 Y129.350 E0.01382
G1 X112.658 Y129.614 E0.01382
G1 X112.969 Y129.926 E0.01382
G1 X113.234 Y130.278 E0.01382
G1 X113.445 Y130.665 E0.01382
G1 X113.599 Y131.078 E0.01382
G1 X113.692 Y131.509 E0.01382
G1 X113.725 Y131.963 E0.01428
G1 X113.725 Y143.583 E0.36435
G1 X107.605 Y143.583 E0.19189
G1 X107.610 Y143.189 F10800.000
G1 E-0.80000 F2100.00000
G1 Z0.800 F10800.000
G1 X113.012 Y130.908
G1 Z0.200
G1 E0.80000 F2100.00000
G1 F1200.000
G1 X112.199 Y130.095 E0.03692
G1 X111.947 Y129.906 E0.01009
G1 X111.643 Y129.740 E0.01112
G1 X111.319 Y129.619 E0.01112
G1 X111.138 Y129.580 E0.00593
