; generated by PrusaSlicer 2.2.0+win64 on 2020-11-18 at 22:43:16 UTC

; 

; external perimeters extrusion width = 0.60mm
; perimeters extrusion width = 0.43mm
; infill extrusion width = 0.45mm
; solid infill extrusion width = 0.70mm
; top infill extrusion width = 0.43mm
; first layer extrusion width = 0.42mm

M73 P0 R107
M201 X9000 Y9000 Z500 E10000 ; sets maximum accelerations, mm/sec^2
M203 X500 Y500 Z12 E120 ; sets maximum feedrates, mm/sec
M204 P2000 R1500 T2000 ; sets acceleration (P, T) and retract acceleration (R), mm/sec^2
M205 X10.00 Y10.00 Z0.20 E2.50 ; sets the jerk limits, mm/sec
M205 S0 T0 ; sets the minimum extruding and travel feed rate, mm/sec
M107
M862.3 P "MK2S" ; printer model check
M862.1 P0.4 ; nozzle diameter check
M115 U3.2.3 ; tell printer latest fw version
G90 ; use absolute coordinates
M83 ; extruder relative mode
M204 S2000 T1500 ; MK2 firmware only supports the old M204 format
M104 S215 ; set extruder temp
M140 S60 ; set bed temp
M190 S60 ; wait for bed temp
M109 S215 ; wait for extruder temp
G28 W ; home all without mesh bed level
G80 ; mesh bed leveling
G1 Y-3.0 F1000.0 ; go outside print area
G92 E0.0
G1 X60.0 E9.0  F1000.0 ; intro line
M73 P0 R106
G1 X100.0 E12.5 F1000.0 ; intro line
G92 E0.0
G21 ; set units to millimeters
G90 ; use absolute coordinates
M83 ; use relative distances for extrusion
M900 K0.05 ; Filament gcode LA 1.5
M900 K30 ; Filament gcode LA 1.0
;BEFORE_LAYER_CHANGE
G92 E0.0
;0.2


G1 E-0.80000 F2100.00000
G1 Z0.600 F10800.000
;AFTER_LAYER_CHANGE
;0.2
G1 X43.672 Y21.921
G1 Z0.200
G1 E0.80000 F2100.00000
M204 S1000
G1 F1200.000
G1 X49.943 Y9.428 E0.43826
G1 X50.629 Y8.315 E0.04101
G1 X51.350 Y7.379 E0.03704
G1 X52.244 Y6.431 E0.04086
G1 X53.184 Y5.624 E0.03883
G1 X54.203 Y4.913 E0.03895
G1 X55.286 Y4.312 E0.03884
G1 X56.427 Y3.822 E0.03895
G1 X57.613 Y3.451 E0.03895
G1 X58.826 Y3.202 E0.03883
G1 X60.112 Y3.075 E0.04050
G1 X215.561 Y3.074 E4.87400
G1 X216.889 Y3.199 E0.04181
G1 X218.006 Y3.425 E0.03573
G1 X219.417 Y3.867 E0.04636
G1 X220.455 Y4.317 E0.03546
G1 X221.543 Y4.923 E0.03907
G1 X222.553 Y5.628 E0.03860
G1 X223.554 Y6.497 E0.04157
G1 X224.342 Y7.331 E0.03597
G1 X225.099 Y8.311 E0.03883
G1 X225.750 Y9.356 E0.03860
G1 X226.294 Y10.465 E0.03872
G1 X226.724 Y11.626 E0.03884
G1 X227.033 Y12.818 E0.03860
G1 X227.222 Y14.042 E0.03883
G1 X227.283 Y15.183 E0.03585
G1 X227.285 Y194.749 E5.63017
G1 X227.223 Y195.942 E0.03745
G1 X227.054 Y197.069 E0.03573
G1 X226.687 Y198.481 E0.04574
G1 X226.291 Y199.542 E0.03549
G1 X225.746 Y200.650 E0.03872
G1 X225.097 Y201.691 E0.03848
G1 X224.381 Y202.621 E0.03681
G1 X223.490 Y203.567 E0.04074
G1 X222.547 Y204.376 E0.03895
G1 X221.525 Y205.089 E0.03907
G1 X220.442 Y205.690 E0.03884
G1 X219.303 Y206.178 E0.03883
G1 X218.114 Y206.550 E0.03907
G1 X216.897 Y206.799 E0.03895
G1 X215.581 Y206.926 E0.04146
G1 X60.136 Y206.926 E4.87388
G1 X58.711 Y206.778 E0.04491
G1 X57.599 Y206.546 E0.03561
G1 X56.428 Y206.178 E0.03848
G1 X55.297 Y205.693 E0.03860
G1 X54.305 Y205.147 E0.03549
G1 X53.151 Y204.351 E0.04396
G1 X52.245 Y203.570 E0.03752
G1 X51.389 Y202.669 E0.03895
G1 X50.634 Y201.692 E0.03872
G1 X49.956 Y200.597 E0.04038
G1 X24.203 Y149.291 E1.79994
G1 X23.661 Y148.158 E0.03939
G1 X23.275 Y147.107 E0.03511
G1 X22.990 Y146.019 E0.03525
G1 X22.779 Y144.698 E0.04193
G1 X22.715 Y143.469 E0.03860
G1 X22.715 Y66.545 E2.41191
G1 X22.778 Y65.314 E0.03864
G1 X22.968 Y64.078 E0.03919
G1 X23.311 Y62.786 E0.04193
G1 X23.706 Y61.729 E0.03537
G1 X24.204 Y60.708 E0.03561
G1 X43.646 Y21.974 E1.35887
G1 E-0.80000 F2100.00000
G1 Z0.800 F10800.000
G1 X36.314 Y57.595
G1 Z0.200
G1 E0.80000 F2100.00000
G1 F1200.000
G1 X37.213 Y57.780 E0.02878
G1 X38.089 Y58.054 E0.02878
G1 X38.933 Y58.416 E0.02878
G1 X39.735 Y58.862 E0.02878
G1 X40.489 Y59.386 E0.02878
G1 X41.185 Y59.984 E0.02878
G1 X41.818 Y60.650 E0.02878
G1 X42.379 Y61.375 E0.02878
G1 X42.865 Y62.155 E0.02878
G1 X43.269 Y62.979 E0.02878
G1 X43.588 Y63.839 E0.02878
G1 X43.818 Y64.728 E0.02878
G1 X43.957 Y65.635 E0.02878
G1 X44.004 Y66.552 E0.02878
G1 X43.957 Y67.469 E0.02878
G1 X43.818 Y68.376 E0.02878
G1 X43.588 Y69.265 E0.02878
G1 X43.269 Y70.126 E0.02878
G1 X42.865 Y70.950 E0.02878
G1 X42.379 Y71.729 E0.02878
G1 X41.818 Y72.455 E0.02878
G1 X41.185 Y73.120 E0.02878
G1 X40.489 Y73.718 E0.02878
G1 X39.735 Y74.243 E0.02878
G1 X38.933 Y74.688 E0.02878
G1 X38.089 Y75.050 E0.02878
G1 X37.213 Y75.325 E0.02878
G1 X36.314 Y75.510 E0.02878
G1 X35.401 Y75.603 E0.02878
G1 X34.483 Y75.603 E0.02878
G1 X33.569 Y75.510 E0.02878
G1 X32.670 Y75.325 E0.02878
G1 X31.794 Y75.050 E0.02878
G1 X30.951 Y74.688 E0.02878
G1 X30.148 Y74.243 E0.02878
G1 X29.395 Y73.718 E0.02878
G1 X28.698 Y73.120 E0.02878
G1 X28.066 Y72.455 E0.02878
G1 X27.504 Y71.729 E0.02878
G1 X27.018 Y70.950 E0.02878
G1 X26.614 Y70.126 E0.02878
G1 X26.295 Y69.265 E0.02878
G1 X26.065 Y68.376 E0.02878
G1 X25.926 Y67.469 E0.02878
G1 X25.880 Y66.552 E0.02878
G1 X25.926 Y65.635 E0.02878
G1 X26.065 Y64.728 E0.02878
G1 X26.295 Y63.839 E0.02878
G1 X26.614 Y62.979 E0.02878
G1 X27.018 Y62.155 E0.02878
G1 X27.504 Y61.375 E0.02878
G1 X28.066 Y60.650 E0.02878
G1 X28.698 Y59.984 E0.02878
G1 X29.395 Y59.386 E0.02878
G1 X30.148 Y58.862 E0.02878
G1 X30.951 Y58.416 E0.02878
G1 X31.794 Y58.054 E0.02878
G1 X32.670 Y57.780 E0.02878
G1 X33.569 Y57.595 E0.02878
G1 X34.483 Y57.502 E0.02878
G1 X35.401 Y57.502 E0.02878
G1 X36.254 Y57.589 E0.02690
G1 X36.292 Y57.214 F10800.000
G1 F1200.000
G1 X37.308 Y57.414 E0.03245
G1 X38.220 Y57.700 E0.02998
G1 X39.099 Y58.077 E0.02998
G1 X39.935 Y58.542 E0.02998
G1 X40.720 Y59.088 E0.02998
G1 X41.445 Y59.711 E0.02998
G1 X42.104 Y60.404 E0.02998
G1 X42.689 Y61.160 E0.02998
G1 X43.195 Y61.971 E0.02998
G1 X43.616 Y62.830 E0.02998
G1 X43.948 Y63.726 E0.02998
G1 X44.188 Y64.652 E0.02998
G1 X44.333 Y65.597 E0.02998
G1 X44.381 Y66.552 E0.02998
G1 X44.333 Y67.507 E0.02998
G1 X44.188 Y68.452 E0.02998
G1 X43.948 Y69.378 E0.02998
G1 X43.616 Y70.275 E0.02998
G1 X43.195 Y71.133 E0.02998
G1 X42.689 Y71.945 E0.02998
G1 X42.104 Y72.701 E0.02998
G1 X41.445 Y73.394 E0.02998
G1 X40.720 Y74.017 E0.02998
G1 X39.935 Y74.563 E0.02998
G1 X39.099 Y75.027 E0.02998
G1 X38.220 Y75.404 E0.02998
G1 X37.308 Y75.690 E0.02998
G1 X36.371 Y75.883 E0.02998
G1 X35.420 Y75.980 E0.02998
G1 X34.464 Y75.980 E0.02998
G1 X33.512 Y75.883 E0.02998
G1 X32.576 Y75.690 E0.02998
G1 X31.663 Y75.404 E0.02998
G1 X30.785 Y75.027 E0.02998
G1 X29.949 Y74.563 E0.02998
G1 X29.164 Y74.017 E0.02998
G1 X28.438 Y73.394 E0.02998
G1 X27.779 Y72.701 E0.02998
G1 X27.194 Y71.945 E0.02998
G1 X26.688 Y71.133 E0.02998
G1 X26.267 Y70.275 E0.02998
G1 X25.935 Y69.378 E0.02998
G1 X25.695 Y68.452 E0.02998
G1 X25.551 Y67.507 E0.02998
G1 X25.502 Y66.552 E0.02998
G1 X25.551 Y65.597 E0.02998
G1 X25.695 Y64.652 E0.02998
G1 X25.935 Y63.726 E0.02998
G1 X26.267 Y62.830 E0.02998
G1 X26.688 Y61.971 E0.02998
G1 X27.194 Y61.160 E0.02998
G1 X27.779 Y60.404 E0.02998
G1 X28.438 Y59.711 E0.02998
G1 X29.164 Y59.088 E0.02998
G1 X29.949 Y58.542 E0.02998
G1 X30.785 Y58.077 E0.02998
G1 X31.663 Y57.700 E0.02998
G1 X32.576 Y57.414 E0.02998
G1 X33.512 Y57.222 E0.02998
G1 X34.464 Y57.125 E0.02998
G1 X35.420 Y57.125 E0.02998
G1 X36.233 Y57.208 E0.02562
G1 X36.440 Y57.585 F10800.000
G1 E-0.80000 F2100.00000
G1 Z0.800 F10800.000
G1 X27.517 Y71.535
G1 Z0.200
G1 E0.80000 F2100.00000
G1 F1200.000
G1 X28.913 Y72.932 E0.06266
G1 X29.568 Y73.494 E0.02738
G1 X30.298 Y74.002 E0.02821
G1 X30.804 Y74.283 E0.01834
G1 X27.201 Y70.681 E0.16159
G1 X26.874 Y70.014 E0.02354
G1 X26.757 Y69.697 E0.01074
G1 X31.809 Y74.748 E0.22662
G1 X32.609 Y75.009 E0.02670
G1 X26.491 Y68.891 E0.27446
G1 X26.322 Y68.183 E0.02310
G1 X33.306 Y75.167 E0.31330
G1 X33.612 Y75.230 E0.00992
G1 X33.942 Y75.263 E0.01051
G1 X26.224 Y67.545 E0.34621
G1 X26.184 Y66.966 E0.01843
G1 X34.538 Y75.320 E0.37474
G1 X35.077 Y75.320 E0.01711
G1 X26.170 Y66.412 E0.39957
G1 X26.196 Y65.899 E0.01631
G1 X35.596 Y75.298 E0.42165
G1 X36.085 Y75.249 E0.01561
G1 X26.247 Y65.410 E0.44133
G1 X26.319 Y64.942 E0.01501
G1 X36.549 Y75.173 E0.45891
G1 X36.996 Y75.081 E0.01449
G1 X26.416 Y64.501 E0.47460
G1 X26.527 Y64.072 E0.01404
G1 X37.419 Y74.964 E0.48859
G1 X37.830 Y74.835 E0.01365
G1 X26.661 Y63.666 E0.50101
G1 X26.807 Y63.273 E0.01332
G1 X38.220 Y74.686 E0.51198
G1 X38.598 Y74.524 E0.01303
G1 X26.970 Y62.896 E0.52161
G1 X27.147 Y62.534 E0.01279
G1 X38.962 Y74.349 E0.52997
G1 X39.308 Y74.156 E0.01259
G1 X27.335 Y62.182 E0.53713
G1 X27.542 Y61.850 E0.01242
G1 X39.650 Y73.958 E0.54314
M73 P1 R105
G1 X39.968 Y73.736 E0.01229
G1 X27.751 Y61.519 E0.54804
G1 X27.986 Y61.215 E0.01220
G1 X40.286 Y73.515 E0.55175
G1 X40.579 Y73.268 E0.01214
G1 X28.221 Y60.911 E0.55433
G1 X28.477 Y60.627 E0.01212
G1 X40.869 Y73.019 E0.55587
G1 X41.143 Y72.754 E0.01210
G1 X28.740 Y60.351 E0.55638
G1 X29.014 Y60.086 E0.01210
G1 X41.406 Y72.477 E0.55587
G1 X41.662 Y72.194 E0.01212
G1 X29.305 Y59.836 E0.55433
G1 X29.598 Y59.590 E0.01214
G1 X41.897 Y71.890 E0.55175
G1 X42.133 Y71.586 E0.01220
G1 X29.916 Y59.368 E0.54804
G1 X30.234 Y59.147 E0.01229
G1 X42.342 Y71.255 E0.54314
G1 X42.549 Y70.923 E0.01242
G1 X30.575 Y58.949 E0.53713
G1 X30.922 Y58.756 E0.01259
G1 X42.736 Y70.570 E0.52997
G1 X42.914 Y70.208 E0.01279
G1 X31.286 Y58.580 E0.52161
G1 X31.663 Y58.418 E0.01303
G1 X43.077 Y69.832 E0.51198
G1 X43.222 Y69.438 E0.01332
G1 X32.054 Y58.269 E0.50101
G1 X32.464 Y58.141 E0.01365
G1 X43.356 Y69.032 E0.48859
G1 X43.467 Y68.604 E0.01404
G1 X32.887 Y58.024 E0.47461
G1 X33.335 Y57.932 E0.01449
G1 X43.565 Y68.162 E0.45892
G1 X43.637 Y67.694 E0.01501
G1 X33.798 Y57.856 E0.44134
G1 X34.288 Y57.806 E0.01561
G1 X43.687 Y67.206 E0.42165
G1 X43.713 Y66.692 E0.01631
G1 X34.806 Y57.785 E0.39957
G1 X35.345 Y57.785 E0.01711
G1 X43.699 Y66.139 E0.37475
G1 X43.659 Y65.559 E0.01843
G1 X35.941 Y57.841 E0.34622
G1 X36.271 Y57.875 E0.01051
G1 X36.577 Y57.938 E0.00992
G1 X43.562 Y64.922 E0.31331
G1 X43.393 Y64.214 E0.02310
G1 X37.274 Y58.095 E0.27446
G1 X38.075 Y58.356 E0.02670
G1 X43.127 Y63.408 E0.22663
G1 X43.009 Y63.090 E0.01075
G1 X42.682 Y62.424 E0.02353
G1 X39.080 Y58.822 E0.16161
G1 X39.585 Y59.102 E0.01835
G1 X40.315 Y59.610 E0.02821
G1 X40.969 Y60.172 E0.02734
G1 X42.367 Y61.569 E0.06270
G1 E-0.80000 F2100.00000
G1 Z0.800 F10800.000
G1 X37.213 Y83.411
G1 Z0.200
G1 E0.80000 F2100.00000
G1 F1200.000
G1 X38.089 Y83.686 E0.02878
G1 X38.933 Y84.048 E0.02878
G1 X39.735 Y84.494 E0.02878
G1 X40.489 Y85.018 E0.02878
G1 X41.185 Y85.616 E0.02878
G1 X41.818 Y86.281 E0.02878
G1 X42.379 Y87.007 E0.02878
G1 X42.865 Y87.786 E0.02878
G1 X43.269 Y88.610 E0.02878
G1 X43.588 Y89.471 E0.02878
G1 X43.818 Y90.360 E0.02878
G1 X43.957 Y91.267 E0.02878
G1 X44.004 Y92.184 E0.02878
G1 X43.957 Y93.101 E0.02878
G1 X43.818 Y94.008 E0.02878
G1 X43.588 Y94.897 E0.02878
G1 X43.269 Y95.758 E0.02878
G1 X42.865 Y96.582 E0.02878
G1 X42.379 Y97.361 E0.02878
G1 X41.818 Y98.087 E0.02878
G1 X41.185 Y98.752 E0.02878
G1 X40.489 Y99.350 E0.02878
G1 X39.735 Y99.874 E0.02878
G1 X38.933 Y100.320 E0.02878
G1 X38.089 Y100.682 E0.02878
G1 X37.213 Y100.957 E0.02878
G1 X36.314 Y101.142 E0.02878
G1 X35.401 Y101.234 E0.02878
G1 X34.483 Y101.234 E0.02878
G1 X33.569 Y101.142 E0.02878
G1 X32.670 Y100.957 E0.02878
G1 X31.794 Y100.682 E0.02878
G1 X30.951 Y100.320 E0.02878
G1 X30.148 Y99.874 E0.02878
G1 X29.395 Y99.350 E0.02878
G1 X28.698 Y98.752 E0.02878
G1 X28.066 Y98.087 E0.02878
G1 X27.504 Y97.361 E0.02878
G1 X27.018 Y96.582 E0.02878
G1 X26.614 Y95.758 E0.02878
G1 X26.295 Y94.897 E0.02878
G1 X26.065 Y94.008 E0.02878
G1 X25.926 Y93.101 E0.02878
G1 X25.880 Y92.184 E0.02878
G1 X25.926 Y91.267 E0.02878
G1 X26.065 Y90.360 E0.02878
G1 X26.295 Y89.471 E0.02878
G1 X26.614 Y88.610 E0.02878
G1 X27.018 Y87.786 E0.02878
G1 X27.504 Y87.007 E0.02878
G1 X28.066 Y86.281 E0.02878
G1 X28.698 Y85.616 E0.02878
G1 X29.395 Y85.018 E0.02878
G1 X30.148 Y84.494 E0.02878
G1 X30.951 Y84.048 E0.02878
G1 X31.794 Y83.686 E0.02878
G1 X32.670 Y83.411 E0.02878
G1 X33.569 Y83.227 E0.02878
G1 X34.483 Y83.134 E0.02878
G1 X35.401 Y83.134 E0.02878
G1 X36.314 Y83.227 E0.02878
G1 X37.154 Y83.399 E0.02690
G1 X37.230 Y83.030 F10800.000
G1 F1200.000
G1 X38.220 Y83.332 E0.03245
G1 X39.099 Y83.709 E0.02998
G1 X39.935 Y84.173 E0.02998
G1 X40.720 Y84.720 E0.02998
G1 X41.445 Y85.342 E0.02998
G1 X42.104 Y86.035 E0.02998
G1 X42.689 Y86.792 E0.02998
G1 X43.195 Y87.603 E0.02998
G1 X43.616 Y88.462 E0.02998
G1 X43.948 Y89.358 E0.02998
G1 X44.188 Y90.284 E0.02998
G1 X44.333 Y91.229 E0.02998
G1 X44.381 Y92.184 E0.02998
G1 X44.333 Y93.139 E0.02998
G1 X44.188 Y94.084 E0.02998
G1 X43.948 Y95.010 E0.02998
G1 X43.616 Y95.907 E0.02998
G1 X43.195 Y96.765 E0.02998
G1 X42.689 Y97.577 E0.02998
G1 X42.104 Y98.333 E0.02998
G1 X41.445 Y99.026 E0.02998
G1 X40.720 Y99.649 E0.02998
G1 X39.935 Y100.195 E0.02998
G1 X39.099 Y100.659 E0.02998
G1 X38.220 Y101.036 E0.02998
G1 X37.308 Y101.322 E0.02998
G1 X36.371 Y101.515 E0.02998
G1 X35.420 Y101.611 E0.02998
G1 X34.464 Y101.611 E0.02998
G1 X33.512 Y101.515 E0.02998
G1 X32.576 Y101.322 E0.02998
G1 X31.663 Y101.036 E0.02998
G1 X30.785 Y100.659 E0.02998
G1 X29.949 Y100.195 E0.02998
G1 X29.164 Y99.649 E0.02998
G1 X28.438 Y99.026 E0.02998
G1 X27.779 Y98.333 E0.02998
G1 X27.194 Y97.577 E0.02998
G1 X26.688 Y96.765 E0.02998
G1 X26.267 Y95.907 E0.02998
G1 X25.935 Y95.010 E0.02998
G1 X25.695 Y94.084 E0.02998
G1 X25.551 Y93.139 E0.02998
G1 X25.502 Y92.184 E0.02998
G1 X25.551 Y91.229 E0.02998
G1 X25.695 Y90.284 E0.02998
G1 X25.935 Y89.358 E0.02998
G1 X26.267 Y88.462 E0.02998
G1 X26.688 Y87.603 E0.02998
G1 X27.194 Y86.792 E0.02998
G1 X27.779 Y86.035 E0.02998
G1 X28.438 Y85.342 E0.02998
G1 X29.164 Y84.720 E0.02998
G1 X29.949 Y84.173 E0.02998
G1 X30.785 Y83.709 E0.02998
G1 X31.663 Y83.332 E0.02998
G1 X32.576 Y83.046 E0.02998
G1 X33.512 Y82.853 E0.02998
G1 X34.464 Y82.757 E0.02998
G1 X35.420 Y82.757 E0.02998
G1 X36.371 Y82.853 E0.02998
G1 X37.171 Y83.018 E0.02562
G1 X37.339 Y83.415 F10800.000
G1 E-0.80000 F2100.00000
G1 Z0.800 F10800.000
G1 X27.517 Y97.167
G1 Z0.200
G1 E0.80000 F2100.00000
G1 F1200.000
G1 X28.913 Y98.564 E0.06266
G1 X29.568 Y99.126 E0.02738
G1 X30.298 Y99.634 E0.02821
G1 X30.804 Y99.915 E0.01834
G1 X27.201 Y96.312 E0.16159
G1 X26.874 Y95.646 E0.02354
G1 X26.757 Y95.328 E0.01074
G1 X31.809 Y100.380 E0.22662
G1 X32.609 Y100.641 E0.02670
G1 X26.491 Y94.523 E0.27446
G1 X26.322 Y93.814 E0.02310
G1 X33.306 Y100.799 E0.31330
G1 X33.612 Y100.862 E0.00992
G1 X33.942 Y100.895 E0.01051
G1 X26.224 Y93.177 E0.34621
G1 X26.184 Y92.598 E0.01843
G1 X34.538 Y100.952 E0.37474
G1 X35.077 Y100.952 E0.01711
G1 X26.170 Y92.044 E0.39957
G1 X26.196 Y91.531 E0.01631
G1 X35.596 Y100.930 E0.42165
G1 X36.085 Y100.880 E0.01561
G1 X26.247 Y91.042 E0.44133
G1 X26.319 Y90.574 E0.01501
G1 X36.549 Y100.805 E0.45891
G1 X36.996 Y100.713 E0.01449
G1 X26.416 Y90.133 E0.47460
G1 X26.527 Y89.704 E0.01404
G1 X37.419 Y100.596 E0.48859
G1 X37.830 Y100.467 E0.01365
G1 X26.661 Y89.298 E0.50101
G1 X26.807 Y88.905 E0.01332
G1 X38.220 Y100.318 E0.51198
G1 X38.598 Y100.156 E0.01303
G1 X26.970 Y88.528 E0.52161
G1 X27.147 Y88.166 E0.01279
G1 X38.962 Y99.980 E0.52997
G1 X39.308 Y99.788 E0.01259
G1 X27.335 Y87.814 E0.53713
G1 X27.542 Y87.482 E0.01242
G1 X39.650 Y99.589 E0.54314
G1 X39.968 Y99.368 E0.01229
G1 X27.751 Y87.151 E0.54804
G1 X27.986 Y86.847 E0.01220
G1 X40.286 Y99.147 E0.55175
G1 X40.579 Y98.900 E0.01214
G1 X28.221 Y86.543 E0.55433
G1 X28.477 Y86.259 E0.01212
G1 X40.869 Y98.651 E0.55587
G1 X41.143 Y98.386 E0.01210
G1 X28.740 Y85.983 E0.55638
G1 X29.014 Y85.717 E0.01210
G1 X41.406 Y98.109 E0.55587
G1 X41.662 Y97.826 E0.01212
G1 X29.305 Y85.468 E0.55433
G1 X29.598 Y85.222 E0.01214
G1 X41.897 Y97.521 E0.55175
G1 X42.133 Y97.217 E0.01220
G1 X29.916 Y85.000 E0.54804
G1 X30.234 Y84.779 E0.01229
G1 X42.342 Y96.887 E0.54314
G1 X42.549 Y96.554 E0.01242
G1 X30.575 Y84.580 E0.53713
G1 X30.922 Y84.388 E0.01259
G1 X42.736 Y96.202 E0.52997
G1 X42.914 Y95.840 E0.01279
G1 X31.286 Y84.212 E0.52161
G1 X31.663 Y84.050 E0.01303
G1 X43.077 Y95.464 E0.51198
G1 X43.222 Y95.070 E0.01332
G1 X32.054 Y83.901 E0.50101
G1 X32.464 Y83.772 E0.01365
G1 X43.356 Y94.664 E0.48859
