; generated by PrusaSlicer 2.2.0+win64 on 2020-11-18 at 22:38:41 UTC

; 

; external perimeters extrusion width = 0.60mm
; perimeters extrusion width = 0.43mm
; infill extrusion width = 0.45mm
; solid infill extrusion width = 0.70mm
; top infill extrusion width = 0.43mm
; first layer extrusion width = 0.42mm

M73 P0 R88
M201 X9000 Y9000 Z500 E10000 ; sets maximum accelerations, mm/sec^2
M203 X500 Y500 Z12 E120 ; sets maximum feedrates, mm/sec
M204 P2000 R1500 T2000 ; sets acceleration (P, T) and retract acceleration (R), mm/sec^2
M205 X10.00 Y10.00 Z0.20 E2.50 ; sets the jerk limits, mm/sec
M205 S0 T0 ; sets the minimum extruding and travel feed rate, mm/sec
M107
M862.3 P "MK2S" ; printer model check
M862.1 P0.4 ; nozzle diameter check
M115 U3.2.3 ; tell printer latest fw version
G90 ; use absolute coordinates
M83 ; extruder relative mode
M204 S2000 T1500 ; MK2 firmware only supports the old M204 format
M104 S215 ; set extruder temp
M140 S60 ; set bed temp
M190 S60 ; wait for bed temp
M109 S215 ; wait for extruder temp
G28 W ; home all without mesh bed level
G80 ; mesh bed leveling
G1 Y-3.0 F1000.0 ; go outside print area
G92 E0.0
G1 X60.0 E9.0  F1000.0 ; intro line
M73 P0 R88
G1 X100.0 E12.5 F1000.0 ; intro line
G92 E0.0
G21 ; set units to millimeters
G90 ; use absolute coordinates
M83 ; use relative distances for extrusion
M900 K0.05 ; Filament gcode LA 1.5
M900 K30 ; Filament gcode LA 1.0
;BEFORE_LAYER_CHANGE
G92 E0.0
;0.2


G1 E-0.80000 F2100.00000
G1 Z0.600 F10800.000
;AFTER_LAYER_CHANGE
;0.2
G1 X18.871 Y30.978
G1 Z0.200
G1 E0.80000 F2100.00000
M204 S1000
G1 F1200.000
G1 X19.309 Y30.552 E0.01917
G1 X19.845 Y30.249 E0.01929
G1 X81.984 Y5.397 E2.09838
G1 X82.509 Y5.255 E0.01704
G1 X188.837 Y5.228 E3.33385
G1 X189.502 Y5.324 E0.02107
G1 X190.114 Y5.603 E0.02107
G1 X199.628 Y12.120 E0.36158
G1 X230.743 Y37.009 E1.24933
G1 X231.257 Y37.597 E0.02449
G1 X231.553 Y38.320 E0.02449
G1 X232.743 Y45.974 E0.24287
G1 X232.743 Y195.081 E4.67513
G1 X232.609 Y195.858 E0.02473
G1 X232.229 Y196.549 E0.02473
G1 X231.637 Y197.081 E0.02496
G1 X230.899 Y197.389 E0.02508
G1 X206.026 Y202.584 E0.79670
G1 X178.659 Y204.766 E0.86080
G1 X112.558 Y204.772 E2.07257
G1 X40.117 Y195.250 E2.29086
G1 X39.506 Y195.081 E0.01989
G1 X38.964 Y194.759 E0.01977
G1 X38.486 Y194.250 E0.02190
G1 X38.175 Y193.620 E0.02201
G1 X16.924 Y125.981 E2.22300
G1 X16.906 Y51.139 E2.34660
G1 X17.164 Y34.868 E0.51023
G1 X17.364 Y33.963 E0.02907
G1 X18.844 Y31.032 E0.10295
G1 E-0.80000 F2100.00000
G1 Z0.800 F10800.000
G1 X207.612 Y182.328
G1 Z0.200
G1 E0.80000 F2100.00000
G1 F1200.000
G1 X219.386 Y182.328 E0.36915
G1 X219.602 Y182.812 E0.01663
G1 X220.138 Y183.751 E0.03390
G1 X220.765 Y184.631 E0.03390
G1 X221.478 Y185.444 E0.03390
G1 X222.268 Y186.182 E0.03390
G1 X223.130 Y186.837 E0.03395
G1 X224.106 Y187.428 E0.03577
G1 X225.024 Y187.872 E0.03196
G1 X226.040 Y188.242 E0.03390
G1 X227.087 Y188.508 E0.03390
G1 X228.156 Y188.669 E0.03390
G1 X228.558 Y188.688 E0.01260
G1 X229.471 Y194.456 E0.18309
G1 X208.404 Y198.859 E0.67482
G1 X207.402 Y199.099 E0.03231
G1 X207.230 Y199.160 E0.00571
G1 X207.418 Y198.899 E0.01009
G1 X207.662 Y198.483 E0.01511
G1 X208.195 Y197.281 E0.04124
G1 X208.616 Y196.043 E0.04101
G1 X208.925 Y194.772 E0.04101
G1 X209.120 Y193.479 E0.04101
G1 X209.199 Y192.173 E0.04101
G1 X209.161 Y190.866 E0.04101
G1 X209.008 Y189.567 E0.04100
G1 X208.739 Y188.287 E0.04101
G1 X208.358 Y187.037 E0.04101
G1 X207.867 Y185.824 E0.04101
G1 X207.270 Y184.661 E0.04101
G1 X206.824 Y183.954 E0.02619
G1 X207.586 Y182.382 E0.05480
G1 X207.376 Y181.951 F10800.000
G1 F1200.000
G1 X219.631 Y181.951 E0.38424
G1 X219.938 Y182.642 E0.02371
G1 X220.456 Y183.547 E0.03271
G1 X221.062 Y184.397 E0.03271
G1 X221.749 Y185.181 E0.03271
G1 X222.512 Y185.893 E0.03271
G1 X223.342 Y186.525 E0.03273
G1 X224.286 Y187.097 E0.03459
G1 X225.171 Y187.524 E0.03081
G1 X226.151 Y187.881 E0.03271
G1 X227.162 Y188.138 E0.03271
G1 X228.194 Y188.293 E0.03271
G1 X228.882 Y188.327 E0.02161
G1 X229.900 Y194.752 E0.20396
G1 X208.486 Y199.227 E0.68591
G1 X207.510 Y199.461 E0.03149
G1 X207.022 Y199.636 E0.01623
G1 X206.572 Y199.831 E0.01538
G1 X206.132 Y199.923 E0.01411
G1 X206.299 Y199.675 E0.00937
G1 X206.547 Y199.364 E0.01248
G1 X206.845 Y199.050 E0.01358
G1 X207.102 Y198.693 E0.01378
G1 X207.326 Y198.311 E0.01389
G1 X207.844 Y197.144 E0.04003
G1 X208.254 Y195.937 E0.03995
G1 X208.555 Y194.699 E0.03995
G1 X208.745 Y193.439 E0.03995
G1 X208.821 Y192.167 E0.03995
G1 X208.785 Y190.894 E0.03995
G1 X208.635 Y189.628 E0.03995
G1 X208.374 Y188.381 E0.03995
G1 X208.002 Y187.163 E0.03995
G1 X207.524 Y185.982 E0.03995
G1 X206.942 Y184.848 E0.03995
G1 X206.393 Y183.979 E0.03223
G1 X207.350 Y182.005 E0.06878
G1 X207.712 Y182.167 F10800.000
G1 E-0.80000 F2100.00000
G1 Z0.800 F10800.000
G1 X220.117 Y183.916
G1 Z0.200
G1 E0.80000 F2100.00000
G1 F1200.000
G1 X218.811 Y182.610 E0.05842
G1 X218.273 Y182.610 E0.01702
G1 X229.009 Y193.346 E0.48027
G1 X228.908 Y192.707 E0.02047
G1 X223.735 Y187.534 E0.23140
G1 X223.971 Y187.677 E0.00873
G1 X224.831 Y188.093 E0.03022
G1 X228.806 Y192.068 E0.17783
G1 X228.705 Y191.429 E0.02047
G1 X225.693 Y188.417 E0.13474
G1 X225.956 Y188.512 E0.00885
G1 X226.454 Y188.639 E0.01624
G1 X228.604 Y190.789 E0.09620
G1 X228.503 Y190.150 E0.02047
G1 X227.158 Y188.805 E0.06018
G1 X227.791 Y188.900 E0.02025
G1 X228.606 Y189.715 E0.03646
G1 X229.314 Y194.190 F10800.000
G1 F1200.000
G1 X217.735 Y182.610 E0.51800
G1 X217.197 Y182.610 E0.01702
G1 X228.878 Y194.291 E0.52253
G1 X228.433 Y194.384 E0.01438
G1 X216.659 Y182.610 E0.52669
G1 X216.121 Y182.610 E0.01702
G1 X227.988 Y194.477 E0.53085
G1 X227.543 Y194.570 E0.01438
G1 X215.583 Y182.610 E0.53501
G1 X215.045 Y182.610 E0.01702
G1 X227.098 Y194.663 E0.53917
G1 X226.653 Y194.756 E0.01438
G1 X214.507 Y182.610 E0.54333
G1 X213.969 Y182.610 E0.01702
G1 X226.208 Y194.849 E0.54749
G1 X225.763 Y194.942 E0.01438
G1 X213.431 Y182.610 E0.55165
M73 P1 R87
G1 X212.893 Y182.610 E0.01702
G1 X225.318 Y195.035 E0.55581
G1 X224.873 Y195.128 E0.01438
G1 X212.355 Y182.610 E0.55997
G1 X211.817 Y182.610 E0.01702
G1 X224.428 Y195.221 E0.56413
G1 X223.983 Y195.314 E0.01438
G1 X211.279 Y182.610 E0.56829
G1 X210.741 Y182.610 E0.01702
G1 X223.538 Y195.407 E0.57245
G1 X223.093 Y195.500 E0.01438
G1 X210.203 Y182.610 E0.57661
G1 X209.665 Y182.610 E0.01702
G1 X222.648 Y195.593 E0.58077
G1 X222.203 Y195.686 E0.01438
G1 X209.127 Y182.610 E0.58493
G1 X208.589 Y182.610 E0.01702
G1 X221.758 Y195.779 E0.58909
G1 X221.313 Y195.872 E0.01438
G1 X208.051 Y182.610 E0.59325
G1 X207.790 Y182.610 E0.00827
G1 X207.699 Y182.797 E0.00655
G1 X220.868 Y195.965 E0.58908
G1 X220.423 Y196.058 E0.01438
G1 X207.524 Y183.159 E0.57703
G1 X207.348 Y183.521 E0.01274
G1 X219.978 Y196.151 E0.56498
G1 X219.533 Y196.244 E0.01438
G1 X207.172 Y183.884 E0.55293
G1 X207.147 Y183.936 E0.00185
G1 X207.516 Y184.521 E0.02185
G1 X207.773 Y185.022 E0.01785
G1 X219.088 Y196.337 E0.50615
G1 X218.643 Y196.430 E0.01438
G1 X208.264 Y186.051 E0.46430
G1 X208.628 Y186.954 E0.03079
G1 X218.198 Y196.523 E0.42808
G1 X217.753 Y196.616 E0.01438
G1 X208.864 Y187.727 E0.39762
G1 X209.013 Y188.217 E0.01619
G1 X209.066 Y188.467 E0.00808
G1 X217.308 Y196.709 E0.36869
G1 X216.863 Y196.802 E0.01438
G1 X209.209 Y189.148 E0.34240
G1 X209.287 Y189.522 E0.01208
G1 X209.320 Y189.797 E0.00877
G1 X216.418 Y196.895 E0.31752
G1 X215.973 Y196.988 E0.01438
G1 X209.392 Y190.407 E0.29439
G1 X209.448 Y191.001 E0.01888
G1 X215.528 Y197.081 E0.27196
G1 X215.083 Y197.174 E0.01438
G1 X209.464 Y191.555 E0.25134
G1 X209.480 Y192.109 E0.01753
G1 X214.638 Y197.267 E0.23073
G1 X214.193 Y197.360 E0.01438
G1 X209.455 Y192.622 E0.21193
G1 X209.424 Y193.130 E0.01608
G1 X213.748 Y197.453 E0.19340
G1 X213.303 Y197.546 E0.01438
G1 X209.384 Y193.627 E0.17531
G1 X209.313 Y194.095 E0.01496
G1 X212.858 Y197.639 E0.15856
G1 X212.413 Y197.732 E0.01438
G1 X209.243 Y194.562 E0.14180
G1 X209.157 Y195.015 E0.01457
G1 X211.968 Y197.825 E0.12572
G1 X211.523 Y197.918 E0.01438
G1 X209.052 Y195.447 E0.11052
G1 X208.947 Y195.880 E0.01409
G1 X211.078 Y198.011 E0.09532
G1 X210.633 Y198.104 E0.01438
G1 X208.828 Y196.299 E0.08074
G1 X208.691 Y196.701 E0.01342
G1 X210.188 Y198.197 E0.06693
G1 X209.743 Y198.290 E0.01438
G1 X208.555 Y197.102 E0.05313
G1 X208.410 Y197.495 E0.01325
G1 X209.298 Y198.383 E0.03971
G1 X208.853 Y198.476 E0.01438
G1 X208.245 Y197.868 E0.02720
G1 X208.079 Y198.240 E0.01290
G1 X208.408 Y198.569 E0.01469
G1 X207.972 Y198.671 E0.01415
G1 X207.785 Y198.485 E0.00836
G1 X207.077 Y199.270 F10800.000
G1 F1200.000
G1 X206.641 Y199.565 E0.00795
G1 E-0.80000 F2100.00000
G1 Z0.800 F10800.000
G1 X207.230 Y174.313
G1 Z0.200
G1 E0.80000 F2100.00000
G1 F1200.000
G1 X207.418 Y174.051 E0.01009
G1 X207.662 Y173.636 E0.01511
G1 X208.195 Y172.433 E0.04124
G1 X208.616 Y171.195 E0.04101
G1 X208.925 Y169.924 E0.04101
G1 X209.120 Y168.631 E0.04101
G1 X209.199 Y167.326 E0.04101
G1 X209.161 Y166.018 E0.04101
G1 X209.008 Y164.720 E0.04100
G1 X208.739 Y163.440 E0.04101
G1 X208.358 Y162.189 E0.04101
G1 X207.867 Y160.977 E0.04101
G1 X207.270 Y159.813 E0.04101
G1 X206.824 Y159.107 E0.02619
G1 X207.612 Y157.480 E0.05668
G1 X219.386 Y157.480 E0.36915
G1 X219.602 Y157.964 E0.01663
G1 X220.138 Y158.903 E0.03390
G1 X220.765 Y159.783 E0.03390
G1 X221.478 Y160.596 E0.03390
G1 X222.268 Y161.334 E0.03390
G1 X223.130 Y161.989 E0.03395
G1 X224.106 Y162.581 E0.03577
G1 X225.024 Y163.024 E0.03196
G1 X226.040 Y163.394 E0.03390
G1 X227.087 Y163.661 E0.03390
G1 X228.156 Y163.821 E0.03390
G1 X228.558 Y163.840 E0.01260
G1 X229.471 Y169.608 E0.18309
G1 X208.404 Y174.011 E0.67482
G1 X207.287 Y174.292 E0.03612
G1 X206.132 Y175.075 F10800.000
G1 F1200.000
G1 X206.299 Y174.827 E0.00937
G1 X206.547 Y174.516 E0.01248
G1 X206.845 Y174.202 E0.01358
G1 X207.102 Y173.845 E0.01378
G1 X207.326 Y173.463 E0.01389
G1 X207.844 Y172.296 E0.04003
G1 X208.254 Y171.090 E0.03995
G1 X208.555 Y169.851 E0.03995
G1 X208.745 Y168.591 E0.03995
G1 X208.821 Y167.320 E0.03995
G1 X208.785 Y166.046 E0.03995
G1 X208.635 Y164.781 E0.03995
G1 X208.374 Y163.533 E0.03995
G1 X208.002 Y162.315 E0.03995
G1 X207.524 Y161.134 E0.03995
G1 X206.942 Y160.000 E0.03995
G1 X206.393 Y159.131 E0.03223
G1 X207.376 Y157.103 E0.07066
G1 X219.631 Y157.103 E0.38424
G1 X219.938 Y157.794 E0.02371
G1 X220.456 Y158.699 E0.03271
G1 X221.062 Y159.549 E0.03271
G1 X221.749 Y160.333 E0.03271
G1 X222.512 Y161.045 E0.03271
G1 X223.342 Y161.677 E0.03273
G1 X224.286 Y162.249 E0.03459
G1 X225.171 Y162.676 E0.03081
G1 X226.151 Y163.033 E0.03271
G1 X227.162 Y163.290 E0.03271
G1 X228.194 Y163.445 E0.03271
G1 X228.882 Y163.479 E0.02161
G1 X229.900 Y169.904 E0.20396
G1 X208.486 Y174.379 E0.68591
G1 X207.510 Y174.613 E0.03149
G1 X207.022 Y174.788 E0.01623
G1 X206.572 Y174.983 E0.01538
G1 X206.191 Y175.062 E0.01222
G1 X206.349 Y174.870 F10800.000
G1 X206.641 Y174.717
G1 F1200.000
G1 X207.077 Y174.422 E0.00795
G1 X207.785 Y173.637 F10800.000
G1 F1200.000
G1 X207.972 Y173.823 E0.00836
G1 X208.408 Y173.721 E0.01415
G1 X208.079 Y173.393 E0.01469
G1 X208.245 Y173.020 E0.01290
G1 X208.853 Y173.628 E0.02720
G1 X209.298 Y173.535 E0.01438
G1 X208.410 Y172.647 E0.03971
G1 X208.555 Y172.254 E0.01325
G1 X209.743 Y173.442 E0.05313
G1 X210.188 Y173.349 E0.01438
G1 X208.691 Y171.853 E0.06693
G1 X208.828 Y171.451 E0.01342
G1 X210.633 Y173.256 E0.08074
G1 X211.078 Y173.163 E0.01438
G1 X208.947 Y171.032 E0.09532
G1 X209.052 Y170.599 E0.01409
G1 X211.523 Y173.070 E0.11052
G1 X211.968 Y172.977 E0.01438
G1 X209.157 Y170.167 E0.12572
G1 X209.243 Y169.714 E0.01457
G1 X212.413 Y172.884 E0.14180
G1 X212.858 Y172.791 E0.01438
G1 X209.313 Y169.247 E0.15856
G1 X209.384 Y168.779 E0.01496
G1 X213.303 Y172.698 E0.17531
G1 X213.748 Y172.605 E0.01438
G1 X209.424 Y168.282 E0.19340
G1 X209.455 Y167.774 E0.01608
G1 X214.193 Y172.512 E0.21193
G1 X214.638 Y172.419 E0.01438
G1 X209.480 Y167.261 E0.23073
G1 X209.464 Y166.707 E0.01753
G1 X215.083 Y172.326 E0.25134
G1 X215.528 Y172.233 E0.01438
G1 X209.448 Y166.154 E0.27196
G1 X209.392 Y165.559 E0.01888
G1 X215.973 Y172.140 E0.29439
G1 X216.418 Y172.047 E0.01438
G1 X209.320 Y164.949 E0.31752
G1 X209.287 Y164.674 E0.00877
G1 X209.209 Y164.300 E0.01208
G1 X216.863 Y171.954 E0.34240
G1 X217.308 Y171.861 E0.01438
G1 X209.066 Y163.619 E0.36869
G1 X209.013 Y163.369 E0.00808
G1 X208.864 Y162.880 E0.01619
G1 X217.753 Y171.768 E0.39762
G1 X218.198 Y171.675 E0.01438
G1 X208.628 Y162.106 E0.42808
G1 X208.264 Y161.203 E0.03079
G1 X218.643 Y171.582 E0.46430
G1 X219.088 Y171.489 E0.01438
G1 X207.773 Y160.175 E0.50615
G1 X207.516 Y159.673 E0.01785
G1 X207.147 Y159.088 E0.02185
G1 X207.172 Y159.036 E0.00185
G1 X219.533 Y171.396 E0.55293
G1 X219.978 Y171.303 E0.01438
G1 X207.348 Y158.673 E0.56498
G1 X207.524 Y158.311 E0.01274
G1 X220.423 Y171.210 E0.57703
G1 X220.868 Y171.117 E0.01438
G1 X207.699 Y157.949 E0.58908
G1 X207.790 Y157.763 E0.00655
G1 X208.051 Y157.763 E0.00827
G1 X221.313 Y171.024 E0.59325
G1 X221.758 Y170.931 E0.01438
G1 X208.589 Y157.763 E0.58909
G1 X209.127 Y157.763 E0.01702
G1 X222.203 Y170.838 E0.58493
G1 X222.648 Y170.745 E0.01438
G1 X209.665 Y157.763 E0.58077
G1 X210.203 Y157.763 E0.01702
G1 X223.093 Y170.652 E0.57661
G1 X223.538 Y170.559 E0.01438
G1 X210.741 Y157.763 E0.57245
G1 X211.279 Y157.763 E0.01702
G1 X223.983 Y170.466 E0.56829
G1 X224.428 Y170.373 E0.01438
G1 X211.817 Y157.763 E0.56413
G1 X212.355 Y157.763 E0.01702
G1 X224.873 Y170.280 E0.55997
G1 X225.318 Y170.187 E0.01438
G1 X212.893 Y157.763 E0.55581
G1 X213.431 Y157.763 E0.01702
G1 X225.763 Y170.094 E0.55165
G1 X226.208 Y170.001 E0.01438
G1 X213.969 Y157.763 E0.54749
G1 X214.507 Y157.763 E0.01702
G1 X226.653 Y169.908 E0.54333
G1 X227.098 Y169.815 E0.01438
G1 X215.045 Y157.763 E0.53917
G1 X215.583 Y157.763 E0.01702
G1 X227.543 Y169.722 E0.53501
G1 X227.988 Y169.629 E0.01438
G1 X216.121 Y157.763 E0.53085
G1 X216.659 Y157.763 E0.01702
G1 X228.433 Y169.536 E0.52669
G1 X228.878 Y169.443 E0.01438
G1 X217.197 Y157.763 E0.52253
G1 X217.735 Y157.763 E0.01702
M73 P2 R86
G1 X229.314 Y169.342 E0.51800
G1 X228.606 Y164.867 F10800.000
G1 F1200.000
G1 X227.791 Y164.052 E0.03646
G1 X227.158 Y163.957 E0.02025
G1 X228.503 Y165.302 E0.06018
G1 X228.604 Y165.941 E0.02047
G1 X226.454 Y163.791 E0.09620
G1 X225.956 Y163.664 E0.01624
G1 X225.693 Y163.569 E0.00885
G1 X228.705 Y166.581 E0.13474
G1 X228.806 Y167.220 E0.02047
G1 X224.831 Y163.245 E0.17783
G1 X223.971 Y162.829 E0.03022
G1 X223.735 Y162.686 E0.00873
G1 X228.908 Y167.859 E0.23140
G1 X229.009 Y168.498 E0.02047
G1 X218.273 Y157.763 E0.48027
G1 X218.811 Y157.763 E0.01702
G1 X220.117 Y159.068 E0.05842
G1 E-0.80000 F2100.00000
G1 Z0.800 F10800.000
G1 X207.402 Y149.403
G1 Z0.200
G1 E0.80000 F2100.00000
G1 F1200.000
G1 X207.230 Y149.465 E0.00571
G1 X207.418 Y149.203 E0.01009
G1 X207.662 Y148.788 E0.01511
G1 X208.195 Y147.586 E0.04124
G1 X208.616 Y146.347 E0.04101
G1 X208.925 Y145.076 E0.04101
G1 X209.120 Y143.783 E0.04101
G1 X209.199 Y142.478 E0.04101
G1 X209.161 Y141.170 E0.04101
G1 X209.008 Y139.872 E0.04100
G1 X208.739 Y138.592 E0.04101
G1 X208.358 Y137.341 E0.04101
G1 X207.867 Y136.129 E0.04101
G1 X207.270 Y134.965 E0.04101
G1 X206.824 Y134.259 E0.02619
G1 X207.612 Y132.632 E0.05668
G1 X219.386 Y132.632 E0.36915
G1 X219.602 Y133.116 E0.01663
G1 X220.138 Y134.055 E0.03390
G1 X220.765 Y134.935 E0.03390
G1 X221.478 Y135.748 E0.03390
G1 X222.268 Y136.486 E0.03390
G1 X223.130 Y137.142 E0.03395
G1 X224.106 Y137.733 E0.03577
G1 X225.024 Y138.176 E0.03196
G1 X226.040 Y138.546 E0.03390
G1 X227.087 Y138.813 E0.03390
G1 X228.156 Y138.973 E0.03390
G1 X228.558 Y138.993 E0.01260
G1 X229.471 Y144.760 E0.18309
G1 X208.404 Y149.163 E0.67482
G1 X207.460 Y149.389 E0.03043
G1 X206.132 Y150.227 F10800.000
G1 F1200.000
G1 X206.299 Y149.979 E0.00937
G1 X206.547 Y149.668 E0.01248
G1 X206.845 Y149.354 E0.01358
G1 X207.102 Y148.997 E0.01378
G1 X207.326 Y148.615 E0.01389
G1 X207.844 Y147.448 E0.04003
G1 X208.254 Y146.242 E0.03995
G1 X208.555 Y145.004 E0.03995
G1 X208.745 Y143.744 E0.03995
G1 X208.821 Y142.472 E0.03995
G1 X208.785 Y141.198 E0.03995
G1 X208.635 Y139.933 E0.03995
