; generated by PrusaSlicer 2.2.0+win64 on 2020-11-18 at 22:42:55 UTC

; 

; external perimeters extrusion width = 0.60mm
; perimeters extrusion width = 0.43mm
; infill extrusion width = 0.45mm
; solid infill extrusion width = 0.70mm
; top infill extrusion width = 0.43mm
; first layer extrusion width = 0.42mm

M73 P0 R71
M201 X9000 Y9000 Z500 E10000 ; sets maximum accelerations, mm/sec^2
M203 X500 Y500 Z12 E120 ; sets maximum feedrates, mm/sec
M204 P2000 R1500 T2000 ; sets acceleration (P, T) and retract acceleration (R), mm/sec^2
M205 X10.00 Y10.00 Z0.20 E2.50 ; sets the jerk limits, mm/sec
M205 S0 T0 ; sets the minimum extruding and travel feed rate, mm/sec
M107
M862.3 P "MK2S" ; printer model check
M862.1 P0.4 ; nozzle diameter check
M115 U3.2.3 ; tell printer latest fw version
G90 ; use absolute coordinates
M83 ; extruder relative mode
M204 S2000 T1500 ; MK2 firmware only supports the old M204 format
M104 S215 ; set extruder temp
M140 S60 ; set bed temp
M190 S60 ; wait for bed temp
M109 S215 ; wait for extruder temp
G28 W ; home all without mesh bed level
G80 ; mesh bed leveling
G1 Y-3.0 F1000.0 ; go outside print area
G92 E0.0
G1 X60.0 E9.0  F1000.0 ; intro line
M73 P0 R71
G1 X100.0 E12.5 F1000.0 ; intro line
G92 E0.0
G21 ; set units to millimeters
G90 ; use absolute coordinates
M83 ; use relative distances for extrusion
M900 K0.05 ; Filament gcode LA 1.5
M900 K30 ; Filament gcode LA 1.0
;BEFORE_LAYER_CHANGE
G92 E0.0
;0.2


G1 E-0.80000 F2100.00000
G1 Z0.600 F10800.000
;AFTER_LAYER_CHANGE
;0.2
G1 X49.437 Y23.281
G1 Z0.200
G1 E0.80000 F2100.00000
M204 S1000
G1 F1200.000
G1 X50.043 Y22.067 E0.04256
G1 X50.638 Y21.118 E0.03511
G1 X51.319 Y20.233 E0.03501
G1 X52.171 Y19.319 E0.03919
G1 X53.181 Y18.442 E0.04193
G1 X54.216 Y17.721 E0.03955
G1 X55.390 Y17.080 E0.04193
G1 X56.427 Y16.638 E0.03537
G1 X57.496 Y16.300 E0.03513
G1 X58.811 Y16.020 E0.04217
G1 X60.070 Y15.892 E0.03967
G1 X189.830 Y15.890 E4.06853
G1 X191.297 Y16.040 E0.04625
G1 X192.412 Y16.273 E0.03570
G1 X193.674 Y16.678 E0.04157
G1 X194.720 Y17.131 E0.03573
G1 X195.803 Y17.733 E0.03883
G1 X196.813 Y18.437 E0.03860
G1 X197.750 Y19.241 E0.03872
G1 X198.603 Y20.138 E0.03883
G1 X199.357 Y21.111 E0.03860
G1 X200.013 Y22.162 E0.03884
G1 X200.517 Y23.180 E0.03561
G1 X201.026 Y24.555 E0.04598
G1 X201.307 Y25.660 E0.03573
G1 X201.498 Y26.945 E0.04074
G1 X201.554 Y28.102 E0.03633
G1 X201.554 Y156.290 E4.01925
G1 X201.478 Y157.612 E0.04150
G1 X201.304 Y158.726 E0.03537
G1 X201.023 Y159.823 E0.03549
G1 X200.563 Y161.087 E0.04217
G1 X199.957 Y162.301 E0.04256
G1 X199.362 Y163.250 E0.03511
G1 X198.679 Y164.138 E0.03513
G1 X197.810 Y165.068 E0.03990
G1 X172.014 Y190.764 E1.14163
G1 X170.991 Y191.631 E0.04205
G1 X170.063 Y192.273 E0.03537
G1 X169.085 Y192.819 E0.03514
G1 X167.852 Y193.358 E0.04217
G1 X166.641 Y193.737 E0.03979
G1 X165.435 Y193.983 E0.03860
G1 X164.108 Y194.110 E0.04181
G1 X85.863 Y194.110 E2.45331
G1 X84.547 Y193.981 E0.04146
G1 X83.231 Y193.702 E0.04217
G1 X82.156 Y193.361 E0.03537
G1 X81.118 Y192.919 E0.03537
G1 X79.935 Y192.271 E0.04229
G1 X78.915 Y191.561 E0.03895
G1 X77.951 Y190.730 E0.03991
G1 X51.458 Y164.298 E1.17340
G1 X50.636 Y163.247 E0.04181
G1 X49.928 Y162.095 E0.04241
G1 X49.436 Y161.084 E0.03525
G1 X49.040 Y160.024 E0.03549
G1 X48.683 Y158.656 E0.04431
G1 X48.508 Y157.495 E0.03681
G1 X48.446 Y156.266 E0.03860
G1 X48.446 Y28.082 E4.01913
G1 X48.522 Y26.757 E0.04162
G1 X48.696 Y25.642 E0.03537
G1 X48.977 Y24.545 E0.03549
G1 X49.417 Y23.338 E0.04029
G1 E-0.80000 F2100.00000
G1 Z0.800 F10800.000
G1 X182.452 Y150.361
G1 Z0.200
G1 E0.80000 F2100.00000
G1 F1200.000
G1 X183.084 Y149.696 E0.02878
G1 X183.781 Y149.098 E0.02878
G1 X184.534 Y148.573 E0.02878
G1 X185.337 Y148.128 E0.02878
G1 X186.180 Y147.766 E0.02878
G1 X187.056 Y147.491 E0.02878
G1 X187.955 Y147.306 E0.02878
G1 X188.868 Y147.213 E0.02878
G1 X189.786 Y147.213 E0.02878
G1 X190.700 Y147.306 E0.02878
G1 X191.599 Y147.491 E0.02878
G1 X192.475 Y147.766 E0.02878
G1 X193.318 Y148.128 E0.02878
G1 X194.121 Y148.573 E0.02878
G1 X194.874 Y149.098 E0.02878
G1 X195.571 Y149.696 E0.02878
G1 X196.203 Y150.361 E0.02878
G1 X196.765 Y151.087 E0.02878
G1 X197.251 Y151.866 E0.02878
G1 X197.655 Y152.690 E0.02878
G1 X197.974 Y153.551 E0.02878
G1 X198.204 Y154.440 E0.02878
G1 X198.343 Y155.347 E0.02878
G1 X198.389 Y156.264 E0.02878
G1 X198.343 Y157.180 E0.02878
G1 X198.204 Y158.088 E0.02878
G1 X197.974 Y158.976 E0.02878
G1 X197.655 Y159.837 E0.02878
G1 X197.251 Y160.661 E0.02878
G1 X196.765 Y161.440 E0.02878
G1 X196.203 Y162.166 E0.02878
G1 X195.571 Y162.832 E0.02878
G1 X194.874 Y163.430 E0.02878
G1 X194.121 Y163.954 E0.02878
G1 X193.318 Y164.399 E0.02878
G1 X192.475 Y164.761 E0.02878
G1 X191.599 Y165.036 E0.02878
G1 X190.700 Y165.221 E0.02878
G1 X189.786 Y165.314 E0.02878
G1 X188.868 Y165.314 E0.02878
G1 X187.955 Y165.221 E0.02878
G1 X187.056 Y165.036 E0.02878
G1 X186.180 Y164.761 E0.02878
G1 X185.337 Y164.399 E0.02878
G1 X184.534 Y163.954 E0.02878
G1 X183.781 Y163.430 E0.02878
G1 X183.084 Y162.832 E0.02878
G1 X182.452 Y162.166 E0.02878
G1 X181.890 Y161.440 E0.02878
G1 X181.404 Y160.661 E0.02878
G1 X181.000 Y159.837 E0.02878
G1 X180.681 Y158.976 E0.02878
G1 X180.451 Y158.088 E0.02878
G1 X180.312 Y157.180 E0.02878
G1 X180.265 Y156.264 E0.02878
G1 X180.312 Y155.347 E0.02878
G1 X180.451 Y154.440 E0.02878
G1 X180.681 Y153.551 E0.02878
G1 X181.000 Y152.690 E0.02878
G1 X181.404 Y151.866 E0.02878
G1 X181.890 Y151.087 E0.02878
G1 X182.415 Y150.408 E0.02690
G1 X182.117 Y150.178 F10800.000
G1 F1200.000
G1 X182.824 Y149.422 E0.03245
G1 X183.549 Y148.799 E0.02998
G1 X184.334 Y148.253 E0.02998
G1 X185.170 Y147.789 E0.02998
G1 X186.049 Y147.412 E0.02998
G1 X186.961 Y147.126 E0.02998
G1 X187.898 Y146.933 E0.02998
G1 X188.849 Y146.836 E0.02998
G1 X189.805 Y146.836 E0.02998
G1 X190.757 Y146.933 E0.02998
G1 X191.693 Y147.126 E0.02998
G1 X192.606 Y147.412 E0.02998
G1 X193.484 Y147.789 E0.02998
G1 X194.320 Y148.253 E0.02998
G1 X195.105 Y148.799 E0.02998
G1 X195.831 Y149.422 E0.02998
G1 X196.490 Y150.115 E0.02998
G1 X197.075 Y150.871 E0.02998
G1 X197.581 Y151.683 E0.02998
G1 X198.002 Y152.541 E0.02998
G1 X198.334 Y153.438 E0.02998
G1 X198.574 Y154.363 E0.02998
G1 X198.718 Y155.309 E0.02998
G1 X198.767 Y156.264 E0.02998
G1 X198.718 Y157.219 E0.02998
G1 X198.574 Y158.164 E0.02998
G1 X198.334 Y159.089 E0.02998
G1 X198.002 Y159.986 E0.02998
G1 X197.581 Y160.845 E0.02998
G1 X197.075 Y161.656 E0.02998
G1 X196.490 Y162.412 E0.02998
G1 X195.831 Y163.105 E0.02998
G1 X195.105 Y163.728 E0.02998
G1 X194.320 Y164.274 E0.02998
G1 X193.484 Y164.738 E0.02998
G1 X192.606 Y165.116 E0.02998
G1 X191.693 Y165.402 E0.02998
G1 X190.757 Y165.594 E0.02998
G1 X189.805 Y165.691 E0.02998
G1 X188.849 Y165.691 E0.02998
G1 X187.898 Y165.594 E0.02998
G1 X186.961 Y165.402 E0.02998
G1 X186.049 Y165.116 E0.02998
G1 X185.170 Y164.738 E0.02998
G1 X184.334 Y164.274 E0.02998
G1 X183.549 Y163.728 E0.02998
G1 X182.824 Y163.105 E0.02998
G1 X182.165 Y162.412 E0.02998
G1 X181.580 Y161.656 E0.02998
G1 X181.074 Y160.845 E0.02998
G1 X180.653 Y159.986 E0.02998
G1 X180.321 Y159.089 E0.02998
G1 X180.081 Y158.164 E0.02998
G1 X179.936 Y157.219 E0.02998
G1 X179.888 Y156.264 E0.02998
G1 X179.936 Y155.309 E0.02998
G1 X180.081 Y154.363 E0.02998
G1 X180.321 Y153.438 E0.02998
G1 X180.653 Y152.541 E0.02998
G1 X181.074 Y151.683 E0.02998
G1 X181.580 Y150.871 E0.02998
G1 X182.080 Y150.225 E0.02562
G1 X182.510 Y150.249 F10800.000
G1 E-0.80000 F2100.00000
G1 Z0.800 F10800.000
G1 X196.753 Y151.281
G1 Z0.200
G1 E0.80000 F2100.00000
G1 F1200.000
G1 X195.355 Y149.883 E0.06270
G1 X194.701 Y149.322 E0.02734
G1 X193.971 Y148.814 E0.02821
G1 X193.465 Y148.533 E0.01835
G1 X197.068 Y152.136 E0.16161
G1 X197.395 Y152.802 E0.02353
G1 X197.512 Y153.120 E0.01075
G1 X192.460 Y148.067 E0.22663
G1 X191.660 Y147.807 E0.02670
G1 X197.778 Y153.925 E0.27446
G1 X197.947 Y154.634 E0.02310
G1 X190.963 Y147.649 E0.31331
G1 X190.657 Y147.586 E0.00992
G1 X190.327 Y147.553 E0.01051
G1 X198.045 Y155.271 E0.34622
G1 X198.085 Y155.850 E0.01843
G1 X189.731 Y147.496 E0.37475
G1 X189.192 Y147.496 E0.01711
G1 X198.099 Y156.404 E0.39957
G1 X198.073 Y156.917 E0.01631
G1 X188.673 Y147.517 E0.42165
G1 X188.184 Y147.567 E0.01561
G1 X198.022 Y157.406 E0.44134
G1 X197.950 Y157.874 E0.01501
G1 X187.720 Y147.643 E0.45892
G1 X187.273 Y147.735 E0.01449
G1 X197.853 Y158.315 E0.47461
G1 X197.742 Y158.744 E0.01404
G1 X186.850 Y147.852 E0.48859
G1 X186.439 Y147.981 E0.01365
G1 X197.608 Y159.150 E0.50101
G1 X197.462 Y159.543 E0.01332
G1 X186.049 Y148.130 E0.51198
G1 X185.671 Y148.292 E0.01303
G1 X197.299 Y159.920 E0.52161
G1 X197.122 Y160.282 E0.01279
G1 X185.307 Y148.467 E0.52997
G1 X184.961 Y148.660 E0.01259
G1 X196.934 Y160.634 E0.53713
G1 X196.727 Y160.966 E0.01242
G1 X184.619 Y148.858 E0.54314
G1 X184.301 Y149.080 E0.01229
G1 X196.519 Y161.297 E0.54804
G1 X196.283 Y161.601 E0.01220
G1 X183.983 Y149.301 E0.55175
G1 X183.690 Y149.548 E0.01214
G1 X196.048 Y161.905 E0.55433
G1 X195.792 Y162.189 E0.01212
G1 X183.400 Y149.797 E0.55587
G1 X183.126 Y150.062 E0.01210
G1 X195.529 Y162.465 E0.55638
G1 X195.255 Y162.730 E0.01210
G1 X182.863 Y150.339 E0.55587
G1 X182.607 Y150.622 E0.01212
G1 X194.964 Y162.980 E0.55433
M73 P1 R70
G1 X194.671 Y163.226 E0.01214
G1 X182.372 Y150.926 E0.55175
G1 X182.136 Y151.230 E0.01220
G1 X194.353 Y163.448 E0.54804
G1 X194.035 Y163.669 E0.01229
G1 X181.927 Y151.561 E0.54314
G1 X181.720 Y151.893 E0.01242
G1 X193.694 Y163.867 E0.53713
G1 X193.347 Y164.060 E0.01259
G1 X181.533 Y152.246 E0.52997
G1 X181.355 Y152.608 E0.01279
G1 X192.983 Y164.235 E0.52161
G1 X192.606 Y164.397 E0.01303
G1 X181.192 Y152.984 E0.51198
G1 X181.047 Y153.378 E0.01332
G1 X192.215 Y164.546 E0.50101
G1 X191.805 Y164.675 E0.01365
G1 X180.913 Y153.784 E0.48859
G1 X180.802 Y154.212 E0.01404
G1 X191.382 Y164.792 E0.47460
G1 X190.934 Y164.884 E0.01449
G1 X180.704 Y154.654 E0.45891
G1 X180.633 Y155.122 E0.01501
G1 X190.471 Y164.960 E0.44133
G1 X189.981 Y165.010 E0.01561
G1 X180.582 Y155.610 E0.42165
G1 X180.556 Y156.124 E0.01631
G1 X189.463 Y165.031 E0.39957
G1 X188.924 Y165.031 E0.01711
G1 X180.570 Y156.677 E0.37474
G1 X180.610 Y157.257 E0.01843
G1 X188.328 Y164.975 E0.34621
G1 X187.998 Y164.941 E0.01051
G1 X187.692 Y164.878 E0.00992
G1 X180.707 Y157.894 E0.31330
G1 X180.876 Y158.602 E0.02310
G1 X186.995 Y164.721 E0.27446
G1 X186.194 Y164.460 E0.02670
G1 X181.142 Y159.408 E0.22662
G1 X181.260 Y159.726 E0.01074
G1 X181.587 Y160.392 E0.02354
G1 X185.189 Y163.994 E0.16159
G1 X184.684 Y163.714 E0.01834
G1 X183.954 Y163.206 E0.02821
G1 X183.299 Y162.644 E0.02738
G1 X181.902 Y161.247 E0.06266
G1 E-0.80000 F2100.00000
G1 Z0.800 F10800.000
G1 X187.056 Y139.404
G1 Z0.200
G1 E0.80000 F2100.00000
G1 F1200.000
G1 X186.180 Y139.130 E0.02878
G1 X185.337 Y138.768 E0.02878
G1 X184.534 Y138.322 E0.02878
G1 X183.781 Y137.798 E0.02878
G1 X183.084 Y137.200 E0.02878
G1 X182.452 Y136.535 E0.02878
G1 X181.890 Y135.809 E0.02878
G1 X181.404 Y135.030 E0.02878
G1 X181.000 Y134.205 E0.02878
G1 X180.681 Y133.345 E0.02878
G1 X180.451 Y132.456 E0.02878
G1 X180.312 Y131.549 E0.02878
G1 X180.265 Y130.632 E0.02878
G1 X180.312 Y129.715 E0.02878
G1 X180.451 Y128.808 E0.02878
G1 X180.681 Y127.919 E0.02878
G1 X181.000 Y127.058 E0.02878
G1 X181.404 Y126.234 E0.02878
G1 X181.890 Y125.455 E0.02878
G1 X182.452 Y124.729 E0.02878
G1 X183.084 Y124.064 E0.02878
G1 X183.781 Y123.466 E0.02878
G1 X184.534 Y122.941 E0.02878
G1 X185.337 Y122.496 E0.02878
G1 X186.180 Y122.134 E0.02878
G1 X187.056 Y121.859 E0.02878
G1 X187.955 Y121.674 E0.02878
G1 X188.868 Y121.582 E0.02878
G1 X189.786 Y121.582 E0.02878
G1 X190.700 Y121.674 E0.02878
G1 X191.599 Y121.859 E0.02878
G1 X192.475 Y122.134 E0.02878
G1 X193.318 Y122.496 E0.02878
G1 X194.121 Y122.941 E0.02878
G1 X194.874 Y123.466 E0.02878
G1 X195.571 Y124.064 E0.02878
G1 X196.203 Y124.729 E0.02878
G1 X196.765 Y125.455 E0.02878
G1 X197.251 Y126.234 E0.02878
G1 X197.655 Y127.058 E0.02878
G1 X197.974 Y127.919 E0.02878
G1 X198.204 Y128.808 E0.02878
G1 X198.343 Y129.715 E0.02878
G1 X198.389 Y130.632 E0.02878
G1 X198.343 Y131.549 E0.02878
G1 X198.204 Y132.456 E0.02878
G1 X197.974 Y133.345 E0.02878
G1 X197.655 Y134.205 E0.02878
G1 X197.251 Y135.030 E0.02878
G1 X196.765 Y135.809 E0.02878
G1 X196.203 Y136.535 E0.02878
G1 X195.571 Y137.200 E0.02878
G1 X194.874 Y137.798 E0.02878
G1 X194.121 Y138.322 E0.02878
G1 X193.318 Y138.768 E0.02878
G1 X192.475 Y139.130 E0.02878
G1 X191.599 Y139.404 E0.02878
G1 X190.700 Y139.589 E0.02878
G1 X189.786 Y139.682 E0.02878
G1 X188.868 Y139.682 E0.02878
G1 X187.955 Y139.589 E0.02878
G1 X187.115 Y139.417 E0.02690
G1 X187.039 Y139.786 F10800.000
G1 F1200.000
G1 X186.049 Y139.484 E0.03245
G1 X185.170 Y139.107 E0.02998
G1 X184.334 Y138.643 E0.02998
G1 X183.549 Y138.096 E0.02998
G1 X182.824 Y137.473 E0.02998
G1 X182.165 Y136.780 E0.02998
G1 X181.580 Y136.024 E0.02998
G1 X181.074 Y135.213 E0.02998
G1 X180.653 Y134.354 E0.02998
G1 X180.321 Y133.458 E0.02998
G1 X180.081 Y132.532 E0.02998
G1 X179.936 Y131.587 E0.02998
G1 X179.888 Y130.632 E0.02998
G1 X179.936 Y129.677 E0.02998
G1 X180.081 Y128.732 E0.02998
G1 X180.321 Y127.806 E0.02998
G1 X180.653 Y126.909 E0.02998
G1 X181.074 Y126.051 E0.02998
G1 X181.580 Y125.239 E0.02998
G1 X182.165 Y124.483 E0.02998
G1 X182.824 Y123.790 E0.02998
G1 X183.549 Y123.167 E0.02998
G1 X184.334 Y122.621 E0.02998
G1 X185.170 Y122.157 E0.02998
G1 X186.049 Y121.780 E0.02998
G1 X186.961 Y121.494 E0.02998
G1 X187.898 Y121.301 E0.02998
G1 X188.849 Y121.204 E0.02998
G1 X189.805 Y121.204 E0.02998
G1 X190.757 Y121.301 E0.02998
G1 X191.693 Y121.494 E0.02998
G1 X192.606 Y121.780 E0.02998
G1 X193.484 Y122.157 E0.02998
G1 X194.320 Y122.621 E0.02998
G1 X195.105 Y123.167 E0.02998
G1 X195.831 Y123.790 E0.02998
G1 X196.490 Y124.483 E0.02998
G1 X197.075 Y125.239 E0.02998
G1 X197.581 Y126.051 E0.02998
G1 X198.002 Y126.909 E0.02998
G1 X198.334 Y127.806 E0.02998
G1 X198.574 Y128.732 E0.02998
G1 X198.718 Y129.677 E0.02998
G1 X198.767 Y130.632 E0.02998
G1 X198.718 Y131.587 E0.02998
G1 X198.574 Y132.532 E0.02998
G1 X198.334 Y133.458 E0.02998
G1 X198.002 Y134.354 E0.02998
G1 X197.581 Y135.213 E0.02998
G1 X197.075 Y136.024 E0.02998
G1 X196.490 Y136.780 E0.02998
G1 X195.831 Y137.473 E0.02998
G1 X195.105 Y138.096 E0.02998
G1 X194.320 Y138.643 E0.02998
G1 X193.484 Y139.107 E0.02998
G1 X192.606 Y139.484 E0.02998
G1 X191.693 Y139.770 E0.02998
G1 X190.757 Y139.962 E0.02998
G1 X189.805 Y140.059 E0.02998
G1 X188.849 Y140.059 E0.02998
G1 X187.898 Y139.962 E0.02998
G1 X187.098 Y139.798 E0.02562
G1 X186.930 Y139.401 F10800.000
G1 E-0.80000 F2100.00000
G1 Z0.800 F10800.000
G1 X196.753 Y125.649
G1 Z0.200
G1 E0.80000 F2100.00000
G1 F1200.000
G1 X195.355 Y124.251 E0.06270
G1 X194.701 Y123.690 E0.02734
G1 X193.971 Y123.182 E0.02821
G1 X193.465 Y122.901 E0.01835
G1 X197.068 Y126.504 E0.16161
G1 X197.395 Y127.170 E0.02353
G1 X197.512 Y127.488 E0.01075
G1 X192.460 Y122.436 E0.22663
G1 X191.660 Y122.175 E0.02670
G1 X197.778 Y128.293 E0.27446
G1 X197.947 Y129.002 E0.02310
G1 X190.963 Y122.017 E0.31331
G1 X190.657 Y121.954 E0.00992
G1 X190.327 Y121.921 E0.01051
G1 X198.045 Y129.639 E0.34622
G1 X198.085 Y130.218 E0.01843
G1 X189.731 Y121.864 E0.37475
G1 X189.192 Y121.864 E0.01711
G1 X198.099 Y130.772 E0.39957
G1 X198.073 Y131.285 E0.01631
G1 X188.673 Y121.886 E0.42165
G1 X188.184 Y121.935 E0.01561
G1 X198.022 Y131.774 E0.44134
G1 X197.950 Y132.242 E0.01501
G1 X187.720 Y122.011 E0.45892
G1 X187.273 Y122.103 E0.01449
G1 X197.853 Y132.683 E0.47461
G1 X197.742 Y133.112 E0.01404
G1 X186.850 Y122.220 E0.48859
G1 X186.439 Y122.349 E0.01365
G1 X197.608 Y133.518 E0.50101
G1 X197.462 Y133.911 E0.01332
G1 X186.049 Y122.498 E0.51198
G1 X185.671 Y122.660 E0.01303
G1 X197.299 Y134.288 E0.52161
G1 X197.122 Y134.650 E0.01279
G1 X185.307 Y122.836 E0.52997
G1 X184.961 Y123.028 E0.01259
G1 X196.934 Y135.002 E0.53713
G1 X196.727 Y135.334 E0.01242
G1 X184.619 Y123.227 E0.54314
G1 X184.301 Y123.448 E0.01229
G1 X196.519 Y135.665 E0.54804
G1 X196.283 Y135.969 E0.01220
G1 X183.983 Y123.669 E0.55175
G1 X183.690 Y123.916 E0.01214
G1 X196.048 Y136.273 E0.55433
