; generated by PrusaSlicer 2.3.1+win64 on 2021-10-13 at 23:01:36 UTC

; 

; external perimeters extrusion width = 0.45mm
; perimeters extrusion width = 0.45mm
; infill extrusion width = 0.45mm
; solid infill extrusion width = 0.45mm
; top infill extrusion width = 0.40mm
; first layer extrusion width = 0.42mm

M73 P0 R76
M201 X9000 Y9000 Z500 E10000 ; sets maximum accelerations, mm/sec^2
M203 X500 Y500 Z12 E120 ; sets maximum feedrates, mm/sec
M204 P2000 R1500 T2000 ; sets acceleration (P, T) and retract acceleration (R), mm/sec^2
M205 X10.00 Y10.00 Z0.20 E2.50 ; sets the jerk limits, mm/sec
M205 S0 T0 ; sets the minimum extruding and travel feed rate, mm/sec
M107
;TYPE:Custom
M862.3 P "MK2S" ; printer model check
M862.1 P0.4 ; nozzle diameter check
M115 U3.2.3 ; tell printer latest fw version
G90 ; use absolute coordinates
M83 ; extruder relative mode
M204 S2000 T1500 ; MK2 firmware only supports the old M204 format
M104 S215 ; set extruder temp
M140 S60 ; set bed temp
M190 S60 ; wait for bed temp
M109 S215 ; wait for extruder temp
G28 W ; home all without mesh bed level
G80 ; mesh bed leveling
G1 Y-3.0 F1000.0 ; go outside print area
G92 E0.0
G1 X60.0 E9.0  F1000.0 ; intro line
G1 X100.0 E12.5 F1000.0 ; intro line
G92 E0.0
G21 ; set units to millimeters
G90 ; use absolute coordinates
M83 ; use relative distances for extrusion
M900 K0.05 ; Filament gcode LA 1.5
M900 K30 ; Filament gcode LA 1.0
;LAYER_CHANGE
;Z:0.2
;HEIGHT:0.2
;BEFORE_LAYER_CHANGE
G92 E0.0
;0.2


G1 E-0.80000 F2100.000
G1 Z0.600 F10800.000
;AFTER_LAYER_CHANGE
;0.2
G1 X160.635 Y116.176
G1 Z0.200
G1 E0.80000 F2100.000
M204 S1000
;TYPE:Perimeter
;WIDTH:0.42
G1 F1200.000
G1 X169.665 Y120.021 E0.30774
G1 X170.411 Y121.227 E0.04448
G1 X169.294 Y121.796 E0.03932
G1 X159.084 Y121.820 E0.32013
G1 X158.787 Y120.460 E0.04363
G1 X160.611 Y116.232 E0.14439
G1 E-0.80000 F2100.000
G1 Z0.800 F10800.000
G1 X161.067 Y121.438
G1 Z0.200
G1 E0.80000 F2100.000
;TYPE:External perimeter
G1 F1200.000
G1 X159.387 Y121.442 E0.05267
G1 X159.181 Y120.496 E0.03035
G1 X160.832 Y116.670 E0.13065
G1 X169.407 Y120.321 E0.29222
G1 X169.875 Y121.077 E0.02788
G1 X169.203 Y121.419 E0.02365
G1 X161.127 Y121.438 E0.25321
G1 X160.873 Y121.788 F10800.000
G1 X158.878 Y123.718
;TYPE:Perimeter
G1 F1200.000
G1 X146.823 Y124.301 E0.37843
G1 X147.768 Y121.898 E0.08098
G1 X156.040 Y121.831 E0.25940
G1 X158.782 Y115.505 E0.21618
G1 X156.562 Y114.321 E0.07888
G1 X157.138 Y112.892 E0.04828
G1 X162.150 Y114.952 E0.16992
G1 X169.296 Y118.083 E0.24462
G1 X169.811 Y117.401 E0.02678
G1 X169.973 Y117.468 E0.00547
G1 X169.869 Y118.236 E0.02429
G1 X175.725 Y120.737 E0.19964
G1 X174.762 Y122.886 E0.07383
G1 X169.792 Y123.120 E0.15603
G1 X169.242 Y124.096 E0.03511
G1 X169.074 Y124.053 E0.00544
G1 X169.065 Y123.226 E0.02593
G1 X158.938 Y123.715 E0.31789
G1 X158.786 Y124.100 F10800.000
;TYPE:External perimeter
G1 F1200.000
G1 X146.259 Y124.706 E0.39326
G1 X147.510 Y121.523 E0.10725
G1 X155.792 Y121.456 E0.25969
G1 X158.298 Y115.674 E0.19759
G1 X156.086 Y114.494 E0.07860
G1 X156.930 Y112.399 E0.07081
G1 X162.298 Y114.605 E0.18196
G1 X169.175 Y117.618 E0.23542
G1 X169.767 Y116.834 E0.03081
G1 X170.406 Y117.072 E0.02138
G1 X170.281 Y118.001 E0.02941
G1 X176.039 Y120.461 E0.19632
G1 X176.183 Y120.637 E0.00712
G1 X175.012 Y123.251 E0.08983
G1 X170.018 Y123.487 E0.15675
G1 X169.350 Y124.672 E0.04265
G1 X168.701 Y124.446 E0.02155
G1 X168.692 Y123.621 E0.02585
G1 X158.846 Y124.097 E0.30907
G1 X158.579 Y123.758 F10800.000
G1 X158.883 Y121.429
;TYPE:Solid infill
;WIDTH:0.420638
G1 F1200.000
G1 X157.236 Y119.783 E0.07314
G1 X157.398 Y119.410 E0.01276
G1 X158.512 Y120.524 E0.04949
G1 X158.492 Y120.433 E0.00292
G1 X158.629 Y120.107 E0.01111
G1 X157.559 Y119.037 E0.04752
G1 X157.721 Y118.665 E0.01276
G1 X158.790 Y119.734 E0.04751
G1 X158.951 Y119.361 E0.01276
G1 X157.882 Y118.292 E0.04749
G1 X158.044 Y117.919 E0.01276
G1 X159.112 Y118.988 E0.04747
G1 X159.274 Y118.615 E0.01276
G1 X158.205 Y117.547 E0.04745
G1 X158.367 Y117.174 E0.01276
G1 X159.435 Y118.242 E0.04743
G1 X159.596 Y117.869 E0.01276
G1 X158.528 Y116.801 E0.04742
G1 X158.690 Y116.429 E0.01276
G1 X159.757 Y117.496 E0.04740
G1 X159.918 Y117.123 E0.01276
G1 X158.851 Y116.056 E0.04738
G1 X159.013 Y115.683 E0.01276
G1 X160.208 Y116.879 E0.05310
G1 X156.808 Y114.013 F10800.000
G1 F1200.000
G1 X157.062 Y114.266 E0.01126
G1 X158.207 Y114.877 E0.04076
G1 X157.092 Y113.763 E0.04951
G1 X157.245 Y113.382 E0.01289
G1 X160.240 Y116.377 E0.13301
G1 X160.401 Y116.003 E0.01276
G1 X157.915 Y113.517 E0.11043
G1 X158.822 Y113.890 E0.03079
G1 X160.924 Y115.993 E0.09339
G1 X161.855 Y116.388 E0.03175
G1 X159.729 Y114.262 E0.09443
G1 X160.635 Y114.635 E0.03079
G1 X162.785 Y116.784 E0.09547
G1 X163.715 Y117.180 E0.03175
G1 X161.542 Y115.008 E0.09651
G1 X162.469 Y115.400 E0.03160
G1 X164.645 Y117.576 E0.09666
G1 X165.575 Y117.972 E0.03175
G1 X163.419 Y115.817 E0.09575
G1 X164.370 Y116.233 E0.03260
G1 X166.505 Y118.368 E0.09483
G1 X167.435 Y118.764 E0.03175
G1 X165.321 Y116.650 E0.09392
G1 X166.272 Y117.066 E0.03260
G1 X168.365 Y119.160 E0.09300
G1 X169.296 Y119.556 E0.03175
G1 X167.222 Y117.483 E0.09208
G1 X168.173 Y117.899 E0.03260
G1 X172.961 Y122.688 E0.21267
G1 X173.471 Y122.663 E0.01604
G1 X169.124 Y118.316 E0.19310
G1 X169.388 Y118.432 E0.00904
G1 X169.554 Y118.212 E0.00866
G1 X174.144 Y122.802 E0.20387
G1 X172.613 Y122.874 F10800.000
G1 F1200.000
G1 X170.382 Y120.643 E0.09910
G1 X170.813 Y121.340 E0.02575
G1 X170.636 Y121.430 E0.00626
G1 X171.941 Y122.736 E0.05798
G1 X171.431 Y122.760 E0.01604
G1 X170.282 Y121.611 E0.05104
G1 X169.928 Y121.791 E0.01248
G1 X170.921 Y122.784 E0.04411
G1 X170.411 Y122.808 E0.01604
G1 X169.574 Y121.971 E0.03717
G1 X169.362 Y122.079 E0.00747
G1 X169.148 Y122.079 E0.00672
G1 X169.901 Y122.832 E0.03343
G1 X169.622 Y122.845 E0.00876
G1 X169.535 Y123.000 E0.00559
G1 X168.615 Y122.081 E0.04085
G1 X168.082 Y122.082 E0.01674
G1 X168.949 Y122.948 E0.03849
G1 X168.439 Y122.973 E0.01602
G1 X167.549 Y122.083 E0.03952
G1 X167.016 Y122.084 E0.01674
G1 X167.929 Y122.998 E0.04056
G1 X167.420 Y123.022 E0.01602
G1 X166.483 Y122.086 E0.04160
G1 X165.950 Y122.087 E0.01674
G1 X166.910 Y123.047 E0.04264
G1 X166.401 Y123.071 E0.01602
G1 X165.417 Y122.088 E0.04368
G1 X164.884 Y122.089 E0.01674
G1 X165.891 Y123.096 E0.04472
G1 X165.382 Y123.121 E0.01602
G1 X164.352 Y122.090 E0.04576
G1 X163.819 Y122.092 E0.01674
G1 X164.872 Y123.145 E0.04680
G1 X164.363 Y123.170 E0.01602
G1 X163.286 Y122.093 E0.04784
G1 X162.753 Y122.094 E0.01674
G1 X163.853 Y123.195 E0.04888
G1 X163.344 Y123.219 E0.01602
G1 X162.220 Y122.095 E0.04992
G1 X161.687 Y122.097 E0.01674
G1 X162.834 Y123.244 E0.05096
G1 X162.325 Y123.269 E0.01602
G1 X161.154 Y122.098 E0.05200
G1 X160.621 Y122.099 E0.01674
G1 X161.815 Y123.293 E0.05304
G1 X161.306 Y123.318 E0.01602
G1 X160.088 Y122.100 E0.05408
G1 X159.555 Y122.102 E0.01674
G1 X160.796 Y123.343 E0.05512
G1 X160.286 Y123.367 E0.01602
G1 X157.075 Y120.155 E0.14266
G1 X156.913 Y120.528 E0.01276
G1 X159.777 Y123.392 E0.12720
G1 X159.267 Y123.416 E0.01602
G1 X156.752 Y120.901 E0.11174
G1 X156.590 Y121.273 E0.01276
G1 X158.758 Y123.441 E0.09628
G1 X158.248 Y123.466 E0.01602
G1 X156.429 Y121.646 E0.08082
G1 X156.267 Y122.019 E0.01276
G1 X157.739 Y123.490 E0.06536
G1 X157.229 Y123.515 E0.01602
G1 X155.830 Y122.116 E0.06216
G1 X155.300 Y122.120 E0.01664
G1 X156.720 Y123.540 E0.06306
G1 X156.210 Y123.564 E0.01602
G1 X154.770 Y122.124 E0.06397
G1 X154.240 Y122.128 E0.01664
G1 X155.701 Y123.589 E0.06487
G1 X155.191 Y123.614 E0.01602
G1 X153.710 Y122.133 E0.06578
G1 X153.180 Y122.137 E0.01664
G1 X154.682 Y123.638 E0.06668
G1 X154.172 Y123.663 E0.01602
G1 X152.650 Y122.141 E0.06759
G1 X152.121 Y122.145 E0.01664
G1 X153.663 Y123.687 E0.06849
G1 X153.153 Y123.712 E0.01602
G1 X151.591 Y122.150 E0.06940
G1 X151.061 Y122.154 E0.01664
G1 X152.643 Y123.737 E0.07030
G1 X152.134 Y123.761 E0.01602
G1 X150.531 Y122.158 E0.07121
G1 X150.001 Y122.163 E0.01664
G1 X151.624 Y123.786 E0.07211
G1 X151.115 Y123.811 E0.01602
G1 X149.471 Y122.167 E0.07301
G1 X148.941 Y122.171 E0.01664
G1 X150.605 Y123.835 E0.07392
G1 X150.096 Y123.860 E0.01602
G1 X148.411 Y122.175 E0.07482
G1 X147.961 Y122.179 E0.01414
G1 X147.938 Y122.237 E0.00194
G1 X149.586 Y123.885 E0.07320
G1 X149.077 Y123.909 E0.01602
G1 X147.788 Y122.620 E0.05726
G1 X147.637 Y123.003 E0.01294
G1 X148.567 Y123.934 E0.04132
G1 X148.058 Y123.959 E0.01602
G1 X147.486 Y123.387 E0.02539
G1 X147.335 Y123.770 E0.01294
G1 X147.710 Y124.145 E0.01665
G1 E-0.80000 F2100.000
G1 Z0.800 F10800.000
G1 X168.888 Y124.255
G1 Z0.200
G1 E0.80000 F2100.000
;TYPE:Gap fill
;WIDTH:0.179945
G1 F1200.000
G1 X169.299 Y124.379 E0.00490
G1 E-0.80000 F2100.000
G1 Z0.800 F10800.000
G1 X175.338 Y121.325
G1 Z0.200
G1 E0.80000 F2100.000
;TYPE:Solid infill
;WIDTH:0.420638
G1 F1200.000
G1 X174.559 Y120.546 E0.03459
G1 X173.626 Y120.148 E0.03185
G1 X175.044 Y121.565 E0.06296
G1 X174.879 Y121.934 E0.01270
G1 X172.694 Y119.749 E0.09704
G1 X171.762 Y119.351 E0.03185
G1 X174.713 Y122.303 E0.13111
G1 X174.575 Y122.611 E0.01061
G1 X174.491 Y122.615 E0.00264
G1 X170.507 Y118.631 E0.17697
G1 X170.189 Y117.272 F10800.000
;TYPE:Gap fill
;WIDTH:0.19009
G1 F1200.000
G1 X169.791 Y117.116 E0.00524
G1 E-0.80000 F2100.000
G1 Z0.800 F10800.000
G1 X158.023 Y100.794
G1 Z0.200
G1 E0.80000 F2100.000
;TYPE:Perimeter
;WIDTH:0.42
G1 F1200.000
G1 X156.089 Y100.799 E0.06063
G1 X155.793 Y99.439 E0.04363
G1 X157.640 Y95.155 E0.14627
G1 X166.671 Y99.000 E0.30774
G1 X167.417 Y100.206 E0.04448
G1 X166.299 Y100.775 E0.03932
G1 X158.083 Y100.794 E0.25762
G1 X158.060 Y100.417 F10800.000
;TYPE:External perimeter
G1 F1200.000
G1 X156.393 Y100.421 E0.05227
G1 X156.187 Y99.475 E0.03035
G1 X157.837 Y95.649 E0.13065
G1 X166.413 Y99.300 E0.29222
G1 X166.880 Y100.056 E0.02788
G1 X166.208 Y100.398 E0.02365
G1 X158.120 Y100.417 E0.25361
G1 X157.865 Y100.766 F10800.000
G1 X155.884 Y102.697
;TYPE:Perimeter
G1 F1200.000
G1 X143.828 Y103.280 E0.37843
G1 X144.773 Y100.877 E0.08098
G1 X153.046 Y100.810 E0.25940
G1 X155.787 Y94.484 E0.21618
G1 X153.568 Y93.299 E0.07888
G1 X154.143 Y91.871 E0.04828
G1 X159.156 Y93.931 E0.16992
G1 X166.302 Y97.062 E0.24462
G1 X166.817 Y96.380 E0.02678
G1 X166.978 Y96.447 E0.00547
G1 X166.875 Y97.214 E0.02429
G1 X172.730 Y99.715 E0.19964
G1 X171.768 Y101.864 E0.07383
G1 X166.797 Y102.099 E0.15603
G1 X166.248 Y103.075 E0.03511
G1 X166.079 Y103.032 E0.00544
G1 X166.070 Y102.205 E0.02593
G1 X155.943 Y102.694 E0.31789
G1 X155.792 Y103.079 F10800.000
;TYPE:External perimeter
G1 F1200.000
G1 X143.264 Y103.685 E0.39326
G1 X144.515 Y100.502 E0.10725
G1 X152.797 Y100.435 E0.25969
G1 X155.303 Y94.653 E0.19759
G1 X153.091 Y93.473 E0.07860
G1 X153.935 Y91.378 E0.07081
G1 X159.303 Y93.584 E0.18196
G1 X166.180 Y96.597 E0.23542
G1 X166.773 Y95.813 E0.03081
G1 X167.412 Y96.051 E0.02138
G1 X167.287 Y96.980 E0.02941
G1 X173.045 Y99.440 E0.19632
G1 X173.188 Y99.616 E0.00712
G1 X172.017 Y102.230 E0.08983
G1 X167.023 Y102.466 E0.15675
G1 X166.356 Y103.651 E0.04265
G1 X165.707 Y103.424 E0.02155
G1 X165.698 Y102.600 E0.02585
G1 X155.852 Y103.076 E0.30907
G1 X155.585 Y102.737 F10800.000
G1 X155.888 Y100.408
;TYPE:Solid infill
;WIDTH:0.420638
G1 F1200.000
G1 X154.242 Y98.762 E0.07314
G1 X154.403 Y98.389 E0.01276
G1 X155.517 Y99.503 E0.04949
G1 X155.497 Y99.412 E0.00292
G1 X155.635 Y99.086 E0.01111
G1 X154.565 Y98.016 E0.04752
G1 X154.726 Y97.644 E0.01276
G1 X155.796 Y98.713 E0.04751
G1 X155.957 Y98.340 E0.01276
G1 X154.888 Y97.271 E0.04749
G1 X155.049 Y96.898 E0.01276
G1 X156.118 Y97.967 E0.04747
G1 X156.279 Y97.594 E0.01276
G1 X155.211 Y96.526 E0.04745
G1 X155.372 Y96.153 E0.01276
G1 X156.440 Y97.221 E0.04743
G1 X156.601 Y96.848 E0.01276
G1 X155.534 Y95.780 E0.04742
G1 X155.695 Y95.408 E0.01276
G1 X156.762 Y96.475 E0.04740
G1 X156.923 Y96.102 E0.01276
G1 X155.857 Y95.035 E0.04738
G1 X156.018 Y94.662 E0.01276
G1 X157.214 Y95.858 E0.05310
G1 X153.814 Y92.992 F10800.000
G1 F1200.000
G1 X154.067 Y93.245 E0.01126
G1 X155.212 Y93.856 E0.04076
G1 X154.097 Y92.741 E0.04951
G1 X154.251 Y92.361 E0.01289
G1 X157.246 Y95.355 E0.13301
G1 X157.407 Y94.982 E0.01276
G1 X154.920 Y92.496 E0.11043
G1 X155.827 Y92.869 E0.03079
G1 X157.930 Y94.971 E0.09339
G1 X158.860 Y95.367 E0.03175
G1 X156.734 Y93.241 E0.09443
G1 X157.641 Y93.614 E0.03079
G1 X159.790 Y95.763 E0.09547
M73 P1 R76
G1 X160.720 Y96.159 E0.03175
G1 X158.547 Y93.986 E0.09651
G1 X159.474 Y94.379 E0.03160
G1 X161.650 Y96.555 E0.09666
G1 X162.580 Y96.951 E0.03175
G1 X160.425 Y94.795 E0.09575
G1 X161.376 Y95.212 E0.03260
G1 X163.511 Y97.347 E0.09483
G1 X164.441 Y97.743 E0.03175
G1 X162.326 Y95.629 E0.09392
G1 X163.277 Y96.045 E0.03260
G1 X165.371 Y98.139 E0.09300
G1 X166.301 Y98.535 E0.03175
G1 X164.228 Y96.462 E0.09208
G1 X165.179 Y96.878 E0.03260
G1 X169.967 Y101.666 E0.21267
M73 P1 R75
G1 X170.477 Y101.642 E0.01604
G1 X166.129 Y97.295 E0.19310
G1 X166.393 Y97.410 E0.00904
G1 X166.559 Y97.190 E0.00866
G1 X171.149 Y101.780 E0.20387
G1 X169.619 Y101.853 F10800.000
G1 F1200.000
G1 X167.388 Y99.622 E0.09910
G1 X167.819 Y100.319 E0.02575
G1 X167.641 Y100.409 E0.00626
G1 X168.946 Y101.715 E0.05798
G1 X168.436 Y101.739 E0.01604
G1 X167.287 Y100.589 E0.05104
G1 X166.933 Y100.770 E0.01248
G1 X167.926 Y101.763 E0.04411
G1 X167.416 Y101.787 E0.01604
G1 X166.579 Y100.950 E0.03717
G1 X166.367 Y101.058 E0.00747
G1 X166.153 Y101.058 E0.00672
G1 X166.906 Y101.811 E0.03343
G1 X166.627 Y101.824 E0.00876
G1 X166.540 Y101.979 E0.00559
G1 X165.620 Y101.059 E0.04085
G1 X165.087 Y101.061 E0.01674
G1 X165.954 Y101.927 E0.03849
G1 X165.444 Y101.952 E0.01602
G1 X164.555 Y101.062 E0.03952
G1 X164.022 Y101.063 E0.01674
G1 X164.935 Y101.976 E0.04056
G1 X164.425 Y102.001 E0.01602
G1 X163.489 Y101.064 E0.04160
G1 X162.956 Y101.066 E0.01674
G1 X163.916 Y102.026 E0.04264
G1 X163.406 Y102.050 E0.01602
G1 X162.423 Y101.067 E0.04368
G1 X161.890 Y101.068 E0.01674
G1 X162.897 Y102.075 E0.04472
G1 X162.387 Y102.100 E0.01602
G1 X161.357 Y101.069 E0.04576
G1 X160.824 Y101.071 E0.01674
G1 X161.878 Y102.124 E0.04680
G1 X161.368 Y102.149 E0.01602
G1 X160.291 Y101.072 E0.04784
G1 X159.758 Y101.073 E0.01674
G1 X160.859 Y102.174 E0.04888
G1 X160.349 Y102.198 E0.01602
G1 X159.225 Y101.074 E0.04992
G1 X158.692 Y101.075 E0.01674
G1 X159.840 Y102.223 E0.05096
G1 X159.330 Y102.247 E0.01602
G1 X158.159 Y101.077 E0.05200
G1 X157.626 Y101.078 E0.01674
G1 X158.820 Y102.272 E0.05304
G1 X158.311 Y102.297 E0.01602
G1 X157.093 Y101.079 E0.05408
G1 X156.560 Y101.080 E0.01674
G1 X157.801 Y102.321 E0.05512
G1 X157.292 Y102.346 E0.01602
G1 X154.080 Y99.134 E0.14266
G1 X153.919 Y99.507 E0.01276
G1 X156.782 Y102.371 E0.12720
G1 X156.273 Y102.395 E0.01602
G1 X153.757 Y99.880 E0.11174
G1 X153.596 Y100.252 E0.01276
G1 X155.763 Y102.420 E0.09628
G1 X155.254 Y102.445 E0.01602
G1 X153.434 Y100.625 E0.08082
G1 X153.273 Y100.998 E0.01276
G1 X154.744 Y102.469 E0.06536
G1 X154.235 Y102.494 E0.01602
G1 X152.835 Y101.094 E0.06216
G1 X152.305 Y101.099 E0.01664
G1 X153.725 Y102.519 E0.06306
G1 X153.216 Y102.543 E0.01602
G1 X151.775 Y101.103 E0.06397
G1 X151.246 Y101.107 E0.01664
G1 X152.706 Y102.568 E0.06487
G1 X152.197 Y102.592 E0.01602
G1 X150.716 Y101.112 E0.06578
G1 X150.186 Y101.116 E0.01664
G1 X151.687 Y102.617 E0.06668
G1 X151.177 Y102.642 E0.01602
G1 X149.656 Y101.120 E0.06759
G1 X149.126 Y101.124 E0.01664
G1 X150.668 Y102.666 E0.06849
G1 X150.158 Y102.691 E0.01602
G1 X148.596 Y101.129 E0.06940
G1 X148.066 Y101.133 E0.01664
G1 X149.649 Y102.716 E0.07030
G1 X149.139 Y102.740 E0.01602
G1 X147.536 Y101.137 E0.07121
G1 X147.006 Y101.141 E0.01664
G1 X148.630 Y102.765 E0.07211
G1 X148.120 Y102.790 E0.01602
G1 X146.476 Y101.146 E0.07301
G1 X145.946 Y101.150 E0.01664
G1 X147.611 Y102.814 E0.07392
G1 X147.101 Y102.839 E0.01602
G1 X145.417 Y101.154 E0.07482
G1 X144.966 Y101.158 E0.01414
G1 X144.944 Y101.215 E0.00194
G1 X146.592 Y102.863 E0.07320
G1 X146.082 Y102.888 E0.01602
G1 X144.793 Y101.599 E0.05726
G1 X144.642 Y101.982 E0.01294
G1 X145.573 Y102.913 E0.04132
G1 X145.063 Y102.937 E0.01602
G1 X144.491 Y102.366 E0.02539
