; generated by PrusaSlicer 2.2.0+win64 on 2020-11-18 at 22:42:07 UTC

; 

; external perimeters extrusion width = 0.60mm
; perimeters extrusion width = 0.43mm
; infill extrusion width = 0.45mm
; solid infill extrusion width = 0.70mm
; top infill extrusion width = 0.43mm
; first layer extrusion width = 0.42mm

M73 P0 R18
M201 X9000 Y9000 Z500 E10000 ; sets maximum accelerations, mm/sec^2
M203 X500 Y500 Z12 E120 ; sets maximum feedrates, mm/sec
M204 P2000 R1500 T2000 ; sets acceleration (P, T) and retract acceleration (R), mm/sec^2
M205 X10.00 Y10.00 Z0.20 E2.50 ; sets the jerk limits, mm/sec
M205 S0 T0 ; sets the minimum extruding and travel feed rate, mm/sec
M107
M862.3 P "MK2S" ; printer model check
M862.1 P0.4 ; nozzle diameter check
M115 U3.2.3 ; tell printer latest fw version
G90 ; use absolute coordinates
M83 ; extruder relative mode
M204 S2000 T1500 ; MK2 firmware only supports the old M204 format
M104 S215 ; set extruder temp
M140 S60 ; set bed temp
M190 S60 ; wait for bed temp
M109 S215 ; wait for extruder temp
G28 W ; home all without mesh bed level
G80 ; mesh bed leveling
G1 Y-3.0 F1000.0 ; go outside print area
G92 E0.0
G1 X60.0 E9.0  F1000.0 ; intro line
M73 P0 R18
G1 X100.0 E12.5 F1000.0 ; intro line
G92 E0.0
G21 ; set units to millimeters
G90 ; use absolute coordinates
M83 ; use relative distances for extrusion
M900 K0.05 ; Filament gcode LA 1.5
M900 K30 ; Filament gcode LA 1.0
;BEFORE_LAYER_CHANGE
G92 E0.0
;0.2


G1 E-0.80000 F2100.00000
G1 Z0.600 F10800.000
;AFTER_LAYER_CHANGE
;0.2
G1 X90.000 Y82.500
G1 Z0.200
G1 E0.80000 F2100.00000
M204 S1000
G1 F1200.000
G1 X90.841 Y81.616 E0.03824
G1 X91.697 Y80.876 E0.03549
G1 X92.855 Y80.065 E0.04431
G1 X132.399 Y57.317 E1.43038
G1 X133.605 Y56.795 E0.04122
G1 X134.883 Y56.402 E0.04193
G1 X136.114 Y56.161 E0.03933
G1 X137.229 Y56.051 E0.03511
G1 X138.349 Y56.048 E0.03513
G1 X139.684 Y56.174 E0.04205
G1 X140.898 Y56.422 E0.03884
G1 X142.091 Y56.796 E0.03919
G1 X143.229 Y57.284 E0.03884
G1 X144.315 Y57.887 E0.03895
G1 X145.341 Y58.602 E0.03919
G1 X146.280 Y59.409 E0.03884
G1 X147.195 Y60.385 E0.04193
G1 X147.885 Y61.282 E0.03549
G1 X148.508 Y62.277 E0.03681
G1 X161.405 Y84.511 E0.80592
G1 X161.971 Y85.660 E0.04017
G1 X162.429 Y86.925 E0.04217
G1 X162.708 Y88.014 E0.03525
G1 X162.881 Y89.125 E0.03525
G1 X162.958 Y90.452 E0.04169
G1 X162.958 Y141.757 E1.60860
G1 X162.895 Y142.976 E0.03828
G1 X162.706 Y144.208 E0.03907
G1 X162.395 Y145.406 E0.03883
G1 X161.943 Y146.613 E0.04038
G1 X161.363 Y147.771 E0.04062
G1 X160.766 Y148.724 E0.03525
G1 X160.075 Y149.621 E0.03549
G1 X159.154 Y150.601 E0.04217
G1 X158.122 Y151.475 E0.04241
G1 X157.197 Y152.115 E0.03525
G1 X156.212 Y152.665 E0.03537
G1 X154.976 Y153.204 E0.04229
G1 X153.687 Y153.600 E0.04229
G1 X152.581 Y153.824 E0.03537
G1 X151.444 Y153.942 E0.03585
G1 X98.721 Y153.951 E1.65310
G1 X97.427 Y153.825 E0.04074
G1 X96.218 Y153.578 E0.03872
G1 X95.028 Y153.206 E0.03907
G1 X93.938 Y152.741 E0.03716
G1 X92.797 Y152.111 E0.04086
G1 X91.695 Y151.333 E0.04229
G1 X90.844 Y150.599 E0.03525
G1 X90.067 Y149.786 E0.03525
G1 X89.235 Y148.724 E0.04229
G1 X88.526 Y147.572 E0.04241
G1 X88.032 Y146.558 E0.03537
G1 X87.640 Y145.508 E0.03513
G1 X87.294 Y144.209 E0.04217
G1 X87.102 Y142.943 E0.04015
G1 X87.042 Y141.740 E0.03776
G1 X87.042 Y90.436 E1.60860
G1 X87.105 Y89.232 E0.03781
G1 X87.294 Y88.004 E0.03895
G1 X87.604 Y86.808 E0.03872
G1 X88.057 Y85.598 E0.04050
G1 X88.577 Y84.542 E0.03693
G1 X89.171 Y83.583 E0.03537
G1 X89.964 Y82.547 E0.04088
G1 E-0.80000 F2100.00000
G1 Z0.800 F10800.000
G1 X144.488 Y135.169
G1 Z0.200
G1 E0.80000 F2100.00000
G1 F1200.000
G1 X145.184 Y134.572 E0.02878
G1 X145.938 Y134.047 E0.02878
G1 X146.740 Y133.602 E0.02878
G1 X147.584 Y133.240 E0.02878
G1 X148.460 Y132.965 E0.02878
G1 X149.359 Y132.780 E0.02878
G1 X150.272 Y132.687 E0.02878
G1 X151.190 Y132.687 E0.02878
G1 X152.103 Y132.780 E0.02878
G1 X153.002 Y132.965 E0.02878
G1 X153.878 Y133.240 E0.02878
G1 X154.722 Y133.602 E0.02878
G1 X155.524 Y134.047 E0.02878
G1 X156.278 Y134.572 E0.02878
G1 X156.974 Y135.169 E0.02878
G1 X157.607 Y135.835 E0.02878
G1 X158.169 Y136.561 E0.02878
G1 X158.654 Y137.340 E0.02878
G1 X159.058 Y138.164 E0.02878
G1 X159.377 Y139.025 E0.02878
G1 X159.607 Y139.913 E0.02878
G1 X159.746 Y140.821 E0.02878
G1 X159.793 Y141.737 E0.02878
G1 X159.746 Y142.654 E0.02878
G1 X159.607 Y143.562 E0.02878
G1 X159.377 Y144.450 E0.02878
G1 X159.058 Y145.311 E0.02878
G1 X158.654 Y146.135 E0.02878
G1 X158.169 Y146.914 E0.02878
G1 X157.607 Y147.640 E0.02878
G1 X156.974 Y148.305 E0.02878
G1 X156.278 Y148.903 E0.02878
G1 X155.524 Y149.428 E0.02878
G1 X154.722 Y149.873 E0.02878
G1 X153.878 Y150.235 E0.02878
G1 X153.002 Y150.510 E0.02878
G1 X152.103 Y150.695 E0.02878
G1 X151.190 Y150.788 E0.02878
G1 X150.272 Y150.788 E0.02878
G1 X149.359 Y150.695 E0.02878
G1 X148.460 Y150.510 E0.02878
G1 X147.584 Y150.235 E0.02878
G1 X146.740 Y149.873 E0.02878
G1 X145.938 Y149.428 E0.02878
G1 X145.184 Y148.903 E0.02878
G1 X144.488 Y148.305 E0.02878
G1 X143.855 Y147.640 E0.02878
G1 X143.293 Y146.914 E0.02878
G1 X142.808 Y146.135 E0.02878
G1 X142.403 Y145.311 E0.02878
G1 X142.085 Y144.450 E0.02878
G1 X141.855 Y143.562 E0.02878
G1 X141.716 Y142.654 E0.02878
G1 X141.669 Y141.737 E0.02878
G1 X141.716 Y140.821 E0.02878
G1 X141.855 Y139.913 E0.02878
G1 X142.085 Y139.025 E0.02878
G1 X142.403 Y138.164 E0.02878
G1 X142.808 Y137.340 E0.02878
G1 X143.293 Y136.561 E0.02878
G1 X143.855 Y135.835 E0.02878
G1 X144.446 Y135.213 E0.02690
G1 X144.173 Y134.953 F10800.000
G1 F1200.000
G1 X144.953 Y134.273 E0.03245
G1 X145.738 Y133.727 E0.02998
G1 X146.574 Y133.263 E0.02998
G1 X147.453 Y132.886 E0.02998
G1 X148.365 Y132.599 E0.02998
G1 X149.302 Y132.407 E0.02998
G1 X150.253 Y132.310 E0.02998
G1 X151.209 Y132.310 E0.02998
G1 X152.160 Y132.407 E0.02998
G1 X153.097 Y132.599 E0.02998
G1 X154.009 Y132.886 E0.02998
G1 X154.888 Y133.263 E0.02998
G1 X155.724 Y133.727 E0.02998
G1 X156.509 Y134.273 E0.02998
G1 X157.234 Y134.896 E0.02998
G1 X157.893 Y135.589 E0.02998
G1 X158.479 Y136.345 E0.02998
G1 X158.984 Y137.156 E0.02998
G1 X159.405 Y138.015 E0.02998
G1 X159.738 Y138.912 E0.02998
G1 X159.977 Y139.837 E0.02998
G1 X160.122 Y140.783 E0.02998
G1 X160.170 Y141.737 E0.02998
G1 X160.122 Y142.692 E0.02998
G1 X159.977 Y143.638 E0.02998
G1 X159.738 Y144.563 E0.02998
G1 X159.405 Y145.460 E0.02998
G1 X158.984 Y146.318 E0.02998
G1 X158.479 Y147.130 E0.02998
G1 X157.893 Y147.886 E0.02998
G1 X157.234 Y148.579 E0.02998
G1 X156.509 Y149.202 E0.02998
G1 X155.724 Y149.748 E0.02998
G1 X154.888 Y150.212 E0.02998
G1 X154.009 Y150.589 E0.02998
G1 X153.097 Y150.876 E0.02998
G1 X152.160 Y151.068 E0.02998
G1 X151.209 Y151.165 E0.02998
G1 X150.253 Y151.165 E0.02998
G1 X149.302 Y151.068 E0.02998
G1 X148.365 Y150.876 E0.02998
G1 X147.453 Y150.589 E0.02998
G1 X146.574 Y150.212 E0.02998
G1 X145.738 Y149.748 E0.02998
G1 X144.953 Y149.202 E0.02998
G1 X144.227 Y148.579 E0.02998
G1 X143.569 Y147.886 E0.02998
G1 X142.983 Y147.130 E0.02998
G1 X142.478 Y146.318 E0.02998
G1 X142.056 Y145.460 E0.02998
G1 X141.724 Y144.563 E0.02998
G1 X141.485 Y143.638 E0.02998
G1 X141.340 Y142.692 E0.02998
G1 X141.291 Y141.737 E0.02998
G1 X141.340 Y140.783 E0.02998
G1 X141.485 Y139.837 E0.02998
G1 X141.724 Y138.912 E0.02998
G1 X142.056 Y138.015 E0.02998
G1 X142.478 Y137.156 E0.02998
G1 X142.983 Y136.345 E0.02998
G1 X143.569 Y135.589 E0.02998
G1 X144.132 Y134.997 E0.02562
G1 X144.557 Y135.064 F10800.000
G1 E-0.80000 F2100.00000
G1 Z0.800 F10800.000
G1 X158.156 Y136.755
G1 Z0.200
G1 E0.80000 F2100.00000
G1 F1200.000
G1 X156.759 Y135.357 E0.06270
G1 X156.104 Y134.795 E0.02734
G1 X155.375 Y134.287 E0.02821
G1 X154.869 Y134.007 E0.01835
G1 X158.471 Y137.609 E0.16161
G1 X158.798 Y138.276 E0.02353
G1 X158.916 Y138.593 E0.01075
G1 X153.864 Y133.541 E0.22663
G1 X153.064 Y133.280 E0.02670
G1 X159.182 Y139.399 E0.27446
G1 X159.351 Y140.107 E0.02310
G1 X152.367 Y133.123 E0.31331
G1 X152.060 Y133.060 E0.00992
G1 X151.731 Y133.026 E0.01051
G1 X159.449 Y140.744 E0.34622
G1 X159.489 Y141.324 E0.01843
G1 X151.135 Y132.970 E0.37475
G1 X150.595 Y132.970 E0.01711
G1 X159.503 Y141.877 E0.39957
G1 X159.477 Y142.391 E0.01631
G1 X150.077 Y132.991 E0.42165
G1 X149.587 Y133.041 E0.01561
G1 X159.426 Y142.880 E0.44134
G1 X159.354 Y143.347 E0.01501
G1 X149.124 Y133.117 E0.45892
G1 X148.676 Y133.209 E0.01449
G1 X159.256 Y143.789 E0.47461
G1 X159.145 Y144.218 E0.01404
G1 X148.254 Y133.326 E0.48859
G1 X147.843 Y133.455 E0.01365
G1 X159.012 Y144.623 E0.50101
G1 X158.866 Y145.017 E0.01332
G1 X147.452 Y133.604 E0.51198
G1 X147.075 Y133.766 E0.01303
G1 X158.703 Y145.394 E0.52161
G1 X158.525 Y145.756 E0.01279
G1 X146.711 Y133.941 E0.52997
G1 X146.364 Y134.134 E0.01259
G1 X158.338 Y146.108 E0.53713
G1 X158.131 Y146.440 E0.01242
G1 X146.023 Y134.332 E0.54314
G1 X145.705 Y134.554 E0.01229
G1 X157.922 Y146.771 E0.54804
G1 X157.687 Y147.075 E0.01220
G1 X145.387 Y134.775 E0.55175
G1 X145.094 Y135.022 E0.01214
G1 X157.451 Y147.379 E0.55433
G1 X157.195 Y147.662 E0.01212
G1 X144.804 Y135.271 E0.55587
G1 X144.529 Y135.536 E0.01210
G1 X156.932 Y147.939 E0.55638
G1 X156.658 Y148.204 E0.01210
G1 X144.266 Y135.813 E0.55587
G1 X144.011 Y136.096 E0.01212
G1 X156.368 Y148.453 E0.55433
G1 X156.075 Y148.700 E0.01214
G1 X143.775 Y136.400 E0.55175
G1 X143.540 Y136.704 E0.01220
G1 X155.757 Y148.921 E0.54804
G1 X155.439 Y149.143 E0.01229
G1 X143.331 Y137.035 E0.54314
G1 X143.124 Y137.367 E0.01242
G1 X155.098 Y149.341 E0.53713
G1 X154.751 Y149.534 E0.01259
G1 X142.936 Y137.719 E0.52997
G1 X142.759 Y138.081 E0.01279
G1 X154.387 Y149.709 E0.52161
G1 X154.009 Y149.871 E0.01303
G1 X142.596 Y138.458 E0.51198
G1 X142.450 Y138.852 E0.01332
G1 X153.619 Y150.020 E0.50101
G1 X153.208 Y150.149 E0.01365
G1 X142.316 Y139.257 E0.48859
G1 X142.206 Y139.686 E0.01404
G1 X152.786 Y150.266 E0.47460
G1 X152.338 Y150.358 E0.01449
G1 X142.108 Y140.128 E0.45891
G1 X142.036 Y140.596 E0.01501
G1 X151.874 Y150.434 E0.44133
G1 X151.385 Y150.484 E0.01561
G1 X141.985 Y141.084 E0.42165
G1 X141.959 Y141.598 E0.01631
G1 X150.867 Y150.505 E0.39957
G1 X150.327 Y150.505 E0.01711
G1 X141.973 Y142.151 E0.37474
G1 X142.013 Y142.731 E0.01843
G1 X149.731 Y150.449 E0.34621
G1 X149.402 Y150.415 E0.01051
G1 X149.095 Y150.352 E0.00992
G1 X142.111 Y143.368 E0.31330
G1 X142.280 Y144.076 E0.02310
G1 X148.398 Y150.194 E0.27446
G1 X147.598 Y149.934 E0.02670
G1 X142.546 Y144.882 E0.22662
G1 X142.664 Y145.199 E0.01074
G1 X142.991 Y145.866 E0.02354
G1 X146.593 Y149.468 E0.16159
G1 X146.087 Y149.188 E0.01834
G1 X145.357 Y148.679 E0.02821
G1 X144.703 Y148.117 E0.02738
G1 X143.306 Y146.721 E0.06266
G1 E-0.80000 F2100.00000
G1 Z0.800 F10800.000
G1 X148.460 Y124.878
G1 Z0.200
G1 E0.80000 F2100.00000
G1 F1200.000
G1 X147.584 Y124.603 E0.02878
G1 X146.740 Y124.241 E0.02878
G1 X145.938 Y123.796 E0.02878
G1 X145.184 Y123.272 E0.02878
G1 X144.488 Y122.674 E0.02878
G1 X143.855 Y122.008 E0.02878
G1 X143.293 Y121.282 E0.02878
G1 X142.808 Y120.503 E0.02878
G1 X142.403 Y119.679 E0.02878
G1 X142.085 Y118.818 E0.02878
G1 X141.855 Y117.930 E0.02878
G1 X141.716 Y117.022 E0.02878
G1 X141.669 Y116.106 E0.02878
G1 X141.716 Y115.189 E0.02878
G1 X141.855 Y114.282 E0.02878
G1 X142.085 Y113.393 E0.02878
M73 P5 R17
G1 X142.403 Y112.532 E0.02878
G1 X142.808 Y111.708 E0.02878
G1 X143.293 Y110.929 E0.02878
G1 X143.855 Y110.203 E0.02878
G1 X144.488 Y109.538 E0.02878
G1 X145.184 Y108.940 E0.02878
G1 X145.938 Y108.415 E0.02878
G1 X146.740 Y107.970 E0.02878
G1 X147.584 Y107.608 E0.02878
G1 X148.460 Y107.333 E0.02878
G1 X149.359 Y107.148 E0.02878
G1 X150.272 Y107.055 E0.02878
G1 X151.190 Y107.055 E0.02878
G1 X152.103 Y107.148 E0.02878
G1 X153.002 Y107.333 E0.02878
G1 X153.878 Y107.608 E0.02878
G1 X154.722 Y107.970 E0.02878
G1 X155.524 Y108.415 E0.02878
G1 X156.278 Y108.940 E0.02878
G1 X156.974 Y109.538 E0.02878
G1 X157.607 Y110.203 E0.02878
G1 X158.169 Y110.929 E0.02878
G1 X158.654 Y111.708 E0.02878
G1 X159.058 Y112.532 E0.02878
G1 X159.377 Y113.393 E0.02878
G1 X159.607 Y114.282 E0.02878
G1 X159.746 Y115.189 E0.02878
G1 X159.793 Y116.106 E0.02878
G1 X159.746 Y117.022 E0.02878
G1 X159.607 Y117.930 E0.02878
G1 X159.377 Y118.818 E0.02878
G1 X159.058 Y119.679 E0.02878
G1 X158.654 Y120.503 E0.02878
G1 X158.169 Y121.282 E0.02878
G1 X157.607 Y122.008 E0.02878
G1 X156.974 Y122.674 E0.02878
G1 X156.278 Y123.272 E0.02878
G1 X155.524 Y123.796 E0.02878
G1 X154.722 Y124.241 E0.02878
G1 X153.878 Y124.603 E0.02878
G1 X153.002 Y124.878 E0.02878
G1 X152.103 Y125.063 E0.02878
G1 X151.190 Y125.156 E0.02878
G1 X150.272 Y125.156 E0.02878
G1 X149.359 Y125.063 E0.02878
G1 X148.518 Y124.890 E0.02690
G1 X148.442 Y125.260 F10800.000
G1 F1200.000
G1 X147.453 Y124.958 E0.03245
G1 X146.574 Y124.580 E0.02998
G1 X145.738 Y124.116 E0.02998
G1 X144.953 Y123.570 E0.02998
G1 X144.227 Y122.947 E0.02998
G1 X143.569 Y122.254 E0.02998
G1 X142.983 Y121.498 E0.02998
G1 X142.478 Y120.687 E0.02998
G1 X142.056 Y119.828 E0.02998
G1 X141.724 Y118.931 E0.02998
G1 X141.485 Y118.006 E0.02998
G1 X141.340 Y117.061 E0.02998
G1 X141.291 Y116.106 E0.02998
G1 X141.340 Y115.151 E0.02998
G1 X141.485 Y114.206 E0.02998
G1 X141.724 Y113.280 E0.02998
G1 X142.056 Y112.383 E0.02998
G1 X142.478 Y111.525 E0.02998
G1 X142.983 Y110.713 E0.02998
G1 X143.569 Y109.957 E0.02998
G1 X144.227 Y109.264 E0.02998
G1 X144.953 Y108.641 E0.02998
G1 X145.738 Y108.095 E0.02998
G1 X146.574 Y107.631 E0.02998
G1 X147.453 Y107.254 E0.02998
G1 X148.365 Y106.968 E0.02998
G1 X149.302 Y106.775 E0.02998
G1 X150.253 Y106.678 E0.02998
G1 X151.209 Y106.678 E0.02998
G1 X152.160 Y106.775 E0.02998
G1 X153.097 Y106.968 E0.02998
G1 X154.009 Y107.254 E0.02998
G1 X154.888 Y107.631 E0.02998
G1 X155.724 Y108.095 E0.02998
G1 X156.509 Y108.641 E0.02998
G1 X157.234 Y109.264 E0.02998
G1 X157.893 Y109.957 E0.02998
G1 X158.479 Y110.713 E0.02998
G1 X158.984 Y111.525 E0.02998
G1 X159.405 Y112.383 E0.02998
G1 X159.738 Y113.280 E0.02998
G1 X159.977 Y114.206 E0.02998
G1 X160.122 Y115.151 E0.02998
G1 X160.170 Y116.106 E0.02998
G1 X160.122 Y117.061 E0.02998
G1 X159.977 Y118.006 E0.02998
G1 X159.738 Y118.931 E0.02998
G1 X159.405 Y119.828 E0.02998
G1 X158.984 Y120.687 E0.02998
G1 X158.479 Y121.498 E0.02998
G1 X157.893 Y122.254 E0.02998
G1 X157.234 Y122.947 E0.02998
G1 X156.509 Y123.570 E0.02998
G1 X155.724 Y124.116 E0.02998
G1 X154.888 Y124.580 E0.02998
G1 X154.009 Y124.958 E0.02998
G1 X153.097 Y125.244 E0.02998
G1 X152.160 Y125.436 E0.02998
G1 X151.209 Y125.533 E0.02998
G1 X150.253 Y125.533 E0.02998
G1 X149.302 Y125.436 E0.02998
G1 X148.501 Y125.272 E0.02562
G1 X148.333 Y124.875 F10800.000
G1 E-0.80000 F2100.00000
G1 Z0.800 F10800.000
G1 X158.156 Y111.123
G1 Z0.200
G1 E0.80000 F2100.00000
G1 F1200.000
G1 X156.759 Y109.725 E0.06270
G1 X156.104 Y109.164 E0.02734
G1 X155.375 Y108.656 E0.02821
G1 X154.869 Y108.375 E0.01835
G1 X158.471 Y111.978 E0.16161
G1 X158.798 Y112.644 E0.02353
G1 X158.916 Y112.962 E0.01075
G1 X153.864 Y107.909 E0.22663
G1 X153.064 Y107.649 E0.02670
G1 X159.182 Y113.767 E0.27446
G1 X159.351 Y114.476 E0.02310
G1 X152.367 Y107.491 E0.31331
G1 X152.060 Y107.428 E0.00992
G1 X151.731 Y107.395 E0.01051
G1 X159.449 Y115.113 E0.34622
G1 X159.489 Y115.692 E0.01843
G1 X151.135 Y107.338 E0.37475
G1 X150.595 Y107.338 E0.01711
G1 X159.503 Y116.246 E0.39957
G1 X159.477 Y116.759 E0.01631
G1 X150.077 Y107.359 E0.42165
G1 X149.587 Y107.409 E0.01561
G1 X159.426 Y117.248 E0.44134
G1 X159.354 Y117.716 E0.01501
G1 X149.124 Y107.485 E0.45892
G1 X148.676 Y107.577 E0.01449
G1 X159.256 Y118.157 E0.47461
G1 X159.145 Y118.586 E0.01404
G1 X148.254 Y107.694 E0.48859
G1 X147.843 Y107.823 E0.01365
G1 X159.012 Y118.992 E0.50101
G1 X158.866 Y119.385 E0.01332
G1 X147.452 Y107.972 E0.51198
G1 X147.075 Y108.134 E0.01303
G1 X158.703 Y119.762 E0.52161
G1 X158.525 Y120.124 E0.01279
G1 X146.711 Y108.309 E0.52997
G1 X146.364 Y108.502 E0.01259
G1 X158.338 Y120.476 E0.53713
G1 X158.131 Y120.808 E0.01242
G1 X146.023 Y108.700 E0.54314
G1 X145.705 Y108.922 E0.01229
G1 X157.922 Y121.139 E0.54804
G1 X157.687 Y121.443 E0.01220
G1 X145.387 Y109.143 E0.55175
G1 X145.094 Y109.390 E0.01214
G1 X157.451 Y121.747 E0.55433
