; generated by PrusaSlicer 2.2.0+win64 on 2020-11-04 at 17:27:09 UTC

; 

; external perimeters extrusion width = 0.60mm
; perimeters extrusion width = 0.43mm
; infill extrusion width = 0.45mm
; solid infill extrusion width = 0.70mm
; top infill extrusion width = 0.43mm
; first layer extrusion width = 0.42mm

M73 P0 R71
M201 X9000 Y9000 Z500 E10000 ; sets maximum accelerations, mm/sec^2
M203 X500 Y500 Z12 E120 ; sets maximum feedrates, mm/sec
M204 P2000 R1500 T2000 ; sets acceleration (P, T) and retract acceleration (R), mm/sec^2
M205 X10.00 Y10.00 Z0.20 E2.50 ; sets the jerk limits, mm/sec
M205 S0 T0 ; sets the minimum extruding and travel feed rate, mm/sec
M107
M862.3 P "MK2S" ; printer model check
M862.1 P0.4 ; nozzle diameter check
M115 U3.2.3 ; tell printer latest fw version
G90 ; use absolute coordinates
M83 ; extruder relative mode
M204 S2000 T1500 ; MK2 firmware only supports the old M204 format
M104 S215 ; set extruder temp
M140 S60 ; set bed temp
M190 S60 ; wait for bed temp
M109 S215 ; wait for extruder temp
G28 W ; home all without mesh bed level
G80 ; mesh bed leveling
G1 Y-3.0 F1000.0 ; go outside print area
G92 E0.0
G1 X60.0 E9.0  F1000.0 ; intro line
M73 P0 R71
G1 X100.0 E12.5 F1000.0 ; intro line
G92 E0.0
G21 ; set units to millimeters
G90 ; use absolute coordinates
M83 ; use relative distances for extrusion
M900 K0.05 ; Filament gcode LA 1.5
M900 K30 ; Filament gcode LA 1.0
;BEFORE_LAYER_CHANGE
G92 E0.0
;0.2


G1 E-0.80000 F2100.00000
G1 Z0.600 F10800.000
;AFTER_LAYER_CHANGE
;0.2
G1 X77.348 Y172.321
G1 Z0.200
G1 E0.80000 F2100.00000
M204 S1000
G1 F1200.000
G1 X76.767 Y171.652 E0.02778
G1 X58.680 Y139.486 E1.15704
G1 X58.294 Y138.645 E0.02902
G1 X57.924 Y137.315 E0.04329
G1 X57.819 Y136.329 E0.03109
G1 X57.819 Y57.467 E2.47267
G1 X57.907 Y56.579 E0.02799
G1 X58.106 Y55.712 E0.02787
G1 X58.603 Y54.465 E0.04210
G1 X59.049 Y53.705 E0.02763
G1 X60.015 Y52.554 E0.04710
G1 X75.765 Y36.829 E0.69785
G1 X77.094 Y35.840 E0.05192
G1 X77.807 Y35.478 E0.02508
G1 X79.052 Y35.059 E0.04119
G1 X80.712 Y34.861 E0.05243
G1 X127.778 Y34.861 E1.47572
G1 X129.447 Y35.059 E0.05269
G1 X130.701 Y35.482 E0.04150
G1 X131.455 Y35.868 E0.02656
G1 X150.592 Y47.928 E0.70923
G1 X177.226 Y69.994 E1.08446
G1 X177.782 Y70.558 E0.02483
G1 X178.297 Y71.258 E0.02724
G1 X191.310 Y92.855 E0.79059
G1 X191.920 Y94.180 E0.04574
G1 X192.134 Y95.093 E0.02938
G1 X192.199 Y95.952 E0.02701
G1 X192.162 Y151.571 E1.74391
G1 X191.864 Y152.374 E0.02684
G1 X178.840 Y173.990 E0.79129
G1 X178.312 Y174.586 E0.02496
G1 X177.617 Y174.974 E0.02496
G1 X176.836 Y175.111 E0.02484
G1 X156.768 Y175.110 E0.62922
G1 X78.748 Y172.832 E2.44730
G1 X78.130 Y172.730 E0.01965
G1 X77.401 Y172.349 E0.02578
G1 E-0.80000 F2100.00000
G1 Z0.800 F10800.000
G1 X183.609 Y150.371
G1 Z0.200
G1 E0.80000 F2100.00000
G1 F1200.000
G1 X183.609 Y139.141 E0.35210
G1 X183.638 Y138.727 E0.01301
G1 X183.720 Y138.349 E0.01213
G1 X183.856 Y137.987 E0.01213
G1 X184.041 Y137.647 E0.01213
G1 X184.273 Y137.338 E0.01213
G1 X184.546 Y137.064 E0.01213
G1 X184.856 Y136.833 E0.01213
G1 X185.195 Y136.647 E0.01213
G1 X185.558 Y136.512 E0.01213
G1 X185.936 Y136.430 E0.01213
G1 X186.322 Y136.402 E0.01213
G1 X186.707 Y136.430 E0.01213
G1 X187.085 Y136.512 E0.01213
G1 X187.448 Y136.647 E0.01213
G1 X187.787 Y136.833 E0.01213
G1 X188.097 Y137.064 E0.01213
G1 X188.370 Y137.338 E0.01213
G1 X188.602 Y137.647 E0.01213
G1 X188.788 Y137.987 E0.01213
G1 X188.923 Y138.349 E0.01213
G1 X189.005 Y138.727 E0.01213
G1 X189.035 Y139.141 E0.01301
G1 X189.035 Y150.371 E0.35210
G1 X183.669 Y150.371 E0.16824
G1 X183.232 Y150.748 F10800.000
G1 F1200.000
G1 X183.232 Y139.128 E0.36435
G1 X183.264 Y138.673 E0.01428
G1 X183.358 Y138.243 E0.01382
G1 X183.512 Y137.830 E0.01382
G1 X183.723 Y137.443 E0.01382
G1 X183.987 Y137.090 E0.01382
G1 X184.299 Y136.779 E0.01382
G1 X184.652 Y136.514 E0.01382
G1 X185.038 Y136.303 E0.01382
G1 X185.451 Y136.149 E0.01382
G1 X185.882 Y136.056 E0.01382
G1 X186.322 Y136.024 E0.01382
G1 X186.761 Y136.056 E0.01382
G1 X187.192 Y136.149 E0.01382
G1 X187.605 Y136.303 E0.01382
G1 X187.992 Y136.514 E0.01382
G1 X188.344 Y136.779 E0.01382
G1 X188.656 Y137.090 E0.01382
G1 X188.920 Y137.443 E0.01382
G1 X189.131 Y137.830 E0.01382
G1 X189.285 Y138.243 E0.01382
G1 X189.379 Y138.673 E0.01382
G1 X189.412 Y139.128 E0.01428
G1 X189.412 Y150.748 E0.36435
G1 X183.292 Y150.748 E0.19189
G1 X183.296 Y150.353 F10800.000
G1 E-0.80000 F2100.00000
G1 Z0.800 F10800.000
G1 X188.699 Y138.073
G1 Z0.200
G1 E0.80000 F2100.00000
G1 F1200.000
G1 X187.886 Y137.259 E0.03692
G1 X187.634 Y137.071 E0.01009
G1 X187.330 Y136.905 E0.01112
G1 X187.005 Y136.784 E0.01112
G1 X186.825 Y136.745 E0.00593
G1 X188.690 Y138.610 E0.08468
G1 X188.724 Y138.768 E0.00518
G1 X188.752 Y139.218 E0.01447
G1 X186.227 Y136.692 E0.11465
G1 X185.976 Y136.710 E0.00806
G1 X185.748 Y136.760 E0.00749
G1 X188.752 Y139.764 E0.13637
G1 X188.752 Y140.310 E0.01753
G1 X185.338 Y136.896 E0.15500
G1 X184.985 Y137.089 E0.01291
G1 X188.752 Y140.856 E0.17101
G1 X188.752 Y141.402 E0.01753
G1 X184.680 Y137.330 E0.18485
G1 X184.419 Y137.615 E0.01241
G1 X188.752 Y141.948 E0.19673
G1 X188.752 Y142.494 E0.01753
G1 X184.202 Y137.944 E0.20659
G1 X184.114 Y138.105 E0.00589
G1 X184.033 Y138.321 E0.00741
G1 X188.752 Y143.040 E0.21425
G1 X188.752 Y143.586 E0.01753
G1 X183.922 Y138.756 E0.21930
G1 X183.891 Y139.272 E0.01659
G1 X188.752 Y144.132 E0.22067
G1 X188.752 Y144.678 E0.01753
G1 X183.891 Y139.818 E0.22067
G1 X183.891 Y140.364 E0.01753
G1 X188.752 Y145.224 E0.22067
G1 X188.752 Y145.770 E0.01753
G1 X183.891 Y140.910 E0.22067
G1 X183.891 Y141.456 E0.01753
G1 X188.752 Y146.316 E0.22067
G1 X188.752 Y146.862 E0.01753
G1 X183.891 Y142.002 E0.22067
G1 X183.891 Y142.548 E0.01753
G1 X188.752 Y147.408 E0.22067
G1 X188.752 Y147.954 E0.01753
G1 X183.891 Y143.094 E0.22067
G1 X183.891 Y143.640 E0.01753
G1 X188.752 Y148.500 E0.22067
G1 X188.752 Y149.046 E0.01753
G1 X183.891 Y144.186 E0.22067
G1 X183.891 Y144.732 E0.01753
G1 X188.752 Y149.592 E0.22067
G1 X188.752 Y150.088 E0.01592
G1 X188.702 Y150.088 E0.00161
G1 X183.891 Y145.278 E0.21840
G1 X183.891 Y145.824 E0.01753
G1 X188.156 Y150.088 E0.19360
G1 X187.610 Y150.088 E0.01753
G1 X183.891 Y146.370 E0.16881
G1 X183.891 Y146.916 E0.01753
G1 X187.064 Y150.088 E0.14402
G1 X186.518 Y150.088 E0.01753
G1 X183.891 Y147.462 E0.11923
G1 X183.891 Y148.008 E0.01753
G1 X185.971 Y150.088 E0.09444
G1 X185.425 Y150.088 E0.01753
G1 X183.891 Y148.554 E0.06965
G1 X183.891 Y149.100 E0.01753
G1 X184.879 Y150.088 E0.04486
G1 X184.333 Y150.088 E0.01753
G1 X183.722 Y149.477 E0.02777
G1 E-0.80000 F2100.00000
G1 Z0.800 F10800.000
G1 X176.035 Y150.371
G1 Z0.200
G1 E0.80000 F2100.00000
G1 F1200.000
G1 X170.609 Y150.371 E0.17012
G1 X170.609 Y139.141 E0.35210
G1 X170.638 Y138.727 E0.01301
G1 X170.720 Y138.349 E0.01213
G1 X170.856 Y137.987 E0.01213
G1 X171.041 Y137.647 E0.01213
G1 X171.273 Y137.338 E0.01213
G1 X171.546 Y137.064 E0.01213
G1 X171.856 Y136.833 E0.01213
G1 X172.195 Y136.647 E0.01213
G1 X172.558 Y136.512 E0.01213
G1 X172.936 Y136.430 E0.01213
G1 X173.322 Y136.402 E0.01213
G1 X173.707 Y136.430 E0.01213
G1 X174.085 Y136.512 E0.01213
G1 X174.448 Y136.647 E0.01213
G1 X174.787 Y136.833 E0.01213
G1 X175.097 Y137.064 E0.01213
G1 X175.370 Y137.338 E0.01213
G1 X175.602 Y137.647 E0.01213
G1 X175.788 Y137.987 E0.01213
G1 X175.923 Y138.349 E0.01213
G1 X176.005 Y138.727 E0.01213
G1 X176.035 Y139.141 E0.01301
G1 X176.035 Y150.311 E0.35022
G1 X176.412 Y150.748 F10800.000
G1 F1200.000
G1 X170.232 Y150.748 E0.19377
G1 X170.232 Y139.128 E0.36435
G1 X170.264 Y138.673 E0.01428
G1 X170.358 Y138.243 E0.01382
G1 X170.512 Y137.830 E0.01382
G1 X170.723 Y137.443 E0.01382
G1 X170.987 Y137.090 E0.01382
G1 X171.299 Y136.779 E0.01382
G1 X171.652 Y136.514 E0.01382
G1 X172.038 Y136.303 E0.01382
G1 X172.451 Y136.149 E0.01382
G1 X172.882 Y136.056 E0.01382
G1 X173.322 Y136.024 E0.01382
G1 X173.761 Y136.056 E0.01382
G1 X174.192 Y136.149 E0.01382
G1 X174.605 Y136.303 E0.01382
G1 X174.992 Y136.514 E0.01382
G1 X175.344 Y136.779 E0.01382
G1 X175.656 Y137.090 E0.01382
G1 X175.920 Y137.443 E0.01382
G1 X176.131 Y137.830 E0.01382
G1 X176.285 Y138.243 E0.01382
G1 X176.379 Y138.673 E0.01382
G1 X176.412 Y139.128 E0.01428
G1 X176.412 Y150.688 E0.36247
G1 X176.065 Y150.548 F10800.000
G1 E-0.80000 F2100.00000
G1 Z0.800 F10800.000
G1 X175.699 Y138.073
G1 Z0.200
G1 E0.80000 F2100.00000
G1 F1200.000
G1 X174.886 Y137.259 E0.03692
G1 X174.634 Y137.071 E0.01009
G1 X174.330 Y136.905 E0.01112
G1 X174.005 Y136.784 E0.01112
G1 X173.825 Y136.745 E0.00593
G1 X175.690 Y138.610 E0.08468
G1 X175.724 Y138.768 E0.00518
G1 X175.752 Y139.218 E0.01447
G1 X173.227 Y136.692 E0.11465
G1 X172.976 Y136.710 E0.00806
G1 X172.748 Y136.760 E0.00749
G1 X175.752 Y139.764 E0.13637
G1 X175.752 Y140.310 E0.01753
G1 X172.338 Y136.896 E0.15500
G1 X171.985 Y137.089 E0.01291
G1 X175.752 Y140.856 E0.17101
G1 X175.752 Y141.402 E0.01753
G1 X171.680 Y137.330 E0.18485
G1 X171.419 Y137.615 E0.01241
G1 X175.752 Y141.948 E0.19673
G1 X175.752 Y142.494 E0.01753
G1 X171.202 Y137.944 E0.20659
G1 X171.114 Y138.105 E0.00589
G1 X171.033 Y138.321 E0.00741
G1 X175.752 Y143.040 E0.21425
G1 X175.752 Y143.586 E0.01753
G1 X170.922 Y138.756 E0.21930
G1 X170.891 Y139.272 E0.01659
G1 X175.752 Y144.132 E0.22067
G1 X175.752 Y144.678 E0.01753
G1 X170.891 Y139.818 E0.22067
G1 X170.891 Y140.364 E0.01753
G1 X175.752 Y145.224 E0.22067
G1 X175.752 Y145.770 E0.01753
G1 X170.891 Y140.910 E0.22067
G1 X170.891 Y141.456 E0.01753
G1 X175.752 Y146.316 E0.22067
G1 X175.752 Y146.862 E0.01753
G1 X170.891 Y142.002 E0.22067
G1 X170.891 Y142.548 E0.01753
G1 X175.752 Y147.408 E0.22067
G1 X175.752 Y147.954 E0.01753
G1 X170.891 Y143.094 E0.22067
G1 X170.891 Y143.640 E0.01753
G1 X175.752 Y148.500 E0.22067
G1 X175.752 Y149.046 E0.01753
G1 X170.891 Y144.186 E0.22067
G1 X170.891 Y144.732 E0.01753
G1 X175.752 Y149.592 E0.22067
G1 X175.752 Y150.088 E0.01592
G1 X175.702 Y150.088 E0.00161
G1 X170.891 Y145.278 E0.21840
G1 X170.891 Y145.824 E0.01753
G1 X175.156 Y150.088 E0.19360
G1 X174.610 Y150.088 E0.01753
G1 X170.891 Y146.370 E0.16881
G1 X170.891 Y146.916 E0.01753
G1 X174.064 Y150.088 E0.14402
G1 X173.518 Y150.088 E0.01753
G1 X170.891 Y147.462 E0.11923
G1 X170.891 Y148.008 E0.01753
G1 X172.971 Y150.088 E0.09444
G1 X172.425 Y150.088 E0.01753
G1 X170.891 Y148.554 E0.06965
G1 X170.891 Y149.100 E0.01753
G1 X171.879 Y150.088 E0.04486
G1 X171.333 Y150.088 E0.01753
G1 X170.722 Y149.477 E0.02777
G1 E-0.80000 F2100.00000
G1 Z0.800 F10800.000
G1 X163.035 Y150.371
G1 Z0.200
G1 E0.80000 F2100.00000
G1 F1200.000
G1 X157.609 Y150.371 E0.17012
G1 X157.609 Y139.141 E0.35210
G1 X157.638 Y138.727 E0.01301
G1 X157.720 Y138.349 E0.01213
G1 X157.856 Y137.987 E0.01213
G1 X158.041 Y137.647 E0.01213
G1 X158.273 Y137.338 E0.01213
G1 X158.546 Y137.064 E0.01213
G1 X158.856 Y136.833 E0.01213
G1 X159.195 Y136.647 E0.01213
G1 X159.558 Y136.512 E0.01213
G1 X159.936 Y136.430 E0.01213
G1 X160.322 Y136.402 E0.01213
G1 X160.707 Y136.430 E0.01213
G1 X161.085 Y136.512 E0.01213
G1 X161.448 Y136.647 E0.01213
G1 X161.787 Y136.833 E0.01213
G1 X162.097 Y137.064 E0.01213
G1 X162.370 Y137.338 E0.01213
G1 X162.602 Y137.647 E0.01213
G1 X162.788 Y137.987 E0.01213
G1 X162.923 Y138.349 E0.01213
G1 X163.005 Y138.727 E0.01213
G1 X163.035 Y139.141 E0.01301
G1 X163.035 Y150.311 E0.35022
G1 X163.412 Y150.748 F10800.000
G1 F1200.000
G1 X157.232 Y150.748 E0.19377
G1 X157.232 Y139.128 E0.36435
G1 X157.264 Y138.673 E0.01428
G1 X157.358 Y138.243 E0.01382
G1 X157.512 Y137.830 E0.01382
G1 X157.723 Y137.443 E0.01382
G1 X157.987 Y137.090 E0.01382
G1 X158.299 Y136.779 E0.01382
G1 X158.652 Y136.514 E0.01382
G1 X159.038 Y136.303 E0.01382
G1 X159.451 Y136.149 E0.01382
G1 X159.882 Y136.056 E0.01382
G1 X160.322 Y136.024 E0.01382
G1 X160.761 Y136.056 E0.01382
G1 X161.192 Y136.149 E0.01382
G1 X161.605 Y136.303 E0.01382
G1 X161.992 Y136.514 E0.01382
G1 X162.344 Y136.779 E0.01382
G1 X162.656 Y137.090 E0.01382
G1 X162.920 Y137.443 E0.01382
G1 X163.131 Y137.830 E0.01382
G1 X163.285 Y138.243 E0.01382
G1 X163.379 Y138.673 E0.01382
G1 X163.412 Y139.128 E0.01428
G1 X163.412 Y150.688 E0.36247
M73 P1 R70
G1 X163.065 Y150.548 F10800.000
G1 E-0.80000 F2100.00000
G1 Z0.800 F10800.000
G1 X162.699 Y138.073
G1 Z0.200
G1 E0.80000 F2100.00000
G1 F1200.000
G1 X161.886 Y137.259 E0.03692
G1 X161.634 Y137.071 E0.01009
G1 X161.330 Y136.905 E0.01112
G1 X161.005 Y136.784 E0.01112
G1 X160.825 Y136.745 E0.00593
G1 X162.690 Y138.610 E0.08468
G1 X162.724 Y138.768 E0.00518
G1 X162.752 Y139.218 E0.01447
G1 X160.227 Y136.692 E0.11465
G1 X159.976 Y136.710 E0.00806
G1 X159.748 Y136.760 E0.00749
G1 X162.752 Y139.764 E0.13637
G1 X162.752 Y140.310 E0.01753
G1 X159.338 Y136.896 E0.15500
G1 X158.985 Y137.089 E0.01291
G1 X162.752 Y140.856 E0.17101
G1 X162.752 Y141.402 E0.01753
G1 X158.680 Y137.330 E0.18485
G1 X158.419 Y137.615 E0.01241
G1 X162.752 Y141.948 E0.19673
G1 X162.752 Y142.494 E0.01753
G1 X158.202 Y137.944 E0.20659
G1 X158.114 Y138.105 E0.00589
G1 X158.033 Y138.321 E0.00741
G1 X162.752 Y143.040 E0.21425
G1 X162.752 Y143.586 E0.01753
G1 X157.922 Y138.756 E0.21930
G1 X157.891 Y139.272 E0.01659
G1 X162.752 Y144.132 E0.22067
G1 X162.752 Y144.678 E0.01753
G1 X157.891 Y139.818 E0.22067
G1 X157.891 Y140.364 E0.01753
G1 X162.752 Y145.224 E0.22067
G1 X162.752 Y145.770 E0.01753
G1 X157.891 Y140.910 E0.22067
G1 X157.891 Y141.456 E0.01753
G1 X162.752 Y146.316 E0.22067
G1 X162.752 Y146.862 E0.01753
G1 X157.891 Y142.002 E0.22067
G1 X157.891 Y142.548 E0.01753
G1 X162.752 Y147.408 E0.22067
G1 X162.752 Y147.954 E0.01753
G1 X157.891 Y143.094 E0.22067
G1 X157.891 Y143.640 E0.01753
G1 X162.752 Y148.500 E0.22067
G1 X162.752 Y149.046 E0.01753
G1 X157.891 Y144.186 E0.22067
G1 X157.891 Y144.732 E0.01753
G1 X162.752 Y149.592 E0.22067
G1 X162.752 Y150.088 E0.01592
G1 X162.702 Y150.088 E0.00161
G1 X157.891 Y145.278 E0.21840
G1 X157.891 Y145.824 E0.01753
G1 X162.156 Y150.088 E0.19360
G1 X161.610 Y150.088 E0.01753
G1 X157.891 Y146.370 E0.16881
G1 X157.891 Y146.916 E0.01753
G1 X161.064 Y150.088 E0.14402
G1 X160.518 Y150.088 E0.01753
G1 X157.891 Y147.462 E0.11923
G1 X157.891 Y148.008 E0.01753
G1 X159.971 Y150.088 E0.09444
G1 X159.425 Y150.088 E0.01753
G1 X157.891 Y148.554 E0.06965
G1 X157.891 Y149.100 E0.01753
G1 X158.879 Y150.088 E0.04486
G1 X158.333 Y150.088 E0.01753
G1 X157.722 Y149.477 E0.02777
G1 E-0.80000 F2100.00000
G1 Z0.800 F10800.000
G1 X163.035 Y171.947
G1 Z0.200
G1 E0.80000 F2100.00000
G1 F1200.000
G1 X157.609 Y171.947 E0.17012
G1 X157.609 Y160.717 E0.35210
G1 X157.638 Y160.303 E0.01301
G1 X157.720 Y159.925 E0.01213
G1 X157.856 Y159.563 E0.01213
G1 X158.041 Y159.223 E0.01213
G1 X158.273 Y158.914 E0.01213
G1 X158.546 Y158.640 E0.01213
G1 X158.856 Y158.408 E0.01213
G1 X159.195 Y158.223 E0.01213
G1 X159.558 Y158.088 E0.01213
G1 X159.936 Y158.006 E0.01213
G1 X160.322 Y157.978 E0.01213
G1 X160.707 Y158.006 E0.01213
G1 X161.085 Y158.088 E0.01213
G1 X161.448 Y158.223 E0.01213
G1 X161.787 Y158.408 E0.01213
G1 X162.097 Y158.640 E0.01213
G1 X162.370 Y158.914 E0.01213
G1 X162.602 Y159.223 E0.01213
G1 X162.788 Y159.563 E0.01213
G1 X162.923 Y159.925 E0.01213
G1 X163.005 Y160.303 E0.01213
G1 X163.035 Y160.717 E0.01301
G1 X163.035 Y171.887 E0.35022
G1 X163.412 Y172.324 F10800.000
G1 F1200.000
G1 X157.232 Y172.324 E0.19377
G1 X157.232 Y160.704 E0.36435
G1 X157.264 Y160.249 E0.01428
G1 X157.358 Y159.819 E0.01382
G1 X157.512 Y159.406 E0.01382
G1 X157.723 Y159.019 E0.01382
G1 X157.987 Y158.666 E0.01382
G1 X158.299 Y158.354 E0.01382
G1 X158.652 Y158.090 E0.01382
G1 X159.038 Y157.879 E0.01382
G1 X159.451 Y157.725 E0.01382
G1 X159.882 Y157.631 E0.01382
G1 X160.322 Y157.600 E0.01382
G1 X160.761 Y157.631 E0.01382
G1 X161.192 Y157.725 E0.01382
G1 X161.605 Y157.879 E0.01382
G1 X161.992 Y158.090 E0.01382
G1 X162.344 Y158.354 E0.01382
G1 X162.656 Y158.666 E0.01382
G1 X162.920 Y159.019 E0.01382
G1 X163.131 Y159.406 E0.01382
G1 X163.285 Y159.819 E0.01382
G1 X163.379 Y160.249 E0.01382
G1 X163.412 Y160.704 E0.01428
G1 X163.412 Y172.264 E0.36247
G1 X163.065 Y172.124 F10800.000
G1 E-0.80000 F2100.00000
G1 Z0.800 F10800.000
