; generated by PrusaSlicer 2.2.0+win64 on 2020-11-18 at 22:42:34 UTC

; 

; external perimeters extrusion width = 0.60mm
; perimeters extrusion width = 0.43mm
; infill extrusion width = 0.45mm
; solid infill extrusion width = 0.70mm
; top infill extrusion width = 0.43mm
; first layer extrusion width = 0.42mm

M73 P0 R36
M201 X9000 Y9000 Z500 E10000 ; sets maximum accelerations, mm/sec^2
M203 X500 Y500 Z12 E120 ; sets maximum feedrates, mm/sec
M204 P2000 R1500 T2000 ; sets acceleration (P, T) and retract acceleration (R), mm/sec^2
M205 X10.00 Y10.00 Z0.20 E2.50 ; sets the jerk limits, mm/sec
M205 S0 T0 ; sets the minimum extruding and travel feed rate, mm/sec
M107
M862.3 P "MK2S" ; printer model check
M862.1 P0.4 ; nozzle diameter check
M115 U3.2.3 ; tell printer latest fw version
G90 ; use absolute coordinates
M83 ; extruder relative mode
M204 S2000 T1500 ; MK2 firmware only supports the old M204 format
M104 S215 ; set extruder temp
M140 S60 ; set bed temp
M190 S60 ; wait for bed temp
M109 S215 ; wait for extruder temp
G28 W ; home all without mesh bed level
G80 ; mesh bed leveling
G1 Y-3.0 F1000.0 ; go outside print area
G92 E0.0
G1 X60.0 E9.0  F1000.0 ; intro line
M73 P0 R36
G1 X100.0 E12.5 F1000.0 ; intro line
G92 E0.0
G21 ; set units to millimeters
G90 ; use absolute coordinates
M83 ; use relative distances for extrusion
M900 K0.05 ; Filament gcode LA 1.5
M900 K30 ; Filament gcode LA 1.0
;BEFORE_LAYER_CHANGE
G92 E0.0
;0.2


G1 E-0.80000 F2100.00000
G1 Z0.600 F10800.000
;AFTER_LAYER_CHANGE
;0.2
G1 X86.854 Y47.703
G1 Z0.200
G1 E0.80000 F2100.00000
M204 S1000
G1 F1200.000
G1 X87.451 Y46.750 E0.03525
G1 X88.144 Y45.850 E0.03561
G1 X89.063 Y44.873 E0.04205
G1 X90.099 Y43.996 E0.04256
G1 X91.019 Y43.359 E0.03511
G1 X92.004 Y42.809 E0.03537
G1 X93.244 Y42.269 E0.04241
G1 X94.534 Y41.873 E0.04229
G1 X95.636 Y41.650 E0.03525
G1 X96.792 Y41.530 E0.03645
G1 X175.181 Y41.522 E2.45784
G1 X176.649 Y41.672 E0.04625
G1 X177.763 Y41.905 E0.03570
G1 X179.026 Y42.310 E0.04157
G1 X180.071 Y42.763 E0.03573
G1 X181.154 Y43.365 E0.03883
G1 X182.164 Y44.068 E0.03860
G1 X183.095 Y44.867 E0.03848
G1 X183.954 Y45.770 E0.03907
G1 X184.708 Y46.743 E0.03860
G1 X185.364 Y47.794 E0.03884
G1 X185.866 Y48.809 E0.03549
G1 X186.376 Y50.184 E0.04598
G1 X186.658 Y51.288 E0.03573
G1 X186.846 Y52.527 E0.03931
G1 X186.906 Y53.734 E0.03788
G1 X186.906 Y156.283 E3.21534
G1 X186.843 Y157.502 E0.03828
G1 X186.654 Y158.734 E0.03907
G1 X186.343 Y159.929 E0.03872
G1 X185.893 Y161.136 E0.04038
G1 X185.311 Y162.297 E0.04074
G1 X184.713 Y163.250 E0.03525
G1 X184.023 Y164.147 E0.03549
G1 X183.102 Y165.127 E0.04217
G1 X182.070 Y166.001 E0.04241
G1 X181.145 Y166.641 E0.03525
G1 X180.160 Y167.191 E0.03537
G1 X178.924 Y167.730 E0.04229
G1 X177.634 Y168.126 E0.04229
G1 X176.529 Y168.350 E0.03537
G1 X175.391 Y168.468 E0.03585
G1 X122.668 Y168.478 E1.65310
G1 X121.375 Y168.351 E0.04074
G1 X120.165 Y168.104 E0.03872
G1 X118.976 Y167.732 E0.03907
G1 X117.893 Y167.270 E0.03693
G1 X116.751 Y166.641 E0.04086
G1 X115.707 Y165.913 E0.03991
G1 X67.757 Y127.420 E1.92795
G1 X66.899 Y126.680 E0.03553
G1 X66.117 Y125.861 E0.03549
G1 X65.274 Y124.784 E0.04289
G1 X64.634 Y123.755 E0.03800
G1 X64.131 Y122.737 E0.03561
G1 X63.627 Y121.380 E0.04539
G1 X63.345 Y120.280 E0.03561
G1 X63.171 Y119.161 E0.03549
G1 X63.094 Y117.807 E0.04253
G1 X63.156 Y116.585 E0.03836
G1 X63.323 Y115.473 E0.03525
G1 X63.654 Y114.158 E0.04253
G1 X86.272 Y48.864 E2.16657
G1 X86.827 Y47.756 E0.03886
G1 E-0.80000 F2100.00000
G1 Z0.800 F10800.000
G1 X169.132 Y149.098
G1 Z0.200
G1 E0.80000 F2100.00000
G1 F1200.000
G1 X169.885 Y148.573 E0.02878
G1 X170.688 Y148.128 E0.02878
G1 X171.531 Y147.766 E0.02878
G1 X172.407 Y147.491 E0.02878
G1 X173.306 Y147.306 E0.02878
G1 X174.220 Y147.213 E0.02878
G1 X175.138 Y147.213 E0.02878
G1 X176.051 Y147.306 E0.02878
G1 X176.950 Y147.491 E0.02878
G1 X177.826 Y147.766 E0.02878
G1 X178.669 Y148.128 E0.02878
G1 X179.472 Y148.573 E0.02878
G1 X180.225 Y149.098 E0.02878
G1 X180.922 Y149.696 E0.02878
G1 X181.554 Y150.361 E0.02878
G1 X182.116 Y151.087 E0.02878
G1 X182.602 Y151.866 E0.02878
G1 X183.006 Y152.690 E0.02878
G1 X183.325 Y153.551 E0.02878
G1 X183.555 Y154.440 E0.02878
G1 X183.694 Y155.347 E0.02878
G1 X183.741 Y156.264 E0.02878
G1 X183.694 Y157.180 E0.02878
G1 X183.555 Y158.088 E0.02878
G1 X183.325 Y158.976 E0.02878
G1 X183.006 Y159.837 E0.02878
G1 X182.602 Y160.661 E0.02878
G1 X182.116 Y161.440 E0.02878
G1 X181.554 Y162.166 E0.02878
G1 X180.922 Y162.832 E0.02878
G1 X180.225 Y163.430 E0.02878
G1 X179.472 Y163.954 E0.02878
G1 X178.669 Y164.399 E0.02878
G1 X177.826 Y164.761 E0.02878
G1 X176.950 Y165.036 E0.02878
G1 X176.051 Y165.221 E0.02878
G1 X175.138 Y165.314 E0.02878
G1 X174.220 Y165.314 E0.02878
G1 X173.306 Y165.221 E0.02878
G1 X172.407 Y165.036 E0.02878
G1 X171.531 Y164.761 E0.02878
G1 X170.688 Y164.399 E0.02878
G1 X169.885 Y163.954 E0.02878
G1 X169.132 Y163.430 E0.02878
G1 X168.435 Y162.832 E0.02878
G1 X167.803 Y162.166 E0.02878
G1 X167.241 Y161.440 E0.02878
G1 X166.755 Y160.661 E0.02878
G1 X166.351 Y159.837 E0.02878
G1 X166.032 Y158.976 E0.02878
G1 X165.802 Y158.088 E0.02878
G1 X165.663 Y157.180 E0.02878
G1 X165.617 Y156.264 E0.02878
G1 X165.663 Y155.347 E0.02878
G1 X165.802 Y154.440 E0.02878
G1 X166.032 Y153.551 E0.02878
G1 X166.351 Y152.690 E0.02878
G1 X166.755 Y151.866 E0.02878
G1 X167.241 Y151.087 E0.02878
G1 X167.803 Y150.361 E0.02878
G1 X168.435 Y149.696 E0.02878
G1 X169.086 Y149.137 E0.02690
G1 X168.841 Y148.851 F10800.000
G1 F1200.000
G1 X169.685 Y148.253 E0.03245
G1 X170.522 Y147.789 E0.02998
G1 X171.400 Y147.412 E0.02998
G1 X172.313 Y147.126 E0.02998
G1 X173.249 Y146.933 E0.02998
G1 X174.200 Y146.836 E0.02998
G1 X175.157 Y146.836 E0.02998
G1 X176.108 Y146.933 E0.02998
G1 X177.045 Y147.126 E0.02998
G1 X177.957 Y147.412 E0.02998
G1 X178.836 Y147.789 E0.02998
G1 X179.672 Y148.253 E0.02998
G1 X180.457 Y148.799 E0.02998
G1 X181.182 Y149.422 E0.02998
G1 X181.841 Y150.115 E0.02998
G1 X182.426 Y150.871 E0.02998
G1 X182.932 Y151.683 E0.02998
G1 X183.353 Y152.541 E0.02998
G1 X183.685 Y153.438 E0.02998
G1 X183.925 Y154.363 E0.02998
G1 X184.070 Y155.309 E0.02998
G1 X184.118 Y156.264 E0.02998
G1 X184.070 Y157.219 E0.02998
G1 X183.925 Y158.164 E0.02998
G1 X183.685 Y159.089 E0.02998
G1 X183.353 Y159.986 E0.02998
G1 X182.932 Y160.845 E0.02998
G1 X182.426 Y161.656 E0.02998
G1 X181.841 Y162.412 E0.02998
G1 X181.182 Y163.105 E0.02998
G1 X180.457 Y163.728 E0.02998
G1 X179.672 Y164.274 E0.02998
G1 X178.836 Y164.738 E0.02998
G1 X177.957 Y165.116 E0.02998
G1 X177.045 Y165.402 E0.02998
G1 X176.108 Y165.594 E0.02998
G1 X175.157 Y165.691 E0.02998
G1 X174.200 Y165.691 E0.02998
G1 X173.249 Y165.594 E0.02998
G1 X172.313 Y165.402 E0.02998
G1 X171.400 Y165.116 E0.02998
G1 X170.522 Y164.738 E0.02998
G1 X169.685 Y164.274 E0.02998
G1 X168.901 Y163.728 E0.02998
G1 X168.175 Y163.105 E0.02998
G1 X167.516 Y162.412 E0.02998
G1 X166.931 Y161.656 E0.02998
G1 X166.425 Y160.845 E0.02998
G1 X166.004 Y159.986 E0.02998
G1 X165.672 Y159.089 E0.02998
G1 X165.432 Y158.164 E0.02998
G1 X165.288 Y157.219 E0.02998
G1 X165.239 Y156.264 E0.02998
G1 X165.288 Y155.309 E0.02998
G1 X165.432 Y154.363 E0.02998
G1 X165.672 Y153.438 E0.02998
G1 X166.004 Y152.541 E0.02998
G1 X166.425 Y151.683 E0.02998
G1 X166.931 Y150.871 E0.02998
G1 X167.516 Y150.115 E0.02998
G1 X168.175 Y149.422 E0.02998
G1 X168.795 Y148.890 E0.02562
G1 X169.212 Y149.000 F10800.000
G1 E-0.80000 F2100.00000
G1 Z0.800 F10800.000
G1 X182.104 Y151.281
G1 Z0.200
G1 E0.80000 F2100.00000
G1 F1200.000
G1 X180.706 Y149.883 E0.06270
G1 X180.052 Y149.322 E0.02734
G1 X179.322 Y148.814 E0.02821
G1 X178.816 Y148.533 E0.01835
G1 X182.419 Y152.136 E0.16161
G1 X182.746 Y152.802 E0.02353
G1 X182.864 Y153.120 E0.01075
G1 X177.812 Y148.067 E0.22663
G1 X177.011 Y147.807 E0.02670
G1 X183.130 Y153.925 E0.27446
G1 X183.299 Y154.634 E0.02310
G1 X176.314 Y147.649 E0.31331
G1 X176.008 Y147.586 E0.00992
G1 X175.678 Y147.553 E0.01051
G1 X183.396 Y155.271 E0.34622
G1 X183.436 Y155.850 E0.01843
G1 X175.082 Y147.496 E0.37475
G1 X174.543 Y147.496 E0.01711
G1 X183.450 Y156.404 E0.39957
G1 X183.424 Y156.917 E0.01631
G1 X174.025 Y147.517 E0.42165
G1 X173.535 Y147.567 E0.01561
G1 X183.373 Y157.406 E0.44134
G1 X183.302 Y157.874 E0.01501
G1 X173.071 Y147.643 E0.45892
G1 X172.624 Y147.735 E0.01449
G1 X183.204 Y158.315 E0.47461
G1 X183.093 Y158.744 E0.01404
G1 X172.201 Y147.852 E0.48859
G1 X171.791 Y147.981 E0.01365
G1 X182.959 Y159.150 E0.50101
G1 X182.813 Y159.543 E0.01332
G1 X171.400 Y148.130 E0.51198
G1 X171.023 Y148.292 E0.01303
G1 X182.651 Y159.920 E0.52161
G1 X182.473 Y160.282 E0.01279
G1 X170.659 Y148.467 E0.52997
G1 X170.312 Y148.660 E0.01259
G1 X182.286 Y160.634 E0.53713
G1 X182.079 Y160.966 E0.01242
G1 X169.971 Y148.858 E0.54314
G1 X169.653 Y149.080 E0.01229
G1 X181.870 Y161.297 E0.54804
G1 X181.634 Y161.601 E0.01220
G1 X169.334 Y149.301 E0.55175
G1 X169.042 Y149.548 E0.01214
G1 X181.399 Y161.905 E0.55433
G1 X181.143 Y162.189 E0.01212
G1 X168.751 Y149.797 E0.55587
G1 X168.477 Y150.062 E0.01210
G1 X180.880 Y162.465 E0.55638
G1 X180.606 Y162.730 E0.01210
G1 X168.214 Y150.339 E0.55587
G1 X167.958 Y150.622 E0.01212
G1 X180.315 Y162.980 E0.55433
G1 X180.023 Y163.226 E0.01214
G1 X167.723 Y150.926 E0.55175
G1 X167.487 Y151.230 E0.01220
G1 X179.705 Y163.448 E0.54804
G1 X179.386 Y163.669 E0.01229
G1 X167.279 Y151.561 E0.54314
G1 X167.071 Y151.893 E0.01242
G1 X179.045 Y163.867 E0.53713
G1 X178.698 Y164.060 E0.01259
G1 X166.884 Y152.246 E0.52997
G1 X166.707 Y152.608 E0.01279
G1 X178.334 Y164.235 E0.52161
G1 X177.957 Y164.397 E0.01303
G1 X166.544 Y152.984 E0.51198
G1 X166.398 Y153.378 E0.01332
G1 X177.566 Y164.546 E0.50101
G1 X177.156 Y164.675 E0.01365
G1 X166.264 Y153.784 E0.48859
G1 X166.153 Y154.212 E0.01404
G1 X176.733 Y164.792 E0.47460
G1 X176.286 Y164.884 E0.01449
G1 X166.055 Y154.654 E0.45891
M73 P2 R35
G1 X165.984 Y155.122 E0.01501
G1 X175.822 Y164.960 E0.44133
G1 X175.332 Y165.010 E0.01561
G1 X165.933 Y155.610 E0.42165
G1 X165.907 Y156.124 E0.01631
G1 X174.814 Y165.031 E0.39957
G1 X174.275 Y165.031 E0.01711
G1 X165.921 Y156.677 E0.37474
G1 X165.961 Y157.257 E0.01843
G1 X173.679 Y164.975 E0.34621
G1 X173.349 Y164.941 E0.01051
G1 X173.043 Y164.878 E0.00992
G1 X166.059 Y157.894 E0.31330
G1 X166.228 Y158.602 E0.02310
G1 X172.346 Y164.721 E0.27446
G1 X171.546 Y164.460 E0.02670
G1 X166.494 Y159.408 E0.22662
G1 X166.611 Y159.726 E0.01074
G1 X166.938 Y160.392 E0.02354
G1 X170.540 Y163.994 E0.16159
G1 X170.035 Y163.714 E0.01834
G1 X169.305 Y163.206 E0.02821
G1 X168.650 Y162.644 E0.02738
G1 X167.253 Y161.247 E0.06266
G1 E-0.80000 F2100.00000
G1 Z0.800 F10800.000
G1 X172.407 Y139.404
G1 Z0.200
G1 E0.80000 F2100.00000
G1 F1200.000
G1 X171.531 Y139.130 E0.02878
G1 X170.688 Y138.768 E0.02878
G1 X169.885 Y138.322 E0.02878
G1 X169.132 Y137.798 E0.02878
G1 X168.435 Y137.200 E0.02878
G1 X167.803 Y136.535 E0.02878
G1 X167.241 Y135.809 E0.02878
G1 X166.755 Y135.030 E0.02878
G1 X166.351 Y134.205 E0.02878
G1 X166.032 Y133.345 E0.02878
G1 X165.802 Y132.456 E0.02878
G1 X165.663 Y131.549 E0.02878
G1 X165.617 Y130.632 E0.02878
G1 X165.663 Y129.715 E0.02878
G1 X165.802 Y128.808 E0.02878
G1 X166.032 Y127.919 E0.02878
G1 X166.351 Y127.058 E0.02878
G1 X166.755 Y126.234 E0.02878
G1 X167.241 Y125.455 E0.02878
G1 X167.803 Y124.729 E0.02878
G1 X168.435 Y124.064 E0.02878
G1 X169.132 Y123.466 E0.02878
G1 X169.885 Y122.941 E0.02878
G1 X170.688 Y122.496 E0.02878
G1 X171.531 Y122.134 E0.02878
G1 X172.407 Y121.859 E0.02878
G1 X173.306 Y121.674 E0.02878
G1 X174.220 Y121.582 E0.02878
G1 X175.138 Y121.582 E0.02878
G1 X176.051 Y121.674 E0.02878
G1 X176.950 Y121.859 E0.02878
G1 X177.826 Y122.134 E0.02878
G1 X178.669 Y122.496 E0.02878
G1 X179.472 Y122.941 E0.02878
G1 X180.225 Y123.466 E0.02878
G1 X180.922 Y124.064 E0.02878
G1 X181.554 Y124.729 E0.02878
G1 X182.116 Y125.455 E0.02878
G1 X182.602 Y126.234 E0.02878
G1 X183.006 Y127.058 E0.02878
G1 X183.325 Y127.919 E0.02878
G1 X183.555 Y128.808 E0.02878
G1 X183.694 Y129.715 E0.02878
G1 X183.741 Y130.632 E0.02878
G1 X183.694 Y131.549 E0.02878
G1 X183.555 Y132.456 E0.02878
G1 X183.325 Y133.345 E0.02878
G1 X183.006 Y134.205 E0.02878
G1 X182.602 Y135.030 E0.02878
G1 X182.116 Y135.809 E0.02878
G1 X181.554 Y136.535 E0.02878
G1 X180.922 Y137.200 E0.02878
G1 X180.225 Y137.798 E0.02878
G1 X179.472 Y138.322 E0.02878
G1 X178.669 Y138.768 E0.02878
G1 X177.826 Y139.130 E0.02878
G1 X176.950 Y139.404 E0.02878
G1 X176.051 Y139.589 E0.02878
G1 X175.138 Y139.682 E0.02878
G1 X174.220 Y139.682 E0.02878
G1 X173.306 Y139.589 E0.02878
G1 X172.466 Y139.417 E0.02690
G1 X172.390 Y139.786 F10800.000
G1 F1200.000
G1 X171.400 Y139.484 E0.03245
G1 X170.522 Y139.107 E0.02998
G1 X169.685 Y138.643 E0.02998
G1 X168.901 Y138.096 E0.02998
G1 X168.175 Y137.473 E0.02998
G1 X167.516 Y136.780 E0.02998
G1 X166.931 Y136.024 E0.02998
G1 X166.425 Y135.213 E0.02998
G1 X166.004 Y134.354 E0.02998
G1 X165.672 Y133.458 E0.02998
G1 X165.432 Y132.532 E0.02998
G1 X165.288 Y131.587 E0.02998
G1 X165.239 Y130.632 E0.02998
G1 X165.288 Y129.677 E0.02998
G1 X165.432 Y128.732 E0.02998
G1 X165.672 Y127.806 E0.02998
G1 X166.004 Y126.909 E0.02998
G1 X166.425 Y126.051 E0.02998
G1 X166.931 Y125.239 E0.02998
G1 X167.516 Y124.483 E0.02998
G1 X168.175 Y123.790 E0.02998
G1 X168.901 Y123.167 E0.02998
G1 X169.685 Y122.621 E0.02998
G1 X170.522 Y122.157 E0.02998
G1 X171.400 Y121.780 E0.02998
G1 X172.313 Y121.494 E0.02998
G1 X173.249 Y121.301 E0.02998
G1 X174.200 Y121.204 E0.02998
G1 X175.157 Y121.204 E0.02998
G1 X176.108 Y121.301 E0.02998
G1 X177.045 Y121.494 E0.02998
G1 X177.957 Y121.780 E0.02998
G1 X178.836 Y122.157 E0.02998
G1 X179.672 Y122.621 E0.02998
G1 X180.457 Y123.167 E0.02998
G1 X181.182 Y123.790 E0.02998
G1 X181.841 Y124.483 E0.02998
G1 X182.426 Y125.239 E0.02998
G1 X182.932 Y126.051 E0.02998
G1 X183.353 Y126.909 E0.02998
G1 X183.685 Y127.806 E0.02998
G1 X183.925 Y128.732 E0.02998
G1 X184.070 Y129.677 E0.02998
G1 X184.118 Y130.632 E0.02998
G1 X184.070 Y131.587 E0.02998
G1 X183.925 Y132.532 E0.02998
G1 X183.685 Y133.458 E0.02998
G1 X183.353 Y134.354 E0.02998
G1 X182.932 Y135.213 E0.02998
G1 X182.426 Y136.024 E0.02998
G1 X181.841 Y136.780 E0.02998
G1 X181.182 Y137.473 E0.02998
G1 X180.457 Y138.096 E0.02998
G1 X179.672 Y138.643 E0.02998
G1 X178.836 Y139.107 E0.02998
G1 X177.957 Y139.484 E0.02998
G1 X177.045 Y139.770 E0.02998
G1 X176.108 Y139.962 E0.02998
G1 X175.157 Y140.059 E0.02998
G1 X174.200 Y140.059 E0.02998
G1 X173.249 Y139.962 E0.02998
G1 X172.449 Y139.798 E0.02562
G1 X172.281 Y139.401 F10800.000
G1 E-0.80000 F2100.00000
G1 Z0.800 F10800.000
G1 X182.104 Y125.649
G1 Z0.200
G1 E0.80000 F2100.00000
G1 F1200.000
G1 X180.706 Y124.251 E0.06270
G1 X180.052 Y123.690 E0.02734
G1 X179.322 Y123.182 E0.02821
G1 X178.816 Y122.901 E0.01835
G1 X182.419 Y126.504 E0.16161
G1 X182.746 Y127.170 E0.02353
G1 X182.864 Y127.488 E0.01075
G1 X177.812 Y122.436 E0.22663
G1 X177.011 Y122.175 E0.02670
G1 X183.130 Y128.293 E0.27446
G1 X183.299 Y129.002 E0.02310
G1 X176.314 Y122.017 E0.31331
G1 X176.008 Y121.954 E0.00992
G1 X175.678 Y121.921 E0.01051
G1 X183.396 Y129.639 E0.34622
G1 X183.436 Y130.218 E0.01843
G1 X175.082 Y121.864 E0.37475
G1 X174.543 Y121.864 E0.01711
G1 X183.450 Y130.772 E0.39957
G1 X183.424 Y131.285 E0.01631
G1 X174.025 Y121.886 E0.42165
G1 X173.535 Y121.935 E0.01561
G1 X183.373 Y131.774 E0.44134
G1 X183.302 Y132.242 E0.01501
G1 X173.071 Y122.011 E0.45892
G1 X172.624 Y122.103 E0.01449
G1 X183.204 Y132.683 E0.47461
G1 X183.093 Y133.112 E0.01404
G1 X172.201 Y122.220 E0.48859
G1 X171.791 Y122.349 E0.01365
G1 X182.959 Y133.518 E0.50101
G1 X182.813 Y133.911 E0.01332
G1 X171.400 Y122.498 E0.51198
G1 X171.023 Y122.660 E0.01303
G1 X182.651 Y134.288 E0.52161
G1 X182.473 Y134.650 E0.01279
G1 X170.659 Y122.836 E0.52997
G1 X170.312 Y123.028 E0.01259
G1 X182.286 Y135.002 E0.53713
G1 X182.079 Y135.334 E0.01242
G1 X169.971 Y123.227 E0.54314
G1 X169.653 Y123.448 E0.01229
G1 X181.870 Y135.665 E0.54804
G1 X181.634 Y135.969 E0.01220
G1 X169.334 Y123.669 E0.55175
G1 X169.042 Y123.916 E0.01214
G1 X181.399 Y136.273 E0.55433
G1 X181.143 Y136.557 E0.01212
