; generated by PrusaSlicer 2.2.0+win64 on 2020-11-11 at 22:06:38 UTC

; 

; external perimeters extrusion width = 0.60mm
; perimeters extrusion width = 0.43mm
; infill extrusion width = 0.45mm
; solid infill extrusion width = 0.70mm
; top infill extrusion width = 0.43mm
; first layer extrusion width = 0.42mm

M73 P0 R221
M201 X9000 Y9000 Z500 E10000 ; sets maximum accelerations, mm/sec^2
M203 X500 Y500 Z12 E120 ; sets maximum feedrates, mm/sec
M204 P2000 R1500 T2000 ; sets acceleration (P, T) and retract acceleration (R), mm/sec^2
M205 X10.00 Y10.00 Z0.20 E2.50 ; sets the jerk limits, mm/sec
M205 S0 T0 ; sets the minimum extruding and travel feed rate, mm/sec
M107
M862.3 P "MK2S" ; printer model check
M862.1 P0.4 ; nozzle diameter check
M115 U3.2.3 ; tell printer latest fw version
G90 ; use absolute coordinates
M83 ; extruder relative mode
M204 S2000 T1500 ; MK2 firmware only supports the old M204 format
M104 S215 ; set extruder temp
M140 S60 ; set bed temp
M190 S60 ; wait for bed temp
M109 S215 ; wait for extruder temp
G28 W ; home all without mesh bed level
G80 ; mesh bed leveling
G1 Y-3.0 F1000.0 ; go outside print area
G92 E0.0
G1 X60.0 E9.0  F1000.0 ; intro line
M73 P0 R221
G1 X100.0 E12.5 F1000.0 ; intro line
G92 E0.0
G21 ; set units to millimeters
G90 ; use absolute coordinates
M83 ; use relative distances for extrusion
M900 K0.05 ; Filament gcode LA 1.5
M900 K30 ; Filament gcode LA 1.0
;BEFORE_LAYER_CHANGE
G92 E0.0
;0.2


G1 E-0.80000 F2100.00000
G1 Z0.600 F10800.000
;AFTER_LAYER_CHANGE
;0.2
G1 X16.405 Y24.084
G1 Z0.200
G1 E0.80000 F2100.00000
M204 S1000
G1 F1200.000
G1 X17.024 Y23.778 E0.02166
G1 X17.705 Y23.664 E0.02166
G1 X86.525 Y23.663 E2.15780
G1 X216.615 Y26.401 E4.07975
G1 X217.397 Y26.585 E0.02520
G1 X229.929 Y32.041 E0.42856
G1 X230.689 Y32.573 E0.02907
G1 X231.123 Y33.204 E0.02402
G1 X231.334 Y33.940 E0.02402
G1 X235.076 Y70.178 E1.14224
G1 X236.405 Y103.588 E1.04837
G1 X235.919 Y121.708 E0.56835
G1 X235.795 Y122.206 E0.01609
G1 X235.568 Y122.666 E0.01609
G1 X214.123 Y155.985 E1.24239
G1 X213.770 Y156.413 E0.01740
G1 X213.369 Y156.722 E0.01585
G1 X212.916 Y156.938 E0.01574
G1 X129.074 Y186.214 E2.78448
G1 X128.382 Y186.336 E0.02201
G1 X124.559 Y186.336 E0.11987
G1 X123.798 Y186.198 E0.02426
G1 X34.775 Y154.198 E2.96611
G1 X34.288 Y153.956 E0.01704
G1 X33.867 Y153.607 E0.01716
G1 X33.444 Y152.999 E0.02323
G1 X20.204 Y125.684 E0.95176
G1 X19.993 Y124.991 E0.02272
G1 X16.706 Y59.456 E2.05738
G1 X15.380 Y26.120 E1.04607
G1 X15.415 Y25.623 E0.01562
G1 X15.552 Y25.148 E0.01550
G1 X15.902 Y24.552 E0.02166
G1 X16.361 Y24.125 E0.01966
G1 E-0.80000 F2100.00000
G1 Z0.800 F10800.000
G1 X119.585 Y167.448
G1 Z0.200
G1 E0.80000 F2100.00000
G1 F1200.000
G1 X125.757 Y167.448 E0.19351
G1 X125.757 Y178.459 E0.34526
G1 X124.421 Y178.733 E0.04276
G1 X119.609 Y167.503 E0.38309
G1 X120.157 Y167.825 F10800.000
G1 F1200.000
G1 X125.380 Y167.825 E0.16376
G1 X125.380 Y178.152 E0.32379
G1 X124.647 Y178.302 E0.02348
G1 X120.181 Y167.880 E0.35552
G1 X120.095 Y167.430 F10800.000
G1 X118.749 Y165.497
G1 F1200.000
G1 X125.757 Y165.497 E0.21972
G1 X125.757 Y162.883 E0.08197
G1 X127.616 Y162.883 E0.05828
G1 X127.982 Y166.118 E0.10210
G1 X127.532 Y167.529 E0.04644
G1 X127.532 Y183.173 E0.49049
G1 X125.090 Y183.173 E0.07655
G1 X112.617 Y157.438 E0.89667
G1 X115.296 Y157.438 E0.08402
G1 X118.726 Y165.442 E0.27301
G1 X118.998 Y165.120 F10800.000
G1 F1200.000
G1 X125.380 Y165.120 E0.20010
G1 X125.380 Y162.506 E0.08197
G1 X127.953 Y162.506 E0.08066
G1 X128.366 Y166.156 E0.11519
G1 X127.909 Y167.588 E0.04713
G1 X127.909 Y183.550 E0.50047
G1 X124.854 Y183.550 E0.09578
G1 X112.015 Y157.061 E0.92295
G1 X115.545 Y157.061 E0.11069
G1 X118.975 Y165.065 E0.27301
G1 X119.092 Y165.509 F10800.000
G1 X120.915 Y167.335
G1 F1200.000
G1 X119.360 Y165.780 E0.06921
G1 X119.896 Y165.780 E0.01685
G1 X121.281 Y167.165 E0.06166
G1 X121.816 Y167.165 E0.01685
G1 X120.431 Y165.780 E0.06166
G1 X120.966 Y165.780 E0.01685
G1 X122.351 Y167.165 E0.06166
G1 X122.887 Y167.165 E0.01685
G1 X121.502 Y165.780 E0.06166
G1 X122.037 Y165.780 E0.01685
G1 X123.422 Y167.165 E0.06166
G1 X123.957 Y167.165 E0.01685
G1 X122.572 Y165.780 E0.06166
G1 X123.108 Y165.780 E0.01685
G1 X124.493 Y167.165 E0.06166
G1 X125.028 Y167.165 E0.01685
G1 X123.643 Y165.780 E0.06166
G1 X124.178 Y165.780 E0.01685
G1 X125.733 Y167.335 E0.06921
G1 X127.613 Y163.861 F10800.000
G1 F1200.000
G1 X126.917 Y163.165 E0.03097
G1 X126.382 Y163.165 E0.01685
G1 X127.489 Y164.272 E0.04927
G1 X127.557 Y164.876 E0.01912
G1 X126.040 Y163.359 E0.06753
G1 X126.040 Y163.894 E0.01685
G1 X127.626 Y165.480 E0.07058
G1 X127.694 Y166.083 E0.01912
G1 X126.040 Y164.430 E0.07362
G1 X126.040 Y164.965 E0.01685
G1 X127.566 Y166.491 E0.06795
G1 X127.437 Y166.897 E0.01341
G1 X126.040 Y165.500 E0.06218
G1 X126.040 Y165.780 E0.00880
G1 X125.784 Y165.780 E0.00805
G1 X127.307 Y167.303 E0.06779
G1 X127.249 Y167.485 E0.00602
G1 X127.249 Y167.780 E0.00928
G1 X125.249 Y165.780 E0.08903
G1 X124.714 Y165.780 E0.01685
G1 X127.249 Y168.315 E0.11286
G1 X127.249 Y168.850 E0.01685
G1 X126.040 Y167.641 E0.05382
G1 X126.040 Y168.177 E0.01685
G1 X127.249 Y169.386 E0.05382
G1 X127.249 Y169.921 E0.01685
G1 X126.040 Y168.712 E0.05382
G1 X126.040 Y169.247 E0.01685
G1 X127.249 Y170.456 E0.05382
G1 X127.249 Y170.992 E0.01685
G1 X126.040 Y169.783 E0.05382
G1 X126.040 Y170.318 E0.01685
G1 X127.249 Y171.527 E0.05382
G1 X127.249 Y172.062 E0.01685
G1 X126.040 Y170.853 E0.05382
G1 X126.040 Y171.389 E0.01685
G1 X127.249 Y172.598 E0.05382
G1 X127.249 Y173.133 E0.01685
G1 X126.040 Y171.924 E0.05382
G1 X126.040 Y172.459 E0.01685
G1 X127.249 Y173.668 E0.05382
G1 X127.249 Y174.204 E0.01685
G1 X126.040 Y172.995 E0.05382
G1 X126.040 Y173.530 E0.01685
G1 X127.249 Y174.739 E0.05382
G1 X127.249 Y175.274 E0.01685
G1 X126.040 Y174.065 E0.05382
G1 X126.040 Y174.601 E0.01685
G1 X127.249 Y175.810 E0.05382
G1 X127.249 Y176.345 E0.01685
G1 X126.040 Y175.136 E0.05382
G1 X126.040 Y175.671 E0.01685
G1 X127.249 Y176.880 E0.05382
G1 X127.249 Y177.416 E0.01685
G1 X126.040 Y176.207 E0.05382
G1 X126.040 Y176.742 E0.01685
G1 X127.249 Y177.951 E0.05382
G1 X127.249 Y178.486 E0.01685
G1 X126.040 Y177.277 E0.05382
G1 X126.040 Y177.813 E0.01685
G1 X127.249 Y179.022 E0.05382
G1 X127.249 Y179.557 E0.01685
G1 X126.040 Y178.348 E0.05382
G1 X126.040 Y178.690 E0.01076
G1 X125.879 Y178.723 E0.00516
G1 X127.249 Y180.092 E0.06096
G1 X127.249 Y180.628 E0.01685
G1 X125.435 Y178.814 E0.08073
G1 X124.991 Y178.905 E0.01427
G1 X127.249 Y181.163 E0.10050
G1 X127.249 Y181.698 E0.01685
G1 X124.547 Y178.996 E0.12028
G1 X124.252 Y179.057 E0.00947
G1 X123.986 Y178.435 E0.02129
G1 X122.283 Y176.732 E0.07579
G1 X121.779 Y175.693 E0.03634
G1 X123.584 Y177.498 E0.08034
G1 X123.183 Y176.562 E0.03207
G1 X121.276 Y174.655 E0.08489
G1 X120.772 Y173.616 E0.03634
G1 X122.782 Y175.625 E0.08943
G1 X122.380 Y174.688 E0.03207
G1 X120.269 Y172.577 E0.09398
G1 X119.765 Y171.538 E0.03634
G1 X121.979 Y173.752 E0.09853
G1 X121.577 Y172.815 E0.03207
G1 X119.262 Y170.499 E0.10308
G1 X118.758 Y169.460 E0.03634
G1 X121.176 Y171.878 E0.10763
G1 X120.775 Y170.941 E0.03207
G1 X118.255 Y168.421 E0.11218
G1 X117.751 Y167.382 E0.03634
G1 X120.373 Y170.005 E0.11673
G1 X119.972 Y169.068 E0.03207
G1 X117.247 Y166.343 E0.12128
G1 X116.744 Y165.305 E0.03634
G1 X119.571 Y168.131 E0.12583
G1 X119.169 Y167.195 E0.03207
G1 X116.240 Y164.266 E0.13038
G1 X115.737 Y163.227 E0.03634
G1 X119.675 Y167.165 E0.17529
G1 X120.210 Y167.165 E0.01685
G1 X115.233 Y162.188 E0.22153
G1 X114.730 Y161.149 E0.03634
G1 X117.965 Y164.385 E0.14402
G1 X117.564 Y163.448 E0.03207
G1 X114.226 Y160.110 E0.14857
G1 X113.723 Y159.071 E0.03634
G1 X117.162 Y162.511 E0.15312
G1 X116.761 Y161.575 E0.03207
G1 X113.219 Y158.032 E0.15767
G1 X113.068 Y157.721 E0.01089
G1 X113.443 Y157.721 E0.01180
G1 X116.360 Y160.638 E0.12983
M73 P0 R220
G1 X115.958 Y159.701 E0.03207
G1 X113.978 Y157.721 E0.08813
G1 X114.514 Y157.721 E0.01685
G1 X115.557 Y158.764 E0.04644
G1 X115.156 Y157.828 E0.03207
G1 X114.879 Y157.552 E0.01230
G1 E-0.80000 F2100.00000
G1 Z0.800 F10800.000
G1 X124.435 Y181.561
G1 Z0.200
G1 E0.80000 F2100.00000
G1 F1200.000
G1 X125.764 Y182.890 E0.05916
G1 X126.299 Y182.890 E0.01685
G1 X124.297 Y180.888 E0.08911
G1 X123.794 Y179.849 E0.03634
G1 X126.835 Y182.890 E0.13536
G1 X127.249 Y182.890 E0.01304
G1 X127.249 Y182.769 E0.00381
G1 X123.290 Y178.810 E0.17622
G1 X122.787 Y177.771 E0.03634
G1 X127.419 Y182.403 E0.20619
G1 E-0.80000 F2100.00000
G1 Z0.800 F10800.000
G1 X36.743 Y146.462
G1 Z0.200
G1 E0.80000 F2100.00000
G1 F1200.000
G1 X35.407 Y146.736 E0.04276
G1 X30.571 Y135.450 E0.38497
G1 X36.743 Y135.450 E0.19351
G1 X36.743 Y146.402 E0.34338
G1 X36.366 Y146.154 F10800.000
G1 F1200.000
G1 X35.632 Y146.305 E0.02348
G1 X31.143 Y135.828 E0.35740
G1 X36.366 Y135.828 E0.16376
G1 X36.366 Y146.094 E0.32191
G1 X36.480 Y146.538 F10800.000
G1 E-0.80000 F2100.00000
G1 Z0.800 F10800.000
G1 X29.735 Y133.500
G1 Z0.200
G1 E0.80000 F2100.00000
G1 F1200.000
G1 X36.743 Y133.500 E0.21972
G1 X36.743 Y130.885 E0.08197
G1 X38.601 Y130.885 E0.05828
G1 X38.968 Y134.121 E0.10210
G1 X38.517 Y135.532 E0.04644
G1 X38.517 Y151.175 E0.49049
G1 X36.076 Y151.175 E0.07655
G1 X23.602 Y125.441 E0.89667
G1 X26.282 Y125.441 E0.08402
G1 X29.711 Y133.445 E0.27301
G1 X29.984 Y133.123 F10800.000
G1 F1200.000
G1 X36.366 Y133.123 E0.20010
G1 X36.366 Y130.508 E0.08197
G1 X38.938 Y130.508 E0.08066
G1 X39.352 Y134.159 E0.11519
G1 X38.894 Y135.591 E0.04713
G1 X38.894 Y151.553 E0.50047
G1 X35.840 Y151.553 E0.09578
G1 X23.000 Y125.064 E0.92295
G1 X26.531 Y125.064 E0.11069
G1 X29.960 Y133.068 E0.27301
G1 X30.078 Y133.511 F10800.000
G1 X31.901 Y135.337
G1 F1200.000
G1 X30.346 Y133.783 E0.06921
G1 X30.881 Y133.783 E0.01685
G1 X32.266 Y135.168 E0.06166
G1 X32.802 Y135.168 E0.01685
G1 X31.416 Y133.783 E0.06166
G1 X31.952 Y133.783 E0.01685
G1 X33.337 Y135.168 E0.06166
G1 X33.872 Y135.168 E0.01685
G1 X32.487 Y133.783 E0.06166
G1 X33.022 Y133.783 E0.01685
G1 X34.408 Y135.168 E0.06166
G1 X34.943 Y135.168 E0.01685
G1 X33.558 Y133.783 E0.06166
G1 X34.093 Y133.783 E0.01685
G1 X35.478 Y135.168 E0.06166
G1 X36.014 Y135.168 E0.01685
G1 X34.628 Y133.783 E0.06166
G1 X35.164 Y133.783 E0.01685
G1 X36.719 Y135.337 E0.06921
G1 X38.598 Y131.864 F10800.000
G1 F1200.000
G1 X37.903 Y131.168 E0.03097
G1 X37.367 Y131.168 E0.01685
G1 X38.474 Y132.275 E0.04927
G1 X38.543 Y132.879 E0.01912
G1 X37.025 Y131.362 E0.06753
G1 X37.025 Y131.897 E0.01685
G1 X38.611 Y133.483 E0.07058
G1 X38.679 Y134.086 E0.01912
G1 X37.025 Y132.432 E0.07362
G1 X37.025 Y132.968 E0.01685
G1 X38.552 Y134.494 E0.06795
G1 X38.422 Y134.900 E0.01341
G1 X37.025 Y133.503 E0.06218
G1 X37.025 Y133.783 E0.00880
G1 X36.770 Y133.783 E0.00805
G1 X38.293 Y135.306 E0.06779
G1 X38.234 Y135.488 E0.00602
G1 X38.234 Y135.783 E0.00928
G1 X36.234 Y133.783 E0.08903
G1 X35.699 Y133.783 E0.01685
G1 X38.234 Y136.318 E0.11286
G1 X38.234 Y136.853 E0.01685
G1 X37.025 Y135.644 E0.05382
G1 X37.025 Y136.180 E0.01685
G1 X38.234 Y137.389 E0.05382
G1 X38.234 Y137.924 E0.01685
G1 X37.025 Y136.715 E0.05382
G1 X37.025 Y137.250 E0.01685
G1 X38.234 Y138.459 E0.05382
G1 X38.234 Y138.995 E0.01685
G1 X37.025 Y137.786 E0.05382
G1 X37.025 Y138.321 E0.01685
G1 X38.234 Y139.530 E0.05382
G1 X38.234 Y140.065 E0.01685
G1 X37.025 Y138.856 E0.05382
G1 X37.025 Y139.392 E0.01685
G1 X38.234 Y140.601 E0.05382
G1 X38.234 Y141.136 E0.01685
G1 X37.025 Y139.927 E0.05382
G1 X37.025 Y140.462 E0.01685
G1 X38.234 Y141.671 E0.05382
G1 X38.234 Y142.207 E0.01685
G1 X37.025 Y140.998 E0.05382
G1 X37.025 Y141.533 E0.01685
G1 X38.234 Y142.742 E0.05382
G1 X38.234 Y143.277 E0.01685
G1 X37.025 Y142.068 E0.05382
G1 X37.025 Y142.604 E0.01685
G1 X38.234 Y143.813 E0.05382
G1 X38.234 Y144.348 E0.01685
G1 X37.025 Y143.139 E0.05382
G1 X37.025 Y143.674 E0.01685
G1 X38.234 Y144.883 E0.05382
G1 X38.234 Y145.419 E0.01685
G1 X37.025 Y144.210 E0.05382
G1 X37.025 Y144.745 E0.01685
G1 X38.234 Y145.954 E0.05382
G1 X38.234 Y146.489 E0.01685
G1 X37.025 Y145.280 E0.05382
G1 X37.025 Y145.815 E0.01685
G1 X38.234 Y147.024 E0.05382
G1 X38.234 Y147.560 E0.01685
G1 X37.025 Y146.351 E0.05382
G1 X37.025 Y146.693 E0.01076
G1 X36.865 Y146.726 E0.00516
G1 X38.234 Y148.095 E0.06096
G1 X38.234 Y148.630 E0.01685
G1 X36.421 Y146.817 E0.08073
G1 X35.977 Y146.908 E0.01427
G1 X38.234 Y149.166 E0.10050
G1 X38.234 Y149.701 E0.01685
G1 X35.532 Y146.999 E0.12028
G1 X35.238 Y147.060 E0.00947
G1 X34.971 Y146.438 E0.02129
G1 X33.269 Y144.735 E0.07579
G1 X32.765 Y143.696 E0.03634
G1 X34.570 Y145.501 E0.08034
G1 X34.168 Y144.564 E0.03207
G1 X32.261 Y142.657 E0.08489
G1 X31.758 Y141.619 E0.03634
G1 X33.767 Y143.628 E0.08943
G1 X33.366 Y142.691 E0.03207
G1 X31.254 Y140.580 E0.09398
G1 X30.751 Y139.541 E0.03634
G1 X32.964 Y141.754 E0.09853
G1 X32.563 Y140.818 E0.03207
G1 X30.247 Y138.502 E0.10308
G1 X29.744 Y137.463 E0.03634
G1 X32.162 Y139.881 E0.10763
G1 X31.760 Y138.944 E0.03207
G1 X29.240 Y136.424 E0.11218
G1 X28.737 Y135.385 E0.03634
G1 X31.359 Y138.008 E0.11673
G1 X30.958 Y137.071 E0.03207
G1 X28.233 Y134.346 E0.12128
G1 X27.729 Y133.307 E0.03634
G1 X30.556 Y136.134 E0.12583
G1 X30.155 Y135.198 E0.03207
G1 X27.226 Y132.269 E0.13038
G1 X26.722 Y131.230 E0.03634
G1 X30.660 Y135.168 E0.17529
G1 X31.196 Y135.168 E0.01685
G1 X26.219 Y130.191 E0.22153
G1 X25.715 Y129.152 E0.03634
G1 X28.951 Y132.387 E0.14402
G1 X28.549 Y131.451 E0.03207
G1 X25.212 Y128.113 E0.14857
G1 X24.708 Y127.074 E0.03634
G1 X28.148 Y130.514 E0.15312
G1 X27.747 Y129.577 E0.03207
G1 X24.204 Y126.035 E0.15767
G1 X24.054 Y125.724 E0.01089
G1 X24.429 Y125.724 E0.01180
G1 X27.345 Y128.641 E0.12983
G1 X26.944 Y127.704 E0.03207
G1 X24.964 Y125.724 E0.08813
G1 X25.499 Y125.724 E0.01685
G1 X26.543 Y126.767 E0.04644
G1 X26.141 Y125.831 E0.03207
G1 X25.865 Y125.554 E0.01230
G1 E-0.80000 F2100.00000
G1 Z0.800 F10800.000
G1 X35.420 Y149.564
G1 Z0.200
G1 E0.80000 F2100.00000
G1 F1200.000
G1 X36.749 Y150.893 E0.05916
G1 X37.285 Y150.893 E0.01685
G1 X35.283 Y148.891 E0.08911
G1 X34.779 Y147.852 E0.03634
G1 X37.820 Y150.893 E0.13536
G1 X38.234 Y150.893 E0.01304
G1 X38.234 Y150.772 E0.00381
G1 X34.276 Y146.813 E0.17622
G1 X33.772 Y145.774 E0.03634
G1 X38.404 Y150.406 E0.20619
G1 E-0.80000 F2100.00000
G1 Z0.800 F10800.000
G1 X52.008 Y135.450
G1 Z0.200
G1 E0.80000 F2100.00000
G1 F1200.000
G1 X58.180 Y135.450 E0.19351
G1 X58.180 Y146.462 E0.34526
G1 X56.844 Y146.736 E0.04276
G1 X52.032 Y135.506 E0.38309
G1 X52.580 Y135.828 F10800.000
G1 F1200.000
G1 X57.803 Y135.828 E0.16376
G1 X57.803 Y146.154 E0.32379
G1 X57.069 Y146.305 E0.02348
G1 X52.603 Y135.883 E0.35552
G1 X52.518 Y135.432 F10800.000
G1 X51.172 Y133.500
G1 F1200.000
G1 X58.180 Y133.500 E0.21972
G1 X58.180 Y130.885 E0.08197
G1 X60.039 Y130.885 E0.05828
G1 X60.405 Y134.121 E0.10210
G1 X59.954 Y135.532 E0.04644
G1 X59.954 Y151.175 E0.49049
G1 X57.513 Y151.175 E0.07655
G1 X45.039 Y125.441 E0.89667
G1 X47.719 Y125.441 E0.08402
G1 X51.148 Y133.445 E0.27301
G1 X51.421 Y133.123 F10800.000
G1 F1200.000
G1 X57.803 Y133.123 E0.20010
G1 X57.803 Y130.508 E0.08197
G1 X60.375 Y130.508 E0.08066
G1 X60.789 Y134.159 E0.11519
G1 X60.332 Y135.591 E0.04713
G1 X60.332 Y151.553 E0.50047
G1 X57.277 Y151.553 E0.09578
G1 X44.438 Y125.064 E0.92295
G1 X47.968 Y125.064 E0.11069
G1 X51.397 Y133.068 E0.27301
G1 X51.515 Y133.511 F10800.000
G1 X53.338 Y135.337
G1 F1200.000
G1 X51.783 Y133.783 E0.06921
G1 X52.318 Y133.783 E0.01685
G1 X53.703 Y135.168 E0.06166
G1 X54.239 Y135.168 E0.01685
G1 X52.854 Y133.783 E0.06166
G1 X53.389 Y133.783 E0.01685
G1 X54.774 Y135.168 E0.06166
G1 X55.309 Y135.168 E0.01685
G1 X53.924 Y133.783 E0.06166
G1 X54.460 Y133.783 E0.01685
G1 X55.845 Y135.168 E0.06166
G1 X56.380 Y135.168 E0.01685
G1 X54.995 Y133.783 E0.06166
G1 X55.530 Y133.783 E0.01685
G1 X56.915 Y135.168 E0.06166
G1 X57.451 Y135.168 E0.01685
G1 X56.066 Y133.783 E0.06166
G1 X56.601 Y133.783 E0.01685
G1 X58.156 Y135.337 E0.06921
G1 X60.036 Y131.864 F10800.000
G1 F1200.000
G1 X59.340 Y131.168 E0.03097
G1 X58.805 Y131.168 E0.01685
G1 X59.911 Y132.275 E0.04927
G1 X59.980 Y132.879 E0.01912
G1 X58.463 Y131.362 E0.06753
