; generated by PrusaSlicer 2.2.0+win64 on 2020-11-18 at 23:59:37 UTC

; 

; external perimeters extrusion width = 0.60mm
; perimeters extrusion width = 0.43mm
; infill extrusion width = 0.45mm
; solid infill extrusion width = 0.70mm
; top infill extrusion width = 0.43mm
; first layer extrusion width = 0.42mm

M73 P0 R72
M201 X9000 Y9000 Z500 E10000 ; sets maximum accelerations, mm/sec^2
M203 X500 Y500 Z12 E120 ; sets maximum feedrates, mm/sec
M204 P2000 R1500 T2000 ; sets acceleration (P, T) and retract acceleration (R), mm/sec^2
M205 X10.00 Y10.00 Z0.20 E2.50 ; sets the jerk limits, mm/sec
M205 S0 T0 ; sets the minimum extruding and travel feed rate, mm/sec
M107
M862.3 P "MK2S" ; printer model check
M862.1 P0.4 ; nozzle diameter check
M115 U3.2.3 ; tell printer latest fw version
G90 ; use absolute coordinates
M83 ; extruder relative mode
M204 S2000 T1500 ; MK2 firmware only supports the old M204 format
M104 S215 ; set extruder temp
M140 S60 ; set bed temp
M190 S60 ; wait for bed temp
M109 S215 ; wait for extruder temp
G28 W ; home all without mesh bed level
G80 ; mesh bed leveling
G1 Y-3.0 F1000.0 ; go outside print area
G92 E0.0
G1 X60.0 E9.0  F1000.0 ; intro line
M73 P0 R72
G1 X100.0 E12.5 F1000.0 ; intro line
G92 E0.0
G21 ; set units to millimeters
G90 ; use absolute coordinates
M83 ; use relative distances for extrusion
M900 K0.05 ; Filament gcode LA 1.5
M900 K30 ; Filament gcode LA 1.0
;BEFORE_LAYER_CHANGE
G92 E0.0
;0.2


G1 E-0.80000 F2100.00000
G1 Z0.600 F10800.000
;AFTER_LAYER_CHANGE
;0.2
G1 X72.057 Y43.606
G1 Z0.200
G1 E0.80000 F2100.00000
M204 S1000
G1 F1200.000
G1 X72.706 Y42.715 E0.03458
G1 X73.546 Y41.938 E0.03588
G1 X74.238 Y41.480 E0.02601
G1 X74.973 Y41.138 E0.02541
G1 X76.025 Y40.834 E0.03433
G1 X141.250 Y28.934 E2.07887
G1 X142.102 Y28.871 E0.02676
G1 X168.111 Y28.871 E0.81552
G1 X168.919 Y28.927 E0.02539
G1 X169.622 Y29.072 E0.02251
G1 X170.688 Y29.471 E0.03566
G1 X171.309 Y29.819 E0.02233
G1 X171.958 Y30.309 E0.02549
G1 X172.540 Y30.889 E0.02578
G1 X173.008 Y31.505 E0.02426
G1 X186.121 Y53.277 E0.79689
G1 X186.462 Y53.917 E0.02274
G1 X186.741 Y54.668 E0.02513
G1 X186.920 Y55.471 E0.02580
G1 X186.979 Y56.181 E0.02233
G1 X186.968 Y111.848 E1.74541
G1 X176.720 Y146.203 E1.12407
G1 X176.115 Y147.686 E0.05021
G1 X156.404 Y178.006 E1.13391
G1 X155.483 Y179.098 E0.04477
G1 X154.785 Y179.704 E0.02897
G1 X154.018 Y180.211 E0.02886
G1 X152.701 Y180.812 E0.04538
G1 X151.790 Y181.056 E0.02957
G1 X150.339 Y181.205 E0.04573
G1 X86.371 Y181.205 E2.00566
G1 X84.689 Y181.003 E0.05312
G1 X83.408 Y180.571 E0.04240
G1 X82.646 Y180.181 E0.02683
G1 X81.290 Y179.154 E0.05334
G1 X64.829 Y162.661 E0.73064
G1 X64.244 Y161.883 E0.03052
G1 X63.565 Y160.587 E0.04585
G1 X63.275 Y159.698 E0.02933
G1 X63.049 Y158.295 E0.04454
G1 X63.049 Y141.394 E0.52992
G1 X71.244 Y46.242 E2.99448
G1 X71.360 Y45.382 E0.02719
G1 X71.588 Y44.605 E0.02541
G1 X72.031 Y43.661 E0.03269
G1 E-0.80000 F2100.00000
G1 Z0.800 F10800.000
G1 X131.820 Y130.046
G1 Z0.200
G1 E0.80000 F2100.00000
G1 F1200.000
G1 X126.395 Y130.046 E0.17012
G1 X126.395 Y109.092 E0.65701
G1 X126.460 Y108.482 E0.01924
G1 X126.593 Y108.048 E0.01422
G1 X126.800 Y107.638 E0.01441
G1 X127.073 Y107.268 E0.01441
G1 X127.405 Y106.950 E0.01441
G1 X127.786 Y106.693 E0.01441
G1 X128.205 Y106.503 E0.01441
G1 X128.650 Y106.387 E0.01441
G1 X129.108 Y106.348 E0.01441
G1 X129.566 Y106.387 E0.01441
G1 X130.010 Y106.503 E0.01441
G1 X130.429 Y106.693 E0.01441
G1 X130.810 Y106.950 E0.01441
G1 X131.142 Y107.268 E0.01441
G1 X131.415 Y107.638 E0.01441
G1 X131.622 Y108.048 E0.01441
G1 X131.757 Y108.488 E0.01441
G1 X131.818 Y108.962 E0.01501
G1 X131.820 Y129.986 E0.65920
G1 X132.198 Y130.424 F10800.000
G1 F1200.000
G1 X126.018 Y130.424 E0.19377
G1 X126.018 Y109.072 E0.66947
G1 X126.089 Y108.406 E0.02101
G1 X126.242 Y107.907 E0.01636
G1 X126.478 Y107.439 E0.01643
G1 X126.789 Y107.018 E0.01642
G1 X127.167 Y106.656 E0.01642
G1 X127.601 Y106.362 E0.01642
G1 X128.079 Y106.146 E0.01642
G1 X128.586 Y106.014 E0.01643
G1 X129.108 Y105.970 E0.01642
G1 X129.630 Y106.014 E0.01642
G1 X130.137 Y106.146 E0.01643
G1 X130.614 Y106.362 E0.01642
G1 X131.048 Y106.656 E0.01642
G1 X131.426 Y107.018 E0.01642
G1 X131.738 Y107.439 E0.01642
G1 X131.973 Y107.907 E0.01643
G1 X132.127 Y108.408 E0.01643
G1 X132.195 Y108.938 E0.01677
G1 X132.198 Y130.364 E0.67177
G1 X131.851 Y130.224 F10800.000
G1 E-0.80000 F2100.00000
G1 Z0.800 F10800.000
G1 X131.674 Y108.734
G1 Z0.200
G1 E0.80000 F2100.00000
G1 F1200.000
G1 X129.639 Y106.699 E0.09027
G1 X129.518 Y106.667 E0.00393
G1 X129.044 Y106.638 E0.01487
G1 X131.535 Y109.128 E0.11046
G1 X131.535 Y109.662 E0.01673
G1 X128.573 Y106.700 E0.13137
G1 X128.299 Y106.771 E0.00887
G1 X128.170 Y106.830 E0.00447
G1 X131.535 Y110.195 E0.14927
G1 X131.535 Y110.729 E0.01673
G1 X127.819 Y107.012 E0.16484
G1 X127.512 Y107.239 E0.01196
G1 X131.535 Y111.262 E0.17843
G1 X131.535 Y111.795 E0.01673
G1 X127.248 Y107.508 E0.19017
G1 X127.025 Y107.819 E0.01199
G1 X131.535 Y112.329 E0.20003
G1 X131.535 Y112.862 E0.01673
G1 X126.849 Y108.176 E0.20783
G1 X126.733 Y108.593 E0.01357
G1 X131.535 Y113.396 E0.21302
G1 X131.536 Y113.929 E0.01673
G1 X126.681 Y109.075 E0.21531
G1 X126.677 Y109.107 E0.00102
G1 X126.677 Y109.605 E0.01560
G1 X131.536 Y114.463 E0.21547
G1 X131.536 Y114.996 E0.01673
G1 X126.677 Y110.138 E0.21547
G1 X126.677 Y110.672 E0.01673
G1 X131.536 Y115.530 E0.21548
G1 X131.536 Y116.063 E0.01673
G1 X126.677 Y111.205 E0.21548
G1 X126.677 Y111.738 E0.01673
G1 X131.536 Y116.597 E0.21548
G1 X131.536 Y117.130 E0.01673
G1 X126.677 Y112.272 E0.21549
G1 X126.677 Y112.805 E0.01673
G1 X131.536 Y117.664 E0.21549
G1 X131.536 Y118.197 E0.01673
G1 X126.677 Y113.339 E0.21549
G1 X126.677 Y113.872 E0.01673
G1 X131.536 Y118.731 E0.21550
G1 X131.536 Y119.264 E0.01673
G1 X126.677 Y114.405 E0.21550
G1 X126.677 Y114.939 E0.01673
G1 X131.536 Y119.798 E0.21550
G1 X131.536 Y120.331 E0.01673
G1 X126.677 Y115.472 E0.21550
G1 X126.677 Y116.006 E0.01673
G1 X131.536 Y120.865 E0.21551
G1 X131.537 Y121.398 E0.01673
G1 X126.677 Y116.539 E0.21551
G1 X126.677 Y117.072 E0.01673
G1 X131.537 Y121.931 E0.21551
G1 X131.537 Y122.465 E0.01673
G1 X126.677 Y117.606 E0.21552
G1 X126.677 Y118.139 E0.01673
G1 X131.537 Y122.998 E0.21552
G1 X131.537 Y123.532 E0.01673
G1 X126.677 Y118.673 E0.21552
G1 X126.677 Y119.206 E0.01673
G1 X131.537 Y124.065 E0.21553
G1 X131.537 Y124.599 E0.01673
G1 X126.677 Y119.739 E0.21553
G1 X126.677 Y120.273 E0.01673
G1 X131.537 Y125.132 E0.21553
G1 X131.537 Y125.666 E0.01673
G1 X126.677 Y120.806 E0.21554
G1 X126.677 Y121.340 E0.01673
G1 X131.537 Y126.199 E0.21554
G1 X131.537 Y126.733 E0.01673
G1 X126.677 Y121.873 E0.21554
G1 X126.677 Y122.406 E0.01673
G1 X131.537 Y127.266 E0.21555
G1 X131.537 Y127.800 E0.01673
G1 X126.677 Y122.940 E0.21555
G1 X126.677 Y123.473 E0.01673
G1 X131.537 Y128.333 E0.21555
G1 X131.538 Y128.867 E0.01673
G1 X126.677 Y124.007 E0.21556
G1 X126.677 Y124.540 E0.01673
G1 X131.538 Y129.400 E0.21556
G1 X131.538 Y129.764 E0.01140
G1 X131.368 Y129.764 E0.00533
G1 X126.677 Y125.073 E0.20802
G1 X126.677 Y125.607 E0.01673
G1 X130.834 Y129.764 E0.18437
G1 X130.301 Y129.764 E0.01673
G1 X126.677 Y126.140 E0.16071
G1 X126.677 Y126.674 E0.01673
G1 X129.768 Y129.764 E0.13705
G1 X129.234 Y129.764 E0.01673
G1 X126.677 Y127.207 E0.11339
G1 X126.677 Y127.740 E0.01673
G1 X128.701 Y129.764 E0.08973
G1 X128.167 Y129.764 E0.01673
G1 X126.677 Y128.274 E0.06608
G1 X126.677 Y128.807 E0.01673
G1 X127.634 Y129.764 E0.04242
G1 X127.100 Y129.764 E0.01673
G1 X126.508 Y129.171 E0.02629
G1 E-0.80000 F2100.00000
G1 Z0.800 F10800.000
G1 X118.820 Y130.046
G1 Z0.200
G1 E0.80000 F2100.00000
G1 F1200.000
G1 X113.395 Y130.046 E0.17012
G1 X113.395 Y109.092 E0.65701
G1 X113.460 Y108.482 E0.01924
G1 X113.593 Y108.048 E0.01422
G1 X113.800 Y107.638 E0.01441
G1 X114.073 Y107.268 E0.01441
G1 X114.405 Y106.950 E0.01441
G1 X114.786 Y106.693 E0.01441
G1 X115.205 Y106.503 E0.01441
G1 X115.650 Y106.387 E0.01441
G1 X116.108 Y106.348 E0.01441
G1 X116.566 Y106.387 E0.01441
G1 X117.010 Y106.503 E0.01441
G1 X117.429 Y106.693 E0.01441
G1 X117.810 Y106.950 E0.01441
G1 X118.142 Y107.268 E0.01441
G1 X118.415 Y107.638 E0.01441
G1 X118.622 Y108.048 E0.01441
G1 X118.757 Y108.488 E0.01441
G1 X118.818 Y108.962 E0.01501
G1 X118.820 Y129.986 E0.65920
G1 X119.198 Y130.424 F10800.000
G1 F1200.000
G1 X113.018 Y130.424 E0.19377
G1 X113.018 Y109.072 E0.66947
G1 X113.089 Y108.406 E0.02101
G1 X113.242 Y107.907 E0.01636
G1 X113.478 Y107.439 E0.01643
G1 X113.789 Y107.018 E0.01642
G1 X114.167 Y106.656 E0.01642
G1 X114.601 Y106.362 E0.01642
G1 X115.079 Y106.146 E0.01642
G1 X115.586 Y106.014 E0.01643
G1 X116.108 Y105.970 E0.01642
G1 X116.630 Y106.014 E0.01642
G1 X117.137 Y106.146 E0.01643
G1 X117.614 Y106.362 E0.01642
G1 X118.048 Y106.656 E0.01642
G1 X118.426 Y107.018 E0.01642
G1 X118.738 Y107.439 E0.01642
G1 X118.973 Y107.907 E0.01643
G1 X119.127 Y108.408 E0.01643
G1 X119.195 Y108.938 E0.01677
G1 X119.198 Y130.364 E0.67177
G1 X118.851 Y130.224 F10800.000
G1 E-0.80000 F2100.00000
G1 Z0.800 F10800.000
G1 X118.674 Y108.734
G1 Z0.200
G1 E0.80000 F2100.00000
G1 F1200.000
G1 X116.639 Y106.699 E0.09027
G1 X116.518 Y106.667 E0.00393
G1 X116.044 Y106.638 E0.01487
G1 X118.535 Y109.128 E0.11046
G1 X118.535 Y109.662 E0.01673
G1 X115.573 Y106.700 E0.13137
G1 X115.299 Y106.771 E0.00887
G1 X115.170 Y106.830 E0.00447
G1 X118.535 Y110.195 E0.14927
G1 X118.535 Y110.729 E0.01673
G1 X114.819 Y107.012 E0.16484
G1 X114.512 Y107.239 E0.01196
G1 X118.535 Y111.262 E0.17843
G1 X118.535 Y111.795 E0.01673
G1 X114.248 Y107.508 E0.19017
G1 X114.025 Y107.819 E0.01199
G1 X118.535 Y112.329 E0.20003
G1 X118.535 Y112.862 E0.01673
G1 X113.849 Y108.176 E0.20783
G1 X113.733 Y108.593 E0.01357
G1 X118.535 Y113.396 E0.21302
M73 P1 R71
G1 X118.536 Y113.929 E0.01673
G1 X113.681 Y109.075 E0.21531
G1 X113.677 Y109.107 E0.00102
G1 X113.677 Y109.605 E0.01560
G1 X118.536 Y114.463 E0.21547
G1 X118.536 Y114.996 E0.01673
G1 X113.677 Y110.138 E0.21547
G1 X113.677 Y110.672 E0.01673
G1 X118.536 Y115.530 E0.21548
G1 X118.536 Y116.063 E0.01673
G1 X113.677 Y111.205 E0.21548
G1 X113.677 Y111.738 E0.01673
G1 X118.536 Y116.597 E0.21548
G1 X118.536 Y117.130 E0.01673
G1 X113.677 Y112.272 E0.21549
G1 X113.677 Y112.805 E0.01673
G1 X118.536 Y117.664 E0.21549
G1 X118.536 Y118.197 E0.01673
G1 X113.677 Y113.339 E0.21549
G1 X113.677 Y113.872 E0.01673
G1 X118.536 Y118.731 E0.21550
G1 X118.536 Y119.264 E0.01673
G1 X113.677 Y114.405 E0.21550
G1 X113.677 Y114.939 E0.01673
G1 X118.536 Y119.798 E0.21550
G1 X118.536 Y120.331 E0.01673
G1 X113.677 Y115.472 E0.21550
G1 X113.677 Y116.006 E0.01673
G1 X118.536 Y120.865 E0.21551
G1 X118.537 Y121.398 E0.01673
G1 X113.677 Y116.539 E0.21551
G1 X113.677 Y117.072 E0.01673
G1 X118.537 Y121.931 E0.21551
G1 X118.537 Y122.465 E0.01673
G1 X113.677 Y117.606 E0.21552
G1 X113.677 Y118.139 E0.01673
G1 X118.537 Y122.998 E0.21552
G1 X118.537 Y123.532 E0.01673
G1 X113.677 Y118.673 E0.21552
G1 X113.677 Y119.206 E0.01673
G1 X118.537 Y124.065 E0.21553
G1 X118.537 Y124.599 E0.01673
G1 X113.677 Y119.739 E0.21553
G1 X113.677 Y120.273 E0.01673
G1 X118.537 Y125.132 E0.21553
G1 X118.537 Y125.666 E0.01673
G1 X113.677 Y120.806 E0.21554
G1 X113.677 Y121.340 E0.01673
G1 X118.537 Y126.199 E0.21554
G1 X118.537 Y126.733 E0.01673
G1 X113.677 Y121.873 E0.21554
G1 X113.677 Y122.406 E0.01673
G1 X118.537 Y127.266 E0.21555
G1 X118.537 Y127.800 E0.01673
G1 X113.677 Y122.940 E0.21555
G1 X113.677 Y123.473 E0.01673
G1 X118.537 Y128.333 E0.21555
G1 X118.538 Y128.867 E0.01673
G1 X113.677 Y124.007 E0.21556
G1 X113.677 Y124.540 E0.01673
G1 X118.538 Y129.400 E0.21556
G1 X118.538 Y129.764 E0.01140
G1 X118.368 Y129.764 E0.00533
G1 X113.677 Y125.073 E0.20802
G1 X113.677 Y125.607 E0.01673
G1 X117.834 Y129.764 E0.18437
G1 X117.301 Y129.764 E0.01673
G1 X113.677 Y126.140 E0.16071
G1 X113.677 Y126.674 E0.01673
G1 X116.768 Y129.764 E0.13705
G1 X116.234 Y129.764 E0.01673
G1 X113.677 Y127.207 E0.11339
G1 X113.677 Y127.740 E0.01673
G1 X115.701 Y129.764 E0.08973
G1 X115.167 Y129.764 E0.01673
G1 X113.677 Y128.274 E0.06608
G1 X113.677 Y128.807 E0.01673
G1 X114.634 Y129.764 E0.04242
G1 X114.100 Y129.764 E0.01673
G1 X113.508 Y129.171 E0.02629
G1 E-0.80000 F2100.00000
G1 Z0.800 F10800.000
G1 X105.820 Y130.046
G1 Z0.200
G1 E0.80000 F2100.00000
G1 F1200.000
G1 X100.395 Y130.046 E0.17012
G1 X100.395 Y109.092 E0.65701
G1 X100.460 Y108.482 E0.01924
G1 X100.593 Y108.048 E0.01422
G1 X100.800 Y107.638 E0.01441
G1 X101.073 Y107.268 E0.01441
G1 X101.405 Y106.950 E0.01441
G1 X101.786 Y106.693 E0.01441
G1 X102.205 Y106.503 E0.01441
G1 X102.650 Y106.387 E0.01441
G1 X103.108 Y106.348 E0.01441
G1 X103.566 Y106.387 E0.01441
G1 X104.010 Y106.503 E0.01441
G1 X104.429 Y106.693 E0.01441
G1 X104.810 Y106.950 E0.01441
G1 X105.142 Y107.268 E0.01441
G1 X105.415 Y107.638 E0.01441
G1 X105.622 Y108.048 E0.01441
G1 X105.757 Y108.488 E0.01441
G1 X105.818 Y108.962 E0.01501
G1 X105.820 Y129.986 E0.65920
G1 X106.198 Y130.424 F10800.000
G1 F1200.000
G1 X100.018 Y130.424 E0.19377
G1 X100.018 Y109.072 E0.66947
G1 X100.089 Y108.406 E0.02101
G1 X100.242 Y107.907 E0.01636
G1 X100.478 Y107.439 E0.01643
G1 X100.789 Y107.018 E0.01642
G1 X101.167 Y106.656 E0.01642
G1 X101.601 Y106.362 E0.01642
G1 X102.079 Y106.146 E0.01642
G1 X102.586 Y106.014 E0.01643
G1 X103.108 Y105.970 E0.01642
G1 X103.630 Y106.014 E0.01642
G1 X104.137 Y106.146 E0.01643
G1 X104.614 Y106.362 E0.01642
G1 X105.048 Y106.656 E0.01642
G1 X105.426 Y107.018 E0.01642
G1 X105.738 Y107.439 E0.01642
G1 X105.973 Y107.907 E0.01643
G1 X106.127 Y108.408 E0.01643
G1 X106.195 Y108.938 E0.01677
G1 X106.198 Y130.364 E0.67177
G1 X105.851 Y130.224 F10800.000
G1 E-0.80000 F2100.00000
G1 Z0.800 F10800.000
G1 X105.674 Y108.734
G1 Z0.200
G1 E0.80000 F2100.00000
G1 F1200.000
G1 X103.639 Y106.699 E0.09027
G1 X103.518 Y106.667 E0.00393
G1 X103.044 Y106.638 E0.01487
G1 X105.535 Y109.128 E0.11046
G1 X105.535 Y109.662 E0.01673
G1 X102.573 Y106.700 E0.13137
G1 X102.299 Y106.771 E0.00887
G1 X102.170 Y106.830 E0.00447
G1 X105.535 Y110.195 E0.14927
G1 X105.535 Y110.729 E0.01673
G1 X101.819 Y107.012 E0.16484
G1 X101.512 Y107.239 E0.01196
G1 X105.535 Y111.262 E0.17843
G1 X105.535 Y111.795 E0.01673
G1 X101.248 Y107.508 E0.19017
G1 X101.025 Y107.819 E0.01199
G1 X105.535 Y112.329 E0.20003
G1 X105.535 Y112.862 E0.01673
G1 X100.849 Y108.176 E0.20783
G1 X100.733 Y108.593 E0.01357
G1 X105.535 Y113.396 E0.21302
G1 X105.536 Y113.929 E0.01673
G1 X100.681 Y109.075 E0.21531
G1 X100.677 Y109.107 E0.00102
G1 X100.677 Y109.605 E0.01560
G1 X105.536 Y114.463 E0.21547
G1 X105.536 Y114.996 E0.01673
G1 X100.677 Y110.138 E0.21547
G1 X100.677 Y110.672 E0.01673
G1 X105.536 Y115.530 E0.21548
G1 X105.536 Y116.063 E0.01673
G1 X100.677 Y111.205 E0.21548
G1 X100.677 Y111.738 E0.01673
G1 X105.536 Y116.597 E0.21548
G1 X105.536 Y117.130 E0.01673
G1 X100.677 Y112.272 E0.21549
G1 X100.677 Y112.805 E0.01673
G1 X105.536 Y117.664 E0.21549
G1 X105.536 Y118.197 E0.01673
G1 X100.677 Y113.339 E0.21549
G1 X100.677 Y113.872 E0.01673
G1 X105.536 Y118.731 E0.21550
G1 X105.536 Y119.264 E0.01673
G1 X100.677 Y114.405 E0.21550
G1 X100.677 Y114.939 E0.01673
G1 X105.536 Y119.798 E0.21550
G1 X105.536 Y120.331 E0.01673
G1 X100.677 Y115.472 E0.21550
G1 X100.677 Y116.006 E0.01673
G1 X105.536 Y120.865 E0.21551
G1 X105.537 Y121.398 E0.01673
G1 X100.677 Y116.539 E0.21551
G1 X100.677 Y117.072 E0.01673
G1 X105.537 Y121.931 E0.21551
G1 X105.537 Y122.465 E0.01673
G1 X100.677 Y117.606 E0.21552
G1 X100.677 Y118.139 E0.01673
G1 X105.537 Y122.998 E0.21552
G1 X105.537 Y123.532 E0.01673
G1 X100.677 Y118.673 E0.21552
G1 X100.677 Y119.206 E0.01673
G1 X105.537 Y124.065 E0.21553
G1 X105.537 Y124.599 E0.01673
G1 X100.677 Y119.739 E0.21553
G1 X100.677 Y120.273 E0.01673
G1 X105.537 Y125.132 E0.21553
G1 X105.537 Y125.666 E0.01673
G1 X100.677 Y120.806 E0.21554
G1 X100.677 Y121.340 E0.01673
G1 X105.537 Y126.199 E0.21554
G1 X105.537 Y126.733 E0.01673
G1 X100.677 Y121.873 E0.21554
G1 X100.677 Y122.406 E0.01673
G1 X105.537 Y127.266 E0.21555
G1 X105.537 Y127.800 E0.01673
G1 X100.677 Y122.940 E0.21555
G1 X100.677 Y123.473 E0.01673
