; generated by PrusaSlicer 2.3.1+win64 on 2021-10-20 at 19:51:37 UTC

; 

; external perimeters extrusion width = 0.45mm
; perimeters extrusion width = 0.45mm
; infill extrusion width = 0.45mm
; solid infill extrusion width = 0.45mm
; top infill extrusion width = 0.40mm
; first layer extrusion width = 0.42mm

M73 P0 R69
M201 X9000 Y9000 Z500 E10000 ; sets maximum accelerations, mm/sec^2
M203 X500 Y500 Z12 E120 ; sets maximum feedrates, mm/sec
M204 P2000 R1500 T2000 ; sets acceleration (P, T) and retract acceleration (R), mm/sec^2
M205 X10.00 Y10.00 Z0.20 E2.50 ; sets the jerk limits, mm/sec
M205 S0 T0 ; sets the minimum extruding and travel feed rate, mm/sec
M107
;TYPE:Custom
M862.3 P "MK2S" ; printer model check
M862.1 P0.4 ; nozzle diameter check
M115 U3.2.3 ; tell printer latest fw version
G90 ; use absolute coordinates
M83 ; extruder relative mode
M204 S2000 T1500 ; MK2 firmware only supports the old M204 format
M104 S215 ; set extruder temp
M140 S60 ; set bed temp
M190 S60 ; wait for bed temp
M109 S215 ; wait for extruder temp
G28 W ; home all without mesh bed level
G80 ; mesh bed leveling
G1 Y-3.0 F1000.0 ; go outside print area
G92 E0.0
G1 X60.0 E9.0  F1000.0 ; intro line
G1 X100.0 E12.5 F1000.0 ; intro line
G92 E0.0
G21 ; set units to millimeters
G90 ; use absolute coordinates
M83 ; use relative distances for extrusion
M900 K0.05 ; Filament gcode LA 1.5
M900 K30 ; Filament gcode LA 1.0
;LAYER_CHANGE
;Z:0.2
;HEIGHT:0.2
;BEFORE_LAYER_CHANGE
G92 E0.0
;0.2


G1 E-0.80000 F2100.000
G1 Z0.600 F10800.000
;AFTER_LAYER_CHANGE
;0.2
G1 X75.923 Y65.333
G1 Z0.200
G1 E0.80000 F2100.000
M204 S1000
;TYPE:Perimeter
;WIDTH:0.42
G1 F1200.000
G1 X86.250 Y64.857 E0.32412
G1 X85.685 Y65.574 E0.02861
G1 X84.980 Y66.655 E0.04049
G1 X84.350 Y67.851 E0.04238
G1 X83.872 Y68.981 E0.03847
G1 X83.477 Y70.209 E0.04045
G1 X83.193 Y71.467 E0.04045
G1 X83.022 Y72.746 E0.04045
G1 X82.966 Y74.034 E0.04045
G1 X83.024 Y75.323 E0.04045
G1 X83.197 Y76.601 E0.04045
G1 X83.483 Y77.859 E0.04045
G1 X83.879 Y79.087 E0.04045
G1 X84.246 Y79.950 E0.02940
G1 X83.070 Y81.622 E0.06410
G1 X71.198 Y79.688 E0.37716
G1 X71.032 Y79.059 E0.02039
G1 X70.661 Y78.065 E0.03327
G1 X70.192 Y77.113 E0.03327
G1 X69.630 Y76.213 E0.03327
G1 X68.981 Y75.374 E0.03327
G1 X68.251 Y74.604 E0.03327
G1 X67.447 Y73.911 E0.03327
G1 X66.579 Y73.302 E0.03327
G1 X65.653 Y72.783 E0.03327
G1 X64.680 Y72.359 E0.03327
G1 X63.670 Y72.035 E0.03327
G1 X63.126 Y71.919 E0.01745
G1 X63.126 Y65.924 E0.18799
G1 X75.863 Y65.336 E0.39980
G1 E-0.80000 F2100.000
G1 Z0.800 F10800.000
G1 X79.949 Y81.496
G1 Z0.200
G1 E0.80000 F2100.000
;TYPE:External perimeter
G1 F1200.000
G1 X70.895 Y80.020 E0.28763
G1 X70.672 Y79.173 E0.02747
G1 X70.314 Y78.214 E0.03208
G1 X69.862 Y77.297 E0.03208
G1 X69.320 Y76.429 E0.03208
G1 X68.694 Y75.620 E0.03208
G1 X67.990 Y74.877 E0.03208
G1 X67.215 Y74.209 E0.03208
G1 X66.378 Y73.622 E0.03208
G1 X65.485 Y73.121 E0.03208
G1 X64.547 Y72.713 E0.03208
G1 X63.573 Y72.400 E0.03208
G1 X62.749 Y72.224 E0.02642
G1 X62.749 Y65.564 E0.20884
G1 X87.078 Y64.441 E0.76363
G1 X85.992 Y65.794 E0.05439
G1 X85.305 Y66.846 E0.03941
G1 X84.691 Y68.012 E0.04133
G1 X84.226 Y69.112 E0.03744
G1 X83.841 Y70.308 E0.03939
G1 X83.565 Y71.534 E0.03939
G1 X83.398 Y72.779 E0.03939
G1 X83.343 Y74.034 E0.03939
G1 X83.400 Y75.289 E0.03939
G1 X83.568 Y76.534 E0.03939
G1 X83.847 Y77.759 E0.03939
G1 X84.233 Y78.955 E0.03939
G1 X84.675 Y79.995 E0.03544
G1 X83.242 Y82.032 E0.07808
G1 X80.009 Y81.505 E0.10273
G1 X79.751 Y81.148 F10800.000
G1 E-0.80000 F2100.000
G1 Z0.800 F10800.000
G1 X71.097 Y78.910
G1 Z0.200
G1 E0.80000 F2100.000
;TYPE:Solid infill
;WIDTH:0.424894
G1 F1200.000
G1 X71.665 Y79.477 E0.02548
G1 X72.310 Y79.582 E0.02077
G1 X71.064 Y78.337 E0.05594
G1 X70.921 Y77.953 E0.01303
G1 X70.630 Y77.362 E0.02091
G1 X72.955 Y79.687 E0.10445
G1 X73.601 Y79.793 E0.02077
G1 X63.409 Y69.601 E0.45779
G1 X63.409 Y69.061 E0.01716
G1 X74.246 Y79.898 E0.48678
G1 X74.891 Y80.003 E0.02077
G1 X63.409 Y68.520 E0.51576
G1 X63.409 Y67.980 E0.01716
G1 X75.537 Y80.108 E0.54475
G1 X76.182 Y80.213 E0.02077
G1 X63.409 Y67.440 E0.57374
G1 X63.409 Y66.900 E0.01716
G1 X76.827 Y80.318 E0.60273
G1 X77.473 Y80.424 E0.02077
G1 X63.409 Y66.360 E0.63171
G1 X63.409 Y66.194 E0.00527
G1 X63.767 Y66.177 E0.01138
G1 X78.118 Y80.529 E0.64463
G1 X78.763 Y80.634 E0.02077
G1 X64.283 Y66.153 E0.65042
G1 X64.799 Y66.130 E0.01642
G1 X79.409 Y80.739 E0.65621
G1 X80.054 Y80.844 E0.02077
G1 X65.316 Y66.106 E0.66201
G1 X65.832 Y66.082 E0.01642
G1 X80.699 Y80.949 E0.66780
G1 X81.345 Y81.054 E0.02077
G1 X66.349 Y66.058 E0.67359
G1 X66.865 Y66.034 E0.01642
G1 X81.990 Y81.160 E0.67939
G1 X82.636 Y81.265 E0.02077
G1 X67.381 Y66.010 E0.68518
G1 X67.898 Y65.987 E0.01642
G1 X83.058 Y81.147 E0.68097
G1 X83.281 Y80.830 E0.01231
G1 X68.414 Y65.963 E0.66779
G1 X68.930 Y65.939 E0.01642
G1 X83.504 Y80.513 E0.65462
G1 X83.727 Y80.196 E0.01231
G1 X69.447 Y65.915 E0.64144
G1 X69.963 Y65.891 E0.01642
G1 X83.877 Y79.806 E0.62499
G1 X83.614 Y79.186 E0.02138
G1 X83.526 Y78.915 E0.00905
G1 X70.479 Y65.868 E0.58604
G1 X70.996 Y65.844 E0.01642
G1 X83.269 Y78.117 E0.55126
G1 X83.210 Y77.934 E0.00608
G1 X83.087 Y77.395 E0.01757
G1 X71.512 Y65.820 E0.51992
G1 X72.029 Y65.796 E0.01642
G1 X82.928 Y76.696 E0.48959
G1 X82.839 Y76.067 E0.02019
G1 X72.545 Y65.772 E0.46239
G1 X73.061 Y65.748 E0.01642
G1 X82.755 Y75.442 E0.43541
G1 X82.720 Y74.867 E0.01828
G1 X73.578 Y65.725 E0.41067
G1 X74.094 Y65.701 E0.01642
G1 X82.695 Y74.301 E0.38632
M73 P1 R69
G1 X82.695 Y73.761 E0.01716
G1 X74.610 Y65.677 E0.36312
G1 X75.127 Y65.653 E0.01642
G1 X82.717 Y73.244 E0.34095
G1 X82.740 Y72.726 E0.01645
G1 X75.643 Y65.629 E0.31877
G1 X76.159 Y65.605 E0.01642
G1 X82.803 Y72.249 E0.29842
G1 X82.867 Y71.773 E0.01527
G1 X76.676 Y65.582 E0.27809
G1 X77.192 Y65.558 E0.01642
G1 X82.940 Y71.305 E0.25816
G1 X83.039 Y70.864 E0.01435
G1 X77.709 Y65.534 E0.23943
G1 X78.225 Y65.510 E0.01642
G1 X83.139 Y70.424 E0.22071
G1 X83.249 Y69.994 E0.01409
G1 X78.741 Y65.486 E0.20247
G1 X79.258 Y65.462 E0.01642
G1 X83.380 Y69.585 E0.18518
G1 X83.512 Y69.176 E0.01364
G1 X79.774 Y65.439 E0.16789
G1 X80.290 Y65.415 E0.01642
G1 X83.651 Y68.776 E0.15096
G1 X83.812 Y68.396 E0.01309
G1 X80.807 Y65.391 E0.13498
G1 X81.323 Y65.367 E0.01642
G1 X83.972 Y68.016 E0.11900
G1 X84.139 Y67.643 E0.01299
G1 X81.839 Y65.343 E0.10330
G1 X82.356 Y65.319 E0.01642
G1 X84.326 Y67.289 E0.08848
G1 X84.512 Y66.935 E0.01270
G1 X82.872 Y65.296 E0.07366
G1 X83.389 Y65.272 E0.01642
G1 X84.698 Y66.582 E0.05883
G1 X84.906 Y66.249 E0.01245
G1 X83.905 Y65.248 E0.04498
G1 X84.421 Y65.224 E0.01642
G1 X85.120 Y65.923 E0.03137
G1 X85.333 Y65.596 E0.01240
G1 X84.938 Y65.200 E0.01776
G1 X85.454 Y65.177 E0.01642
G1 X85.678 Y65.400 E0.01005
G1 E-0.80000 F2100.000
G1 Z0.800 F10800.000
G1 X66.263 Y72.996
G1 Z0.200
G1 E0.80000 F2100.000
G1 F1200.000
G1 X63.409 Y70.141 E0.12823
G1 X63.409 Y70.681 E0.01716
G1 X64.854 Y72.127 E0.06494
G1 X64.047 Y71.859 E0.02703
G1 X63.239 Y71.052 E0.03627
G1 E-0.80000 F2100.000
G1 Z0.800 F10800.000
G1 X74.400 Y100.554
G1 Z0.200
G1 E0.80000 F2100.000
;TYPE:Perimeter
;WIDTH:0.42
G1 F1200.000
G1 X63.967 Y101.035 E0.32746
G1 X64.532 Y100.318 E0.02861
G1 X65.237 Y99.237 E0.04049
G1 X65.867 Y98.041 E0.04238
G1 X66.345 Y96.911 E0.03847
G1 X66.740 Y95.683 E0.04045
G1 X67.024 Y94.425 E0.04045
G1 X67.195 Y93.146 E0.04045
G1 X67.251 Y91.858 E0.04045
G1 X67.193 Y90.569 E0.04045
G1 X67.020 Y89.291 E0.04045
G1 X66.734 Y88.033 E0.04045
G1 X66.338 Y86.805 E0.04045
G1 X65.971 Y85.942 E0.02940
G1 X67.147 Y84.270 E0.06410
G1 X79.021 Y86.205 E0.37722
G1 X79.203 Y86.882 E0.02197
G1 X79.556 Y87.827 E0.03165
G1 X80.025 Y88.779 E0.03327
G1 X80.587 Y89.679 E0.03327
G1 X81.236 Y90.518 E0.03327
G1 X81.966 Y91.288 E0.03327
G1 X82.770 Y91.981 E0.03327
G1 X83.638 Y92.590 E0.03327
G1 X84.564 Y93.109 E0.03327
G1 X85.536 Y93.533 E0.03327
G1 X86.547 Y93.857 E0.03327
G1 X87.091 Y93.973 E0.01745
G1 X87.091 Y99.968 E0.18799
G1 X74.460 Y100.551 E0.39646
G1 X73.059 Y100.993 F10800.000
;TYPE:External perimeter
G1 F1200.000
G1 X63.139 Y101.451 E0.31136
G1 X64.225 Y100.098 E0.05439
G1 X64.912 Y99.046 E0.03941
G1 X65.526 Y97.880 E0.04133
G1 X65.991 Y96.780 E0.03744
G1 X66.376 Y95.584 E0.03939
G1 X66.652 Y94.358 E0.03939
G1 X66.819 Y93.113 E0.03939
G1 X66.874 Y91.858 E0.03939
G1 X66.817 Y90.603 E0.03939
G1 X66.649 Y89.358 E0.03939
G1 X66.370 Y88.133 E0.03939
G1 X65.984 Y86.937 E0.03939
G1 X65.542 Y85.897 E0.03544
G1 X66.975 Y83.860 E0.07808
G1 X79.322 Y85.872 E0.39227
G1 X79.562 Y86.766 E0.02904
G1 X79.903 Y87.677 E0.03049
G1 X80.355 Y88.595 E0.03208
G1 X80.897 Y89.463 E0.03208
G1 X81.523 Y90.272 E0.03208
G1 X82.227 Y91.015 E0.03208
G1 X83.001 Y91.683 E0.03208
G1 X83.839 Y92.270 E0.03208
G1 X84.732 Y92.771 E0.03208
G1 X85.670 Y93.179 E0.03208
G1 X86.644 Y93.492 E0.03208
G1 X87.468 Y93.668 E0.02642
G1 X87.468 Y100.328 E0.20884
G1 X73.119 Y100.990 E0.45039
G1 X72.798 Y100.690 F10800.000
G1 E-0.80000 F2100.000
G1 Z0.800 F10800.000
G1 X64.539 Y100.492
G1 Z0.200
G1 E0.80000 F2100.000
;TYPE:Solid infill
;WIDTH:0.424894
G1 F1200.000
G1 X64.763 Y100.715 E0.01005
G1 X65.279 Y100.692 E0.01642
G1 X64.884 Y100.296 E0.01776
M73 P1 R68
G1 X65.097 Y99.969 E0.01240
G1 X65.796 Y100.668 E0.03137
G1 X66.312 Y100.644 E0.01642
G1 X65.310 Y99.643 E0.04498
G1 X65.518 Y99.310 E0.01245
G1 X66.828 Y100.620 E0.05883
G1 X67.345 Y100.596 E0.01642
G1 X65.705 Y98.957 E0.07365
G1 X65.891 Y98.603 E0.01270
G1 X67.861 Y100.572 E0.08848
G1 X68.377 Y100.549 E0.01642
G1 X66.078 Y98.249 E0.10330
G1 X66.245 Y97.876 E0.01299
G1 X68.894 Y100.525 E0.11900
G1 X69.410 Y100.501 E0.01642
G1 X66.405 Y97.496 E0.13498
G1 X66.566 Y97.116 E0.01309
G1 X69.926 Y100.477 E0.15096
G1 X70.443 Y100.453 E0.01642
G1 X66.705 Y96.716 E0.16789
G1 X66.837 Y96.307 E0.01364
G1 X70.959 Y100.430 E0.18518
G1 X71.476 Y100.406 E0.01642
G1 X66.968 Y95.898 E0.20247
G1 X67.078 Y95.468 E0.01409
G1 X71.992 Y100.382 E0.22070
G1 X72.508 Y100.358 E0.01642
G1 X67.178 Y95.028 E0.23943
G1 X67.277 Y94.587 E0.01435
G1 X73.025 Y100.334 E0.25816
G1 X73.541 Y100.310 E0.01642
G1 X67.350 Y94.119 E0.27808
G1 X67.414 Y93.643 E0.01527
G1 X74.057 Y100.287 E0.29842
G1 X74.574 Y100.263 E0.01642
G1 X67.477 Y93.166 E0.31877
G1 X67.500 Y92.648 E0.01645
G1 X75.090 Y100.239 E0.34094
G1 X75.606 Y100.215 E0.01642
G1 X67.522 Y92.131 E0.36312
G1 X67.522 Y91.591 E0.01716
G1 X76.123 Y100.191 E0.38632
G1 X76.639 Y100.167 E0.01642
G1 X67.497 Y91.025 E0.41066
G1 X67.462 Y90.450 E0.01828
G1 X77.156 Y100.144 E0.43540
G1 X77.672 Y100.120 E0.01642
G1 X67.378 Y89.826 E0.46239
G1 X67.289 Y89.196 E0.02019
G1 X78.188 Y100.096 E0.48959
G1 X78.705 Y100.072 E0.01642
G1 X67.130 Y88.497 E0.51991
G1 X67.007 Y87.958 E0.01757
G1 X66.948 Y87.776 E0.00608
G1 X79.221 Y100.048 E0.55126
G1 X79.737 Y100.024 E0.01642
G1 X66.691 Y86.978 E0.58603
G1 X66.603 Y86.706 E0.00906
G1 X66.340 Y86.087 E0.02138
G1 X80.254 Y100.001 E0.62498
G1 X80.770 Y99.977 E0.01642
G1 X66.490 Y85.696 E0.64144
G1 X66.713 Y85.379 E0.01231
G1 X81.287 Y99.953 E0.65461
G1 X81.803 Y99.929 E0.01642
G1 X66.936 Y85.062 E0.66779
G1 X67.159 Y84.745 E0.01231
G1 X82.319 Y99.905 E0.68097
G1 X82.836 Y99.882 E0.01642
G1 X67.581 Y84.627 E0.68518
G1 X68.227 Y84.732 E0.02077
G1 X83.352 Y99.858 E0.67939
G1 X83.868 Y99.834 E0.01642
G1 X68.872 Y84.837 E0.67360
G1 X69.517 Y84.943 E0.02077
G1 X84.385 Y99.810 E0.66780
G1 X84.901 Y99.786 E0.01642
G1 X70.163 Y85.048 E0.66201
G1 X70.808 Y85.153 E0.02077
G1 X85.417 Y99.762 E0.65621
G1 X85.934 Y99.739 E0.01642
G1 X71.453 Y85.258 E0.65042
M73 P2 R68
G1 X72.099 Y85.363 E0.02077
G1 X86.450 Y99.715 E0.64463
G1 X86.808 Y99.698 E0.01138
G1 X86.808 Y99.533 E0.00526
G1 X72.744 Y85.468 E0.63172
G1 X73.389 Y85.574 E0.02077
G1 X86.808 Y98.992 E0.60273
G1 X86.808 Y98.452 E0.01716
G1 X74.035 Y85.679 E0.57374
G1 X74.680 Y85.784 E0.02077
G1 X86.808 Y97.912 E0.54476
G1 X86.808 Y97.372 E0.01716
G1 X75.325 Y85.889 E0.51577
G1 X75.971 Y85.994 E0.02077
G1 X86.808 Y96.832 E0.48678
G1 X86.808 Y96.291 E0.01716
G1 X76.616 Y86.099 E0.45779
G1 X77.262 Y86.205 E0.02077
G1 X79.587 Y88.530 E0.10445
G1 X79.296 Y87.939 E0.02091
G1 X79.153 Y87.555 E0.01302
G1 X77.907 Y86.310 E0.05595
G1 X78.552 Y86.415 E0.02077
G1 X79.120 Y86.982 E0.02548
G1 E-0.80000 F2100.000
G1 Z0.800 F10800.000
G1 X83.953 Y92.896
G1 Z0.200
G1 E0.80000 F2100.000
G1 F1200.000
G1 X86.808 Y95.751 E0.12823
G1 X86.808 Y95.211 E0.01716
G1 X85.362 Y93.765 E0.06494
G1 X86.170 Y94.033 E0.02703
G1 X86.978 Y94.840 E0.03628
G1 E-0.80000 F2100.000
G1 Z0.800 F10800.000
G1 X81.531 Y121.029
G1 Z0.200
G1 E0.80000 F2100.000
;TYPE:Perimeter
;WIDTH:0.42
G1 F1200.000
G1 X74.414 Y119.869 E0.22611
G1 X74.249 Y119.240 E0.02039
G1 X73.877 Y118.246 E0.03327
G1 X73.408 Y117.295 E0.03327
G1 X72.846 Y116.395 E0.03327
G1 X72.197 Y115.555 E0.03327
G1 X71.467 Y114.786 E0.03327
G1 X70.664 Y114.093 E0.03327
G1 X69.795 Y113.484 E0.03327
G1 X68.870 Y112.965 E0.03327
G1 X67.897 Y112.541 E0.03327
G1 X66.886 Y112.217 E0.03327
G1 X66.342 Y112.101 E0.01745
G1 X66.342 Y106.105 E0.18799
G1 X89.466 Y105.038 E0.72581
G1 X88.902 Y105.755 E0.02861
G1 X88.196 Y106.836 E0.04049
G1 X87.566 Y108.032 E0.04238
G1 X87.088 Y109.162 E0.03847
G1 X86.693 Y110.390 E0.04045
G1 X86.409 Y111.649 E0.04045
G1 X86.239 Y112.927 E0.04045
G1 X86.182 Y114.216 E0.04045
G1 X86.240 Y115.505 E0.04045
G1 X86.413 Y116.783 E0.04045
G1 X86.699 Y118.041 E0.04045
G1 X87.096 Y119.268 E0.04045
G1 X87.462 Y120.131 E0.02940
G1 X86.286 Y121.804 E0.06410
G1 X81.591 Y121.039 E0.14917
G1 X85.629 Y122.079 F10800.000
;TYPE:External perimeter
G1 F1200.000
G1 X74.112 Y120.202 E0.36590
G1 X73.889 Y119.355 E0.02747
G1 X73.531 Y118.396 E0.03208
G1 X73.078 Y117.478 E0.03208
G1 X72.537 Y116.610 E0.03208
G1 X71.911 Y115.801 E0.03208
G1 X71.207 Y115.059 E0.03208
G1 X70.432 Y114.391 E0.03208
G1 X69.594 Y113.803 E0.03208
G1 X68.702 Y113.303 E0.03208
G1 X67.764 Y112.894 E0.03208
G1 X66.789 Y112.582 E0.03208
G1 X65.965 Y112.406 E0.02642
G1 X65.965 Y105.745 E0.20884
G1 X90.294 Y104.623 E0.76363
G1 X89.208 Y105.975 E0.05439
G1 X88.521 Y107.028 E0.03941
G1 X87.907 Y108.194 E0.04133
G1 X87.442 Y109.294 E0.03744
G1 X87.057 Y110.490 E0.03939
G1 X86.781 Y111.715 E0.03939
G1 X86.614 Y112.961 E0.03939
G1 X86.559 Y114.216 E0.03939
G1 X86.616 Y115.471 E0.03939
G1 X86.785 Y116.716 E0.03939
G1 X87.063 Y117.941 E0.03939
G1 X87.449 Y119.137 E0.03939
G1 X87.891 Y120.177 E0.03544
G1 X86.459 Y122.214 E0.07808
G1 X85.689 Y122.088 E0.02447
G1 X85.388 Y121.760 F10800.000
G1 E-0.80000 F2100.000
G1 Z0.800 F10800.000
G1 X74.314 Y119.091
G1 Z0.200
G1 E0.80000 F2100.000
;TYPE:Solid infill
;WIDTH:0.424894
G1 F1200.000
G1 X74.881 Y119.659 E0.02548
G1 X75.526 Y119.764 E0.02077
G1 X74.281 Y118.518 E0.05594
G1 X74.137 Y118.134 E0.01303
G1 X73.846 Y117.544 E0.02091
G1 X76.172 Y119.869 E0.10445
G1 X76.817 Y119.974 E0.02077
G1 X66.625 Y109.782 E0.45779
G1 X66.625 Y109.242 E0.01716
G1 X77.462 Y120.079 E0.48678
G1 X78.108 Y120.184 E0.02077
G1 X66.625 Y108.702 E0.51576
G1 X66.625 Y108.162 E0.01716
G1 X78.753 Y120.290 E0.54475
G1 X79.398 Y120.395 E0.02077
G1 X66.625 Y107.622 E0.57374
G1 X66.625 Y107.081 E0.01716
G1 X80.044 Y120.500 E0.60273
G1 X80.689 Y120.605 E0.02077
G1 X66.625 Y106.541 E0.63171
G1 X66.625 Y106.375 E0.00527
G1 X66.983 Y106.359 E0.01138
G1 X81.334 Y120.710 E0.64463
G1 X81.980 Y120.815 E0.02077
G1 X67.499 Y106.335 E0.65042
G1 X68.016 Y106.311 E0.01642
G1 X82.625 Y120.921 E0.65621
G1 X83.270 Y121.026 E0.02077
G1 X68.532 Y106.287 E0.66201
G1 X69.048 Y106.264 E0.01642
G1 X83.916 Y121.131 E0.66780
G1 X84.561 Y121.236 E0.02077
G1 X69.565 Y106.240 E0.67359
G1 X70.081 Y106.216 E0.01642
G1 X85.207 Y121.341 E0.67939
G1 X85.852 Y121.446 E0.02077
G1 X70.598 Y106.192 E0.68518
G1 X71.114 Y106.168 E0.01642
G1 X86.274 Y121.329 E0.68097
G1 X86.497 Y121.012 E0.01231
G1 X71.630 Y106.144 E0.66779
M73 P2 R67
G1 X72.147 Y106.121 E0.01642
G1 X86.720 Y120.694 E0.65462
G1 X86.944 Y120.377 E0.01231
G1 X72.663 Y106.097 E0.64144
G1 X73.179 Y106.073 E0.01642
G1 X87.094 Y119.987 E0.62499
G1 X86.830 Y119.367 E0.02138
G1 X86.743 Y119.096 E0.00905
G1 X73.696 Y106.049 E0.58604
G1 X74.212 Y106.025 E0.01642
