; generated by PrusaSlicer 2.2.0+win64 on 2020-11-18 at 22:35:47 UTC

; 

; external perimeters extrusion width = 0.60mm
; perimeters extrusion width = 0.43mm
; infill extrusion width = 0.45mm
; solid infill extrusion width = 0.70mm
; top infill extrusion width = 0.43mm
; first layer extrusion width = 0.42mm

M73 P0 R220
M201 X9000 Y9000 Z500 E10000 ; sets maximum accelerations, mm/sec^2
M203 X500 Y500 Z12 E120 ; sets maximum feedrates, mm/sec
M204 P2000 R1500 T2000 ; sets acceleration (P, T) and retract acceleration (R), mm/sec^2
M205 X10.00 Y10.00 Z0.20 E2.50 ; sets the jerk limits, mm/sec
M205 S0 T0 ; sets the minimum extruding and travel feed rate, mm/sec
M107
M862.3 P "MK2S" ; printer model check
M862.1 P0.4 ; nozzle diameter check
M115 U3.2.3 ; tell printer latest fw version
G90 ; use absolute coordinates
M83 ; extruder relative mode
M204 S2000 T1500 ; MK2 firmware only supports the old M204 format
M104 S215 ; set extruder temp
M140 S60 ; set bed temp
M190 S60 ; wait for bed temp
M109 S215 ; wait for extruder temp
G28 W ; home all without mesh bed level
G80 ; mesh bed leveling
G1 Y-3.0 F1000.0 ; go outside print area
G92 E0.0
G1 X60.0 E9.0  F1000.0 ; intro line
M73 P0 R220
G1 X100.0 E12.5 F1000.0 ; intro line
G92 E0.0
G21 ; set units to millimeters
G90 ; use absolute coordinates
M83 ; use relative distances for extrusion
M900 K0.05 ; Filament gcode LA 1.5
M900 K30 ; Filament gcode LA 1.0
;BEFORE_LAYER_CHANGE
G92 E0.0
;0.2


G1 E-0.80000 F2100.00000
G1 Z0.600 F10800.000
;AFTER_LAYER_CHANGE
;0.2
G1 X7.910 Y6.543
G1 Z0.200
G1 E0.80000 F2100.00000
M204 S1000
G1 F1200.000
G1 X8.808 Y6.364 E0.02872
G1 X211.172 Y6.265 E6.34497
G1 X212.095 Y6.453 E0.02954
G1 X241.942 Y19.316 E1.01903
G1 X242.433 Y19.620 E0.01811
G1 X242.834 Y20.030 E0.01799
G1 X243.125 Y20.525 E0.01799
G1 X243.289 Y21.075 E0.01799
G1 X245.729 Y142.765 E3.81630
G1 X245.749 Y203.316 E1.89853
G1 X245.561 Y204.217 E0.02884
G1 X245.045 Y204.978 E0.02884
G1 X244.485 Y205.390 E0.02178
G1 X241.937 Y206.626 E0.08880
G1 X241.157 Y206.848 E0.02543
G1 X224.716 Y207.118 E0.51558
G1 X88.300 Y207.367 E4.27722
G1 X20.046 Y207.308 E2.14007
G1 X18.635 Y207.183 E0.04441
G1 X11.386 Y206.033 E0.23013
G1 X10.721 Y205.797 E0.02213
G1 X10.152 Y205.373 E0.02225
G1 X3.471 Y195.683 E0.36903
G1 X3.125 Y194.867 E0.02778
G1 X2.556 Y170.493 E0.76445
G1 X2.557 Y62.141 E3.39732
G1 X6.447 Y8.542 E1.68495
G1 X6.663 Y7.733 E0.02626
G1 X7.143 Y7.052 E0.02614
G1 X7.860 Y6.577 E0.02696
G1 E-0.80000 F2100.00000
G1 Z0.800 F10800.000
G1 X7.347 Y61.911
G1 Z0.200
G1 E0.80000 F2100.00000
G1 F1200.000
G1 X8.053 Y62.357 E0.02619
G1 X9.217 Y62.954 E0.04101
G1 X10.429 Y63.445 E0.04101
G1 X11.680 Y63.826 E0.04101
G1 X12.960 Y64.095 E0.04101
G1 X13.814 Y64.196 E0.02697
G1 X14.259 Y64.248 E0.01403
G1 X15.566 Y64.286 E0.04101
G1 X16.871 Y64.207 E0.04101
G1 X18.165 Y64.012 E0.04101
G1 X19.435 Y63.703 E0.04101
G1 X20.674 Y63.282 E0.04101
G1 X21.876 Y62.749 E0.04124
G1 X22.292 Y62.505 E0.01511
G1 X22.554 Y62.316 E0.01015
G1 X22.488 Y62.502 E0.00619
G1 X22.353 Y63.025 E0.01692
G1 X17.849 Y84.558 E0.68978
G1 X12.081 Y83.645 E0.18309
G1 X12.061 Y83.243 E0.01260
G1 X11.901 Y82.174 E0.03390
G1 X11.634 Y81.127 E0.03390
G1 X11.264 Y80.111 E0.03390
G1 X10.794 Y79.137 E0.03390
G1 X10.229 Y78.216 E0.03390
G1 X9.574 Y77.355 E0.03390
G1 X8.837 Y76.565 E0.03390
G1 X8.024 Y75.852 E0.03390
G1 X7.143 Y75.225 E0.03390
G1 X6.205 Y74.689 E0.03390
G1 X5.720 Y74.473 E0.01663
G1 X5.720 Y62.699 E0.36915
G1 X7.293 Y61.937 E0.05480
G1 X7.371 Y61.480 F10800.000
G1 F1200.000
G1 X8.240 Y62.029 E0.03223
G1 X9.374 Y62.611 E0.03995
G1 X10.555 Y63.089 E0.03995
G1 X11.774 Y63.461 E0.03995
G1 X13.021 Y63.722 E0.03995
G1 X14.286 Y63.872 E0.03995
G1 X15.560 Y63.908 E0.03995
G1 X16.832 Y63.832 E0.03995
G1 X18.092 Y63.642 E0.03995
G1 X19.330 Y63.341 E0.03995
G1 X20.536 Y62.931 E0.03995
G1 X21.704 Y62.413 E0.04003
G1 X22.086 Y62.189 E0.01389
G1 X22.443 Y61.932 E0.01378
G1 X22.757 Y61.634 E0.01358
G1 X23.068 Y61.386 E0.01248
G1 X23.315 Y61.219 E0.00937
G1 X23.221 Y61.668 E0.01439
G1 X23.024 Y62.123 E0.01554
G1 X22.849 Y62.613 E0.01632
G1 X22.720 Y63.111 E0.01612
G1 X18.144 Y84.987 E0.70075
G1 X11.719 Y83.969 E0.20396
G1 X11.686 Y83.281 E0.02161
G1 X11.531 Y82.249 E0.03271
G1 X11.274 Y81.238 E0.03271
G1 X10.916 Y80.258 E0.03271
G1 X10.463 Y79.318 E0.03271
G1 X9.917 Y78.429 E0.03271
G1 X9.286 Y77.599 E0.03271
G1 X8.574 Y76.836 E0.03271
G1 X7.789 Y76.149 E0.03271
G1 X6.940 Y75.543 E0.03271
G1 X6.034 Y75.025 E0.03271
G1 X5.343 Y74.718 E0.02371
G1 X5.343 Y62.463 E0.38424
G1 X7.317 Y61.506 E0.06878
G1 X7.604 Y61.805 F10800.000
G1 E-0.80000 F2100.00000
G1 Z0.800 F10800.000
G1 X5.833 Y73.729
G1 Z0.200
G1 E0.80000 F2100.00000
G1 F1200.000
G1 X7.307 Y75.203 E0.06593
G1 E-0.80000 F2100.00000
G1 Z0.800 F10800.000
G1 X13.107 Y83.693
G1 Z0.200
G1 E0.80000 F2100.00000
G1 F1200.000
G1 X12.293 Y82.878 E0.03645
G1 X12.198 Y82.245 E0.02024
G1 X13.542 Y83.590 E0.06015
G1 X14.182 Y83.691 E0.02047
G1 X12.032 Y81.541 E0.09616
G1 X11.905 Y81.043 E0.01626
G1 X11.809 Y80.781 E0.00883
G1 X14.821 Y83.792 E0.13470
G1 X15.460 Y83.893 E0.02047
G1 X11.486 Y79.919 E0.17777
G1 X11.043 Y79.002 E0.03223
G1 X10.942 Y78.838 E0.00609
G1 X16.099 Y83.995 E0.23068
G1 X16.738 Y84.096 E0.02047
G1 X6.003 Y73.361 E0.48019
G1 X6.003 Y72.823 E0.01701
G1 X17.377 Y84.197 E0.50879
G1 X17.627 Y84.237 E0.00799
G1 X17.684 Y83.965 E0.00877
G1 X6.003 Y72.285 E0.52248
G1 X6.003 Y71.747 E0.01701
G1 X17.777 Y83.520 E0.52664
M73 P0 R219
G1 X17.870 Y83.076 E0.01438
G1 X6.003 Y71.209 E0.53080
G1 X6.003 Y70.671 E0.01701
G1 X17.963 Y82.631 E0.53497
G1 X18.056 Y82.186 E0.01438
G1 X6.003 Y70.133 E0.53913
G1 X6.003 Y69.595 E0.01701
G1 X18.149 Y81.741 E0.54329
G1 X18.242 Y81.296 E0.01438
G1 X6.003 Y69.057 E0.54745
G1 X6.003 Y68.519 E0.01701
G1 X18.335 Y80.851 E0.55162
G1 X18.428 Y80.406 E0.01438
G1 X6.003 Y67.981 E0.55578
G1 X6.003 Y67.443 E0.01701
G1 X18.521 Y79.961 E0.55994
G1 X18.614 Y79.516 E0.01438
G1 X6.003 Y66.905 E0.56410
G1 X6.003 Y66.367 E0.01701
G1 X18.707 Y79.072 E0.56827
G1 X18.800 Y78.627 E0.01438
G1 X6.003 Y65.829 E0.57243
G1 X6.003 Y65.291 E0.01701
G1 X18.893 Y78.182 E0.57659
G1 X18.986 Y77.737 E0.01438
G1 X6.003 Y64.753 E0.58075
G1 X6.003 Y64.215 E0.01701
G1 X19.079 Y77.292 E0.58492
G1 X19.173 Y76.847 E0.01438
G1 X6.003 Y63.678 E0.58908
G1 X6.003 Y63.140 E0.01701
G1 X19.266 Y76.402 E0.59324
G1 X19.359 Y75.957 E0.01438
G1 X6.188 Y62.787 E0.58912
G1 X6.550 Y62.611 E0.01274
G1 X19.452 Y75.512 E0.57708
G1 X19.545 Y75.068 E0.01438
G1 X6.913 Y62.436 E0.56503
G1 X7.275 Y62.260 E0.01274
G1 X19.638 Y74.623 E0.55299
G1 X19.731 Y74.178 E0.01438
G1 X8.411 Y62.858 E0.50632
G1 X9.099 Y63.211 E0.02445
G1 X9.440 Y63.349 E0.01165
G1 X19.824 Y73.733 E0.46446
G1 X19.917 Y73.288 E0.01438
G1 X10.343 Y63.714 E0.42823
G1 X11.117 Y63.950 E0.02559
G1 X20.010 Y72.843 E0.39778
G1 X20.103 Y72.398 E0.01438
G1 X11.857 Y64.152 E0.36884
G1 X12.538 Y64.295 E0.02200
G1 X20.196 Y71.953 E0.34255
G1 X20.289 Y71.508 E0.01438
G1 X13.187 Y64.406 E0.31768
G1 X13.797 Y64.479 E0.01943
G1 X20.382 Y71.064 E0.29455
G1 X20.475 Y70.619 E0.01438
G1 X14.392 Y64.535 E0.27212
G1 X14.946 Y64.551 E0.01752
G1 X20.568 Y70.174 E0.25151
G1 X20.661 Y69.729 E0.01438
G1 X15.499 Y64.567 E0.23090
G1 X16.013 Y64.542 E0.01625
G1 X20.754 Y69.284 E0.21210
G1 X20.848 Y68.839 E0.01438
G1 X16.520 Y64.512 E0.19358
G1 X17.017 Y64.471 E0.01578
G1 X20.941 Y68.394 E0.17549
G1 X21.034 Y67.949 E0.01438
G1 X17.485 Y64.401 E0.15874
G1 X17.952 Y64.330 E0.01495
G1 X21.127 Y67.504 E0.14199
G1 X21.220 Y67.060 E0.01438
G1 X18.405 Y64.245 E0.12591
G1 X18.838 Y64.140 E0.01409
G1 X21.313 Y66.615 E0.11071
G1 X21.406 Y66.170 E0.01438
G1 X19.270 Y64.034 E0.09552
G1 X19.690 Y63.916 E0.01378
G1 X21.499 Y65.725 E0.08093
G1 X21.592 Y65.280 E0.01438
G1 X20.091 Y63.779 E0.06714
G1 X20.493 Y63.643 E0.01341
G1 X21.685 Y64.835 E0.05334
G1 X21.778 Y64.390 E0.01438
G1 X20.886 Y63.498 E0.03992
G1 X21.258 Y63.332 E0.01289
G1 X21.871 Y63.945 E0.02742
G1 X21.964 Y63.500 E0.01438
G1 X21.631 Y63.167 E0.01491
G1 X22.004 Y63.002 E0.01289
G1 X22.201 Y63.199 E0.00882
G1 X22.664 Y62.163 F10800.000
G1 F1200.000
G1 X22.959 Y61.726 E0.00827
G1 X25.369 Y61.750 F10800.000
G1 F1200.000
G1 X31.136 Y62.664 E0.18309
G1 X31.156 Y63.065 E0.01260
G1 X31.316 Y64.134 E0.03390
G1 X31.583 Y65.182 E0.03390
G1 X31.953 Y66.197 E0.03390
G1 X32.261 Y66.834 E0.02218
G1 X32.423 Y67.171 E0.01171
G1 X32.988 Y68.092 E0.03390
G1 X33.643 Y68.953 E0.03390
G1 X34.381 Y69.743 E0.03390
G1 X35.194 Y70.456 E0.03390
G1 X36.074 Y71.083 E0.03390
G1 X37.013 Y71.619 E0.03390
G1 X37.497 Y71.835 E0.01663
G1 X37.497 Y83.609 E0.36915
G1 X35.870 Y84.397 E0.05668
G1 X35.164 Y83.951 E0.02619
G1 X34.000 Y83.354 E0.04101
G1 X32.788 Y82.863 E0.04101
G1 X31.537 Y82.482 E0.04101
G1 X30.257 Y82.213 E0.04101
G1 X28.959 Y82.060 E0.04100
G1 X27.651 Y82.022 E0.04101
G1 X26.346 Y82.101 E0.04101
G1 X25.053 Y82.296 E0.04101
G1 X23.782 Y82.605 E0.04101
G1 X22.543 Y83.026 E0.04101
G1 X21.341 Y83.559 E0.04124
G1 X20.926 Y83.803 E0.01511
G1 X20.664 Y83.991 E0.01009
G1 X20.726 Y83.820 E0.00570
G1 X20.966 Y82.817 E0.03231
G1 X25.357 Y61.809 E0.67294
G1 X25.073 Y61.321 F10800.000
G1 F1200.000
G1 X31.498 Y62.339 E0.20396
G1 X31.532 Y63.028 E0.02161
G1 X31.686 Y64.059 E0.03271
G1 X31.944 Y65.070 E0.03271
G1 X32.301 Y66.050 E0.03271
G1 X32.600 Y66.670 E0.02159
G1 X32.754 Y66.990 E0.01112
G1 X33.300 Y67.879 E0.03271
G1 X33.932 Y68.709 E0.03271
G1 X34.643 Y69.472 E0.03271
G1 X35.428 Y70.160 E0.03271
G1 X36.277 Y70.765 E0.03271
G1 X37.183 Y71.283 E0.03271
G1 X37.874 Y71.590 E0.02371
G1 X37.874 Y83.845 E0.38424
G1 X35.846 Y84.828 E0.07066
G1 X34.977 Y84.279 E0.03223
G1 X33.843 Y83.698 E0.03995
G1 X32.662 Y83.219 E0.03995
G1 X31.443 Y82.848 E0.03995
G1 X30.196 Y82.586 E0.03995
G1 X28.931 Y82.436 E0.03995
G1 X27.657 Y82.400 E0.03995
G1 X26.385 Y82.477 E0.03995
G1 X25.125 Y82.666 E0.03995
G1 X23.887 Y82.967 E0.03995
G1 X22.681 Y83.377 E0.03995
G1 X21.514 Y83.895 E0.04003
G1 X21.131 Y84.119 E0.01389
G1 X20.775 Y84.376 E0.01378
G1 X20.461 Y84.674 E0.01358
G1 X20.149 Y84.922 E0.01248
G1 X19.902 Y85.089 E0.00937
G1 X19.994 Y84.649 E0.01411
G1 X20.189 Y84.199 E0.01538
G1 X20.364 Y83.712 E0.01623
G1 X20.598 Y82.735 E0.03149
G1 X25.061 Y61.380 E0.68402
G1 X25.380 Y61.578 F10800.000
G1 E-0.80000 F2100.00000
G1 Z0.800 F10800.000
G1 X31.127 Y63.632
G1 Z0.200
G1 E0.80000 F2100.00000
G1 F1200.000
G1 X30.314 Y62.820 E0.03636
G1 X29.675 Y62.718 E0.02047
G1 X31.020 Y64.064 E0.06018
G1 X31.186 Y64.767 E0.02288
G1 X29.035 Y62.617 E0.09620
G1 X28.396 Y62.516 E0.02047
G1 X31.408 Y65.528 E0.13474
G1 X31.732 Y66.390 E0.02913
G1 X27.757 Y62.415 E0.17783
G1 X27.118 Y62.313 E0.02047
G1 X32.791 Y67.987 E0.25379
G1 X35.908 Y71.104 F10800.000
G1 F1200.000
G1 X37.384 Y72.580 E0.06601
G1 X37.384 Y73.118 F10800.000
G1 F1200.000
G1 X26.478 Y62.212 E0.48786
G1 X25.839 Y62.111 E0.02047
G1 X37.214 Y73.486 E0.50887
G1 X37.214 Y74.024 E0.01702
G1 X25.534 Y62.344 E0.52253
G1 X25.441 Y62.789 E0.01438
G1 X37.214 Y74.562 E0.52669
G1 X37.214 Y75.100 E0.01702
G1 X25.348 Y63.234 E0.53085
G1 X25.255 Y63.679 E0.01438
G1 X37.214 Y75.638 E0.53501
G1 X37.214 Y76.176 E0.01702
G1 X25.162 Y64.124 E0.53917
G1 X25.069 Y64.569 E0.01438
G1 X37.214 Y76.714 E0.54333
G1 X37.214 Y77.252 E0.01702
G1 X24.976 Y65.014 E0.54749
G1 X24.883 Y65.459 E0.01438
G1 X37.214 Y77.790 E0.55165
G1 X37.214 Y78.328 E0.01702
G1 X24.790 Y65.904 E0.55581
G1 X24.697 Y66.349 E0.01438
G1 X37.214 Y78.866 E0.55997
G1 X37.214 Y79.404 E0.01702
G1 X24.604 Y66.794 E0.56413
G1 X24.511 Y67.239 E0.01438
G1 X37.214 Y79.942 E0.56829
G1 X37.214 Y80.480 E0.01702
G1 X24.418 Y67.684 E0.57245
G1 X24.325 Y68.129 E0.01438
G1 X37.214 Y81.018 E0.57661
G1 X37.214 Y81.556 E0.01702
G1 X24.232 Y68.574 E0.58077
G1 X24.139 Y69.019 E0.01438
G1 X37.214 Y82.094 E0.58493
G1 X37.214 Y82.632 E0.01702
G1 X24.046 Y69.464 E0.58909
G1 X23.953 Y69.909 E0.01438
G1 X37.214 Y83.170 E0.59325
G1 X37.214 Y83.432 E0.00827
G1 X37.028 Y83.522 E0.00655
G1 X23.860 Y70.354 E0.58908
G1 X23.767 Y70.799 E0.01438
G1 X36.666 Y83.697 E0.57703
G1 X36.303 Y83.873 E0.01274
G1 X23.674 Y71.244 E0.56498
G1 X23.581 Y71.689 E0.01438
G1 X35.941 Y84.049 E0.55293
G1 X35.888 Y84.074 E0.00185
G1 X35.304 Y83.705 E0.02185
G1 X34.802 Y83.448 E0.01785
G1 X23.488 Y72.134 E0.50615
G1 X23.395 Y72.579 E0.01438
G1 X33.774 Y82.957 E0.46430
M73 P0 R218
G1 X32.871 Y82.593 E0.03079
G1 X23.302 Y73.024 E0.42808
G1 X23.209 Y73.469 E0.01438
G1 X32.097 Y82.357 E0.39762
G1 X31.608 Y82.208 E0.01619
G1 X31.358 Y82.155 E0.00808
G1 X23.116 Y73.914 E0.36869
G1 X23.023 Y74.359 E0.01438
G1 X30.677 Y82.012 E0.34240
G1 X30.303 Y81.934 E0.01208
G1 X30.028 Y81.901 E0.00877
G1 X22.930 Y74.804 E0.31752
G1 X22.837 Y75.249 E0.01438
G1 X29.418 Y81.829 E0.29439
G1 X28.823 Y81.773 E0.01888
G1 X22.744 Y75.694 E0.27196
G1 X22.651 Y76.139 E0.01438
G1 X28.269 Y81.757 E0.25134
G1 X27.715 Y81.741 E0.01753
G1 X22.558 Y76.584 E0.23073
G1 X22.465 Y77.029 E0.01438
G1 X27.202 Y81.766 E0.21193
G1 X26.695 Y81.797 E0.01608
G1 X22.372 Y77.474 E0.19340
G1 X22.279 Y77.919 E0.01438
G1 X26.198 Y81.837 E0.17531
G1 X25.730 Y81.908 E0.01496
G1 X22.186 Y78.364 E0.15856
G1 X22.093 Y78.809 E0.01438
G1 X25.263 Y81.978 E0.14180
G1 X24.810 Y82.064 E0.01457
G1 X22.000 Y79.254 E0.12572
G1 X21.907 Y79.699 E0.01438
G1 X24.377 Y82.169 E0.11052
G1 X23.945 Y82.274 E0.01409
G1 X21.814 Y80.144 E0.09532
G1 X21.721 Y80.589 E0.01438
G1 X23.526 Y82.393 E0.08074
G1 X23.124 Y82.530 E0.01341
G1 X21.628 Y81.034 E0.06693
G1 X21.535 Y81.479 E0.01438
G1 X22.722 Y82.666 E0.05313
G1 X22.330 Y82.811 E0.01325
G1 X21.442 Y81.924 E0.03971
G1 X21.349 Y82.369 E0.01438
G1 X21.957 Y82.977 E0.02720
G1 X21.584 Y83.142 E0.01290
G1 X21.256 Y82.814 E0.01469
G1 X21.153 Y83.249 E0.01415
G1 X21.340 Y83.436 E0.00836
G1 X20.554 Y84.144 F10800.000
G1 F1200.000
G1 X20.260 Y84.580 E0.00795
G1 E-0.80000 F2100.00000
G1 Z0.800 F10800.000
G1 X9.650 Y11.454
G1 Z0.200
G1 E0.80000 F2100.00000
G1 F1200.000
G1 X9.616 Y9.528 E0.06039
G1 X74.052 Y9.528 E2.02035
G1 X74.019 Y11.454 E0.06039
G1 X9.710 Y11.454 E2.01638
G1 X9.279 Y11.831 F10800.000
G1 F1200.000
G1 X9.233 Y9.151 E0.08404
G1 X74.436 Y9.151 E2.04440
G1 X74.390 Y11.831 E0.08404
G1 X9.339 Y11.831 E2.03962
G1 X9.470 Y11.480 F10800.000
G1 E-0.80000 F2100.00000
G1 Z0.800 F10800.000
G1 X73.924 Y10.395
G1 Z0.200
G1 E0.80000 F2100.00000
G1 F1200.000
G1 X73.341 Y9.811 E0.02602
G1 X72.805 Y9.811 E0.01690
G1 X73.748 Y10.755 E0.04208
G1 X73.741 Y11.171 E0.01313
G1 X73.629 Y11.171 E0.00355
G1 X72.268 Y9.811 E0.06065
G1 X71.732 Y9.811 E0.01690
G1 X73.092 Y11.171 E0.06065
G1 X72.556 Y11.171 E0.01690
G1 X71.196 Y9.811 E0.06065
G1 X70.660 Y9.811 E0.01690
G1 X72.020 Y11.171 E0.06065
G1 X71.484 Y11.171 E0.01690
G1 X70.124 Y9.811 E0.06065
G1 X69.587 Y9.811 E0.01690
G1 X70.948 Y11.171 E0.06065
G1 X70.411 Y11.171 E0.01690
G1 X69.051 Y9.811 E0.06065
G1 X68.515 Y9.811 E0.01690
G1 X69.875 Y11.171 E0.06065
G1 X69.339 Y11.171 E0.01690
G1 X67.979 Y9.811 E0.06065
G1 X67.443 Y9.811 E0.01690
G1 X68.803 Y11.171 E0.06065
G1 X68.267 Y11.171 E0.01690
G1 X66.906 Y9.811 E0.06065
G1 X66.370 Y9.811 E0.01690
G1 X67.731 Y11.171 E0.06065
G1 X67.194 Y11.171 E0.01690
G1 X65.834 Y9.811 E0.06065
G1 X65.298 Y9.811 E0.01690
G1 X66.658 Y11.171 E0.06065
G1 X66.122 Y11.171 E0.01690
G1 X64.762 Y9.811 E0.06065
G1 X64.226 Y9.811 E0.01690
G1 X65.586 Y11.171 E0.06065
G1 X65.050 Y11.171 E0.01690
G1 X63.689 Y9.811 E0.06065
G1 X63.153 Y9.811 E0.01690
G1 X64.513 Y11.171 E0.06065
G1 X63.977 Y11.171 E0.01690
G1 X62.617 Y9.811 E0.06065
G1 X62.081 Y9.811 E0.01690
G1 X63.441 Y11.171 E0.06065
G1 X62.905 Y11.171 E0.01690
G1 X61.545 Y9.811 E0.06065
G1 X61.008 Y9.811 E0.01690
G1 X62.369 Y11.171 E0.06065
G1 X61.832 Y11.171 E0.01690
G1 X60.472 Y9.811 E0.06065
G1 X59.936 Y9.811 E0.01690
G1 X61.296 Y11.171 E0.06065
G1 X60.760 Y11.171 E0.01690
G1 X59.400 Y9.811 E0.06065
G1 X58.864 Y9.811 E0.01690
G1 X60.224 Y11.171 E0.06065
G1 X59.688 Y11.171 E0.01690
G1 X58.327 Y9.811 E0.06065
G1 X57.791 Y9.811 E0.01690
G1 X59.151 Y11.171 E0.06065
G1 X58.615 Y11.171 E0.01690
G1 X57.255 Y9.811 E0.06065
G1 X56.719 Y9.811 E0.01690
