; generated by PrusaSlicer 2.2.0+win64 on 2020-12-28 at 16:56:49 UTC

; 

; external perimeters extrusion width = 0.60mm
; perimeters extrusion width = 0.43mm
; infill extrusion width = 0.45mm
; solid infill extrusion width = 0.70mm
; top infill extrusion width = 0.43mm
; first layer extrusion width = 0.42mm

M73 P0 R2
M201 X9000 Y9000 Z500 E10000 ; sets maximum accelerations, mm/sec^2
M203 X500 Y500 Z12 E120 ; sets maximum feedrates, mm/sec
M204 P2000 R1500 T2000 ; sets acceleration (P, T) and retract acceleration (R), mm/sec^2
M205 X10.00 Y10.00 Z0.20 E2.50 ; sets the jerk limits, mm/sec
M205 S0 T0 ; sets the minimum extruding and travel feed rate, mm/sec
M107
M862.3 P "MK2S" ; printer model check
M862.1 P0.4 ; nozzle diameter check
M115 U3.2.3 ; tell printer latest fw version
G90 ; use absolute coordinates
M83 ; extruder relative mode
M204 S2000 T1500 ; MK2 firmware only supports the old M204 format
M104 S215 ; set extruder temp
M140 S60 ; set bed temp
M190 S60 ; wait for bed temp
M109 S215 ; wait for extruder temp
G28 W ; home all without mesh bed level
G80 ; mesh bed leveling
G1 Y-3.0 F1000.0 ; go outside print area
G92 E0.0
G1 X60.0 E9.0  F1000.0 ; intro line
M73 P2 R2
G1 X100.0 E12.5 F1000.0 ; intro line
G92 E0.0
G21 ; set units to millimeters
G90 ; use absolute coordinates
M83 ; use relative distances for extrusion
M900 K30 ; Filament gcode
;BEFORE_LAYER_CHANGE
G92 E0.0
;0.2


G1 E-0.80000 F2100.00000
G1 Z0.600 F10800.000
;AFTER_LAYER_CHANGE
;0.2
G1 X106.418 Y92.777
G1 Z0.200
G1 E0.80000 F2100.00000
M204 S1000
G1 F1200.000
G1 X106.697 Y92.123 E0.02231
G1 X107.094 Y91.603 E0.02052
G1 X107.606 Y91.189 E0.02065
G1 X108.202 Y90.908 E0.02065
G1 X108.847 Y90.777 E0.02065
G1 X124.404 Y90.682 E0.48779
G1 X125.066 Y90.764 E0.02090
G1 X125.688 Y91.002 E0.02090
G1 X139.494 Y98.675 E0.49523
G1 X140.495 Y99.319 E0.03731
G1 X141.566 Y100.290 E0.04532
G1 X142.333 Y101.265 E0.03891
G1 X142.939 Y102.343 E0.03879
G1 X143.431 Y103.716 E0.04570
G1 X143.646 Y104.921 E0.03841
G1 X143.676 Y106.126 E0.03777
G1 X143.519 Y107.348 E0.03865
G1 X143.098 Y108.735 E0.04545
G1 X142.555 Y109.828 E0.03828
G1 X141.903 Y110.762 E0.03571
G1 X141.292 Y111.436 E0.02852
G1 X140.436 Y112.169 E0.03532
G1 X139.449 Y112.793 E0.03661
G1 X125.142 Y119.143 E0.49079
G1 X124.477 Y119.232 E0.02103
G1 X109.083 Y119.318 E0.48267
G1 X108.375 Y119.216 E0.02243
G1 X107.717 Y118.936 E0.02243
G1 X107.173 Y118.515 E0.02154
G1 X106.753 Y117.977 E0.02141
G1 X106.477 Y117.348 E0.02154
G1 X106.365 Y116.670 E0.02154
G1 X106.315 Y93.485 E0.72695
G1 X106.409 Y92.836 E0.02055
G1 X106.780 Y92.890 F10800.000
G1 F1200.000
G1 X107.030 Y92.300 E0.02010
G1 X107.377 Y91.852 E0.01775
G1 X107.823 Y91.498 E0.01787
G1 X108.341 Y91.259 E0.01787
G1 X108.900 Y91.151 E0.01787
G1 X124.401 Y91.059 E0.48602
G1 X124.974 Y91.130 E0.01811
G1 X125.517 Y91.338 E0.01823
G1 X139.304 Y99.001 E0.49456
G1 X140.231 Y99.592 E0.03447
G1 X141.105 Y100.352 E0.03632
G1 X141.992 Y101.434 E0.04388
G1 X142.575 Y102.453 E0.03680
G1 X142.995 Y103.553 E0.03692
G1 X143.267 Y104.922 E0.04376
G1 X143.300 Y106.096 E0.03680
G1 X143.152 Y107.260 E0.03679
G1 X142.746 Y108.599 E0.04388
G1 X142.222 Y109.649 E0.03680
G1 X141.580 Y110.563 E0.03502
G1 X140.842 Y111.344 E0.03371
G1 X140.180 Y111.888 E0.02684
G1 X139.264 Y112.464 E0.03395
G1 X125.047 Y118.778 E0.48773
G1 X124.471 Y118.855 E0.01823
G1 X109.092 Y118.941 E0.48221
G1 X108.472 Y118.852 E0.01965
G1 X107.896 Y118.604 E0.01965
G1 X107.430 Y118.238 E0.01858
G1 X107.068 Y117.769 E0.01858
G1 X106.834 Y117.228 E0.01846
G1 X106.741 Y116.643 E0.01858
G1 X106.692 Y93.495 E0.72578
G1 X106.771 Y92.949 E0.01730
G1 E-0.80000 F2100.00000
G1 Z0.800 F10800.000
G1 X131.534 Y104.009
G1 Z0.200
G1 E0.80000 F2100.00000
G1 F1200.000
G1 X131.721 Y103.613 E0.01377
G1 X131.947 Y103.236 E0.01377
G1 X132.209 Y102.883 E0.01377
G1 X132.504 Y102.558 E0.01377
G1 X132.829 Y102.263 E0.01377
G1 X133.181 Y102.002 E0.01377
G1 X133.558 Y101.776 E0.01377
G1 X133.955 Y101.588 E0.01377
G1 X134.368 Y101.440 E0.01377
G1 X134.794 Y101.333 E0.01377
G1 X135.225 Y101.270 E0.01365
G1 X135.760 Y101.250 E0.01679
G1 X136.104 Y101.269 E0.01080
G1 X136.540 Y101.333 E0.01382
G1 X136.966 Y101.440 E0.01377
G1 X137.379 Y101.588 E0.01377
G1 X137.776 Y101.776 E0.01377
G1 X138.153 Y102.002 E0.01377
G1 X138.505 Y102.263 E0.01377
G1 X138.831 Y102.558 E0.01377
G1 X139.126 Y102.883 E0.01377
G1 X139.387 Y103.236 E0.01377
G1 X139.613 Y103.613 E0.01377
G1 X139.801 Y104.009 E0.01377
G1 X139.949 Y104.423 E0.01377
G1 X140.055 Y104.849 E0.01377
G1 X140.120 Y105.283 E0.01377
G1 X140.141 Y105.722 E0.01377
G1 X140.120 Y106.160 E0.01377
G1 X140.055 Y106.594 E0.01377
G1 X139.949 Y107.020 E0.01377
G1 X139.801 Y107.434 E0.01377
G1 X139.613 Y107.831 E0.01377
G1 X139.387 Y108.207 E0.01377
G1 X139.126 Y108.560 E0.01377
G1 X138.831 Y108.885 E0.01377
G1 X138.505 Y109.180 E0.01377
G1 X138.153 Y109.442 E0.01377
G1 X137.776 Y109.667 E0.01377
G1 X137.379 Y109.855 E0.01377
G1 X136.966 Y110.003 E0.01377
G1 X136.540 Y110.110 E0.01377
G1 X136.106 Y110.174 E0.01377
G1 X135.667 Y110.196 E0.01377
G1 X135.229 Y110.174 E0.01377
G1 X134.794 Y110.110 E0.01377
G1 X134.368 Y110.003 E0.01377
G1 X133.955 Y109.855 E0.01377
G1 X133.558 Y109.667 E0.01377
G1 X133.181 Y109.442 E0.01377
G1 X132.829 Y109.180 E0.01377
G1 X132.503 Y108.885 E0.01377
G1 X132.209 Y108.560 E0.01377
G1 X131.947 Y108.207 E0.01377
G1 X131.721 Y107.831 E0.01377
G1 X131.534 Y107.434 E0.01377
G1 X131.386 Y107.020 E0.01377
G1 X131.279 Y106.594 E0.01377
G1 X131.215 Y106.160 E0.01377
G1 X131.193 Y105.722 E0.01377
G1 X131.215 Y105.283 E0.01377
G1 X131.279 Y104.849 E0.01377
G1 X131.386 Y104.423 E0.01377
G1 X131.513 Y104.066 E0.01189
G1 X131.158 Y103.939 F10800.000
G1 F1200.000
G1 X131.388 Y103.435 E0.01738
G1 X131.633 Y103.026 E0.01493
G1 X131.917 Y102.644 E0.01493
G1 X132.237 Y102.291 E0.01493
G1 X132.589 Y101.971 E0.01493
G1 X132.972 Y101.688 E0.01493
G1 X133.380 Y101.443 E0.01493
G1 X133.811 Y101.239 E0.01493
G1 X134.259 Y101.079 E0.01493
G1 X134.721 Y100.963 E0.01493
G1 X135.190 Y100.894 E0.01489
G1 X135.764 Y100.872 E0.01798
G1 X136.142 Y100.893 E0.01189
G1 X136.614 Y100.963 E0.01495
G1 X137.075 Y101.079 E0.01493
G1 X137.524 Y101.239 E0.01493
G1 X137.954 Y101.443 E0.01493
G1 X138.363 Y101.688 E0.01493
G1 X138.745 Y101.971 E0.01493
G1 X139.098 Y102.291 E0.01493
G1 X139.417 Y102.644 E0.01493
G1 X139.701 Y103.026 E0.01493
G1 X139.946 Y103.435 E0.01493
G1 X140.149 Y103.865 E0.01493
G1 X140.310 Y104.313 E0.01493
G1 X140.426 Y104.775 E0.01493
G1 X140.495 Y105.246 E0.01493
G1 X140.519 Y105.722 E0.01493
G1 X140.495 Y106.197 E0.01493
G1 X140.426 Y106.668 E0.01493
G1 X140.310 Y107.130 E0.01493
G1 X140.149 Y107.578 E0.01493
G1 X139.946 Y108.009 E0.01493
G1 X139.701 Y108.417 E0.01493
G1 X139.417 Y108.799 E0.01493
G1 X139.098 Y109.152 E0.01493
G1 X138.745 Y109.472 E0.01493
G1 X138.363 Y109.756 E0.01493
G1 X137.954 Y110.000 E0.01493
G1 X137.524 Y110.204 E0.01493
G1 X137.075 Y110.364 E0.01493
G1 X136.614 Y110.480 E0.01493
G1 X136.143 Y110.550 E0.01493
G1 X135.667 Y110.573 E0.01493
G1 X135.192 Y110.550 E0.01493
G1 X134.721 Y110.480 E0.01493
G1 X134.259 Y110.364 E0.01493
G1 X133.811 Y110.204 E0.01493
G1 X133.380 Y110.000 E0.01493
G1 X132.972 Y109.756 E0.01493
G1 X132.589 Y109.472 E0.01493
G1 X132.237 Y109.152 E0.01493
G1 X131.917 Y108.799 E0.01493
G1 X131.633 Y108.417 E0.01493
G1 X131.388 Y108.009 E0.01493
G1 X131.185 Y107.578 E0.01493
G1 X131.024 Y107.130 E0.01493
G1 X130.909 Y106.668 E0.01493
G1 X130.839 Y106.197 E0.01493
G1 X130.816 Y105.722 E0.01493
G1 X130.839 Y105.246 E0.01493
G1 X130.909 Y104.775 E0.01493
G1 X131.024 Y104.313 E0.01493
G1 X131.138 Y103.995 E0.01058
G1 X131.554 Y103.882 F10800.000
G1 E-0.80000 F2100.00000
G1 Z0.800 F10800.000
G1 X139.479 Y103.609
G1 Z0.200
G1 E0.80000 F2100.00000
G1 F1200.000
G1 X138.605 Y102.735 E0.03914
G1 X138.326 Y102.482 E0.01192
G1 X137.996 Y102.237 E0.01302
G1 X137.643 Y102.026 E0.01302
G1 X137.131 Y101.800 E0.01771
G1 X139.589 Y104.258 E0.11008
G1 X139.678 Y104.505 E0.00832
G1 X139.792 Y104.999 E0.01605
G1 X136.390 Y101.597 E0.15234
G1 X136.075 Y101.550 E0.01007
G1 X135.789 Y101.535 E0.00908
G1 X139.852 Y105.598 E0.18196
G1 X139.838 Y106.123 E0.01663
G1 X135.267 Y101.551 E0.20474
G1 X134.801 Y101.623 E0.01494
G1 X139.765 Y106.588 E0.22234
G1 X139.651 Y107.013 E0.01392
G1 X134.376 Y101.738 E0.23623
G1 X133.986 Y101.886 E0.01322
G1 X139.503 Y107.403 E0.24705
G1 X139.324 Y107.763 E0.01273
G1 X133.626 Y102.065 E0.25518
G1 X133.293 Y102.271 E0.01239
G1 X139.118 Y108.095 E0.26086
G1 X138.887 Y108.403 E0.01218
G1 X132.986 Y102.502 E0.26425
G1 X132.704 Y102.758 E0.01207
G1 X138.631 Y108.685 E0.26543
G1 X138.348 Y108.941 E0.01207
G1 X132.448 Y103.041 E0.26425
G1 X132.216 Y103.348 E0.01218
G1 X138.041 Y109.173 E0.26086
G1 X137.708 Y109.378 E0.01239
G1 X132.010 Y103.681 E0.25518
G1 X131.832 Y104.041 E0.01273
G1 X137.348 Y109.557 E0.24705
G1 X136.958 Y109.705 E0.01322
G1 X131.683 Y104.431 E0.23623
G1 X131.569 Y104.855 E0.01392
G1 X136.534 Y109.820 E0.22234
G1 X136.068 Y109.893 E0.01492
G1 X131.496 Y105.321 E0.20476
G1 X131.482 Y105.846 E0.01663
G1 X135.543 Y109.906 E0.18186
G1 X135.256 Y109.892 E0.00909
G1 X134.944 Y109.846 E0.00999
G1 X131.543 Y106.445 E0.15233
G1 X131.657 Y106.938 E0.01604
G1 X131.745 Y107.186 E0.00833
G1 X134.203 Y109.643 E0.11007
G1 X133.692 Y109.418 E0.01771
G1 X133.339 Y109.206 E0.01302
G1 X133.008 Y108.961 E0.01302
G1 X132.728 Y108.707 E0.01198
G1 X131.856 Y107.835 E0.03907
G1 E-0.80000 F2100.00000
G1 Z0.800 F10800.000
G1 X123.616 Y108.749
G1 Z0.200
G1 E0.80000 F2100.00000
G1 F1200.000
G1 X123.655 Y115.695 E0.21781
G1 X109.899 Y115.772 E0.43131
G1 X109.861 Y108.826 E0.21781
G1 X123.556 Y108.749 E0.42943
G1 X123.991 Y108.370 F10800.000
G1 F1200.000
G1 X124.035 Y116.070 E0.24145
G1 X109.524 Y116.152 E0.45496
G1 X109.481 Y108.451 E0.24145
G1 X123.931 Y108.370 E0.45308
G1 X123.852 Y108.745 F10800.000
G1 E-0.80000 F2100.00000
G1 Z0.800 F10800.000
G1 X110.774 Y115.654
G1 Z0.200
G1 E0.80000 F2100.00000
G1 F1200.000
G1 X110.178 Y115.059 E0.02653
G1 X110.175 Y114.520 E0.01698
G1 X111.138 Y115.483 E0.04289
G1 X111.671 Y115.480 E0.01679
G1 X110.172 Y113.981 E0.06677
G1 X110.169 Y113.442 E0.01698
G1 X112.204 Y115.477 E0.09065
G1 X112.737 Y115.474 E0.01679
G1 X110.166 Y112.903 E0.11453
G1 X110.163 Y112.364 E0.01698
G1 X113.269 Y115.471 E0.13841
G1 X113.802 Y115.468 E0.01679
G1 X110.160 Y111.825 E0.16229
G1 X110.157 Y111.287 E0.01698
G1 X114.335 Y115.465 E0.18617
G1 X114.868 Y115.462 E0.01679
G1 X110.154 Y110.748 E0.21005
G1 X110.151 Y110.209 E0.01698
G1 X115.401 Y115.459 E0.23393
G1 X115.934 Y115.456 E0.01679
G1 X110.148 Y109.670 E0.25781
G1 X110.145 Y109.131 E0.01698
G1 X116.467 Y115.453 E0.28169
G1 X117.000 Y115.450 E0.01679
G1 X110.654 Y109.104 E0.28275
G1 X111.187 Y109.101 E0.01679
G1 X117.533 Y115.447 E0.28275
G1 X118.066 Y115.444 E0.01679
G1 X111.720 Y109.098 E0.28275
G1 X112.253 Y109.095 E0.01679
G1 X118.598 Y115.441 E0.28275
G1 X119.131 Y115.438 E0.01679
G1 X112.786 Y109.092 E0.28275
G1 X113.319 Y109.089 E0.01679
G1 X119.664 Y115.435 E0.28275
G1 X120.197 Y115.432 E0.01679
G1 X113.852 Y109.086 E0.28275
G1 X114.384 Y109.083 E0.01679
G1 X120.730 Y115.429 E0.28275
G1 X121.263 Y115.426 E0.01679
G1 X114.917 Y109.080 E0.28275
G1 X115.450 Y109.077 E0.01679
G1 X121.796 Y115.423 E0.28275
G1 X122.329 Y115.420 E0.01679
G1 X115.983 Y109.074 E0.28275
G1 X116.516 Y109.071 E0.01679
G1 X122.862 Y115.417 E0.28275
G1 X123.371 Y115.414 E0.01605
G1 X123.371 Y115.390 E0.00075
G1 X117.049 Y109.068 E0.28170
G1 X117.582 Y109.065 E0.01679
G1 X123.368 Y114.851 E0.25782
G1 X123.365 Y114.312 E0.01698
G1 X118.115 Y109.062 E0.23394
G1 X118.648 Y109.059 E0.01679
G1 X123.362 Y113.774 E0.21006
G1 X123.359 Y113.235 E0.01698
G1 X119.180 Y109.056 E0.18618
G1 X119.713 Y109.053 E0.01679
G1 X123.356 Y112.696 E0.16230
G1 X123.353 Y112.157 E0.01698
G1 X120.246 Y109.050 E0.13842
G1 X120.779 Y109.047 E0.01679
G1 X123.350 Y111.618 E0.11454
G1 X123.347 Y111.079 E0.01698
G1 X121.312 Y109.044 E0.09066
G1 X121.845 Y109.041 E0.01679
G1 X123.344 Y110.540 E0.06678
G1 X123.341 Y110.001 E0.01698
G1 X122.378 Y109.038 E0.04290
G1 X122.911 Y109.035 E0.01679
G1 X123.508 Y109.633 E0.02662
G1 E-0.80000 F2100.00000
G1 Z0.800 F10800.000
G1 X123.461 Y101.175
G1 Z0.200
G1 E0.80000 F2100.00000
G1 F1200.000
G1 X109.899 Y101.251 E0.42522
G1 X109.861 Y94.305 E0.21781
G1 X123.616 Y94.228 E0.43131
G1 X123.655 Y101.174 E0.21781
G1 X123.521 Y101.175 E0.00422
G1 X124.035 Y101.549 F10800.000
G1 F1200.000
G1 X109.524 Y101.630 E0.45496
G1 X109.481 Y93.930 E0.24145
G1 X123.991 Y93.848 E0.45496
G1 X124.034 Y101.489 E0.23957
G1 X123.639 Y101.487 F10800.000
G1 E-0.80000 F2100.00000
G1 Z0.800 F10800.000
G1 X110.774 Y101.133
G1 Z0.200
G1 E0.80000 F2100.00000
G1 F1200.000
G1 X110.178 Y100.538 E0.02653
G1 X110.175 Y99.999 E0.01698
G1 X111.138 Y100.962 E0.04289
G1 X111.671 Y100.959 E0.01679
G1 X110.172 Y99.460 E0.06677
G1 X110.169 Y98.921 E0.01698
G1 X112.204 Y100.956 E0.09065
G1 X112.737 Y100.953 E0.01679
G1 X110.166 Y98.382 E0.11453
G1 X110.163 Y97.843 E0.01698
G1 X113.269 Y100.950 E0.13841
G1 X113.802 Y100.947 E0.01679
G1 X110.160 Y97.304 E0.16229
G1 X110.157 Y96.765 E0.01698
G1 X114.335 Y100.944 E0.18617
G1 X114.868 Y100.941 E0.01679
G1 X110.154 Y96.227 E0.21005
G1 X110.151 Y95.688 E0.01698
G1 X115.401 Y100.938 E0.23393
G1 X115.934 Y100.935 E0.01679
G1 X110.148 Y95.149 E0.25781
G1 X110.145 Y94.610 E0.01698
G1 X116.467 Y100.932 E0.28169
G1 X117.000 Y100.929 E0.01679
G1 X110.654 Y94.583 E0.28275
G1 X111.187 Y94.580 E0.01679
G1 X117.533 Y100.926 E0.28275
G1 X118.066 Y100.923 E0.01679
G1 X111.720 Y94.577 E0.28275
G1 X112.253 Y94.574 E0.01679
G1 X118.598 Y100.920 E0.28275
G1 X119.131 Y100.917 E0.01679
G1 X112.786 Y94.571 E0.28275
G1 X113.319 Y94.568 E0.01679
G1 X119.664 Y100.914 E0.28275
G1 X120.197 Y100.911 E0.01679
G1 X113.852 Y94.565 E0.28275
G1 X114.384 Y94.562 E0.01679
G1 X120.730 Y100.908 E0.28275
G1 X121.263 Y100.905 E0.01679
G1 X114.917 Y94.559 E0.28275
G1 X115.450 Y94.556 E0.01679
G1 X121.796 Y100.902 E0.28275
G1 X122.329 Y100.899 E0.01679
G1 X115.983 Y94.553 E0.28275
G1 X116.516 Y94.550 E0.01679
G1 X122.862 Y100.896 E0.28275
G1 X123.371 Y100.893 E0.01605
G1 X123.371 Y100.869 E0.00075
G1 X117.049 Y94.547 E0.28170
G1 X117.582 Y94.544 E0.01679
G1 X123.368 Y100.330 E0.25782
G1 X123.365 Y99.791 E0.01698
G1 X118.115 Y94.541 E0.23394
G1 X118.648 Y94.538 E0.01679
G1 X123.362 Y99.253 E0.21006
M73 P50 R1
G1 X123.359 Y98.714 E0.01698
G1 X119.180 Y94.535 E0.18618
G1 X119.713 Y94.532 E0.01679
G1 X123.356 Y98.175 E0.16230
G1 X123.353 Y97.636 E0.01698
G1 X120.246 Y94.529 E0.13842
G1 X120.779 Y94.526 E0.01679
G1 X123.350 Y97.097 E0.11454
G1 X123.347 Y96.558 E0.01698
G1 X121.312 Y94.523 E0.09066
G1 X121.845 Y94.520 E0.01679
G1 X123.344 Y96.019 E0.06678
G1 X123.341 Y95.480 E0.01698
G1 X122.378 Y94.517 E0.04290
G1 X122.911 Y94.514 E0.01679
G1 X123.508 Y95.112 E0.02662
M106 S255
;BEFORE_LAYER_CHANGE
G92 E0.0
;0.55


G1 E-0.80000 F2100.00000
G1 Z0.800 F10800.000
;AFTER_LAYER_CHANGE
;0.55
M104 S210 ; set temperature
G1 X125.066 Y90.764
G1 Z0.550
G1 E0.80000 F2100.00000
G1 F2934
G1 X125.688 Y91.002 E0.03346
G1 X139.494 Y98.675 E0.79267
G1 X140.495 Y99.319 E0.05972
G1 X141.566 Y100.290 E0.07254
G1 X142.333 Y101.265 E0.06227
G1 X142.939 Y102.343 E0.06208
G1 X143.431 Y103.716 E0.07315
G1 X143.646 Y104.921 E0.06147
G1 X143.676 Y106.126 E0.06045
G1 X143.519 Y107.348 E0.06186
G1 X143.098 Y108.735 E0.07274
G1 X142.555 Y109.828 E0.06127
G1 X141.903 Y110.762 E0.05716
G1 X141.292 Y111.436 E0.04565
G1 X140.436 Y112.169 E0.05654
G1 X139.449 Y112.793 E0.05860
G1 X125.142 Y119.143 E0.78557
G1 X124.477 Y119.232 E0.03366
G1 X109.083 Y119.318 E0.77257
G1 X108.375 Y119.216 E0.03591
G1 X107.717 Y118.936 E0.03591
G1 X107.173 Y118.515 E0.03448
G1 X106.753 Y117.977 E0.03427
G1 X106.477 Y117.348 E0.03448
G1 X106.365 Y116.670 E0.03448
G1 X106.315 Y93.485 E1.16356
G1 X106.418 Y92.777 E0.03591
G1 X106.697 Y92.123 E0.03570
G1 X107.094 Y91.603 E0.03284
G1 X107.606 Y91.189 E0.03305
G1 X108.202 Y90.908 E0.03305
G1 X108.847 Y90.777 E0.03305
