; generated by PrusaSlicer 2.3.1+win64 on 2021-09-03 at 18:46:58 UTC

; 

; external perimeters extrusion width = 0.45mm
; perimeters extrusion width = 0.45mm
; infill extrusion width = 0.45mm
; solid infill extrusion width = 0.45mm
; top infill extrusion width = 0.40mm
; support material extrusion width = 0.35mm
; first layer extrusion width = 0.42mm

M73 P0 R29
M201 X9000 Y9000 Z500 E10000 ; sets maximum accelerations, mm/sec^2
M203 X500 Y500 Z12 E120 ; sets maximum feedrates, mm/sec
M204 P2000 R1500 T2000 ; sets acceleration (P, T) and retract acceleration (R), mm/sec^2
M205 X10.00 Y10.00 Z0.20 E2.50 ; sets the jerk limits, mm/sec
M205 S0 T0 ; sets the minimum extruding and travel feed rate, mm/sec
M107
;TYPE:Custom
M862.3 P "MK2S" ; printer model check
M862.1 P0.4 ; nozzle diameter check
M115 U3.2.3 ; tell printer latest fw version
G90 ; use absolute coordinates
M83 ; extruder relative mode
M204 S2000 T1500 ; MK2 firmware only supports the old M204 format
M104 S215 ; set extruder temp
M140 S60 ; set bed temp
M190 S60 ; wait for bed temp
M109 S215 ; wait for extruder temp
G28 W ; home all without mesh bed level
G80 ; mesh bed leveling
G1 Y-3.0 F1000.0 ; go outside print area
G92 E0.0
G1 X60.0 E9.0  F1000.0 ; intro line
G1 X100.0 E12.5 F1000.0 ; intro line
G92 E0.0
G21 ; set units to millimeters
G90 ; use absolute coordinates
M83 ; use relative distances for extrusion
M900 K30 ; Filament gcode
;LAYER_CHANGE
;Z:0.2
;HEIGHT:0.2
;BEFORE_LAYER_CHANGE
G92 E0.0
;0.2


G1 E-0.80000 F2100.000
G1 Z0.600 F10800.000
;AFTER_LAYER_CHANGE
;0.2
G1 X155.900 Y115.828
G1 Z0.200
G1 E0.80000 F2100.000
M204 S1000
;TYPE:External perimeter
;WIDTH:0.42
G1 F1200.000
G1 X160.554 Y115.828 E0.14593
G1 X160.554 Y134.803 E0.59492
G1 X151.246 Y134.803 E0.29185
G1 X151.246 Y115.828 E0.59492
G1 X155.840 Y115.828 E0.14404
G1 X155.932 Y115.430 F10800.000
G1 E-0.80000 F2100.000
G1 Z0.800 F10800.000
G1 X155.900 Y135.720
G1 Z0.200
G1 E0.80000 F2100.000
G1 F1200.000
G1 X150.473 Y135.720 E0.17014
G1 X150.473 Y114.912 E0.65242
G1 X161.326 Y114.912 E0.34029
G1 X161.326 Y135.720 E0.65242
G1 X155.960 Y135.720 E0.16826
G1 X155.572 Y135.491 F10800.000
G1 X155.900 Y135.261
;TYPE:Gap fill
;WIDTH:0.564475
G1 F1200.000
G1 X151.057 Y135.261 E0.21001
G1 X150.944 Y135.249 E0.00495
G1 X150.901 Y135.120 E0.00588
;WIDTH:0.438232
G1 X150.859 Y134.991 E0.00446
G1 X150.859 Y126.852 E0.26755
;WIDTH:0.438234
G1 X150.859 Y115.640 E0.36853
;WIDTH:0.480312
G1 X150.880 Y115.575 E0.00247
;WIDTH:0.522392
G1 X150.901 Y115.511 E0.00270
;WIDTH:0.564473
G1 X150.944 Y115.382 E0.00588
G1 X151.057 Y115.370 E0.00495
G1 X160.742 Y115.370 E0.42002
G1 X160.856 Y115.382 E0.00495
G1 X160.898 Y115.511 E0.00588
;WIDTH:0.438234
G1 X160.940 Y115.640 E0.00446
G1 X160.940 Y134.991 E0.63609
;WIDTH:0.480314
G1 X160.919 Y135.056 E0.00247
;WIDTH:0.522394
G1 X160.898 Y135.120 E0.00270
;WIDTH:0.564475
G1 X160.856 Y135.249 E0.00588
G1 X160.742 Y135.261 E0.00495
G1 X155.960 Y135.261 E0.20741
G1 E-0.80000 F2100.000
G1 Z0.800 F10800.000
G1 X136.627 Y134.803
G1 Z0.200
G1 E0.80000 F2100.000
;TYPE:External perimeter
;WIDTH:0.42
G1 F1200.000
G1 X131.973 Y134.803 E0.14593
M73 P1 R29
G1 X131.973 Y115.828 E0.59492
G1 X141.281 Y115.828 E0.29185
G1 X141.281 Y134.803 E0.59492
G1 X136.687 Y134.803 E0.14404
G1 X136.595 Y135.201 F10800.000
G1 X136.627 Y135.720
G1 F1200.000
G1 X131.200 Y135.720 E0.17014
G1 X131.200 Y114.912 E0.65242
G1 X142.053 Y114.912 E0.34029
G1 X142.053 Y135.720 E0.65242
G1 X136.687 Y135.720 E0.16826
G1 X136.299 Y135.491 F10800.000
G1 X136.627 Y135.261
;TYPE:Gap fill
;WIDTH:0.564471
G1 F1200.000
G1 X131.784 Y135.261 E0.21001
G1 X131.671 Y135.249 E0.00495
G1 X131.628 Y135.120 E0.00588
;WIDTH:0.438232
G1 X131.586 Y134.991 E0.00446
G1 X131.586 Y119.671 E0.50360
;WIDTH:0.438234
G1 X131.586 Y115.640 E0.13249
;WIDTH:0.480316
G1 X131.607 Y115.575 E0.00247
;WIDTH:0.522395
G1 X131.628 Y115.511 E0.00270
;WIDTH:0.564473
G1 X131.671 Y115.382 E0.00588
G1 X131.784 Y115.370 E0.00495
G1 X141.469 Y115.370 E0.42002
G1 X141.583 Y115.382 E0.00495
G1 X141.625 Y115.511 E0.00588
;WIDTH:0.438236
G1 X141.667 Y115.640 E0.00446
G1 X141.667 Y134.991 E0.63609
;WIDTH:0.480315
G1 X141.646 Y135.056 E0.00247
;WIDTH:0.522393
G1 X141.625 Y135.120 E0.00270
;WIDTH:0.564471
G1 X141.583 Y135.249 E0.00588
G1 X141.469 Y135.261 E0.00495
G1 X136.687 Y135.261 E0.20741
G1 E-0.80000 F2100.000
G1 Z0.800 F10800.000
G1 X117.354 Y133.108
G1 Z0.200
G1 E0.80000 F2100.000
;TYPE:External perimeter
;WIDTH:0.42
G1 F1200.000
G1 X112.700 Y133.108 E0.14593
G1 X112.700 Y114.134 E0.59492
G1 X122.008 Y114.134 E0.29185
G1 X122.008 Y133.108 E0.59492
M73 P1 R28
G1 X117.414 Y133.108 E0.14404
G1 X117.322 Y133.507 F10800.000
G1 X117.354 Y134.025
G1 F1200.000
G1 X111.927 Y134.025 E0.17014
G1 X111.927 Y113.217 E0.65242
G1 X122.780 Y113.217 E0.34029
G1 X122.780 Y134.025 E0.65242
G1 X117.414 Y134.025 E0.16826
G1 X117.026 Y133.796 F10800.000
G1 X117.354 Y133.567
;TYPE:Gap fill
;WIDTH:0.564475
G1 F1200.000
G1 X112.511 Y133.567 E0.21001
G1 X112.398 Y133.555 E0.00495
G1 X112.355 Y133.426 E0.00588
;WIDTH:0.438232
G1 X112.313 Y133.297 E0.00446
G1 X112.313 Y125.157 E0.26755
;WIDTH:0.438234
G1 X112.313 Y113.946 E0.36853
;WIDTH:0.480312
G1 X112.334 Y113.881 E0.00247
;WIDTH:0.522392
G1 X112.355 Y113.817 E0.00270
;WIDTH:0.564473
G1 X112.398 Y113.688 E0.00588
G1 X112.511 Y113.676 E0.00495
G1 X122.196 Y113.676 E0.42002
M73 P2 R28
G1 X122.310 Y113.688 E0.00495
G1 X122.352 Y113.817 E0.00588
;WIDTH:0.438234
G1 X122.394 Y113.946 E0.00446
G1 X122.394 Y133.297 E0.63609
;WIDTH:0.480314
G1 X122.373 Y133.361 E0.00247
;WIDTH:0.522394
G1 X122.352 Y133.426 E0.00270
;WIDTH:0.564475
G1 X122.310 Y133.555 E0.00588
G1 X122.196 Y133.567 E0.00495
G1 X117.414 Y133.567 E0.20741
G1 E-0.80000 F2100.000
G1 Z0.800 F10800.000
G1 X96.670 Y127.916
G1 Z0.200
G1 E0.80000 F2100.000
;TYPE:External perimeter
;WIDTH:0.42
G1 F1200.000
G1 X89.999 Y127.920 E0.20916
G1 X90.000 Y121.131 E0.21286
G1 X103.365 Y121.139 E0.41904
G1 X103.365 Y127.912 E0.21236
G1 X96.730 Y127.916 E0.20803
G1 X96.568 Y128.302 F10800.000
G1 X96.674 Y128.550
G1 F1200.000
G1 X89.274 Y128.554 E0.23203
G1 X89.274 Y120.497 E0.25263
G1 X104.090 Y120.506 E0.46454
G1 X104.090 Y128.545 E0.25208
G1 X96.734 Y128.550 E0.23065
G1 X96.387 Y128.271 F10800.000
G1 X96.673 Y128.233
;TYPE:Gap fill
;WIDTH:0.29971
G1 F1200.000
G1 X89.811 Y128.237 E0.14653
;WIDTH:0.335684
G1 X89.755 Y128.219 E0.00142
;WIDTH:0.371655
G1 X89.700 Y128.201 E0.00159
;WIDTH:0.407626
G1 X89.644 Y128.183 E0.00177
G1 X89.636 Y128.108 E0.00227
;WIDTH:0.391734
G1 X89.637 Y120.942 E0.20784
;WIDTH:0.407632
G1 X89.645 Y120.868 E0.00227
G1 X89.700 Y120.850 E0.00177
;WIDTH:0.29965
G1 X89.811 Y120.814 E0.00249
G1 X103.553 Y120.822 E0.29335
;WIDTH:0.33541
G1 X103.608 Y120.840 E0.00141
;WIDTH:0.371197
G1 X103.664 Y120.858 E0.00159
;WIDTH:0.39101
G1 X103.719 Y120.876 E0.00168
G1 X103.727 Y120.950 E0.00217
G1 X103.727 Y128.100 E0.20694
;WIDTH:0.40697
G1 X103.719 Y128.175 E0.00227
G1 X103.664 Y128.193 E0.00176
;WIDTH:0.29971
G1 X103.553 Y128.229 E0.00248
G1 X96.733 Y128.233 E0.14563
G1 E-0.80000 F2100.000
G1 Z0.800 F10800.000
G1 X96.127 Y109.907
G1 Z0.200
G1 E0.80000 F2100.000
;TYPE:External perimeter
;WIDTH:0.42
G1 F1200.000
G1 X89.425 Y109.903 E0.21013
G1 X89.425 Y103.130 E0.21236
G1 X102.790 Y103.122 E0.41907
G1 X102.790 Y109.911 E0.21286
G1 X96.187 Y109.907 E0.20703
G1 X96.024 Y110.294 F10800.000
G1 X96.116 Y110.541
G1 F1200.000
G1 X88.700 Y110.536 E0.23252
G1 X88.699 Y102.497 E0.25208
G1 X103.516 Y102.488 E0.46456
G1 X103.516 Y110.545 E0.25263
G1 X96.176 Y110.541 E0.23014
G1 X95.829 Y110.262 F10800.000
G1 X96.116 Y110.224
;TYPE:Gap fill
;WIDTH:0.299664
G1 F1200.000
G1 X89.236 Y110.220 E0.14687
;WIDTH:0.33541
G1 X89.181 Y110.202 E0.00141
;WIDTH:0.371197
G1 X89.126 Y110.184 E0.00159
;WIDTH:0.39101
G1 X89.070 Y110.166 E0.00168
G1 X89.062 Y110.091 E0.00217
G1 X89.062 Y102.942 E0.20694
;WIDTH:0.406971
G1 X89.070 Y102.867 E0.00227
;WIDTH:0.40697
G1 X89.125 Y102.849 E0.00176
;WIDTH:0.29971
G1 X89.236 Y102.813 E0.00248
G1 X102.978 Y102.805 E0.29343
;WIDTH:0.335683
G1 X103.034 Y102.823 E0.00142
;WIDTH:0.371655
G1 X103.089 Y102.841 E0.00159
;WIDTH:0.391734
G1 X103.145 Y102.859 E0.00169
G1 X103.153 Y102.934 E0.00217
G1 X103.153 Y110.100 E0.20784
;WIDTH:0.407638
G1 X103.145 Y110.174 E0.00227
G1 X103.089 Y110.192 E0.00177
;WIDTH:0.299664
G1 X102.978 Y110.228 E0.00249
G1 X96.176 Y110.224 E0.14521
G1 E-0.80000 F2100.000
G1 Z0.800 F10800.000
G1 X110.595 Y82.523
G1 Z0.200
G1 E0.80000 F2100.000
;TYPE:Perimeter
;WIDTH:0.42
G1 F1200.000
G1 X110.164 Y82.495 E0.01354
G1 X109.747 Y82.384 E0.01354
G1 X109.359 Y82.193 E0.01354
G1 X109.016 Y81.930 E0.01354
G1 X108.731 Y81.606 E0.01354
G1 X108.515 Y81.232 E0.01354
G1 X108.376 Y80.824 E0.01354
G1 X108.319 Y80.396 E0.01354
G1 X108.347 Y79.965 E0.01354
G1 X108.459 Y79.547 E0.01354
G1 X108.649 Y79.160 E0.01354
G1 X108.912 Y78.817 E0.01354
G1 X109.236 Y78.532 E0.01354
G1 X109.610 Y78.316 E0.01354
G1 X110.022 Y78.176 E0.01364
G1 X110.484 Y78.120 E0.01459
G1 X110.880 Y78.149 E0.01245
G1 X111.295 Y78.260 E0.01346
G1 X111.682 Y78.450 E0.01354
G1 X112.025 Y78.713 E0.01354
G1 X112.308 Y79.035 E0.01345
G1 X112.524 Y79.401 E0.01332
G1 X112.679 Y79.814 E0.01382
G1 X112.724 Y80.169 E0.01123
G1 X112.695 Y80.676 E0.01594
G1 X112.583 Y81.096 E0.01361
G1 X112.392 Y81.483 E0.01354
G1 X112.130 Y81.826 E0.01354
G1 X111.805 Y82.111 E0.01354
G1 X111.431 Y82.327 E0.01354
G1 X111.023 Y82.466 E0.01354
G1 X110.654 Y82.515 E0.01166
G1 X110.582 Y82.144 F10800.000
;TYPE:External perimeter
G1 F1200.000
G1 X110.225 Y82.121 E0.01121
G1 X109.880 Y82.029 E0.01121
G1 X109.559 Y81.871 E0.01121
G1 X109.275 Y81.654 E0.01121
G1 X109.039 Y81.385 E0.01121
G1 X108.860 Y81.076 E0.01121
G1 X108.745 Y80.737 E0.01121
G1 X108.698 Y80.383 E0.01121
G1 X108.721 Y80.026 E0.01121
G1 X108.813 Y79.681 E0.01121
G1 X108.971 Y79.360 E0.01121
G1 X109.189 Y79.076 E0.01121
G1 X109.457 Y78.840 E0.01121
G1 X109.767 Y78.661 E0.01121
G1 X110.106 Y78.546 E0.01125
G1 X110.493 Y78.499 E0.01221
G1 X110.817 Y78.522 E0.01019
G1 X111.162 Y78.614 E0.01118
G1 X111.482 Y78.772 E0.01121
G1 X111.766 Y78.990 E0.01121
G1 X112.002 Y79.257 E0.01118
G1 X112.183 Y79.564 E0.01117
G1 X112.310 Y79.905 E0.01140
G1 X112.345 Y80.182 E0.00876
G1 X112.320 Y80.616 E0.01365
G1 X112.228 Y80.963 E0.01123
G1 X112.070 Y81.283 E0.01121
G1 X111.853 Y81.567 E0.01121
G1 X111.584 Y81.803 E0.01121
G1 X111.275 Y81.982 E0.01121
G1 X110.936 Y82.097 E0.01121
G1 X110.641 Y82.136 E0.00933
M73 P3 R28
G1 X110.414 Y82.460 F10800.000
G1 X110.427 Y85.986
;TYPE:Perimeter
G1 F1200.000
G1 X109.038 Y85.921 E0.04360
G1 X108.035 Y85.418 E0.03520
G1 X107.536 Y85.135 E0.01798
G1 X107.076 Y84.818 E0.01750
G1 X106.652 Y84.459 E0.01743
G1 X106.265 Y84.060 E0.01743
G1 X105.918 Y83.623 E0.01750
G1 X105.603 Y83.144 E0.01798
G1 X105.033 Y82.176 E0.03520
G1 X104.876 Y80.795 E0.04360
G1 X104.857 Y80.227 E0.01783
G1 X104.868 Y79.963 E0.00828
G1 X104.928 Y79.427 E0.01690
G1 X105.049 Y78.859 E0.01820
G1 X105.220 Y78.324 E0.01763
G1 X105.319 Y78.080 E0.00827
G1 X105.567 Y77.574 E0.01766
G1 X105.861 Y77.102 E0.01744
G1 X106.188 Y76.673 E0.01691
G1 X106.379 Y76.457 E0.00904
G1 X106.783 Y76.066 E0.01762
G1 X107.222 Y75.716 E0.01762
G1 X107.461 Y75.555 E0.00903
G1 X107.928 Y75.286 E0.01691
G1 X108.435 Y75.056 E0.01744
G1 X108.961 Y74.877 E0.01743
G1 X109.502 Y74.750 E0.01743
G1 X110.060 Y74.676 E0.01766
G1 X110.324 Y74.661 E0.00827
G1 X110.863 Y74.668 E0.01690
G1 X111.440 Y74.733 E0.01819
G1 X111.982 Y74.849 E0.01740
G1 X112.512 Y75.019 E0.01743
G1 X113.022 Y75.240 E0.01743
G1 X113.508 Y75.509 E0.01743
G1 X113.965 Y75.825 E0.01743
G1 X114.389 Y76.184 E0.01743
G1 X114.776 Y76.583 E0.01743
G1 X115.122 Y77.019 E0.01743
G1 X115.429 Y77.492 E0.01769
G1 X115.557 Y77.726 E0.00835
G1 X115.795 Y78.241 E0.01780
G1 X115.979 Y78.766 E0.01744
G1 X116.105 Y79.301 E0.01725
G1 X116.172 Y79.849 E0.01731
G1 X116.186 Y80.407 E0.01748
G1 X116.148 Y80.964 E0.01750
G1 X116.058 Y81.513 E0.01745
G1 X115.915 Y82.050 E0.01743
G1 X115.719 Y82.570 E0.01743
G1 X115.474 Y83.069 E0.01743
G1 X115.181 Y83.541 E0.01743
G1 X114.838 Y83.988 E0.01765
G1 X114.663 Y84.185 E0.00827
G1 X114.259 Y84.577 E0.01766
G1 X113.818 Y84.927 E0.01765
G1 X113.600 Y85.076 E0.00826
G1 X113.113 Y85.358 E0.01766
G1 X112.607 Y85.588 E0.01743
G1 X112.081 Y85.767 E0.01743
G1 X111.539 Y85.893 E0.01743
G1 X110.988 Y85.966 E0.01744
G1 X110.487 Y85.984 E0.01572
G1 X109.184 Y86.982 F10800.000
;TYPE:External perimeter
G1 F1200.000
G1 X108.356 Y86.735 E0.02708
G1 X108.566 Y86.106 E0.02078
G1 X107.857 Y85.750 E0.02486
G1 X107.335 Y85.455 E0.01880
G1 X106.847 Y85.118 E0.01862
G1 X106.394 Y84.735 E0.01859
G1 X105.982 Y84.309 E0.01859
G1 X105.612 Y83.844 E0.01862
G1 X105.283 Y83.343 E0.01880
G1 X104.880 Y82.660 E0.02486
G1 X104.267 Y82.911 E0.02078
G1 X103.965 Y82.102 E0.02708
G1 X104.623 Y81.907 E0.02152
G1 X104.499 Y80.823 E0.03421
G1 X104.480 Y80.225 E0.01873
G1 X104.491 Y79.934 E0.00914
G1 X104.556 Y79.367 E0.01790
G1 X104.684 Y78.763 E0.01937
G1 X104.865 Y78.196 E0.01866
G1 X104.974 Y77.926 E0.00914
G1 X105.237 Y77.391 E0.01867
G1 X105.550 Y76.887 E0.01859
G1 X105.897 Y76.434 E0.01790
G1 X106.106 Y76.197 E0.00991
G1 X106.533 Y75.783 E0.01866
G1 X106.999 Y75.412 E0.01866
G1 X107.261 Y75.235 E0.00991
G1 X107.756 Y74.950 E0.01790
G1 X108.296 Y74.705 E0.01859
G1 X108.857 Y74.514 E0.01859
G1 X109.434 Y74.378 E0.01859
G1 X110.025 Y74.300 E0.01867
G1 X110.316 Y74.283 E0.00914
G1 X110.886 Y74.292 E0.01790
G1 X111.500 Y74.360 E0.01936
G1 X112.080 Y74.485 E0.01858
G1 X112.644 Y74.665 E0.01859
G1 X113.188 Y74.901 E0.01859
G1 X113.707 Y75.188 E0.01859
G1 X114.195 Y75.525 E0.01859
G1 X114.647 Y75.909 E0.01859
G1 X115.060 Y76.334 E0.01859
G1 X115.429 Y76.798 E0.01859
G1 X115.752 Y77.299 E0.01869
G1 X115.893 Y77.555 E0.00918
G1 X116.145 Y78.099 E0.01877
G1 X116.342 Y78.660 E0.01865
G1 X116.477 Y79.235 E0.01853
G1 X116.548 Y79.821 E0.01852
G1 X116.563 Y80.414 E0.01860
G1 X116.523 Y81.007 E0.01862
G1 X116.427 Y81.592 E0.01860
G1 X116.274 Y82.165 E0.01859
G1 X116.066 Y82.720 E0.01859
G1 X115.804 Y83.252 E0.01859
G1 X115.491 Y83.756 E0.01859
G1 X115.129 Y84.228 E0.01867
G1 X114.936 Y84.446 E0.00914
G1 X114.508 Y84.861 E0.01867
G1 X114.042 Y85.231 E0.01867
G1 X113.801 Y85.395 E0.00914
G1 X113.286 Y85.693 E0.01867
G1 X112.746 Y85.939 E0.01859
G1 X112.184 Y86.130 E0.01859
G1 X111.607 Y86.265 E0.01859
G1 X111.019 Y86.343 E0.01859
G1 X110.425 Y86.363 E0.01865
G1 X109.335 Y86.313 E0.03421
G1 X109.197 Y86.924 E0.01964
G1 X108.997 Y86.628 F10800.000
G1 X107.692 Y85.094
;TYPE:Solid infill
;WIDTH:0.426824
G1 F1200.000
G1 X106.478 Y83.873 E0.05496
G1 X106.147 Y83.457 E0.01697
G1 X105.843 Y82.994 E0.01768
G1 X105.424 Y82.283 E0.02636
G1 X108.451 Y85.310 E0.13669
G1 X109.111 Y85.642 E0.02357
G1 X109.336 Y85.652 E0.00719
G1 X105.248 Y81.564 E0.18457
G1 X105.178 Y80.951 E0.01969
G1 X109.905 Y85.679 E0.21342
G1 X110.471 Y85.701 E0.01807
G1 X105.145 Y80.375 E0.24045
G1 X105.165 Y79.852 E0.01671
G1 X110.993 Y85.680 E0.26312
G1 X111.473 Y85.617 E0.01544
G1 X105.229 Y79.373 E0.28187
G1 X105.324 Y78.926 E0.01460
G1 X112.055 Y85.656 E0.30383
G1 E-0.80000 F2100.000
G1 Z0.800 F10800.000
G1 X115.297 Y77.497
G1 Z0.200
G1 E0.80000 F2100.000
G1 F1200.000
G1 X114.165 Y76.365 E0.05108
G1 X113.793 Y76.050 E0.01557
G1 X113.358 Y75.750 E0.01685
G1 X112.897 Y75.494 E0.01685
G1 X112.639 Y75.382 E0.00895
G1 X115.471 Y78.214 E0.12785
G1 X115.708 Y78.845 E0.02149
G1 X115.753 Y79.039 E0.00636
G1 X111.817 Y75.103 E0.17767
G1 X111.394 Y75.012 E0.01382
G1 X111.157 Y74.986 E0.00762
G1 X115.868 Y79.697 E0.21269
G1 X115.899 Y80.271 E0.01835
G1 X110.575 Y74.947 E0.24035
G1 X110.048 Y74.963 E0.01684
G1 X115.877 Y80.791 E0.26312
G1 X115.812 Y81.269 E0.01540
G1 X109.569 Y75.026 E0.28183
G1 X109.127 Y75.128 E0.01445
G1 X115.712 Y81.713 E0.29726
G1 X115.584 Y82.127 E0.01385
G1 X112.808 Y79.351 E0.12532
G1 X112.955 Y79.745 E0.01345
G1 X112.998 Y80.084 E0.01091
G1 X115.430 Y82.517 E0.10981
G1 X115.251 Y82.881 E0.01295
G1 X112.982 Y80.611 E0.10246
G1 X112.975 Y80.721 E0.00353
G1 X112.886 Y81.058 E0.01111
