; generated by PrusaSlicer 2.3.1+win64 on 2021-09-07 at 23:15:12 UTC

; 

; external perimeters extrusion width = 0.45mm
; perimeters extrusion width = 0.45mm
; infill extrusion width = 0.45mm
; solid infill extrusion width = 0.45mm
; top infill extrusion width = 0.40mm
; first layer extrusion width = 0.42mm

M73 P0 R30
M201 X9000 Y9000 Z500 E10000 ; sets maximum accelerations, mm/sec^2
M203 X500 Y500 Z12 E120 ; sets maximum feedrates, mm/sec
M204 P2000 R1500 T2000 ; sets acceleration (P, T) and retract acceleration (R), mm/sec^2
M205 X10.00 Y10.00 Z0.20 E2.50 ; sets the jerk limits, mm/sec
M205 S0 T0 ; sets the minimum extruding and travel feed rate, mm/sec
M107
;TYPE:Custom
M862.3 P "MK2S" ; printer model check
M862.1 P0.4 ; nozzle diameter check
M115 U3.2.3 ; tell printer latest fw version
G90 ; use absolute coordinates
M83 ; extruder relative mode
M204 S2000 T1500 ; MK2 firmware only supports the old M204 format
M104 S215 ; set extruder temp
M140 S60 ; set bed temp
M190 S60 ; wait for bed temp
M109 S215 ; wait for extruder temp
G28 W ; home all without mesh bed level
G80 ; mesh bed leveling
G1 Y-3.0 F1000.0 ; go outside print area
G92 E0.0
G1 X60.0 E9.0  F1000.0 ; intro line
G1 X100.0 E12.5 F1000.0 ; intro line
G92 E0.0
G21 ; set units to millimeters
G90 ; use absolute coordinates
M83 ; use relative distances for extrusion
M900 K30 ; Filament gcode
;LAYER_CHANGE
;Z:0.2
;HEIGHT:0.2
;BEFORE_LAYER_CHANGE
G92 E0.0
;0.2


G1 E-0.80000 F2100.000
G1 Z0.600 F10800.000
;AFTER_LAYER_CHANGE
;0.2
G1 X78.623 Y101.770
G1 Z0.200
G1 E0.80000 F2100.000
M204 S1000
;TYPE:Skirt
;WIDTH:0.42
G1 F1200.000
G1 X79.059 Y101.055 E0.02626
G1 X79.526 Y100.648 E0.01941
G1 X108.804 Y81.343 E1.09957
G1 X138.678 Y70.201 E0.99972
G1 X139.280 Y70.119 E0.01906
G1 X150.572 Y70.119 E0.35406
G1 X151.182 Y70.200 E0.01929
G1 X151.751 Y70.434 E0.01929
G1 X152.241 Y70.807 E0.01929
G1 X152.618 Y71.293 E0.01929
G1 X171.292 Y105.391 E1.21895
G1 X171.468 Y105.873 E0.01609
G1 X171.537 Y106.378 E0.01597
G1 X171.492 Y112.395 E0.18869
G1 X171.311 Y112.944 E0.01811
G1 X170.634 Y114.214 E0.04513
G1 X170.039 Y114.896 E0.02837
G1 X136.708 Y139.478 E1.29853
G1 X136.124 Y139.742 E0.02012
G1 X135.489 Y139.841 E0.02012
G1 X117.408 Y139.825 E0.56693
G1 X108.847 Y139.545 E0.26856
G1 X108.042 Y139.362 E0.02590
G1 X107.453 Y139.007 E0.02154
G1 X79.324 Y115.734 E1.14471
M73 P1 R30
G1 X78.826 Y115.167 E0.02367
G1 X78.565 Y114.593 E0.01977
G1 X78.463 Y113.971 E0.01977
G1 X78.463 Y102.592 E0.35679
G1 X78.612 Y101.829 E0.02437
; printing object Lookout barsV1R1.stl id:4 copy 1
G1 X81.769 Y103.415 F10800.000
;TYPE:External perimeter
G1 F1200.000
G1 X85.135 Y103.425 E0.10556
G1 X85.606 Y103.484 E0.01488
G1 X86.067 Y103.622 E0.01509
G1 X86.587 Y103.483 E0.01688
G1 X87.107 Y103.425 E0.01640
G1 X87.614 Y103.415 E0.01591
G1 X88.617 Y103.425 E0.03145
G1 X89.138 Y103.483 E0.01643
G1 X89.622 Y103.612 E0.01569
G1 X90.192 Y103.612 E0.01789
G1 X90.674 Y103.498 E0.01553
G1 X91.192 Y103.434 E0.01637
G1 X92.206 Y103.425 E0.03179
G1 X92.729 Y103.483 E0.01649
G1 X93.249 Y103.622 E0.01687
G1 X93.769 Y103.483 E0.01687
G1 X94.288 Y103.425 E0.01640
G1 X95.799 Y103.425 E0.04736
G1 X96.320 Y103.483 E0.01643
G1 X96.840 Y103.622 E0.01687
G1 X97.342 Y103.483 E0.01633
G1 X97.847 Y103.425 E0.01595
G1 X101.138 Y103.415 E0.10319
G1 X101.138 Y113.119 E0.30427
G1 X97.848 Y113.107 E0.10316
G1 X97.342 Y113.049 E0.01597
G1 X96.840 Y112.911 E0.01633
G1 X96.320 Y113.049 E0.01687
G1 X95.797 Y113.107 E0.01649
G1 X94.783 Y113.099 E0.03179
G1 X94.265 Y113.035 E0.01637
G1 X93.783 Y112.920 E0.01553
G1 X93.212 Y112.920 E0.01789
G1 X92.729 Y113.049 E0.01569
G1 X92.207 Y113.107 E0.01647
G1 X90.700 Y113.107 E0.04726
G1 X90.178 Y113.049 E0.01647
G1 X89.658 Y112.911 E0.01687
G1 X89.138 Y113.049 E0.01687
G1 X88.615 Y113.107 E0.01649
G1 X87.602 Y113.099 E0.03179
G1 X87.084 Y113.035 E0.01637
G1 X86.601 Y112.920 E0.01553
G1 X85.549 Y112.920 E0.03300
G1 X85.084 Y113.028 E0.01496
G1 X84.586 Y113.095 E0.01575
G1 X84.094 Y113.115 E0.01544
G1 X81.769 Y113.118 E0.07292
G1 X81.769 Y103.475 E0.30238
G1 X81.738 Y103.016 F10800.000
G1 X81.249 Y103.040
G1 F1200.000
G1 X101.657 Y103.040 E0.63988
M73 P1 R29
G1 X101.657 Y113.493 E0.32775
G1 X81.249 Y113.493 E0.63988
G1 X81.249 Y103.100 E0.32587
G1 X81.644 Y103.103 F10800.000
G1 X81.509 Y103.228
;TYPE:Gap fill
;WIDTH:0.185038
G1 F1200.000
G1 X81.509 Y113.304 E0.11907
G1 X84.795 Y113.281 F10800.000
;WIDTH:0.134424
G1 F1200.000
G1 X85.128 Y113.259 E0.00254
;WIDTH:0.169045
G1 X85.280 Y113.241 E0.00160
;WIDTH:0.203666
G1 X85.431 Y113.224 E0.00203
;WIDTH:0.23829
G1 X85.582 Y113.207 E0.00247
G1 X86.568 Y113.207 E0.01602
G1 X86.725 Y113.225 E0.00258
;WIDTH:0.126892
G1 X87.343 Y113.281 E0.00433
G1 X88.981 Y113.280 F10800.000
;WIDTH:0.11315
G1 F1200.000
G1 X89.182 Y113.269 E0.00118
;WIDTH:0.154765
G1 X89.341 Y113.248 E0.00149
;WIDTH:0.19638
G1 X89.499 Y113.228 E0.00204
;WIDTH:0.237995
G1 X89.658 Y113.207 E0.00259
G1 X89.817 Y113.228 E0.00259
;WIDTH:0.112187
G1 X90.335 Y113.280 E0.00300
G1 X92.572 Y113.280 F10800.000
;WIDTH:0.113164
G1 F1200.000
G1 X92.773 Y113.269 E0.00117
;WIDTH:0.154872
G1 X92.932 Y113.248 E0.00149
;WIDTH:0.19658
G1 X93.091 Y113.227 E0.00205
;WIDTH:0.23829
G1 X93.250 Y113.207 E0.00260
G1 X93.749 Y113.207 E0.00811
G1 X93.907 Y113.225 E0.00258
;WIDTH:0.126892
G1 X94.525 Y113.281 E0.00433
G1 X96.163 Y113.280 F10800.000
;WIDTH:0.113152
G1 F1200.000
G1 X96.364 Y113.269 E0.00118
;WIDTH:0.154667
G1 X96.522 Y113.248 E0.00148
;WIDTH:0.196184
G1 X96.680 Y113.228 E0.00203
;WIDTH:0.237699
G1 X96.838 Y113.207 E0.00258
G1 X96.991 Y113.228 E0.00249
;WIDTH:0.112591
G1 X97.495 Y113.281 E0.00294
G1 X101.398 Y113.304 F10800.000
;WIDTH:0.185034
G1 F1200.000
G1 X101.398 Y103.228 E0.11907
G1 X97.501 Y103.251 F10800.000
;WIDTH:0.113339
G1 F1200.000
G1 X96.991 Y103.305 E0.00301
;WIDTH:0.238507
G1 X96.838 Y103.325 E0.00250
G1 X96.680 Y103.304 E0.00259
;WIDTH:0.19703
G1 X96.522 Y103.284 E0.00204
;WIDTH:0.155554
G1 X96.364 Y103.263 E0.00149
;WIDTH:0.11408
G1 X96.155 Y103.251 E0.00124
G1 X93.937 Y103.251 F10800.000
;WIDTH:0.11352
G1 F1200.000
G1 X93.407 Y103.304 E0.00313
;WIDTH:0.239379
G1 X93.249 Y103.325 E0.00261
G1 X93.090 Y103.304 E0.00261
;WIDTH:0.197806
G1 X92.932 Y103.283 E0.00206
;WIDTH:0.156234
G1 X92.773 Y103.263 E0.00151
;WIDTH:0.114662
G1 X92.558 Y103.251 E0.00128
G1 X90.948 Y103.250 F10800.000
;WIDTH:0.128734
G1 F1200.000
G1 X90.316 Y103.307 E0.00453
;WIDTH:0.240201
G1 X90.159 Y103.325 E0.00260
G1 X89.659 Y103.325 E0.00819
G1 X89.500 Y103.304 E0.00264
;WIDTH:0.198332
G1 X89.341 Y103.283 E0.00207
;WIDTH:0.156706
G1 X89.183 Y103.262 E0.00151
;WIDTH:0.11508
G1 X88.965 Y103.250 E0.00131
G1 X86.756 Y103.251 F10800.000
;WIDTH:0.113465
G1 F1200.000
G1 X86.229 Y103.304 E0.00311
;WIDTH:0.238062
G1 X86.072 Y103.325 E0.00257
G1 X85.933 Y103.304 E0.00227
;WIDTH:0.19738
G1 X85.794 Y103.284 E0.00180
;WIDTH:0.156699
G1 X85.655 Y103.264 E0.00133
;WIDTH:0.116019
G1 X85.452 Y103.251 E0.00124
; stop printing object Lookout barsV1R1.stl id:4 copy 1
; printing object Merged id:0 copy 0
G1 E-0.80000 F2100.000
G1 Z0.800 F10800.000
G1 X128.168 Y122.797
G1 Z0.200
G1 E0.80000 F2100.000
;TYPE:External perimeter
;WIDTH:0.42
G1 F1200.000
G1 X129.480 Y122.788 E0.04114
G1 X130.461 Y122.818 E0.03078
G1 X133.885 Y122.933 E0.10740
G1 X135.194 Y123.027 E0.04115
G1 X134.756 Y136.626 E0.42661
G1 X133.441 Y136.634 E0.04124
G1 X130.009 Y136.524 E0.10766
G1 X129.026 Y136.489 E0.03085
G1 X127.714 Y136.395 E0.04123
G1 X128.166 Y122.857 E0.42471
G1 X128.158 Y122.397 F10800.000
G1 X127.851 Y122.375
G1 F1200.000
G1 X128.693 Y122.383 E0.02640
G1 X134.474 Y122.572 E0.18136
G1 X135.537 Y122.624 E0.03337
G1 X135.559 Y123.216 E0.01857
G1 X135.549 Y123.700 E0.01519
G1 X135.154 Y135.978 E0.38518
G1 X135.132 Y136.462 E0.01519
G1 X135.073 Y137.051 E0.01855
G1 X133.961 Y137.031 E0.03488
G1 X127.984 Y136.834 E0.18750
G1 X127.370 Y136.800 E0.01928
G1 X127.349 Y136.207 E0.01860
G1 X127.359 Y135.723 E0.01519
G1 X127.769 Y123.445 E0.38516
G1 X127.791 Y122.961 E0.01519
G1 X127.845 Y122.434 E0.01661
G1 X128.191 Y122.586 F10800.000
G1 E-0.80000 F2100.000
G1 Z0.800 F10800.000
G1 X117.184 Y123.012
G1 Z0.200
G1 E0.80000 F2100.000
G1 F1200.000
G1 X116.730 Y136.610 E0.42659
G1 X115.418 Y136.618 E0.04114
G1 X114.437 Y136.589 E0.03078
G1 X111.013 Y136.474 E0.10740
G1 X109.704 Y136.380 E0.04115
G1 X110.142 Y122.781 E0.42661
G1 X111.457 Y122.772 E0.04124
G1 X114.889 Y122.883 E0.10766
G1 X115.872 Y122.917 E0.03085
G1 X117.124 Y123.008 E0.03935
M73 P2 R29
G1 X117.583 Y123.028 F10800.000
G1 X117.528 Y122.608
G1 F1200.000
G1 X117.549 Y123.200 E0.01855
G1 X117.539 Y123.684 E0.01519
G1 X117.129 Y135.961 E0.38516
G1 X117.107 Y136.445 E0.01519
G1 X117.047 Y137.036 E0.01862
G1 X116.433 Y137.030 E0.01923
G1 X110.469 Y136.836 E0.18710
G1 X109.361 Y136.783 E0.03480
G1 X109.339 Y136.191 E0.01857
G1 X109.349 Y135.707 E0.01519
G1 X109.766 Y122.943 E0.40041
G1 X109.825 Y122.359 E0.01840
G1 X110.601 Y122.365 E0.02434
G1 X116.449 Y122.557 E0.18345
G1 X117.468 Y122.606 E0.03200
G1 X117.332 Y122.957 F10800.000
; stop printing object Merged id:0 copy 0
; printing object Lookout barsV1R1.stl id:2 copy 0
G1 E-0.80000 F2100.000
G1 Z0.800 F10800.000
G1 X110.996 Y113.119
G1 Z0.200
G1 E0.80000 F2100.000
G1 F1200.000
G1 X110.996 Y103.414 E0.30429
G1 X114.287 Y103.425 E0.10316
G1 X114.793 Y103.483 E0.01597
G1 X115.295 Y103.622 E0.01634
G1 X115.783 Y103.484 E0.01592
G1 X116.276 Y103.425 E0.01554
G1 X116.755 Y103.415 E0.01504
G1 X118.169 Y103.436 E0.04433
G1 X118.541 Y103.487 E0.01176
G1 X118.886 Y103.622 E0.01163
G1 X119.405 Y103.483 E0.01686
G1 X119.925 Y103.425 E0.01640
G1 X121.436 Y103.425 E0.04736
G1 X121.957 Y103.483 E0.01643
G1 X122.477 Y103.622 E0.01688
G1 X122.965 Y103.484 E0.01591
G1 X123.457 Y103.425 E0.01554
G1 X123.937 Y103.415 E0.01504
G1 X125.350 Y103.436 E0.04433
G1 X125.722 Y103.487 E0.01176
G1 X126.043 Y103.612 E0.01079
G1 X126.585 Y103.612 E0.01702
G1 X127.050 Y103.504 E0.01496
G1 X127.551 Y103.438 E0.01583
G1 X130.366 Y103.415 E0.08827
G1 X130.366 Y113.118 E0.30426
G1 X128.040 Y113.115 E0.07292
G1 X127.548 Y113.095 E0.01544
G1 X127.050 Y113.028 E0.01575
G1 X126.585 Y112.920 E0.01496
G1 X126.031 Y112.920 E0.01739
G1 X125.547 Y113.049 E0.01569
G1 X125.025 Y113.107 E0.01647
G1 X123.518 Y113.107 E0.04726
G1 X122.996 Y113.049 E0.01647
G1 X122.513 Y112.920 E0.01569
G1 X121.942 Y112.920 E0.01789
G1 X121.460 Y113.035 E0.01553
G1 X120.945 Y113.098 E0.01629
G1 X119.926 Y113.107 E0.03195
G1 X119.406 Y113.049 E0.01641
G1 X118.886 Y112.911 E0.01687
G1 X118.366 Y113.049 E0.01687
G1 X117.844 Y113.107 E0.01647
G1 X116.337 Y113.107 E0.04726
G1 X115.815 Y113.049 E0.01647
G1 X115.295 Y112.911 E0.01687
G1 X114.793 Y113.049 E0.01633
G1 X114.287 Y113.107 E0.01597
G1 X111.056 Y113.119 E0.10128
G1 X110.596 Y113.121 F10800.000
G1 X110.477 Y113.493
G1 F1200.000
G1 X110.477 Y103.040 E0.32775
G1 X130.885 Y103.040 E0.63988
G1 X130.885 Y113.493 E0.32775
G1 X110.537 Y113.493 E0.63800
G1 X110.620 Y113.119 F10800.000
G1 X110.737 Y113.304
;TYPE:Gap fill
;WIDTH:0.185034
G1 F1200.000
G1 X110.737 Y103.228 E0.11907
G1 X114.634 Y103.251 F10800.000
;WIDTH:0.11425
G1 F1200.000
G1 X114.838 Y103.263 E0.00121
;WIDTH:0.155433
G1 X114.990 Y103.284 E0.00143
;WIDTH:0.196614
G1 X115.142 Y103.304 E0.00196
;WIDTH:0.237795
G1 X115.294 Y103.325 E0.00248
G1 X115.442 Y103.305 E0.00241
;WIDTH:0.113655
G1 X115.941 Y103.251 E0.00295
G1 X118.377 Y103.251 F10800.000
;WIDTH:0.1217
G1 F1200.000
G1 X118.603 Y103.267 E0.00148
;WIDTH:0.159358
G1 X118.703 Y103.285 E0.00099
;WIDTH:0.197016
G1 X118.803 Y103.304 E0.00130
;WIDTH:0.234674
G1 X118.903 Y103.323 E0.00162
G1 X119.056 Y103.303 E0.00246
;WIDTH:0.113386
G1 X119.573 Y103.251 E0.00305
G1 X121.786 Y103.251 F10800.000
;WIDTH:0.114732
G1 F1200.000
G1 X122.001 Y103.263 E0.00128
;WIDTH:0.156165
G1 X122.159 Y103.283 E0.00150
;WIDTH:0.197599
G1 X122.317 Y103.304 E0.00205
;WIDTH:0.239033
G1 X122.474 Y103.325 E0.00260
G1 X122.622 Y103.304 E0.00243
;WIDTH:0.114601
G1 X123.130 Y103.250 E0.00304
G1 X125.551 Y103.250 F10800.000
;WIDTH:0.122676
G1 F1200.000
G1 X125.784 Y103.266 E0.00155
;WIDTH:0.161907
G1 X125.888 Y103.286 E0.00105
;WIDTH:0.201138
G1 X125.993 Y103.305 E0.00139
;WIDTH:0.240428
G1 X126.097 Y103.325 E0.00174
G1 X126.553 Y103.325 E0.00749
G1 X126.704 Y103.308 E0.00250
;WIDTH:0.135844
G1 X127.357 Y103.250 E0.00506
G1 X130.626 Y103.228 F10800.000
;WIDTH:0.185034
G1 F1200.000
G1 X130.626 Y113.304 E0.11907
G1 X127.340 Y113.281 F10800.000
;WIDTH:0.133636
G1 F1200.000
G1 X126.704 Y113.224 E0.00482
;WIDTH:0.238288
G1 X126.553 Y113.207 E0.00247
G1 X126.068 Y113.207 E0.00787
G1 X125.909 Y113.227 E0.00260
;WIDTH:0.19658
G1 X125.750 Y113.248 E0.00205
;WIDTH:0.154872
G1 X125.591 Y113.269 E0.00149
;WIDTH:0.113162
G1 X125.390 Y113.280 E0.00117
G1 X123.153 Y113.280 F10800.000
;WIDTH:0.112185
G1 F1200.000
G1 X122.634 Y113.227 E0.00300
;WIDTH:0.238288
G1 X122.475 Y113.207 E0.00260
G1 X121.976 Y113.207 E0.00811
G1 X121.818 Y113.225 E0.00258
;WIDTH:0.201433
G1 X121.661 Y113.243 E0.00209
;WIDTH:0.164578
G1 X121.504 Y113.262 E0.00160
;WIDTH:0.127722
G1 X121.201 Y113.281 E0.00214
G1 X119.563 Y113.280 F10800.000
;WIDTH:0.112173
G1 F1200.000
G1 X119.044 Y113.228 E0.00300
;WIDTH:0.237995
G1 X118.886 Y113.207 E0.00259
G1 X118.727 Y113.228 E0.00259
;WIDTH:0.196384
G1 X118.569 Y113.248 E0.00204
;WIDTH:0.154774
G1 X118.410 Y113.269 E0.00149
;WIDTH:0.113164
G1 X118.209 Y113.280 E0.00117
G1 X115.972 Y113.280 F10800.000
;WIDTH:0.112187
G1 F1200.000
G1 X115.454 Y113.228 E0.00299
;WIDTH:0.237699
G1 X115.296 Y113.207 E0.00258
G1 X115.144 Y113.228 E0.00249
;WIDTH:0.196345
G1 X114.991 Y113.248 E0.00196
;WIDTH:0.154992
G1 X114.838 Y113.269 E0.00144
;WIDTH:0.113638
G1 X114.639 Y113.281 E0.00117
; stop printing object Lookout barsV1R1.stl id:2 copy 0
; printing object Lookout barsV1R1.stl id:4 copy 0
G1 E-0.80000 F2100.000
G1 Z0.800 F10800.000
G1 X130.366 Y84.142
G1 Z0.200
G1 E0.80000 F2100.000
;TYPE:External perimeter
;WIDTH:0.42
G1 F1200.000
G1 X130.366 Y93.846 E0.30427
G1 X127.076 Y93.834 E0.10316
G1 X126.570 Y93.776 E0.01597
G1 X126.068 Y93.638 E0.01633
G1 X125.548 Y93.776 E0.01687
G1 X125.025 Y93.834 E0.01649
G1 X124.011 Y93.826 E0.03179
G1 X123.493 Y93.762 E0.01637
G1 X123.011 Y93.647 E0.01553
G1 X122.440 Y93.647 E0.01789
G1 X121.957 Y93.776 E0.01569
G1 X121.435 Y93.834 E0.01647
G1 X119.928 Y93.834 E0.04726
G1 X119.406 Y93.776 E0.01647
G1 X118.886 Y93.638 E0.01687
G1 X118.366 Y93.776 E0.01687
G1 X117.843 Y93.834 E0.01649
G1 X116.830 Y93.826 E0.03179
G1 X116.311 Y93.762 E0.01637
G1 X115.829 Y93.647 E0.01553
G1 X114.777 Y93.647 E0.03300
G1 X114.312 Y93.755 E0.01496
G1 X113.814 Y93.822 E0.01575
G1 X113.322 Y93.842 E0.01544
G1 X110.996 Y93.845 E0.07292
G1 X110.996 Y84.142 E0.30426
G1 X114.363 Y84.152 E0.10556
G1 X114.834 Y84.211 E0.01488
G1 X115.295 Y84.349 E0.01509
G1 X115.815 Y84.210 E0.01688
G1 X116.335 Y84.152 E0.01640
G1 X116.842 Y84.142 E0.01591
G1 X117.845 Y84.152 E0.03145
G1 X118.366 Y84.210 E0.01643
G1 X118.850 Y84.339 E0.01569
G1 X119.420 Y84.339 E0.01789
G1 X119.902 Y84.225 E0.01553
G1 X120.420 Y84.161 E0.01637
G1 X121.434 Y84.152 E0.03179
G1 X121.957 Y84.210 E0.01649
G1 X122.477 Y84.349 E0.01687
G1 X122.997 Y84.210 E0.01687
G1 X123.516 Y84.152 E0.01640
G1 X125.027 Y84.152 E0.04736
G1 X125.548 Y84.210 E0.01643
G1 X126.068 Y84.349 E0.01687
G1 X126.570 Y84.210 E0.01633
G1 X127.075 Y84.152 E0.01595
G1 X130.306 Y84.142 E0.10131
G1 X130.766 Y84.139 F10800.000
G1 X130.885 Y83.767
G1 F1200.000
G1 X130.885 Y94.220 E0.32775
G1 X110.477 Y94.220 E0.63988
G1 X110.477 Y83.767 E0.32775
G1 X130.825 Y83.767 E0.63800
M73 P3 R29
G1 X130.742 Y84.140 F10800.000
G1 X130.626 Y83.955
;TYPE:Gap fill
;WIDTH:0.185034
G1 F1200.000
G1 X130.626 Y94.031 E0.11907
G1 X126.723 Y94.008 F10800.000
;WIDTH:0.112591
G1 F1200.000
G1 X126.219 Y93.955 E0.00294
;WIDTH:0.237699
G1 X126.066 Y93.934 E0.00249
G1 X125.908 Y93.955 E0.00258
;WIDTH:0.196184
G1 X125.750 Y93.975 E0.00203
;WIDTH:0.154667
G1 X125.592 Y93.996 E0.00148
;WIDTH:0.113152
G1 X125.390 Y94.007 E0.00118
G1 X123.753 Y94.008 F10800.000
;WIDTH:0.126892
G1 F1200.000
