; generated by PrusaSlicer 2.3.1+win64 on 2021-09-08 at 20:05:04 UTC

; 

; external perimeters extrusion width = 0.45mm
; perimeters extrusion width = 0.45mm
; infill extrusion width = 0.45mm
; solid infill extrusion width = 0.45mm
; top infill extrusion width = 0.40mm
; support material extrusion width = 0.35mm
; first layer extrusion width = 0.42mm

M73 P0 R35
M201 X9000 Y9000 Z500 E10000 ; sets maximum accelerations, mm/sec^2
M203 X500 Y500 Z12 E120 ; sets maximum feedrates, mm/sec
M204 P2000 R1500 T2000 ; sets acceleration (P, T) and retract acceleration (R), mm/sec^2
M205 X10.00 Y10.00 Z0.20 E2.50 ; sets the jerk limits, mm/sec
M205 S0 T0 ; sets the minimum extruding and travel feed rate, mm/sec
M107
;TYPE:Custom
M862.3 P "MK2S" ; printer model check
M862.1 P0.4 ; nozzle diameter check
M115 U3.2.3 ; tell printer latest fw version
G90 ; use absolute coordinates
M83 ; extruder relative mode
M204 S2000 T1500 ; MK2 firmware only supports the old M204 format
M104 S215 ; set extruder temp
M140 S60 ; set bed temp
M190 S60 ; wait for bed temp
M109 S215 ; wait for extruder temp
G28 W ; home all without mesh bed level
G80 ; mesh bed leveling
G1 Y-3.0 F1000.0 ; go outside print area
G92 E0.0
G1 X60.0 E9.0  F1000.0 ; intro line
G1 X100.0 E12.5 F1000.0 ; intro line
G92 E0.0
G21 ; set units to millimeters
G90 ; use absolute coordinates
M83 ; use relative distances for extrusion
M900 K30 ; Filament gcode
;LAYER_CHANGE
;Z:0.2
;HEIGHT:0.2
;BEFORE_LAYER_CHANGE
G92 E0.0
;0.2


G1 E-0.80000 F2100.000
G1 Z0.600 F10800.000
;AFTER_LAYER_CHANGE
;0.2
G1 X103.802 Y113.963
G1 Z0.200
G1 E0.80000 F2100.000
M204 S1000
;TYPE:External perimeter
;WIDTH:0.42
G1 F1200.000
G1 X108.456 Y113.963 E0.14593
G1 X108.456 Y132.937 E0.59492
G1 X99.147 Y132.937 E0.29185
G1 X99.147 Y113.963 E0.59492
G1 X103.742 Y113.963 E0.14404
G1 X103.834 Y113.564 F10800.000
G1 E-0.80000 F2100.000
G1 Z0.800 F10800.000
G1 X103.802 Y133.854
G1 Z0.200
G1 E0.80000 F2100.000
G1 F1200.000
G1 X98.375 Y133.854 E0.17014
G1 X98.375 Y113.046 E0.65242
G1 X109.228 Y113.046 E0.34029
G1 X109.228 Y133.854 E0.65242
G1 X103.862 Y133.854 E0.16826
G1 X103.473 Y133.625 F10800.000
G1 X103.802 Y133.395
;TYPE:Gap fill
;WIDTH:0.564471
G1 F1200.000
G1 X98.959 Y133.395 E0.21001
G1 X98.845 Y133.383 E0.00495
G1 X98.803 Y133.255 E0.00588
;WIDTH:0.438232
G1 X98.761 Y133.126 E0.00446
G1 X98.761 Y117.805 E0.50360
;WIDTH:0.438234
G1 X98.761 Y113.774 E0.13249
;WIDTH:0.480316
G1 X98.782 Y113.710 E0.00247
;WIDTH:0.522395
G1 X98.803 Y113.645 E0.00270
;WIDTH:0.564473
G1 X98.845 Y113.516 E0.00588
G1 X98.959 Y113.504 E0.00495
G1 X108.644 Y113.504 E0.42002
G1 X108.758 Y113.516 E0.00495
G1 X108.800 Y113.645 E0.00588
;WIDTH:0.438236
G1 X108.842 Y113.774 E0.00446
G1 X108.842 Y133.126 E0.63609
;WIDTH:0.480315
G1 X108.821 Y133.190 E0.00247
;WIDTH:0.522393
G1 X108.800 Y133.255 E0.00270
;WIDTH:0.564471
G1 X108.758 Y133.383 E0.00588
G1 X108.644 Y133.395 E0.00495
G1 X103.862 Y133.395 E0.20741
G1 E-0.80000 F2100.000
G1 Z0.800 F10800.000
G1 X127.471 Y116.984
G1 Z0.200
G1 E0.80000 F2100.000
;TYPE:External perimeter
;WIDTH:0.42
G1 F1200.000
G1 X118.456 Y116.684 E0.28281
G1 X118.678 Y109.914 E0.21236
G1 X132.036 Y110.344 E0.41907
G1 X131.814 Y117.129 E0.21286
G1 X127.531 Y116.986 E0.13435
G1 X127.383 Y117.374 F10800.000
G1 X126.904 Y117.600
G1 F1200.000
G1 X117.711 Y117.293 E0.28839
G1 X117.974 Y109.257 E0.25208
G1 X132.783 Y109.734 E0.46456
G1 X132.519 Y117.787 E0.25263
M73 P1 R35
G1 X126.964 Y117.602 E0.17427
G1 X126.614 Y117.324 F10800.000
G1 X126.935 Y117.283
;TYPE:Gap fill
;WIDTH:0.299657
G1 F1200.000
G1 X118.258 Y116.994 E0.18534
;WIDTH:0.335411
G1 X118.203 Y116.974 E0.00141
;WIDTH:0.371196
G1 X118.148 Y116.955 E0.00159
;WIDTH:0.40698
G1 X118.093 Y116.935 E0.00176
G1 X118.088 Y116.860 E0.00227
;WIDTH:0.390964
G1 X118.322 Y109.714 E0.20691
;WIDTH:0.406967
G1 X118.332 Y109.640 E0.00227
G1 X118.388 Y109.624 E0.00176
;WIDTH:0.299705
G1 X118.500 Y109.591 E0.00248
G1 X132.235 Y110.033 E0.29343
;WIDTH:0.335679
G1 X132.290 Y110.053 E0.00142
;WIDTH:0.371652
G1 X132.345 Y110.073 E0.00159
;WIDTH:0.391714
G1 X132.400 Y110.093 E0.00169
G1 X132.405 Y110.167 E0.00217
G1 X132.170 Y117.330 E0.20783
;WIDTH:0.407617
G1 X132.160 Y117.404 E0.00227
G1 X132.104 Y117.420 E0.00177
;WIDTH:0.299657
G1 X131.992 Y117.452 E0.00249
G1 X126.995 Y117.285 E0.10674
G1 E-0.80000 F2100.000
G1 Z0.800 F10800.000
G1 X126.295 Y134.962
G1 Z0.200
G1 E0.80000 F2100.000
;TYPE:External perimeter
;WIDTH:0.42
G1 F1200.000
G1 X118.441 Y134.709 E0.24641
G1 X118.663 Y127.924 E0.21285
G1 X132.021 Y128.370 E0.41904
G1 X131.799 Y135.139 E0.21236
G1 X126.355 Y134.964 E0.17078
G1 X126.193 Y135.349 F10800.000
G1 X126.843 Y135.614
G1 F1200.000
G1 X117.694 Y135.320 E0.28700
G1 X117.959 Y127.267 E0.25263
G1 X132.766 Y127.761 E0.46454
G1 X132.503 Y135.796 E0.25208
G1 X126.903 Y135.616 E0.17568
G1 X126.553 Y135.338 F10800.000
G1 X126.874 Y135.298
;TYPE:Gap fill
;WIDTH:0.299721
G1 F1200.000
G1 X118.242 Y135.020 E0.18442
;WIDTH:0.335692
G1 X118.187 Y135.000 E0.00142
;WIDTH:0.371662
G1 X118.132 Y134.981 E0.00159
;WIDTH:0.40763
G1 X118.077 Y134.961 E0.00177
G1 X118.072 Y134.886 E0.00227
;WIDTH:0.39174
G1 X118.307 Y127.724 E0.20785
;WIDTH:0.407638
G1 X118.317 Y127.650 E0.00227
G1 X118.373 Y127.634 E0.00177
;WIDTH:0.299643
G1 X118.485 Y127.601 E0.00249
G1 X132.220 Y128.060 E0.29334
;WIDTH:0.335403
G1 X132.274 Y128.079 E0.00141
;WIDTH:0.371191
G1 X132.329 Y128.099 E0.00159
;WIDTH:0.391005
G1 X132.384 Y128.119 E0.00168
G1 X132.389 Y128.193 E0.00217
G1 X132.155 Y135.339 E0.20694
;WIDTH:0.406963
G1 X132.145 Y135.414 E0.00227
G1 X132.089 Y135.430 E0.00176
;WIDTH:0.299721
G1 X131.977 Y135.462 E0.00248
G1 X126.934 Y135.300 E0.10774
G1 E-0.80000 F2100.000
G1 Z0.800 F10800.000
G1 X147.688 Y127.721
G1 Z0.200
G1 E0.80000 F2100.000
;TYPE:External perimeter
;WIDTH:0.42
G1 F1200.000
G1 X143.034 Y127.721 E0.14593
G1 X143.034 Y108.747 E0.59492
G1 X152.342 Y108.747 E0.29185
G1 X152.342 Y127.721 E0.59492
G1 X147.748 Y127.721 E0.14404
G1 X147.656 Y128.120 F10800.000
G1 X147.688 Y128.638
G1 F1200.000
G1 X142.261 Y128.638 E0.17014
G1 X142.261 Y107.830 E0.65242
G1 X153.114 Y107.830 E0.34029
G1 X153.114 Y128.638 E0.65242
G1 X147.748 Y128.638 E0.16826
G1 X147.360 Y128.409 F10800.000
G1 X147.688 Y128.179
;TYPE:Gap fill
;WIDTH:0.564475
G1 F1200.000
G1 X142.845 Y128.179 E0.21001
G1 X142.732 Y128.167 E0.00495
G1 X142.689 Y128.038 E0.00588
;WIDTH:0.438232
G1 X142.647 Y127.909 E0.00446
G1 X142.647 Y119.770 E0.26755
;WIDTH:0.438234
G1 X142.647 Y108.558 E0.36853
;WIDTH:0.480312
M73 P1 R34
G1 X142.668 Y108.494 E0.00247
;WIDTH:0.522392
G1 X142.689 Y108.429 E0.00270
;WIDTH:0.564473
G1 X142.732 Y108.300 E0.00588
G1 X142.845 Y108.288 E0.00495
G1 X152.530 Y108.288 E0.42002
G1 X152.644 Y108.300 E0.00495
G1 X152.686 Y108.429 E0.00588
;WIDTH:0.438234
G1 X152.728 Y108.558 E0.00446
G1 X152.728 Y127.909 E0.63609
;WIDTH:0.480314
G1 X152.707 Y127.974 E0.00247
;WIDTH:0.522394
G1 X152.686 Y128.038 E0.00270
;WIDTH:0.564475
G1 X152.644 Y128.167 E0.00588
G1 X152.530 Y128.179 E0.00495
G1 X147.748 Y128.179 E0.20741
G1 E-0.80000 F2100.000
G1 Z0.800 F10800.000
G1 X147.688 Y98.493
G1 Z0.200
G1 E0.80000 F2100.000
;TYPE:External perimeter
;WIDTH:0.42
G1 F1200.000
G1 X143.034 Y98.493 E0.14593
G1 X143.034 Y79.519 E0.59492
M73 P2 R34
G1 X152.342 Y79.519 E0.29185
G1 X152.342 Y98.493 E0.59492
G1 X147.748 Y98.493 E0.14404
G1 X147.656 Y98.892 F10800.000
G1 X147.688 Y99.410
G1 F1200.000
G1 X142.261 Y99.410 E0.17014
G1 X142.261 Y78.602 E0.65242
G1 X153.114 Y78.602 E0.34029
G1 X153.114 Y99.410 E0.65242
G1 X147.748 Y99.410 E0.16826
G1 X147.360 Y99.181 F10800.000
G1 X147.688 Y98.951
;TYPE:Gap fill
;WIDTH:0.564475
G1 F1200.000
G1 X142.845 Y98.951 E0.21001
G1 X142.732 Y98.939 E0.00495
G1 X142.689 Y98.810 E0.00588
;WIDTH:0.438232
G1 X142.647 Y98.681 E0.00446
G1 X142.647 Y90.542 E0.26755
;WIDTH:0.438234
G1 X142.647 Y79.330 E0.36853
;WIDTH:0.480312
G1 X142.668 Y79.266 E0.00247
;WIDTH:0.522392
G1 X142.689 Y79.201 E0.00270
;WIDTH:0.564473
G1 X142.732 Y79.072 E0.00588
G1 X142.845 Y79.060 E0.00495
G1 X152.530 Y79.060 E0.42002
G1 X152.644 Y79.072 E0.00495
G1 X152.686 Y79.201 E0.00588
;WIDTH:0.438234
G1 X152.728 Y79.330 E0.00446
G1 X152.728 Y98.681 E0.63609
;WIDTH:0.480314
G1 X152.707 Y98.746 E0.00247
;WIDTH:0.522394
G1 X152.686 Y98.810 E0.00270
;WIDTH:0.564475
G1 X152.644 Y98.939 E0.00588
G1 X152.530 Y98.951 E0.00495
G1 X147.748 Y98.951 E0.20741
G1 E-0.80000 F2100.000
G1 Z0.800 F10800.000
G1 X128.415 Y98.493
G1 Z0.200
G1 E0.80000 F2100.000
;TYPE:External perimeter
;WIDTH:0.42
G1 F1200.000
G1 X123.761 Y98.493 E0.14593
G1 X123.761 Y79.519 E0.59492
G1 X133.069 Y79.519 E0.29185
G1 X133.069 Y98.493 E0.59492
G1 X128.475 Y98.493 E0.14404
G1 X128.383 Y98.892 F10800.000
G1 X128.415 Y99.410
G1 F1200.000
G1 X122.988 Y99.410 E0.17014
G1 X122.988 Y78.602 E0.65242
G1 X133.841 Y78.602 E0.34029
G1 X133.841 Y99.410 E0.65242
G1 X128.475 Y99.410 E0.16826
G1 X128.087 Y99.181 F10800.000
G1 X128.415 Y98.951
;TYPE:Gap fill
;WIDTH:0.564471
G1 F1200.000
G1 X123.572 Y98.951 E0.21001
G1 X123.459 Y98.939 E0.00495
G1 X123.416 Y98.810 E0.00588
;WIDTH:0.438232
G1 X123.374 Y98.681 E0.00446
G1 X123.374 Y83.361 E0.50360
;WIDTH:0.438234
G1 X123.374 Y79.330 E0.13249
;WIDTH:0.480316
G1 X123.395 Y79.266 E0.00247
;WIDTH:0.522395
G1 X123.416 Y79.201 E0.00270
;WIDTH:0.564473
G1 X123.459 Y79.072 E0.00588
G1 X123.572 Y79.060 E0.00495
G1 X133.257 Y79.060 E0.42002
G1 X133.371 Y79.072 E0.00495
G1 X133.413 Y79.201 E0.00588
;WIDTH:0.438236
G1 X133.455 Y79.330 E0.00446
G1 X133.455 Y98.681 E0.63609
;WIDTH:0.480315
G1 X133.434 Y98.746 E0.00247
;WIDTH:0.522393
G1 X133.413 Y98.810 E0.00270
;WIDTH:0.564471
G1 X133.371 Y98.939 E0.00588
G1 X133.257 Y98.951 E0.00495
G1 X128.475 Y98.951 E0.20741
G1 E-0.80000 F2100.000
G1 Z0.800 F10800.000
G1 X108.674 Y84.921
G1 Z0.200
G1 E0.80000 F2100.000
;TYPE:Support material
;WIDTH:0.42
G1 F1200.000
G1 X117.892 Y84.921 E0.28901
G1 X117.892 Y84.167 E0.02365
G1 X110.114 Y84.167 E0.24386
G1 X110.511 Y83.841 E0.01612
G1 X110.869 Y83.413 E0.01749
G1 X117.892 Y83.413 E0.22018
G1 X117.892 Y82.659 E0.02365
G1 X111.451 Y82.659 E0.20194
G1 X111.854 Y81.905 E0.02681
G1 X117.892 Y81.905 E0.18931
G1 X117.892 Y81.150 E0.02365
G1 X112.152 Y81.150 E0.17998
G1 X112.380 Y80.396 E0.02471
G1 X117.892 Y80.396 E0.17280
M73 P3 R34
G1 X117.892 Y79.642 E0.02365
G1 X112.469 Y79.642 E0.17002
G1 X112.531 Y79.017 E0.01969
G1 X112.523 Y78.888 E0.00406
G1 X117.892 Y78.888 E0.16833
G1 X117.892 Y78.134 E0.02365
G1 X112.449 Y78.134 E0.17065
G1 X112.405 Y77.684 E0.01418
G1 X112.318 Y77.380 E0.00992
G1 X117.892 Y77.380 E0.17477
G1 X117.892 Y76.626 E0.02365
G1 X112.089 Y76.626 E0.18194
G1 X112.001 Y76.353 E0.00898
G1 X111.743 Y75.871 E0.01712
G1 X117.892 Y75.871 E0.19277
G1 X117.892 Y75.117 E0.02365
G1 X111.318 Y75.117 E0.20611
G1 X110.699 Y74.363 E0.03059
G1 X117.892 Y74.363 E0.22551
G1 X117.892 Y74.192 E0.00537
G1 X115.585 Y74.192 E0.07234
G1 X115.585 Y73.609 E0.01827
G1 X109.873 Y73.609 E0.17909
G1 X110.099 Y73.187 E0.01501
G1 X109.998 Y72.855 E0.01088
G1 X115.585 Y72.855 E0.17517
G1 X115.585 Y72.101 E0.02365
G1 X95.643 Y72.101 E0.62527
G1 X101.626 Y72.855 F10800.000
G1 F1200.000
G1 X95.812 Y72.855 E0.18228
G1 X95.812 Y73.609 E0.02365
G1 X101.524 Y73.609 E0.17909
G1 X100.886 Y74.142 E0.02608
G1 X100.698 Y74.363 E0.00910
G1 X93.505 Y74.363 E0.22551
G1 X93.505 Y75.117 E0.02365
G1 X100.079 Y75.117 E0.20610
G1 X100.003 Y75.217 E0.00393
G1 X99.654 Y75.871 E0.02326
G1 X93.505 Y75.871 E0.19277
G1 X93.505 Y76.626 E0.02365
G1 X99.308 Y76.626 E0.18194
G1 X99.079 Y77.380 E0.02471
G1 X93.505 Y77.380 E0.17477
G1 X93.505 Y78.134 E0.02365
G1 X98.948 Y78.134 E0.17065
G1 X98.874 Y78.888 E0.02376
G1 X93.505 Y78.888 E0.16833
G1 X93.505 Y79.642 E0.02365
G1 X98.928 Y79.642 E0.17002
G1 X98.992 Y80.299 E0.02070
G1 X99.017 Y80.396 E0.00314
G1 X93.505 Y80.396 E0.17280
G1 X93.505 Y81.150 E0.02365
G1 X99.245 Y81.150 E0.17998
G1 X99.376 Y81.582 E0.01415
G1 X99.543 Y81.905 E0.01138
G1 X93.505 Y81.905 E0.18930
G1 X93.505 Y82.659 E0.02365
G1 X99.946 Y82.659 E0.20194
G1 X100.032 Y82.809 E0.00542
G1 X100.528 Y83.413 E0.02450
G1 X93.505 Y83.413 E0.22018
G1 X93.505 Y84.167 E0.02365
G1 X101.283 Y84.167 E0.24386
G1 X101.881 Y84.658 E0.02426
G1 X102.363 Y84.921 E0.01721
G1 X93.505 Y84.921 E0.27772
G1 X93.505 Y85.675 E0.02365
G1 X117.892 Y85.675 E0.76462
G1 X117.892 Y86.430 E0.02365
G1 X93.505 Y86.430 E0.76462
G1 X93.505 Y87.184 E0.02365
G1 X117.892 Y87.184 E0.76462
G1 X117.892 Y87.938 E0.02365
G1 X93.505 Y87.938 E0.76462
G1 X93.505 Y88.692 E0.02365
G1 X117.892 Y88.692 E0.76462
G1 X117.892 Y89.350 E0.02063
G1 X115.585 Y89.350 E0.07234
G1 X115.585 Y89.446 E0.00302
G1 X95.812 Y89.446 E0.61995
G1 X95.812 Y90.200 E0.02365
G1 X115.585 Y90.200 E0.61995
G1 X115.585 Y90.955 E0.02365
G1 X95.812 Y90.955 E0.61995
G1 X95.812 Y91.657 E0.02202
G1 X100.427 Y91.657 E0.14467
G1 X100.427 Y91.709 E0.00162
G1 X110.971 Y91.709 E0.33060
M73 P4 R34
G1 X110.971 Y92.463 E0.02365
G1 X100.427 Y92.463 E0.33060
G1 X100.427 Y93.217 E0.02365
G1 X110.971 Y93.217 E0.33060
G1 X110.971 Y93.971 E0.02365
G1 X100.427 Y93.971 E0.33060
G1 X100.427 Y94.725 E0.02365
G1 X110.971 Y94.725 E0.33060
G1 X110.971 Y94.955 E0.00721
G1 X113.278 Y94.955 E0.07234
G1 X113.278 Y95.479 E0.01643
G1 X98.119 Y95.479 E0.47527
G1 X98.119 Y96.234 E0.02365
G1 X113.278 Y96.234 E0.47527
G1 X113.278 Y96.988 E0.02365
G1 X98.119 Y96.988 E0.47527
G1 X98.119 Y97.263 E0.00861
G1 X95.812 Y97.263 E0.07234
G1 X95.812 Y97.742 E0.01503
G1 X115.585 Y97.742 E0.61995
G1 X115.585 Y98.496 E0.02365
G1 X95.812 Y98.496 E0.61995
G1 X95.812 Y99.250 E0.02365
G1 X115.585 Y99.250 E0.61995
G1 X115.585 Y100.004 E0.02365
G1 X95.812 Y100.004 E0.61995
G1 X95.812 Y100.759 E0.02365
G1 X115.585 Y100.759 E0.61995
G1 X115.585 Y101.513 E0.02365
G1 X95.812 Y101.513 E0.61995
G1 X95.812 Y102.267 E0.02365
G1 X115.585 Y102.267 E0.61995
G1 X115.585 Y103.021 E0.02365
G1 X95.812 Y103.021 E0.61995
G1 X95.812 Y103.775 E0.02365
G1 X115.585 Y103.775 E0.61995
M73 P4 R33
G1 X115.585 Y104.529 E0.02365
G1 X95.812 Y104.529 E0.61995
G1 X95.812 Y105.284 E0.02365
G1 X115.585 Y105.284 E0.61995
G1 X115.585 Y106.038 E0.02365
G1 X95.812 Y106.038 E0.61995
G1 X95.812 Y106.792 E0.02365
G1 X115.585 Y106.792 E0.61995
G1 X115.585 Y107.546 E0.02365
G1 X95.643 Y107.546 E0.62527
G1 E-0.80000 F2100.000
G1 Z0.800 F10800.000
G1 X105.699 Y81.111
G1 Z0.200
G1 E0.80000 F2100.000
;TYPE:Perimeter
G1 F1200.000
G1 X105.285 Y81.070 E0.01303
G1 X104.887 Y80.950 E0.01303
G1 X104.521 Y80.754 E0.01303
G1 X104.200 Y80.490 E0.01303
G1 X103.936 Y80.169 E0.01303
G1 X103.740 Y79.803 E0.01303
G1 X103.620 Y79.405 E0.01303
G1 X103.579 Y78.991 E0.01303
G1 X103.620 Y78.578 E0.01303
G1 X103.740 Y78.180 E0.01303
G1 X103.936 Y77.814 E0.01303
G1 X104.200 Y77.493 E0.01303
G1 X104.521 Y77.229 E0.01303
G1 X104.887 Y77.033 E0.01303
G1 X105.285 Y76.913 E0.01303
G1 X105.672 Y76.874 E0.01220
G1 X106.108 Y76.911 E0.01372
G1 X106.510 Y77.033 E0.01315
G1 X106.876 Y77.229 E0.01303
G1 X107.197 Y77.493 E0.01303
G1 X107.461 Y77.814 E0.01303
G1 X107.657 Y78.180 E0.01303
G1 X107.777 Y78.578 E0.01303
G1 X107.818 Y78.991 E0.01303
G1 X107.777 Y79.405 E0.01303
G1 X107.657 Y79.803 E0.01303
G1 X107.461 Y80.169 E0.01303
G1 X107.197 Y80.490 E0.01303
G1 X106.876 Y80.754 E0.01303
G1 X106.510 Y80.950 E0.01303
G1 X106.112 Y81.070 E0.01303
G1 X105.758 Y81.105 E0.01115
G1 X105.699 Y80.732 F10800.000
;TYPE:External perimeter
G1 F1200.000
G1 X105.359 Y80.699 E0.01070
G1 X105.032 Y80.600 E0.01070
G1 X104.731 Y80.439 E0.01070
G1 X104.468 Y80.222 E0.01070
G1 X104.251 Y79.959 E0.01070
G1 X104.090 Y79.658 E0.01070
G1 X103.991 Y79.331 E0.01070
G1 X103.958 Y78.991 E0.01070
G1 X103.991 Y78.652 E0.01070
G1 X104.090 Y78.325 E0.01070
M73 P5 R33
G1 X104.251 Y78.024 E0.01070
G1 X104.468 Y77.761 E0.01070
G1 X104.731 Y77.544 E0.01070
G1 X105.032 Y77.383 E0.01070
G1 X105.359 Y77.284 E0.01070
G1 X105.675 Y77.253 E0.00995
G1 X106.037 Y77.284 E0.01139
G1 X106.365 Y77.383 E0.01074
G1 X106.666 Y77.544 E0.01070
G1 X106.929 Y77.761 E0.01070
G1 X107.146 Y78.024 E0.01070
G1 X107.307 Y78.325 E0.01070
G1 X107.406 Y78.652 E0.01070
