; generated by PrusaSlicer 2.3.1+win64 on 2021-09-08 at 21:38:56 UTC

; 

; external perimeters extrusion width = 0.45mm
; perimeters extrusion width = 0.45mm
; infill extrusion width = 0.45mm
; solid infill extrusion width = 0.45mm
; top infill extrusion width = 0.40mm
; support material extrusion width = 0.35mm
; first layer extrusion width = 0.42mm

M73 P0 R35
M201 X9000 Y9000 Z500 E10000 ; sets maximum accelerations, mm/sec^2
M203 X500 Y500 Z12 E120 ; sets maximum feedrates, mm/sec
M204 P2000 R1500 T2000 ; sets acceleration (P, T) and retract acceleration (R), mm/sec^2
M205 X10.00 Y10.00 Z0.20 E2.50 ; sets the jerk limits, mm/sec
M205 S0 T0 ; sets the minimum extruding and travel feed rate, mm/sec
M107
;TYPE:Custom
M862.3 P "MK2S" ; printer model check
M862.1 P0.4 ; nozzle diameter check
M115 U3.2.3 ; tell printer latest fw version
G90 ; use absolute coordinates
M83 ; extruder relative mode
M204 S2000 T1500 ; MK2 firmware only supports the old M204 format
M104 S215 ; set extruder temp
M140 S60 ; set bed temp
M190 S60 ; wait for bed temp
M109 S215 ; wait for extruder temp
G28 W ; home all without mesh bed level
G80 ; mesh bed leveling
G1 Y-3.0 F1000.0 ; go outside print area
G92 E0.0
G1 X60.0 E9.0  F1000.0 ; intro line
G1 X100.0 E12.5 F1000.0 ; intro line
G92 E0.0
G21 ; set units to millimeters
G90 ; use absolute coordinates
M83 ; use relative distances for extrusion
M900 K30 ; Filament gcode
;LAYER_CHANGE
;Z:0.2
;HEIGHT:0.2
;BEFORE_LAYER_CHANGE
G92 E0.0
;0.2


G1 E-0.80000 F2100.000
G1 Z0.600 F10800.000
;AFTER_LAYER_CHANGE
;0.2
G1 X93.632 Y74.006
G1 Z0.200
G1 E0.80000 F2100.000
M204 S1000
;TYPE:Support material
;WIDTH:0.42
G1 F1200.000
G1 X93.632 Y89.334 E0.48059
G1 X94.386 Y89.334 E0.02365
G1 X94.386 Y74.176 E0.47527
G1 X95.140 Y74.176 E0.02365
G1 X95.140 Y89.334 E0.47527
G1 X95.812 Y89.334 E0.02107
G1 X95.812 Y91.641 E0.07234
G1 X95.894 Y91.641 E0.00257
G1 X95.894 Y71.869 E0.61995
G1 X96.649 Y71.869 E0.02365
G1 X96.649 Y91.641 E0.61995
G1 X97.403 Y91.641 E0.02365
G1 X97.403 Y71.869 E0.61995
G1 X98.157 Y71.869 E0.02365
G1 X98.157 Y91.811 E0.62527
G1 X99.665 Y81.554 F10800.000
G1 F1200.000
G1 X99.665 Y91.641 E0.31629
G1 X98.911 Y91.641 E0.02365
G1 X98.911 Y71.869 E0.61995
G1 X99.665 Y71.869 E0.02365
G1 X99.665 Y75.630 E0.11792
G1 X100.003 Y74.997 E0.02248
G1 X100.419 Y74.482 E0.02076
G1 X100.419 Y71.869 E0.08194
G1 X101.174 Y71.869 E0.02365
G1 X101.174 Y73.686 E0.05697
G1 X101.527 Y73.396 E0.01436
G1 X101.298 Y72.967 E0.01523
G1 X101.425 Y72.550 E0.01366
G1 X101.928 Y72.281 E0.01787
G1 X101.928 Y71.869 E0.01293
G1 X102.682 Y71.869 E0.02365
G1 X102.682 Y72.071 E0.00632
G1 X103.436 Y71.699 F10800.000
G1 F1200.000
G1 X103.436 Y72.112 E0.01293
G1 X103.546 Y72.317 E0.00729
G1 X104.190 Y72.121 E0.02112
G1 X104.190 Y71.869 E0.00791
G1 X104.944 Y71.869 E0.02365
G1 X104.944 Y72.011 E0.00446
G1 X105.699 Y71.939 E0.02375
G1 X105.699 Y71.869 E0.00221
G1 X106.453 Y71.869 E0.02365
G1 X106.453 Y72.011 E0.00446
G1 X107.006 Y72.066 E0.01744
G1 X107.207 Y72.121 E0.00653
G1 X107.207 Y71.869 E0.00791
G1 X107.961 Y71.869 E0.02365
G1 X107.961 Y72.472 E0.01890
G1 X108.715 Y71.699 F10800.000
G1 F1200.000
G1 X108.715 Y71.878 E0.00561
G1 X109.469 Y72.281 E0.02681
G1 X109.469 Y71.869 E0.01293
G1 X110.223 Y71.869 E0.02365
G1 X110.223 Y73.686 E0.05697
G1 X110.548 Y73.959 E0.01330
G1 X110.978 Y74.482 E0.02123
G1 X110.978 Y71.869 E0.08194
G1 X111.732 Y71.869 E0.02365
G1 X111.732 Y75.990 E0.12920
G1 X117.765 Y89.504 F10800.000
G1 F1200.000
G1 X117.765 Y74.176 E0.48059
G1 X117.011 Y74.176 E0.02365
G1 X117.011 Y89.334 E0.47527
G1 X116.257 Y89.334 E0.02365
G1 X116.257 Y74.176 E0.47527
G1 X115.585 Y74.176 E0.02107
G1 X115.585 Y71.869 E0.07234
G1 X115.503 Y71.869 E0.00257
G1 X115.503 Y91.641 E0.61995
G1 X114.748 Y91.641 E0.02365
G1 X114.748 Y71.869 E0.61995
M73 P1 R35
G1 X113.994 Y71.869 E0.02365
G1 X113.994 Y91.641 E0.61995
G1 X113.240 Y91.641 E0.02365
G1 X113.240 Y71.869 E0.61995
G1 X112.486 Y71.869 E0.02365
G1 X112.486 Y91.641 E0.61995
G1 X111.732 Y91.641 E0.02365
G1 X111.732 Y81.914 E0.30500
G1 X111.394 Y82.546 E0.02248
G1 X110.978 Y83.061 E0.02076
G1 X110.978 Y110.098 E0.84772
G1 X111.732 Y110.098 E0.02365
G1 X111.732 Y94.940 E0.47527
G1 X112.486 Y94.940 E0.02365
G1 X112.486 Y110.098 E0.47527
G1 X113.240 Y110.098 E0.02365
G1 X113.240 Y94.940 E0.47527
G1 X113.278 Y94.940 E0.00118
G1 X113.278 Y97.247 E0.07234
G1 X113.994 Y97.247 E0.02247
G1 X113.994 Y110.098 E0.40294
G1 X114.748 Y110.098 E0.02365
G1 X114.748 Y97.247 E0.40294
G1 X115.503 Y97.247 E0.02365
G1 X115.503 Y110.268 E0.40826
G1 X110.223 Y110.268 F10800.000
G1 F1200.000
G1 X110.223 Y83.858 E0.82807
G1 X109.469 Y84.469 E0.03044
G1 X109.469 Y110.098 E0.80358
G1 X108.715 Y110.098 E0.02365
G1 X108.715 Y84.872 E0.79094
G1 X108.337 Y85.074 E0.01344
G1 X107.961 Y85.194 E0.01237
G1 X107.961 Y110.098 E0.78086
G1 X107.207 Y110.098 E0.02365
G1 X107.207 Y85.422 E0.77369
G1 X107.006 Y85.478 E0.00653
G1 X106.453 Y85.533 E0.01744
G1 X106.453 Y110.098 E0.77023
G1 X105.699 Y110.098 E0.02365
G1 X105.699 Y85.604 E0.76799
G1 X104.944 Y85.533 E0.02375
G1 X104.944 Y110.098 E0.77023
G1 X104.190 Y110.098 E0.02365
G1 X104.190 Y85.422 E0.77369
M73 P2 R35
G1 X103.436 Y85.194 E0.02471
G1 X103.436 Y110.098 E0.78086
G1 X102.682 Y110.098 E0.02365
G1 X102.682 Y84.872 E0.79094
G1 X101.928 Y84.469 E0.02681
G1 X101.928 Y110.098 E0.80358
G1 X101.174 Y110.098 E0.02365
G1 X101.174 Y83.858 E0.82275
G1 X100.849 Y83.585 E0.01329
G1 X100.419 Y83.061 E0.02123
G1 X100.419 Y110.098 E0.84772
G1 X99.665 Y110.098 E0.02365
G1 X99.665 Y94.940 E0.47527
G1 X98.911 Y94.940 E0.02365
G1 X98.911 Y110.098 E0.47527
G1 X98.157 Y110.098 E0.02365
G1 X98.157 Y94.940 E0.47527
G1 X98.119 Y94.940 E0.00118
G1 X98.119 Y97.247 E0.07234
G1 X97.403 Y97.247 E0.02247
G1 X97.403 Y110.098 E0.40294
G1 X96.649 Y110.098 E0.02365
G1 X96.649 Y97.247 E0.40294
G1 X95.894 Y97.247 E0.02365
G1 X95.894 Y110.268 E0.40826
G1 E-0.80000 F2100.000
G1 Z0.800 F10800.000
G1 X105.699 Y80.891
M73 P2 R34
G1 Z0.200
G1 E0.80000 F2100.000
;TYPE:Perimeter
G1 F1200.000
G1 X105.285 Y80.851 E0.01303
G1 X104.887 Y80.730 E0.01303
G1 X104.521 Y80.534 E0.01303
G1 X104.200 Y80.271 E0.01303
G1 X103.936 Y79.949 E0.01303
G1 X103.740 Y79.583 E0.01303
G1 X103.620 Y79.185 E0.01303
G1 X103.579 Y78.772 E0.01303
G1 X103.620 Y78.358 E0.01303
G1 X103.740 Y77.961 E0.01303
G1 X103.936 Y77.594 E0.01303
G1 X104.200 Y77.273 E0.01303
G1 X104.521 Y77.009 E0.01303
G1 X104.887 Y76.814 E0.01303
G1 X105.285 Y76.693 E0.01303
G1 X105.672 Y76.655 E0.01220
G1 X106.108 Y76.692 E0.01372
G1 X106.510 Y76.814 E0.01315
G1 X106.876 Y77.009 E0.01303
G1 X107.197 Y77.273 E0.01303
G1 X107.461 Y77.594 E0.01303
G1 X107.657 Y77.961 E0.01303
G1 X107.777 Y78.358 E0.01303
G1 X107.818 Y78.772 E0.01303
G1 X107.777 Y79.185 E0.01303
G1 X107.657 Y79.583 E0.01303
G1 X107.461 Y79.949 E0.01303
G1 X107.197 Y80.271 E0.01303
G1 X106.876 Y80.534 E0.01303
G1 X106.510 Y80.730 E0.01303
G1 X106.112 Y80.851 E0.01303
G1 X105.758 Y80.886 E0.01115
G1 X105.699 Y80.513 F10800.000
;TYPE:External perimeter
G1 F1200.000
G1 X105.359 Y80.479 E0.01070
G1 X105.032 Y80.380 E0.01070
G1 X104.731 Y80.219 E0.01070
G1 X104.468 Y80.003 E0.01070
G1 X104.251 Y79.739 E0.01070
G1 X104.090 Y79.438 E0.01070
G1 X103.991 Y79.111 E0.01070
G1 X103.958 Y78.772 E0.01070
G1 X103.991 Y78.432 E0.01070
G1 X104.090 Y78.106 E0.01070
G1 X104.251 Y77.805 E0.01070
G1 X104.468 Y77.541 E0.01070
G1 X104.731 Y77.325 E0.01070
G1 X105.032 Y77.164 E0.01070
G1 X105.359 Y77.065 E0.01070
G1 X105.675 Y77.033 E0.00995
G1 X106.037 Y77.064 E0.01139
G1 X106.365 Y77.164 E0.01074
G1 X106.666 Y77.325 E0.01070
G1 X106.929 Y77.541 E0.01070
G1 X107.146 Y77.805 E0.01070
G1 X107.307 Y78.106 E0.01070
G1 X107.406 Y78.432 E0.01070
G1 X107.439 Y78.772 E0.01070
G1 X107.406 Y79.111 E0.01070
G1 X107.307 Y79.438 E0.01070
G1 X107.146 Y79.739 E0.01070
G1 X106.929 Y80.003 E0.01070
G1 X106.666 Y80.219 E0.01070
G1 X106.365 Y80.380 E0.01070
G1 X106.038 Y80.479 E0.01070
G1 X105.758 Y80.507 E0.00882
G1 X105.528 Y80.808 F10800.000
G1 X105.699 Y84.488
;TYPE:Perimeter
G1 F1200.000
G1 X104.583 Y84.378 E0.03514
G1 X103.511 Y84.053 E0.03514
G1 X102.523 Y83.525 E0.03514
G1 X101.656 Y82.814 E0.03514
G1 X100.945 Y81.948 E0.03514
G1 X100.417 Y80.959 E0.03514
G1 X100.092 Y79.887 E0.03514
G1 X99.982 Y78.772 E0.03514
G1 X100.092 Y77.657 E0.03514
G1 X100.417 Y76.584 E0.03514
G1 X100.945 Y75.596 E0.03514
G1 X101.642 Y74.748 E0.03441
G1 X102.959 Y73.658 E0.05362
G1 X104.583 Y73.165 E0.05321
G1 X105.699 Y73.055 E0.03514
G1 X106.814 Y73.165 E0.03514
G1 X108.433 Y73.656 E0.05305
G1 X109.741 Y74.730 E0.05305
G1 X110.452 Y75.596 E0.03514
G1 X110.980 Y76.584 E0.03514
G1 X111.305 Y77.657 E0.03514
G1 X111.415 Y78.772 E0.03514
G1 X111.305 Y79.887 E0.03514
G1 X110.980 Y80.959 E0.03514
G1 X110.452 Y81.948 E0.03514
G1 X109.741 Y82.814 E0.03514
G1 X108.874 Y83.525 E0.03514
G1 X107.886 Y84.053 E0.03514
G1 X106.814 Y84.378 E0.03514
G1 X105.758 Y84.482 E0.03325
G1 X105.699 Y84.867 F10800.000
;TYPE:External perimeter
G1 F1200.000
G1 X104.509 Y84.750 E0.03747
G1 X103.366 Y84.403 E0.03746
G1 X102.312 Y83.840 E0.03747
G1 X101.388 Y83.082 E0.03747
G1 X100.630 Y82.158 E0.03746
G1 X100.067 Y81.104 E0.03747
G1 X99.720 Y79.961 E0.03747
G1 X99.603 Y78.772 E0.03746
G1 X99.720 Y77.583 E0.03747
G1 X100.067 Y76.439 E0.03747
G1 X100.630 Y75.385 E0.03746
G1 X101.373 Y74.480 E0.03671
G1 X102.461 Y73.581 E0.04426
G1 X102.149 Y72.998 E0.02073
G1 X102.869 Y72.613 E0.02559
G1 X103.181 Y73.197 E0.02076
G1 X104.509 Y72.794 E0.04352
G1 X105.699 Y72.677 E0.03747
G1 X106.888 Y72.794 E0.03747
G1 X108.216 Y73.197 E0.04352
G1 X108.528 Y72.613 E0.02076
G1 X109.248 Y72.998 E0.02559
G1 X108.936 Y73.581 E0.02076
G1 X110.009 Y74.462 E0.04352
G1 X110.767 Y75.385 E0.03747
G1 X111.330 Y76.439 E0.03746
G1 X111.677 Y77.583 E0.03747
G1 X111.794 Y78.772 E0.03747
G1 X111.677 Y79.961 E0.03746
G1 X111.330 Y81.104 E0.03747
G1 X110.767 Y82.158 E0.03747
G1 X110.009 Y83.082 E0.03746
G1 X109.085 Y83.840 E0.03747
G1 X108.031 Y84.403 E0.03747
G1 X106.888 Y84.750 E0.03747
G1 X105.758 Y84.861 E0.03558
G1 X105.499 Y84.521 F10800.000
G1 X107.645 Y84.008
;TYPE:Solid infill
;WIDTH:0.430623
G1 F1200.000
G1 X100.598 Y76.962 E0.32126
G1 X100.471 Y77.382 E0.01417
G1 X107.088 Y84.000 E0.30170
G1 X106.758 Y84.100 E0.01111
G1 X106.651 Y84.110 E0.00349
G1 X100.360 Y77.820 E0.28679
G1 X100.311 Y78.319 E0.01617
G1 X106.151 Y84.160 E0.26628
G1 X105.642 Y84.199 E0.01646
G1 X100.272 Y78.828 E0.24484
G1 X100.332 Y79.436 E0.01970
G1 X105.034 Y84.139 E0.21438
G1 X104.639 Y84.100 E0.01281
G1 X104.363 Y84.016 E0.00928
G1 X100.454 Y80.107 E0.17822
M73 P3 R34
G1 X100.680 Y80.851 E0.02505
G1 X100.715 Y80.916 E0.00238
G1 X103.555 Y83.756 E0.12948
G1 X102.681 Y83.289 E0.03195
G1 X101.892 Y82.641 E0.03289
G1 X100.931 Y81.680 E0.04381
G1 E-0.80000 F2100.000
G1 Z0.800 F10800.000
G1 X110.774 Y81.105
G1 Z0.200
G1 E0.80000 F2100.000
G1 F1200.000
G1 X108.065 Y78.397 E0.12346
G1 X108.102 Y78.772 E0.01213
G1 X108.083 Y78.964 E0.00621
G1 X110.457 Y81.337 E0.10822
G1 X110.266 Y81.695 E0.01306
G1 X107.999 Y79.428 E0.10334
G1 X107.919 Y79.692 E0.00889
G1 X107.848 Y79.825 E0.00487
G1 X110.034 Y82.011 E0.09965
G1 X109.787 Y82.312 E0.01256
G1 X107.645 Y80.170 E0.09763
G1 X107.398 Y80.472 E0.01256
G1 X109.540 Y82.613 E0.09763
G1 X109.239 Y82.860 E0.01256
G1 X107.097 Y80.719 E0.09763
G1 X107.034 Y80.771 E0.00263
G1 X106.752 Y80.922 E0.01032
G1 X108.937 Y83.107 E0.09965
G1 X108.717 Y83.289 E0.00921
G1 X108.621 Y83.340 E0.00348
G1 X106.354 Y81.073 E0.10335
G1 X106.167 Y81.129 E0.00630
G1 X105.890 Y81.157 E0.00898
G1 X108.264 Y83.531 E0.10822
G1 X107.907 Y83.722 E0.01306
G1 X105.097 Y80.912 E0.12809
G1 X103.558 Y79.373 F10800.000
G1 F1200.000
G1 X100.749 Y76.564 E0.12809
G1 X100.940 Y76.206 E0.01306
G1 X103.314 Y78.580 E0.10822
G1 X103.341 Y78.303 E0.00898
G1 X103.398 Y78.116 E0.00630
G1 X101.131 Y75.849 E0.10335
G1 X101.182 Y75.754 E0.00348
G1 X101.363 Y75.533 E0.00921
G1 X103.549 Y77.719 E0.09965
G1 X103.700 Y77.436 E0.01033
G1 X103.752 Y77.373 E0.00263
G1 X101.610 Y75.232 E0.09763
G1 X101.860 Y74.934 E0.01255
G1 X103.999 Y77.072 E0.09749
G1 X104.300 Y76.825 E0.01256
G1 X102.160 Y74.686 E0.09754
G1 X102.461 Y74.437 E0.01255
G1 X104.645 Y76.622 E0.09961
G1 X104.779 Y76.551 E0.00487
G1 X105.042 Y76.471 E0.00889
G1 X102.761 Y74.189 E0.10403
G1 X103.061 Y73.941 E0.01255
G1 X105.507 Y76.387 E0.11151
G1 X105.670 Y76.371 E0.00530
G1 X106.073 Y76.405 E0.01303
G1 X103.467 Y73.799 E0.11880
G1 X103.888 Y73.672 E0.01417
G1 X110.799 Y80.582 E0.31506
G1 X110.926 Y80.162 E0.01417
G1 X104.309 Y73.544 E0.30170
G1 X104.639 Y73.444 E0.01112
G1 X104.746 Y73.433 E0.00349
G1 X111.037 Y79.724 E0.28680
G1 X111.086 Y79.225 E0.01617
G1 X105.245 Y73.384 E0.26628
G1 X105.755 Y73.345 E0.01646
G1 X111.125 Y78.716 E0.24485
G1 X111.065 Y78.108 E0.01970
G1 X106.363 Y73.405 E0.21439
G1 X106.758 Y73.444 E0.01281
G1 X107.034 Y73.528 E0.00928
G1 X110.943 Y77.437 E0.17822
G1 X110.717 Y76.693 E0.02505
G1 X110.683 Y76.628 E0.00237
G1 X107.821 Y73.766 E0.13048
G1 X108.297 Y73.911 E0.01604
G1 X109.505 Y74.902 E0.05037
G1 X110.466 Y75.864 E0.04385
G1 E-0.80000 F2100.000
G1 Z0.800 F10800.000
G1 X128.415 Y98.697
G1 Z0.200
G1 E0.80000 F2100.000
;TYPE:External perimeter
;WIDTH:0.42
G1 F1200.000
G1 X123.761 Y98.697 E0.14593
G1 X123.761 Y79.723 E0.59492
G1 X133.069 Y79.723 E0.29185
G1 X133.069 Y98.697 E0.59492
G1 X128.475 Y98.697 E0.14404
G1 X128.383 Y99.096 F10800.000
G1 X128.415 Y99.614
G1 F1200.000
G1 X122.988 Y99.614 E0.17014
G1 X122.988 Y78.806 E0.65242
G1 X133.841 Y78.806 E0.34029
G1 X133.841 Y99.614 E0.65242
G1 X128.475 Y99.614 E0.16826
G1 X128.087 Y99.386 F10800.000
G1 X128.415 Y99.156
;TYPE:Gap fill
;WIDTH:0.564471
G1 F1200.000
G1 X123.572 Y99.156 E0.21001
G1 X123.459 Y99.144 E0.00495
G1 X123.416 Y99.015 E0.00588
;WIDTH:0.438232
G1 X123.374 Y98.886 E0.00446
G1 X123.374 Y83.565 E0.50360
;WIDTH:0.438234
G1 X123.374 Y79.535 E0.13249
;WIDTH:0.480316
G1 X123.395 Y79.470 E0.00247
;WIDTH:0.522395
G1 X123.416 Y79.406 E0.00270
;WIDTH:0.564473
G1 X123.459 Y79.277 E0.00588
G1 X123.572 Y79.265 E0.00495
G1 X133.257 Y79.265 E0.42002
G1 X133.371 Y79.277 E0.00495
G1 X133.413 Y79.406 E0.00588
;WIDTH:0.438236
G1 X133.455 Y79.535 E0.00446
G1 X133.455 Y98.886 E0.63609
;WIDTH:0.480315
G1 X133.434 Y98.950 E0.00247
;WIDTH:0.522393
G1 X133.413 Y99.015 E0.00270
;WIDTH:0.564471
G1 X133.371 Y99.144 E0.00588
G1 X133.257 Y99.156 E0.00495
G1 X128.475 Y99.156 E0.20741
G1 E-0.80000 F2100.000
G1 Z0.800 F10800.000
G1 X147.688 Y98.697
G1 Z0.200
G1 E0.80000 F2100.000
;TYPE:External perimeter
;WIDTH:0.42
G1 F1200.000
G1 X143.034 Y98.697 E0.14593
G1 X143.034 Y79.723 E0.59492
G1 X152.342 Y79.723 E0.29185
G1 X152.342 Y98.697 E0.59492
M73 P4 R34
G1 X147.748 Y98.697 E0.14404
G1 X147.656 Y99.096 F10800.000
G1 X147.688 Y99.614
G1 F1200.000
G1 X142.261 Y99.614 E0.17014
G1 X142.261 Y78.806 E0.65242
G1 X153.114 Y78.806 E0.34029
G1 X153.114 Y99.614 E0.65242
G1 X147.748 Y99.614 E0.16826
G1 X147.360 Y99.386 F10800.000
G1 X147.688 Y99.156
;TYPE:Gap fill
;WIDTH:0.564475
G1 F1200.000
G1 X142.845 Y99.156 E0.21001
G1 X142.732 Y99.144 E0.00495
G1 X142.689 Y99.015 E0.00588
;WIDTH:0.438232
G1 X142.647 Y98.886 E0.00446
G1 X142.647 Y90.746 E0.26755
;WIDTH:0.438234
G1 X142.647 Y79.535 E0.36853
;WIDTH:0.480312
G1 X142.668 Y79.470 E0.00247
;WIDTH:0.522392
G1 X142.689 Y79.406 E0.00270
;WIDTH:0.564473
G1 X142.732 Y79.277 E0.00588
G1 X142.845 Y79.265 E0.00495
G1 X152.530 Y79.265 E0.42002
G1 X152.644 Y79.277 E0.00495
G1 X152.686 Y79.406 E0.00588
;WIDTH:0.438234
G1 X152.728 Y79.535 E0.00446
G1 X152.728 Y98.886 E0.63609
;WIDTH:0.480314
G1 X152.707 Y98.950 E0.00247
;WIDTH:0.522394
G1 X152.686 Y99.015 E0.00270
;WIDTH:0.564475
G1 X152.644 Y99.144 E0.00588
G1 X152.530 Y99.156 E0.00495
G1 X147.748 Y99.156 E0.20741
G1 E-0.80000 F2100.000
G1 Z0.800 F10800.000
G1 X147.688 Y127.925
G1 Z0.200
G1 E0.80000 F2100.000
;TYPE:External perimeter
;WIDTH:0.42
G1 F1200.000
G1 X143.034 Y127.925 E0.14593
G1 X143.034 Y108.951 E0.59492
G1 X152.342 Y108.951 E0.29185
G1 X152.342 Y127.925 E0.59492
G1 X147.748 Y127.925 E0.14404
G1 X147.656 Y128.324 F10800.000
