; generated by PrusaSlicer 2.2.0+win64 on 2020-08-07 at 15:44:41 UTC

; 

; external perimeters extrusion width = 0.45mm
; perimeters extrusion width = 0.45mm
; infill extrusion width = 0.45mm
; solid infill extrusion width = 0.45mm
; top infill extrusion width = 0.40mm
; first layer extrusion width = 0.42mm

M73 P0 R202
M201 X9000 Y9000 Z500 E10000 ; sets maximum accelerations, mm/sec^2
M203 X500 Y500 Z12 E120 ; sets maximum feedrates, mm/sec
M204 P2000 R1500 T2000 ; sets acceleration (P, T) and retract acceleration (R), mm/sec^2
M205 X10.00 Y10.00 Z0.20 E2.50 ; sets the jerk limits, mm/sec
M205 S0 T0 ; sets the minimum extruding and travel feed rate, mm/sec
M107
M862.3 P "MK2S" ; printer model check
M862.1 P0.4 ; nozzle diameter check
M115 U3.2.3 ; tell printer latest fw version
G90 ; use absolute coordinates
M83 ; extruder relative mode
M204 S2000 T1500 ; MK2 firmware only supports the old M204 format
M104 S215 ; set extruder temp
M140 S60 ; set bed temp
M190 S60 ; wait for bed temp
M109 S215 ; wait for extruder temp
G28 W ; home all without mesh bed level
G80 ; mesh bed leveling
G1 Y-3.0 F1000.0 ; go outside print area
G92 E0.0
G1 X60.0 E9.0  F1000.0 ; intro line
M73 P0 R202
G1 X100.0 E12.5 F1000.0 ; intro line
G92 E0.0
G21 ; set units to millimeters
G90 ; use absolute coordinates
M83 ; use relative distances for extrusion
M900 K30 ; Filament gcode
;BEFORE_LAYER_CHANGE
G92 E0.0
;0.2


G1 E-0.80000 F2100.00000
G1 Z0.600 F10800.000
;AFTER_LAYER_CHANGE
;0.2
G1 X131.192 Y173.744
G1 Z0.200
G1 E0.80000 F2100.00000
M204 S1000
G1 F1200.000
G1 X131.066 Y173.833 E0.00561
G1 X130.940 Y173.922 E0.00505
G1 X130.814 Y174.010 E0.00449
G1 X130.688 Y174.099 E0.00394
G1 X130.562 Y174.187 E0.00338
G1 X130.436 Y174.276 E0.00282
G1 X130.310 Y174.365 E0.00227
G1 E-0.80000 F2100.00000
G1 Z0.800 F10800.000
G1 X155.129 Y178.548
G1 Z0.200
G1 E0.80000 F2100.00000
G1 F1200.000
G1 X148.299 Y169.688 E0.35077
G1 X143.578 Y174.918 E0.22090
G1 X142.759 Y168.229 E0.21131
G1 X133.022 Y172.571 E0.33426
G1 X132.915 Y172.419 E0.00584
G1 X139.358 Y165.703 E0.29178
G1 X134.278 Y164.336 E0.16492
G1 X139.567 Y161.717 E0.18504
G1 X130.844 Y158.804 E0.28837
G1 X130.860 Y158.625 E0.00561
G1 X141.166 Y157.137 E0.32650
G1 X140.968 Y150.855 E0.19706
G1 X146.754 Y155.084 E0.22468
G1 X149.874 Y152.254 E0.13207
G1 X151.205 Y154.258 E0.07543
G1 X157.419 Y150.414 E0.22911
G1 X157.935 Y153.393 E0.09479
G1 X168.376 Y148.318 E0.36400
G1 X168.488 Y148.464 E0.00578
G1 X161.853 Y156.174 E0.31894
G1 X168.107 Y158.814 E0.21284
G1 X161.304 Y160.862 E0.22278
G1 X168.118 Y165.160 E0.25261
G1 X168.073 Y165.322 E0.00528
G1 X158.429 Y165.523 E0.30246
G1 X161.306 Y171.991 E0.22194
G1 X155.179 Y169.462 E0.20782
G1 X155.283 Y178.495 E0.28325
G1 X155.185 Y178.529 E0.00323
G1 X155.519 Y179.672 F10800.000
G1 F1200.000
G1 X148.276 Y170.276 E0.37197
G1 X143.304 Y175.785 E0.23265
G1 X142.447 Y168.781 E0.22123
G1 X131.417 Y173.700 E0.37866
G1 X131.310 Y173.547 E0.00584
G1 X138.645 Y165.901 E0.33220
G1 X133.217 Y164.441 E0.17623
G1 X138.580 Y161.785 E0.18765
G1 X129.216 Y158.658 E0.30954
G1 X129.232 Y158.479 E0.00561
G1 X140.779 Y156.812 E0.36578
G1 X140.567 Y150.095 E0.21072
G1 X146.728 Y154.598 E0.23926
G1 X149.945 Y151.680 E0.13618
G1 X151.317 Y153.745 E0.07773
G1 X157.696 Y149.799 E0.23516
G1 X158.221 Y152.834 E0.09657
G1 X169.852 Y147.181 E0.40547
G1 X169.964 Y147.327 E0.00578
G1 X162.476 Y156.028 E0.35990
G1 X169.218 Y158.873 E0.22942
G1 X162.205 Y160.985 E0.22964
G1 X169.382 Y165.510 E0.26604
G1 X169.337 Y165.673 E0.00528
G1 X159.004 Y165.888 E0.32404
G1 X162.033 Y172.699 E0.23372
G1 X155.563 Y170.028 E0.21949
G1 X155.673 Y179.618 E0.30072
G1 X155.575 Y179.652 E0.00323
G1 X155.350 Y179.309 F10800.000
G1 X155.151 Y176.849
G1 F1200.000
G1 X150.895 Y172.594 E0.19011
G1 X152.703 Y174.939 E0.09354
G1 X154.985 Y177.221 E0.10196
G1 X154.991 Y177.764 E0.01717
G1 X153.576 Y176.348 E0.06325
G1 E-0.80000 F2100.00000
G1 Z0.800 F10800.000
G1 X150.484 Y153.377
G1 Z0.200
G1 E0.80000 F2100.00000
G1 F1200.000
G1 X149.805 Y152.698 E0.03034
G1 X149.523 Y152.953 E0.01202
G1 X161.741 Y165.171 E0.54583
G1 X162.267 Y165.160 E0.01663
G1 X151.509 Y154.402 E0.48062
G1 X151.841 Y154.197 E0.01233
G1 X162.794 Y165.149 E0.48931
G1 X163.320 Y165.138 E0.01663
G1 X152.173 Y153.991 E0.49799
G1 X152.505 Y153.786 E0.01233
G1 X163.846 Y165.127 E0.50667
G1 X164.372 Y165.116 E0.01663
G1 X152.837 Y153.581 E0.51536
G1 X153.169 Y153.375 E0.01233
G1 X165.065 Y165.271 E0.53147
G1 X165.730 Y163.787 F10800.000
G1 F1200.000
G1 X167.004 Y165.061 E0.05691
G1 X166.478 Y165.072 E0.01663
G1 X164.819 Y163.413 E0.07411
G1 X163.364 Y162.496 E0.05432
G1 X165.951 Y165.083 E0.11558
G1 X165.425 Y165.094 E0.01663
G1 X161.910 Y161.579 E0.15704
G1 X160.628 Y160.770 E0.04789
G1 X160.992 Y160.661 E0.01201
G1 X153.501 Y153.170 E0.33466
G1 X153.833 Y152.965 E0.01233
G1 X161.405 Y160.536 E0.33828
G1 X161.818 Y160.412 E0.01362
G1 X154.165 Y152.759 E0.34189
G1 X154.497 Y152.554 E0.01233
G1 X162.231 Y160.288 E0.34551
G1 X162.644 Y160.163 E0.01362
G1 X154.829 Y152.349 E0.34913
G1 X155.161 Y152.143 E0.01233
G1 X163.057 Y160.039 E0.35275
G1 X163.470 Y159.915 E0.01362
G1 X155.493 Y151.938 E0.35637
G1 X155.825 Y151.733 E0.01233
G1 X164.019 Y159.927 E0.36607
G1 X164.432 Y159.802 F10800.000
G1 F1200.000
G1 X158.078 Y153.449 E0.28385
G1 X157.778 Y153.148 F10800.000
G1 F1200.000
G1 X156.157 Y151.527 E0.07241
G1 X156.489 Y151.322 E0.01233
G1 X157.457 Y152.290 E0.04326
G1 X157.345 Y151.641 E0.02083
G1 X156.821 Y151.117 E0.02341
G1 X157.153 Y150.911 E0.01233
G1 X157.440 Y151.199 E0.01286
G1 E-0.80000 F2100.00000
G1 Z0.800 F10800.000
G1 X167.749 Y149.150
G1 Z0.200
G1 E0.80000 F2100.00000
G1 F1200.000
G1 X167.606 Y149.007 E0.00639
G1 X167.244 Y149.182 E0.01270
G1 X167.380 Y149.318 E0.00607
G1 X167.132 Y149.607 E0.01204
G1 X166.883 Y149.358 E0.01112
G1 X166.521 Y149.534 E0.01270
G1 X166.883 Y149.896 E0.01617
G1 X166.634 Y150.185 E0.01204
G1 X166.160 Y149.710 E0.02122
G1 X165.798 Y149.885 E0.01270
G1 X166.386 Y150.473 E0.02627
G1 X166.137 Y150.762 E0.01204
G1 X165.436 Y150.061 E0.03132
G1 X165.075 Y150.237 E0.01270
G1 X165.889 Y151.051 E0.03637
G1 X165.640 Y151.340 E0.01204
G1 X164.713 Y150.413 E0.04142
G1 X164.352 Y150.588 E0.01270
G1 X165.392 Y151.628 E0.04647
G1 X165.143 Y151.917 E0.01204
G1 X163.990 Y150.764 E0.05152
G1 X163.629 Y150.940 E0.01270
G1 X164.895 Y152.206 E0.05657
G1 X164.646 Y152.495 E0.01204
G1 X163.267 Y151.115 E0.06162
G1 X162.905 Y151.291 E0.01270
G1 X164.398 Y152.783 E0.06667
G1 X164.149 Y153.072 E0.01204
G1 X162.544 Y151.467 E0.07172
G1 X162.182 Y151.643 E0.01270
G1 X163.901 Y153.361 E0.07677
G1 X163.652 Y153.650 E0.01204
G1 X161.821 Y151.818 E0.08182
G1 X161.459 Y151.994 E0.01270
G1 X163.404 Y153.939 E0.08687
G1 X163.155 Y154.227 E0.01204
G1 X161.098 Y152.170 E0.09192
G1 X160.736 Y152.346 E0.01270
G1 X162.907 Y154.516 E0.09697
G1 X162.658 Y154.805 E0.01204
G1 X160.375 Y152.521 E0.10202
G1 X160.013 Y152.697 E0.01270
G1 X162.410 Y155.094 E0.10707
G1 X162.161 Y155.382 E0.01204
G1 X159.651 Y152.873 E0.11212
G1 X159.290 Y153.049 E0.01270
G1 X161.913 Y155.671 E0.11717
G1 X161.664 Y155.960 E0.01204
G1 X158.928 Y153.224 E0.12222
G1 X158.567 Y153.400 E0.01270
G1 X164.708 Y159.542 E0.27439
G1 X165.121 Y159.417 E0.01362
G1 X162.427 Y156.723 E0.12037
G1 X163.357 Y157.116 E0.03188
G1 X165.534 Y159.293 E0.09728
G1 X165.947 Y159.169 E0.01362
G1 X164.287 Y157.508 E0.07419
G1 X165.216 Y157.900 E0.03188
G1 X166.360 Y159.044 E0.05111
G1 X166.773 Y158.920 E0.01362
G1 X166.146 Y158.293 E0.02802
G1 X167.076 Y158.685 E0.03188
G1 X167.322 Y158.932 E0.01101
G1 E-0.80000 F2100.00000
G1 Z0.800 F10800.000
G1 X161.381 Y165.348
G1 Z0.200
G1 E0.80000 F2100.00000
G1 F1200.000
G1 X149.242 Y153.209 E0.54234
G1 X148.960 Y153.464 E0.01202
G1 X160.688 Y165.193 E0.52398
G1 X160.162 Y165.204 E0.01663
G1 X148.678 Y153.720 E0.51306
G1 X148.396 Y153.976 E0.01202
G1 X159.636 Y165.215 E0.50213
G1 X159.109 Y165.226 E0.01663
G1 X148.115 Y154.231 E0.49120
G1 X147.833 Y154.487 E0.01202
G1 X158.583 Y165.237 E0.48028
G1 X158.057 Y165.248 E0.01663
G1 X147.551 Y154.742 E0.46935
G1 X147.269 Y154.998 E0.01202
G1 X158.380 Y166.108 E0.49639
G1 X158.810 Y167.076 E0.03346
G1 X146.987 Y155.253 E0.52820
G1 X146.773 Y155.448 E0.00916
G1 X146.298 Y155.101 E0.01859
G1 X159.241 Y168.044 E0.57825
G1 X159.671 Y169.011 E0.03346
G1 X144.301 Y153.641 E0.68668
G1 X142.305 Y152.182 E0.07812
G1 X160.102 Y169.979 E0.79510
G1 X160.532 Y170.947 E0.03346
G1 X141.278 Y151.692 E0.86022
G1 X141.295 Y152.247 E0.01753
G1 X160.329 Y171.282 E0.85039
G1 X159.414 Y170.904 E0.03127
G1 X141.312 Y152.802 E0.80873
G1 X141.330 Y153.357 E0.01753
G1 X158.500 Y170.526 E0.76707
G1 X157.585 Y170.149 E0.03127
G1 X141.347 Y153.912 E0.72542
G1 X141.365 Y154.466 E0.01753
G1 X156.670 Y169.771 E0.68376
M73 P0 R201
G1 X155.755 Y169.393 E0.03127
G1 X141.382 Y155.021 E0.64210
G1 X141.400 Y155.576 E0.01753
G1 X154.892 Y169.068 E0.60277
G1 X154.898 Y169.611 E0.01717
G1 X141.417 Y156.131 E0.60226
G1 X141.435 Y156.685 E0.01753
G1 X154.904 Y170.155 E0.60176
G1 X154.910 Y170.698 E0.01717
G1 X141.452 Y157.240 E0.60126
G1 X141.457 Y157.381 E0.00445
G1 X141.106 Y157.431 E0.01119
G1 X154.917 Y171.242 E0.61700
G1 X154.923 Y171.785 E0.01717
G1 X140.637 Y157.499 E0.63825
G1 X140.167 Y157.567 E0.01499
G1 X154.929 Y172.329 E0.65951
G1 X154.935 Y172.872 E0.01717
G1 X139.698 Y157.635 E0.68076
G1 X139.228 Y157.703 E0.01499
G1 X154.942 Y173.416 E0.70201
G1 X154.948 Y173.959 E0.01717
G1 X138.759 Y157.770 E0.72327
G1 X138.289 Y157.838 E0.01499
G1 X154.954 Y174.503 E0.74452
G1 X154.960 Y175.047 E0.01717
G1 X137.820 Y157.906 E0.76578
G1 X137.350 Y157.974 E0.01499
G1 X154.967 Y175.590 E0.78703
G1 X154.973 Y176.134 E0.01717
G1 X136.881 Y158.042 E0.80828
G1 X136.411 Y158.109 E0.01499
G1 X147.952 Y169.650 E0.51560
G1 X147.697 Y169.933 E0.01202
G1 X139.721 Y161.957 E0.35634
G1 X139.362 Y162.135 E0.01267
G1 X147.442 Y170.215 E0.36100
G1 X147.187 Y170.497 E0.01202
G1 X139.002 Y162.312 E0.36567
G1 X138.643 Y162.490 E0.01267
G1 X146.933 Y170.780 E0.37034
G1 X146.678 Y171.062 E0.01202
G1 X138.284 Y162.668 E0.37501
G1 X137.924 Y162.846 E0.01267
G1 X146.423 Y171.345 E0.37968
G1 X146.168 Y171.627 E0.01202
G1 X143.082 Y168.541 E0.13786
G1 X143.157 Y169.154 E0.01949
G1 X145.913 Y171.909 E0.12312
G1 X145.658 Y172.192 E0.01202
G1 X143.232 Y169.766 E0.10838
G1 X143.307 Y170.378 E0.01949
G1 X145.403 Y172.474 E0.09365
G1 X145.148 Y172.757 E0.01202
G1 X143.382 Y170.990 E0.07891
G1 X143.457 Y171.603 E0.01949
G1 X144.893 Y173.039 E0.06417
G1 X144.639 Y173.322 E0.01202
G1 X143.532 Y172.215 E0.04943
G1 X143.607 Y172.827 E0.01949
G1 X144.384 Y173.604 E0.03469
G1 X144.129 Y173.886 E0.01202
G1 X143.682 Y173.440 E0.01996
G1 X143.757 Y174.052 E0.01949
G1 X143.994 Y174.289 E0.01059
G1 E-0.80000 F2100.00000
G1 Z0.800 F10800.000
G1 X142.681 Y168.140
G1 Z0.200
G1 E0.80000 F2100.00000
G1 F1200.000
G1 X137.565 Y163.024 E0.22855
G1 X137.206 Y163.202 E0.01267
G1 X142.181 Y168.177 E0.22226
G1 X141.809 Y168.343 E0.01285
G1 X139.465 Y165.999 E0.10471
G1 X139.202 Y166.273 E0.01200
G1 X141.437 Y168.508 E0.09986
G1 X141.066 Y168.674 E0.01285
G1 X138.939 Y166.548 E0.09501
G1 X138.676 Y166.822 E0.01200
G1 X140.694 Y168.840 E0.09016
G1 X140.323 Y169.006 E0.01285
G1 X138.413 Y167.096 E0.08531
G1 X138.150 Y167.370 E0.01200
G1 X139.951 Y169.171 E0.08047
G1 X139.579 Y169.337 E0.01285
G1 X137.887 Y167.644 E0.07562
G1 X137.624 Y167.919 E0.01200
G1 X139.208 Y169.503 E0.07077
G1 X138.836 Y169.668 E0.01285
G1 X137.361 Y168.193 E0.06592
G1 X137.098 Y168.467 E0.01200
G1 X138.465 Y169.834 E0.06107
G1 X138.093 Y170.000 E0.01285
G1 X136.835 Y168.741 E0.05622
G1 X136.572 Y169.016 E0.01200
G1 X137.722 Y170.166 E0.05138
G1 X137.350 Y170.331 E0.01285
G1 X136.309 Y169.290 E0.04653
G1 X136.045 Y169.564 E0.01200
G1 X136.978 Y170.497 E0.04168
G1 X136.607 Y170.663 E0.01285
G1 X135.782 Y169.838 E0.03683
G1 X135.519 Y170.113 E0.01200
G1 X136.235 Y170.828 E0.03198
G1 X135.864 Y170.994 E0.01285
G1 X135.256 Y170.387 E0.02714
G1 X134.993 Y170.661 E0.01200
G1 X135.492 Y171.160 E0.02229
G1 X135.120 Y171.326 E0.01285
G1 X134.610 Y170.815 E0.02280
G1 X134.420 Y171.474 F10800.000
G1 F1200.000
G1 X134.301 Y171.558 E0.00494
G1 X134.182 Y171.641 E0.00440
G1 X134.064 Y171.725 E0.00386
G1 X133.945 Y171.809 E0.00332
G1 X133.826 Y171.892 E0.00277
G1 X133.707 Y171.976 E0.00223
G1 X133.588 Y172.059 E0.00169
G1 X133.469 Y172.143 E0.00115
G1 X132.815 Y172.603 F10800.000
G1 F1200.000
G1 X132.696 Y172.687 E0.00494
G1 X132.577 Y172.770 E0.00440
G1 X132.458 Y172.854 E0.00386
G1 X132.339 Y172.937 E0.00332
G1 X132.220 Y173.021 E0.00277
G1 X132.102 Y173.105 E0.00223
G1 X131.983 Y173.188 E0.00169
G1 X131.864 Y173.272 E0.00115
G1 E-0.80000 F2100.00000
G1 Z0.800 F10800.000
G1 X135.282 Y163.965
G1 Z0.200
G1 E0.80000 F2100.00000
G1 F1200.000
G1 X135.758 Y164.441 E0.02127
G1 X136.493 Y164.639 E0.02405
G1 X135.768 Y163.914 E0.03240
G1 X136.128 Y163.736 E0.01267
G1 X137.229 Y164.837 E0.04919
G1 X137.964 Y165.035 E0.02405
G1 X136.487 Y163.558 E0.06598
G1 X136.846 Y163.380 E0.01267
G1 X138.939 Y165.473 E0.09352
G1 X139.260 Y161.495 F10800.000
G1 F1200.000
G1 X135.942 Y158.177 E0.14824
G1 X135.472 Y158.245 E0.01499
G1 X138.185 Y160.957 E0.12117
G1 X137.378 Y160.688 E0.02687
G1 X135.003 Y158.313 E0.10610
G1 X134.533 Y158.381 E0.01499
G1 X136.571 Y160.418 E0.09104
G1 X135.764 Y160.149 E0.02687
G1 X134.064 Y158.448 E0.07597
G1 X133.594 Y158.516 E0.01499
G1 X134.957 Y159.879 E0.06090
G1 X134.151 Y159.610 E0.02687
G1 X133.125 Y158.584 E0.04583
G1 X132.655 Y158.652 E0.01499
G1 X133.344 Y159.340 E0.03076
G1 X132.537 Y159.071 E0.02687
G1 X132.186 Y158.720 E0.01570
G1 X131.716 Y158.787 E0.01499
G1 X131.999 Y159.070 E0.01263
G1 E-0.80000 F2100.00000
G1 Z0.800 F10800.000
G1 X131.192 Y134.812
G1 Z0.200
G1 E0.80000 F2100.00000
G1 F1200.000
G1 X131.066 Y134.901 E0.00561
G1 X130.940 Y134.990 E0.00505
G1 X130.814 Y135.078 E0.00449
G1 X130.688 Y135.167 E0.00394
G1 X130.562 Y135.255 E0.00338
G1 X130.436 Y135.344 E0.00282
G1 X130.310 Y135.433 E0.00227
G1 E-0.80000 F2100.00000
G1 Z0.800 F10800.000
G1 X155.129 Y139.616
G1 Z0.200
G1 E0.80000 F2100.00000
G1 F1200.000
G1 X148.299 Y130.756 E0.35077
G1 X143.578 Y135.986 E0.22090
G1 X142.759 Y129.297 E0.21131
G1 X133.022 Y133.639 E0.33426
G1 X132.915 Y133.487 E0.00584
G1 X139.358 Y126.771 E0.29178
G1 X134.278 Y125.404 E0.16492
G1 X139.567 Y122.785 E0.18504
G1 X130.844 Y119.872 E0.28837
G1 X130.860 Y119.693 E0.00561
G1 X141.166 Y118.205 E0.32650
G1 X140.968 Y111.923 E0.19706
G1 X146.754 Y116.152 E0.22468
G1 X149.874 Y113.322 E0.13207
G1 X151.205 Y115.326 E0.07543
G1 X157.419 Y111.482 E0.22911
G1 X157.935 Y114.461 E0.09479
G1 X168.376 Y109.386 E0.36400
G1 X168.488 Y109.532 E0.00578
G1 X161.853 Y117.242 E0.31894
G1 X168.107 Y119.882 E0.21284
G1 X161.304 Y121.930 E0.22278
G1 X168.118 Y126.228 E0.25261
G1 X168.073 Y126.390 E0.00528
G1 X158.429 Y126.591 E0.30246
G1 X161.306 Y133.059 E0.22194
G1 X155.179 Y130.530 E0.20782
G1 X155.283 Y139.563 E0.28325
G1 X155.185 Y139.597 E0.00323
G1 X155.519 Y140.740 F10800.000
G1 F1200.000
G1 X148.276 Y131.344 E0.37197
G1 X143.304 Y136.853 E0.23265
G1 X142.447 Y129.849 E0.22123
G1 X131.417 Y134.768 E0.37866
G1 X131.310 Y134.615 E0.00584
G1 X138.645 Y126.970 E0.33220
G1 X133.217 Y125.509 E0.17623
G1 X138.580 Y122.853 E0.18765
G1 X129.216 Y119.726 E0.30954
G1 X129.232 Y119.547 E0.00561
G1 X140.779 Y117.880 E0.36578
G1 X140.567 Y111.163 E0.21072
G1 X146.728 Y115.666 E0.23926
G1 X149.945 Y112.748 E0.13618
G1 X151.317 Y114.813 E0.07773
G1 X157.696 Y110.867 E0.23516
G1 X158.221 Y113.902 E0.09657
G1 X169.852 Y108.249 E0.40547
G1 X169.964 Y108.395 E0.00578
G1 X162.476 Y117.096 E0.35990
G1 X169.218 Y119.941 E0.22942
G1 X162.205 Y122.053 E0.22964
G1 X169.382 Y126.578 E0.26604
G1 X169.337 Y126.741 E0.00528
G1 X159.004 Y126.956 E0.32404
G1 X162.033 Y133.767 E0.23372
G1 X155.563 Y131.096 E0.21949
G1 X155.673 Y140.687 E0.30072
G1 X155.575 Y140.720 E0.00323
G1 X155.350 Y140.377 F10800.000
G1 X155.151 Y137.917
G1 F1200.000
G1 X150.895 Y133.662 E0.19011
G1 X152.703 Y136.007 E0.09354
G1 X154.985 Y138.289 E0.10196
