; generated by PrusaSlicer 2.2.0+win64 on 2020-08-07 at 15:43:34 UTC

; 

; external perimeters extrusion width = 0.60mm
; perimeters extrusion width = 0.43mm
; infill extrusion width = 0.45mm
; solid infill extrusion width = 0.70mm
; top infill extrusion width = 0.43mm
; first layer extrusion width = 0.42mm

M73 P0 R15
M201 X9000 Y9000 Z500 E10000 ; sets maximum accelerations, mm/sec^2
M203 X500 Y500 Z12 E120 ; sets maximum feedrates, mm/sec
M204 P2000 R1500 T2000 ; sets acceleration (P, T) and retract acceleration (R), mm/sec^2
M205 X10.00 Y10.00 Z0.20 E2.50 ; sets the jerk limits, mm/sec
M205 S0 T0 ; sets the minimum extruding and travel feed rate, mm/sec
M107
M862.3 P "MK2S" ; printer model check
M862.1 P0.4 ; nozzle diameter check
M115 U3.2.3 ; tell printer latest fw version
G90 ; use absolute coordinates
M83 ; extruder relative mode
M204 S2000 T1500 ; MK2 firmware only supports the old M204 format
M104 S215 ; set extruder temp
M140 S60 ; set bed temp
M190 S60 ; wait for bed temp
M109 S215 ; wait for extruder temp
G28 W ; home all without mesh bed level
G80 ; mesh bed leveling
G1 Y-3.0 F1000.0 ; go outside print area
G92 E0.0
G1 X60.0 E9.0  F1000.0 ; intro line
M73 P0 R15
G1 X100.0 E12.5 F1000.0 ; intro line
G92 E0.0
G21 ; set units to millimeters
G90 ; use absolute coordinates
M83 ; use relative distances for extrusion
M900 K30 ; Filament gcode
;BEFORE_LAYER_CHANGE
G92 E0.0
;0.2


G1 E-0.80000 F2100.00000
G1 Z0.600 F10800.000
;AFTER_LAYER_CHANGE
;0.2
G1 X99.732 Y66.242
G1 Z0.200
G1 E0.80000 F2100.00000
M204 S1000
G1 F1200.000
G1 X100.247 Y65.601 E0.02579
G1 X101.563 Y64.637 E0.05116
G1 X102.132 Y64.423 E0.01906
G1 X103.741 Y64.125 E0.05129
G1 X146.154 Y64.123 E1.32982
G1 X148.222 Y64.537 E0.06615
G1 X148.677 Y64.783 E0.01621
G1 X149.728 Y65.579 E0.04133
G1 X150.089 Y65.964 E0.01657
G1 X150.356 Y66.420 E0.01657
G1 X150.777 Y67.593 E0.03905
G1 X150.874 Y68.150 E0.01775
G1 X150.877 Y141.744 E2.30748
G1 X150.776 Y142.412 E0.02119
G1 X150.268 Y143.758 E0.04510
G1 X149.750 Y144.402 E0.02590
G1 X148.430 Y145.367 E0.05128
G1 X147.860 Y145.578 E0.01906
G1 X146.228 Y145.876 E0.05200
G1 X103.823 Y145.877 E1.32958
G1 X102.136 Y145.577 E0.05372
G1 X101.530 Y145.345 E0.02036
G1 X100.296 Y144.441 E0.04799
G1 X99.845 Y143.942 E0.02107
G1 X99.245 Y142.477 E0.04966
G1 X99.124 Y141.777 E0.02225
G1 X99.123 Y68.256 E2.30521
G1 X99.224 Y67.588 E0.02119
G1 X99.711 Y66.298 E0.04321
G1 E-0.80000 F2100.00000
G1 Z0.800 F10800.000
G1 X121.636 Y117.628
G1 Z0.200
G1 E0.80000 F2100.00000
G1 F1200.000
G1 X123.285 Y117.128 E0.05403
G1 X125.000 Y116.959 E0.05403
G1 X126.715 Y117.128 E0.05403
G1 X128.364 Y117.628 E0.05403
G1 X129.884 Y118.441 E0.05403
G1 X131.216 Y119.534 E0.05403
G1 X132.309 Y120.866 E0.05403
G1 X133.122 Y122.386 E0.05403
G1 X133.622 Y124.035 E0.05403
G1 X133.791 Y125.750 E0.05403
G1 X133.622 Y127.465 E0.05403
G1 X133.122 Y129.114 E0.05403
G1 X132.309 Y130.634 E0.05403
G1 X131.216 Y131.966 E0.05403
G1 X129.884 Y133.059 E0.05403
G1 X128.364 Y133.872 E0.05403
G1 X126.715 Y134.372 E0.05403
G1 X125.000 Y134.541 E0.05403
G1 X123.285 Y134.372 E0.05403
G1 X121.636 Y133.872 E0.05403
G1 X120.116 Y133.059 E0.05403
G1 X118.784 Y131.966 E0.05403
G1 X117.691 Y130.634 E0.05403
G1 X116.878 Y129.114 E0.05403
G1 X116.378 Y127.465 E0.05403
G1 X116.209 Y125.750 E0.05403
G1 X116.378 Y124.035 E0.05403
G1 X116.878 Y122.386 E0.05403
G1 X117.691 Y120.866 E0.05403
G1 X118.784 Y119.534 E0.05403
G1 X120.116 Y118.441 E0.05403
G1 X121.583 Y117.657 E0.05215
G1 X121.761 Y117.989 F10800.000
G1 F1200.000
G1 X123.359 Y117.500 E0.05241
G1 X125.000 Y117.338 E0.05170
G1 X126.641 Y117.500 E0.05170
G1 X128.219 Y117.978 E0.05170
G1 X129.673 Y118.756 E0.05170
G1 X130.948 Y119.802 E0.05170
G1 X131.994 Y121.077 E0.05170
G1 X132.772 Y122.531 E0.05170
G1 X133.250 Y124.109 E0.05170
G1 X133.412 Y125.750 E0.05170
G1 X133.250 Y127.391 E0.05170
G1 X132.772 Y128.969 E0.05170
G1 X131.994 Y130.423 E0.05170
G1 X130.948 Y131.698 E0.05170
G1 X129.673 Y132.744 E0.05170
G1 X128.219 Y133.522 E0.05170
G1 X126.641 Y134.000 E0.05170
G1 X125.000 Y134.162 E0.05170
G1 X123.359 Y134.000 E0.05170
G1 X121.781 Y133.522 E0.05170
G1 X120.327 Y132.744 E0.05170
G1 X119.052 Y131.698 E0.05170
G1 X118.006 Y130.423 E0.05170
G1 X117.228 Y128.969 E0.05170
G1 X116.750 Y127.391 E0.05170
G1 X116.588 Y125.750 E0.05170
G1 X116.750 Y124.109 E0.05170
G1 X117.228 Y122.531 E0.05170
G1 X118.006 Y121.077 E0.05170
G1 X119.052 Y119.802 E0.05170
G1 X120.327 Y118.756 E0.05170
G1 X121.708 Y118.017 E0.04911
G1 X121.812 Y117.592 F10800.000
G1 E-0.80000 F2100.00000
G1 Z0.800 F10800.000
G1 X136.673 Y136.173
G1 Z0.200
G1 E0.80000 F2100.00000
G1 F1200.000
G1 X137.172 Y135.764 E0.02023
G1 X137.741 Y135.460 E0.02023
G1 X138.358 Y135.272 E0.02023
G1 X138.943 Y135.215 E0.01842
G1 X139.637 Y135.271 E0.02184
G1 X140.259 Y135.460 E0.02039
G1 X140.828 Y135.764 E0.02023
G1 X141.327 Y136.173 E0.02023
G1 X141.736 Y136.672 E0.02023
G1 X142.040 Y137.241 E0.02023
G1 X142.228 Y137.858 E0.02023
G1 X142.291 Y138.500 E0.02023
G1 X142.228 Y139.142 E0.02023
G1 X142.040 Y139.759 E0.02023
G1 X141.736 Y140.328 E0.02023
G1 X141.327 Y140.827 E0.02023
G1 X140.828 Y141.236 E0.02023
G1 X140.259 Y141.540 E0.02023
G1 X139.642 Y141.728 E0.02023
G1 X139.000 Y141.791 E0.02023
G1 X138.358 Y141.728 E0.02023
G1 X137.741 Y141.540 E0.02023
G1 X137.172 Y141.236 E0.02023
G1 X136.673 Y140.827 E0.02023
G1 X136.264 Y140.328 E0.02023
G1 X135.960 Y139.759 E0.02023
G1 X135.772 Y139.142 E0.02023
G1 X135.709 Y138.500 E0.02023
G1 X135.772 Y137.858 E0.02023
G1 X135.960 Y137.241 E0.02023
G1 X136.264 Y136.672 E0.02023
G1 X136.635 Y136.219 E0.01835
G1 X136.926 Y136.459 F10800.000
G1 F1200.000
G1 X137.382 Y136.079 E0.01860
G1 X137.886 Y135.810 E0.01790
G1 X138.432 Y135.644 E0.01790
G1 X138.946 Y135.593 E0.01620
G1 X139.566 Y135.643 E0.01951
G1 X140.114 Y135.810 E0.01796
G1 X140.618 Y136.079 E0.01790
G1 X141.059 Y136.441 E0.01790
G1 X141.421 Y136.882 E0.01790
G1 X141.690 Y137.386 E0.01790
G1 X141.856 Y137.932 E0.01790
G1 X141.912 Y138.500 E0.01790
G1 X141.856 Y139.068 E0.01790
G1 X141.690 Y139.614 E0.01790
G1 X141.421 Y140.118 E0.01790
G1 X141.059 Y140.559 E0.01790
G1 X140.618 Y140.921 E0.01790
G1 X140.114 Y141.190 E0.01790
G1 X139.568 Y141.356 E0.01790
G1 X139.000 Y141.412 E0.01790
G1 X138.432 Y141.356 E0.01790
G1 X137.886 Y141.190 E0.01790
G1 X137.382 Y140.921 E0.01790
G1 X136.941 Y140.559 E0.01790
G1 X136.579 Y140.118 E0.01790
G1 X136.310 Y139.614 E0.01790
G1 X136.144 Y139.068 E0.01790
G1 X136.088 Y138.500 E0.01790
G1 X136.144 Y137.932 E0.01790
G1 X136.310 Y137.386 E0.01790
G1 X136.579 Y136.882 E0.01790
G1 X136.888 Y136.505 E0.01530
G1 X136.821 Y136.073 F10800.000
G1 E-0.80000 F2100.00000
G1 Z0.800 F10800.000
G1 X114.291 Y138.500
G1 Z0.200
G1 E0.80000 F2100.00000
G1 F1200.000
G1 X114.228 Y139.142 E0.02023
G1 X114.040 Y139.759 E0.02023
G1 X113.736 Y140.328 E0.02023
G1 X113.327 Y140.827 E0.02023
G1 X112.828 Y141.236 E0.02023
G1 X112.259 Y141.540 E0.02023
G1 X111.642 Y141.728 E0.02023
G1 X111.000 Y141.791 E0.02023
G1 X110.358 Y141.728 E0.02023
G1 X109.741 Y141.540 E0.02023
G1 X109.172 Y141.236 E0.02023
G1 X108.673 Y140.827 E0.02023
G1 X108.264 Y140.328 E0.02023
G1 X107.960 Y139.759 E0.02023
G1 X107.772 Y139.142 E0.02023
G1 X107.709 Y138.500 E0.02023
G1 X107.772 Y137.858 E0.02023
G1 X107.960 Y137.241 E0.02023
G1 X108.264 Y136.672 E0.02023
G1 X108.673 Y136.173 E0.02023
G1 X109.172 Y135.764 E0.02023
G1 X109.741 Y135.460 E0.02023
G1 X110.358 Y135.272 E0.02023
G1 X110.943 Y135.215 E0.01842
G1 X111.637 Y135.271 E0.02184
G1 X112.259 Y135.460 E0.02039
G1 X112.828 Y135.764 E0.02023
G1 X113.327 Y136.173 E0.02023
G1 X113.736 Y136.672 E0.02023
G1 X114.040 Y137.241 E0.02023
G1 X114.228 Y137.858 E0.02023
G1 X114.285 Y138.440 E0.01835
G1 X113.910 Y138.477 F10800.000
G1 F1200.000
G1 X113.856 Y139.068 E0.01860
G1 X113.690 Y139.614 E0.01790
G1 X113.421 Y140.118 E0.01790
G1 X113.059 Y140.559 E0.01790
G1 X112.618 Y140.921 E0.01790
G1 X112.114 Y141.190 E0.01790
G1 X111.568 Y141.356 E0.01790
G1 X111.000 Y141.412 E0.01790
G1 X110.432 Y141.356 E0.01790
G1 X109.886 Y141.190 E0.01790
G1 X109.382 Y140.921 E0.01790
G1 X108.941 Y140.559 E0.01790
G1 X108.579 Y140.118 E0.01790
G1 X108.310 Y139.614 E0.01790
G1 X108.144 Y139.068 E0.01790
G1 X108.088 Y138.500 E0.01790
G1 X108.144 Y137.932 E0.01790
G1 X108.310 Y137.386 E0.01790
G1 X108.579 Y136.882 E0.01790
G1 X108.941 Y136.441 E0.01790
G1 X109.382 Y136.079 E0.01790
G1 X109.886 Y135.810 E0.01790
G1 X110.432 Y135.644 E0.01790
G1 X110.946 Y135.593 E0.01620
G1 X111.566 Y135.643 E0.01951
G1 X112.114 Y135.810 E0.01796
G1 X112.618 Y136.079 E0.01790
G1 X113.059 Y136.441 E0.01790
G1 X113.421 Y136.882 E0.01790
G1 X113.690 Y137.386 E0.01790
G1 X113.856 Y137.932 E0.01790
G1 X113.904 Y138.418 E0.01530
G1 X114.257 Y138.675 F10800.000
G1 E-0.80000 F2100.00000
G1 Z0.800 F10800.000
G1 X102.478 Y142.127
G1 Z0.200
G1 E0.80000 F2100.00000
G1 F1200.000
G1 X102.287 Y141.590 E0.01787
G1 X102.287 Y109.910 E0.99327
G1 X102.478 Y109.373 E0.01787
G1 X103.007 Y108.974 E0.02078
G1 X103.929 Y108.787 E0.02950
G1 X146.071 Y108.787 E1.32134
G1 X146.993 Y108.974 E0.02950
G1 X147.522 Y109.373 E0.02078
G1 X147.713 Y109.910 E0.01787
G1 X147.713 Y141.590 E0.99327
G1 X147.522 Y142.127 E0.01787
G1 X146.993 Y142.526 E0.02078
G1 X146.071 Y142.713 E0.02950
G1 X103.929 Y142.713 E1.32134
G1 X103.007 Y142.526 E0.02950
G1 X102.526 Y142.163 E0.01890
G1 X102.160 Y142.359 F10800.000
G1 F1200.000
G1 X101.910 Y141.654 E0.02346
G1 X101.910 Y109.846 E0.99734
G1 X102.160 Y109.141 E0.02346
G1 X102.848 Y108.621 E0.02702
G1 X103.891 Y108.410 E0.03338
G1 X146.109 Y108.410 E1.32371
G1 X147.152 Y108.621 E0.03338
G1 X147.840 Y109.141 E0.02702
G1 X148.090 Y109.846 E0.02346
G1 X148.090 Y141.654 E0.99734
G1 X147.840 Y142.359 E0.02346
G1 X147.152 Y142.879 E0.02702
G1 X146.109 Y143.090 E0.03338
G1 X103.891 Y143.090 E1.32371
G1 X102.848 Y142.879 E0.03338
G1 X102.208 Y142.396 E0.02514
G1 X102.327 Y141.996 F10800.000
G1 X102.400 Y141.110
G1 F1200.000
G1 X103.661 Y142.370 E0.05603
G1 X103.957 Y142.430 E0.00951
G1 X104.255 Y142.430 E0.00937
G1 X102.570 Y140.745 E0.07493
G1 X102.570 Y140.210 E0.01681
G1 X104.790 Y142.430 E0.09869
G1 X105.325 Y142.430 E0.01681
G1 X102.570 Y139.675 E0.12246
G1 X102.570 Y139.141 E0.01681
G1 X105.859 Y142.430 E0.14623
G1 X106.394 Y142.430 E0.01681
G1 X102.570 Y138.606 E0.17000
G1 X102.570 Y138.072 E0.01681
G1 X106.929 Y142.430 E0.19376
G1 X107.463 Y142.430 E0.01681
G1 X102.570 Y137.537 E0.21753
G1 X102.570 Y137.002 E0.01681
G1 X107.998 Y142.430 E0.24130
G1 X108.532 Y142.430 E0.01681
G1 X102.570 Y136.468 E0.26507
G1 X102.570 Y135.933 E0.01681
G1 X109.237 Y142.600 E0.29638
G1 E-0.80000 F2100.00000
G1 Z0.800 F10800.000
G1 X137.573 Y142.600
G1 Z0.200
G1 E0.80000 F2100.00000
G1 F1200.000
G1 X128.886 Y133.913 E0.38616
G1 X128.538 Y134.100 E0.01242
G1 X136.868 Y142.430 E0.37034
G1 X136.334 Y142.430 E0.01681
G1 X128.139 Y134.236 E0.36430
G1 X127.729 Y134.360 E0.01347
G1 X135.799 Y142.430 E0.35876
G1 X135.264 Y142.430 E0.01681
G1 X127.319 Y134.484 E0.35323
G1 X126.909 Y134.609 E0.01347
G1 X134.730 Y142.430 E0.34770
G1 X134.195 Y142.430 E0.01681
G1 X126.448 Y134.682 E0.34443
G1 X125.961 Y134.730 E0.01537
G1 X133.661 Y142.430 E0.34229
G1 X133.126 Y142.430 E0.01681
G1 X125.474 Y134.778 E0.34016
G1 X124.985 Y134.824 E0.01545
G1 X132.591 Y142.430 E0.33815
G1 X132.057 Y142.430 E0.01681
G1 X124.392 Y134.765 E0.34075
G1 X123.799 Y134.707 E0.01873
G1 X131.522 Y142.430 E0.34335
G1 X130.987 Y142.430 E0.01681
G1 X123.198 Y134.641 E0.34626
G1 X122.431 Y134.408 E0.02521
G1 X130.453 Y142.430 E0.35661
G1 X129.918 Y142.430 E0.01681
G1 X121.664 Y134.176 E0.36696
G1 X121.527 Y134.134 E0.00448
G1 X120.583 Y133.630 E0.03366
G1 X129.553 Y142.600 E0.39878
G1 E-0.80000 F2100.00000
G1 Z0.800 F10800.000
G1 X119.395 Y142.600
G1 Z0.200
G1 E0.80000 F2100.00000
G1 F1200.000
G1 X114.467 Y137.672 E0.21909
G1 X114.506 Y137.803 E0.00430
G1 X114.555 Y138.294 E0.01553
G1 X118.691 Y142.430 E0.18386
G1 X118.156 Y142.430 E0.01681
G1 X114.544 Y138.818 E0.16058
G1 X114.506 Y139.197 E0.01199
G1 X114.479 Y139.288 E0.00297
G1 X117.621 Y142.430 E0.13969
G1 X117.087 Y142.430 E0.01681
G1 X114.355 Y139.698 E0.12146
G1 X114.303 Y139.868 E0.00559
G1 X114.194 Y140.072 E0.00727
G1 X116.552 Y142.430 E0.10483
G1 X116.017 Y142.430 E0.01681
G1 X114.008 Y140.420 E0.08934
G1 X113.777 Y140.724 E0.01200
G1 X115.483 Y142.430 E0.07583
G1 X114.948 Y142.430 E0.01681
G1 X113.536 Y141.018 E0.06277
G1 X113.244 Y141.261 E0.01193
G1 X114.413 Y142.430 E0.05198
G1 X113.879 Y142.430 E0.01681
G1 X112.944 Y141.495 E0.04156
G1 X112.595 Y141.681 E0.01242
G1 X113.344 Y142.430 E0.03329
G1 X112.810 Y142.430 E0.01681
G1 X112.226 Y141.846 E0.02596
G1 X111.815 Y141.971 E0.01347
G1 X112.275 Y142.430 E0.02043
M73 P6 R14
G1 X111.740 Y142.430 E0.01681
G1 X111.351 Y142.041 E0.01732
G1 X111.000 Y142.075 E0.01108
G1 X110.834 Y142.059 E0.00524
G1 X111.206 Y142.430 E0.01651
G1 X110.671 Y142.430 E0.01681
G1 X110.223 Y141.982 E0.01991
G1 X109.632 Y141.803 E0.01942
G1 X109.368 Y141.662 E0.00940
G1 X110.136 Y142.430 E0.03415
G1 X109.602 Y142.430 E0.01681
G1 X102.570 Y135.398 E0.31260
G1 X102.570 Y134.864 E0.01681
G1 X107.838 Y140.132 E0.23420
G1 X107.697 Y139.868 E0.00940
G1 X107.518 Y139.277 E0.01942
G1 X102.570 Y134.329 E0.21996
G1 X102.570 Y133.794 E0.01681
G1 X107.441 Y138.666 E0.21656
G1 X107.425 Y138.500 E0.00524
G1 X107.459 Y138.149 E0.01108
G1 X102.570 Y133.260 E0.21737
G1 X102.570 Y132.725 E0.01681
G1 X107.529 Y137.685 E0.22048
G1 X107.654 Y137.274 E0.01348
G1 X102.570 Y132.190 E0.22601
G1 X102.570 Y131.656 E0.01681
G1 X107.819 Y136.905 E0.23333
G1 X108.005 Y136.556 E0.01242
G1 X102.570 Y131.121 E0.24161
G1 X102.570 Y130.587 E0.01681
G1 X108.239 Y136.256 E0.25203
G1 X108.482 Y135.964 E0.01193
G1 X102.570 Y130.052 E0.26282
G1 X102.570 Y129.517 E0.01681
G1 X108.776 Y135.723 E0.27588
G1 X109.080 Y135.492 E0.01200
G1 X102.570 Y128.983 E0.28939
G1 X102.570 Y128.448 E0.01681
G1 X109.428 Y135.306 E0.30488
G1 X109.632 Y135.197 E0.00727
G1 X109.802 Y135.145 E0.00559
G1 X102.570 Y127.913 E0.32151
G1 X102.570 Y127.379 E0.01681
G1 X110.212 Y135.021 E0.33974
G1 X110.303 Y134.994 E0.00297
G1 X110.682 Y134.956 E0.01199
G1 X102.570 Y126.844 E0.36063
G1 X102.570 Y126.309 E0.01681
G1 X111.213 Y134.953 E0.38425
G1 X111.690 Y134.991 E0.01503
G1 X111.828 Y135.033 E0.00455
G1 X102.570 Y125.775 E0.41160
G1 X102.570 Y125.240 E0.01681
G1 X119.760 Y142.430 E0.76419
G1 X120.295 Y142.430 E0.01681
G1 X102.570 Y124.705 E0.78796
G1 X102.570 Y124.171 E0.01681
G1 X120.829 Y142.430 E0.81173
G1 X121.364 Y142.430 E0.01681
G1 X102.570 Y123.636 E0.83549
G1 X102.570 Y123.102 E0.01681
G1 X121.898 Y142.430 E0.85926
G1 X122.433 Y142.430 E0.01681
G1 X102.570 Y122.567 E0.88303
G1 X102.570 Y122.032 E0.01681
G1 X122.968 Y142.430 E0.90680
G1 X123.502 Y142.430 E0.01681
G1 X102.570 Y121.498 E0.93056
G1 X102.570 Y120.963 E0.01681
G1 X124.037 Y142.430 E0.95433
G1 X124.572 Y142.430 E0.01681
G1 X102.570 Y120.428 E0.97810
G1 X102.570 Y119.894 E0.01681
G1 X125.106 Y142.430 E1.00187
G1 X125.641 Y142.430 E0.01681
G1 X102.570 Y119.359 E1.02564
G1 X102.570 Y118.824 E0.01681
G1 X126.176 Y142.430 E1.04940
G1 X126.710 Y142.430 E0.01681
G1 X102.570 Y118.290 E1.07317
G1 X102.570 Y117.755 E0.01681
G1 X127.245 Y142.430 E1.09694
G1 X127.779 Y142.430 E0.01681
G1 X102.570 Y117.221 E1.12071
G1 X102.570 Y116.686 E0.01681
G1 X128.314 Y142.430 E1.14447
G1 X128.849 Y142.430 E0.01681
G1 X102.570 Y116.151 E1.16824
G1 X102.570 Y115.617 E0.01681
G1 X117.120 Y130.167 E0.64686
G1 X116.616 Y129.223 E0.03366
G1 X116.574 Y129.086 E0.00448
G1 X102.570 Y115.082 E0.62258
G1 X102.570 Y114.547 E0.01681
G1 X116.342 Y128.319 E0.61223
G1 X116.109 Y127.552 E0.02521
G1 X102.570 Y114.013 E0.60188
G1 X102.570 Y113.478 E0.01681
G1 X116.043 Y126.951 E0.59897
G1 X115.985 Y126.358 E0.01873
G1 X102.570 Y112.943 E0.59637
G1 X102.570 Y112.409 E0.01681
G1 X115.926 Y125.765 E0.59377
G1 X115.972 Y125.276 E0.01545
G1 X102.570 Y111.874 E0.59578
G1 X102.570 Y111.339 E0.01681
G1 X116.020 Y124.789 E0.59791
G1 X116.068 Y124.302 E0.01537
G1 X102.570 Y110.805 E0.60004
