; generated by PrusaSlicer 2.2.0+win64 on 2020-08-07 at 15:42:38 UTC

; 

; external perimeters extrusion width = 0.45mm
; perimeters extrusion width = 0.45mm
; infill extrusion width = 0.45mm
; solid infill extrusion width = 0.45mm
; top infill extrusion width = 0.40mm
; first layer extrusion width = 0.42mm

M73 P0 R43
M201 X9000 Y9000 Z500 E10000 ; sets maximum accelerations, mm/sec^2
M203 X500 Y500 Z12 E120 ; sets maximum feedrates, mm/sec
M204 P2000 R1500 T2000 ; sets acceleration (P, T) and retract acceleration (R), mm/sec^2
M205 X10.00 Y10.00 Z0.20 E2.50 ; sets the jerk limits, mm/sec
M205 S0 T0 ; sets the minimum extruding and travel feed rate, mm/sec
M107
M862.3 P "MK2S" ; printer model check
M862.1 P0.4 ; nozzle diameter check
M115 U3.2.3 ; tell printer latest fw version
G90 ; use absolute coordinates
M83 ; extruder relative mode
M204 S2000 T1500 ; MK2 firmware only supports the old M204 format
M104 S215 ; set extruder temp
M140 S60 ; set bed temp
M190 S60 ; wait for bed temp
M109 S215 ; wait for extruder temp
G28 W ; home all without mesh bed level
G80 ; mesh bed leveling
G1 Y-3.0 F1000.0 ; go outside print area
G92 E0.0
G1 X60.0 E9.0  F1000.0 ; intro line
M73 P0 R43
G1 X100.0 E12.5 F1000.0 ; intro line
G92 E0.0
G21 ; set units to millimeters
G90 ; use absolute coordinates
M83 ; use relative distances for extrusion
M900 K30 ; Filament gcode
;BEFORE_LAYER_CHANGE
G92 E0.0
;0.2


G1 E-0.80000 F2100.00000
G1 Z0.600 F10800.000
;AFTER_LAYER_CHANGE
;0.2
G1 X119.474 Y78.380
G1 Z0.200
G1 E0.80000 F2100.00000
M204 S1000
G1 F1200.000
G1 X123.165 Y82.062 E0.16348
G1 X125.769 Y80.343 E0.09782
G1 X126.517 Y81.961 E0.05588
G1 X131.512 Y79.844 E0.17009
G1 X131.553 Y82.097 E0.07065
G1 X139.307 Y79.704 E0.25445
G1 X139.396 Y79.866 E0.00578
G1 X134.044 Y84.439 E0.22073
G1 X138.219 Y87.013 E0.15380
G1 X133.007 Y87.745 E0.16503
G1 X137.404 Y91.567 E0.18268
G1 X137.334 Y91.721 E0.00528
G1 X130.472 Y90.808 E0.21705
G1 X131.832 Y95.809 E0.16250
G1 X127.688 Y93.299 E0.15191
G1 X126.767 Y99.755 E0.20445
G1 X126.607 Y99.784 E0.00511
G1 X122.700 Y92.694 E0.25383
G1 X118.700 Y95.951 E0.16173
G1 X118.855 Y91.003 E0.15522
G1 X111.756 Y92.940 E0.23071
G1 X111.674 Y92.773 E0.00584
G1 X116.747 Y88.892 E0.20027
G1 X113.253 Y87.348 E0.11976
G1 X117.457 Y86.017 E0.13826
G1 X111.619 Y83.012 E0.20587
G1 X111.662 Y82.838 E0.00561
G1 X118.921 Y82.908 E0.22759
G1 X119.467 Y78.439 E0.14117
G1 E-0.80000 F2100.00000
G1 Z0.800 F10800.000
G1 X126.821 Y100.954
G1 Z0.200
G1 E0.80000 F2100.00000
G1 F1200.000
G1 X122.588 Y93.271 E0.27503
G1 X118.298 Y96.765 E0.17347
G1 X118.462 Y91.501 E0.16514
G1 X109.998 Y93.811 E0.27510
G1 X109.915 Y93.644 E0.00584
G1 X116.012 Y88.979 E0.24069
G1 X112.188 Y87.290 E0.13108
G1 X116.471 Y85.934 E0.14086
G1 X110.033 Y82.619 E0.22704
G1 X110.076 Y82.446 E0.00561
G1 X118.587 Y82.528 E0.26687
G1 X119.194 Y77.567 E0.15671
G1 X123.214 Y81.578 E0.17806
G1 X125.927 Y79.787 E0.10193
G1 X126.706 Y81.471 E0.05819
G1 X131.879 Y79.279 E0.17615
G1 X131.921 Y81.589 E0.07244
G1 X140.939 Y78.806 E0.29592
G1 X141.028 Y78.968 E0.00578
G1 X134.682 Y84.390 E0.26169
G1 X139.308 Y87.242 E0.17038
G1 X133.879 Y88.003 E0.17188
G1 X138.599 Y92.107 E0.19610
G1 X138.530 Y92.260 E0.00528
G1 X130.985 Y91.257 E0.23863
G1 X132.443 Y96.620 E0.17428
G1 X127.980 Y93.917 E0.16358
G1 X126.981 Y100.925 E0.22193
G1 X126.880 Y100.943 E0.00323
G1 X126.710 Y100.570 F10800.000
G1 E-0.80000 F2100.00000
G1 Z0.800 F10800.000
G1 X109.768 Y93.820
G1 Z0.200
G1 E0.80000 F2100.00000
G1 F1200.000
G1 X109.630 Y93.889 E0.00561
G1 X109.492 Y93.957 E0.00505
G1 X109.354 Y94.026 E0.00449
G1 X109.216 Y94.094 E0.00394
G1 X109.078 Y94.162 E0.00338
G1 X108.940 Y94.231 E0.00282
G1 X108.802 Y94.299 E0.00227
G1 X110.504 Y93.456 F10800.000
G1 F1200.000
G1 X110.635 Y93.391 E0.00115
G1 X110.765 Y93.327 E0.00169
G1 X110.895 Y93.263 E0.00223
G1 X111.025 Y93.198 E0.00277
G1 X111.156 Y93.134 E0.00332
G1 X111.286 Y93.069 E0.00386
G1 X111.416 Y93.005 E0.00440
G1 X111.546 Y92.940 E0.00494
G1 X112.263 Y92.585 F10800.000
G1 F1200.000
G1 X112.393 Y92.521 E0.00115
G1 X112.524 Y92.456 E0.00169
G1 X112.654 Y92.392 E0.00223
G1 X112.784 Y92.327 E0.00277
G1 X112.914 Y92.263 E0.00332
G1 X113.045 Y92.198 E0.00386
G1 X113.175 Y92.134 E0.00440
G1 X113.305 Y92.069 E0.00494
G1 X114.171 Y92.164 F10800.000
G1 F1200.000
G1 X113.635 Y91.628 E0.02403
G1 X113.941 Y91.394 E0.01221
G1 X114.457 Y91.910 E0.02313
G1 X114.881 Y91.794 E0.01394
G1 X114.247 Y91.161 E0.02843
G1 X114.553 Y90.927 E0.01221
G1 X115.305 Y91.679 E0.03374
G1 X115.728 Y91.563 E0.01394
G1 X114.858 Y90.693 E0.03904
G1 X115.164 Y90.459 E0.01221
G1 X116.152 Y91.447 E0.04435
G1 X116.576 Y91.332 E0.01394
G1 X115.470 Y90.225 E0.04965
G1 X115.775 Y89.991 E0.01221
G1 X117.000 Y91.216 E0.05496
G1 X117.424 Y91.100 E0.01394
G1 X116.081 Y89.757 E0.06026
G1 X116.387 Y89.523 E0.01221
G1 X117.848 Y90.985 E0.06556
G1 X118.272 Y90.869 E0.01394
G1 X116.693 Y89.289 E0.07087
G1 X116.998 Y89.056 E0.01221
G1 X118.834 Y90.891 E0.08237
G1 X116.683 Y88.740 F10800.000
G1 F1200.000
G1 X115.026 Y87.083 E0.07432
G1 X114.616 Y87.213 E0.01364
G1 X115.384 Y87.980 E0.03442
G1 X114.417 Y87.553 E0.03353
G1 X114.071 Y87.208 E0.01550
G1 X112.521 Y82.959 F10800.000
G1 F1200.000
G1 X112.930 Y83.368 E0.01835
G1 X114.042 Y83.941 E0.03969
G1 X113.237 Y83.136 E0.03612
G1 X113.782 Y83.141 E0.01729
G1 X115.155 Y84.514 E0.06158
G1 X116.267 Y85.087 E0.03969
G1 X114.327 Y83.147 E0.08704
G1 X114.872 Y83.152 E0.01729
G1 X127.105 Y95.385 E0.54886
G1 X127.172 Y94.912 E0.01514
G1 X115.417 Y83.157 E0.52744
G1 X115.962 Y83.163 E0.01729
G1 X127.239 Y94.440 E0.50601
G1 X127.307 Y93.968 E0.01514
G1 X116.507 Y83.168 E0.48458
G1 X117.052 Y83.173 E0.01729
G1 X127.374 Y93.496 E0.46316
G1 X127.441 Y93.023 E0.01514
G1 X117.596 Y83.178 E0.44173
G1 X118.141 Y83.184 E0.01729
G1 X128.293 Y93.335 E0.45550
G1 X129.662 Y94.164 E0.05076
G1 X118.686 Y83.189 E0.49245
G1 X119.171 Y83.194 E0.01537
G1 X119.177 Y83.140 E0.00171
G1 X131.030 Y94.993 E0.53182
G1 X131.373 Y95.201 E0.01274
G1 X131.223 Y94.646 E0.01825
G1 X119.236 Y82.659 E0.53782
G1 X119.295 Y82.179 E0.01537
G1 X131.021 Y93.905 E0.52615
G1 X130.820 Y93.164 E0.02436
G1 X119.353 Y81.698 E0.51448
G1 X119.412 Y81.217 E0.01537
G1 X130.618 Y92.423 E0.50280
G1 X130.417 Y91.682 E0.02436
G1 X119.471 Y80.736 E0.49113
G1 X119.530 Y80.255 E0.01537
G1 X130.215 Y90.941 E0.47945
G1 X130.088 Y90.472 E0.01543
G1 X130.316 Y90.502 E0.00730
G1 X119.589 Y79.774 E0.48133
G1 X119.647 Y79.293 E0.01537
G1 X130.939 Y90.585 E0.50662
G1 X131.561 Y90.667 E0.01992
G1 X123.243 Y82.350 E0.37321
G1 X123.568 Y82.135 E0.01236
G1 X132.183 Y90.750 E0.38656
G1 X132.806 Y90.833 E0.01992
G1 X123.893 Y81.920 E0.39990
G1 X124.218 Y81.706 E0.01236
G1 X133.428 Y90.916 E0.41324
G1 X134.051 Y90.999 E0.01992
G1 X124.543 Y81.491 E0.42658
G1 X124.868 Y81.277 E0.01236
G1 X134.673 Y91.081 E0.43993
G1 X135.295 Y91.164 E0.01992
G1 X125.193 Y81.062 E0.45327
G1 X125.518 Y80.848 E0.01236
G1 X126.186 Y81.516 E0.02997
G1 E-0.80000 F2100.00000
G1 Z0.800 F10800.000
G1 X133.756 Y88.545
G1 Z0.200
G1 E0.80000 F2100.00000
G1 F1200.000
G1 X136.540 Y91.330 E0.12494
G1 X135.918 Y91.247 E0.01992
G1 X126.813 Y82.143 E0.40851
G1 X127.192 Y81.982 E0.01306
G1 X132.711 Y87.501 E0.24761
G1 X133.184 Y87.434 E0.01516
G1 X127.571 Y81.821 E0.25184
G1 X127.950 Y81.661 E0.01306
G1 X133.657 Y87.368 E0.25607
G1 X134.131 Y87.301 E0.01516
G1 X128.329 Y81.500 E0.26029
G1 X128.708 Y81.340 E0.01306
G1 X134.604 Y87.235 E0.26452
G1 X135.077 Y87.169 E0.01516
G1 X129.087 Y81.179 E0.26875
G1 X129.466 Y81.018 E0.01306
G1 X135.701 Y87.253 E0.27972
G1 X137.120 Y87.053 F10800.000
G1 F1200.000
G1 X136.115 Y86.048 E0.04510
G1 X134.708 Y85.180 E0.05246
G1 X136.497 Y86.969 E0.08028
G1 X136.023 Y87.036 E0.01516
G1 X129.845 Y80.858 E0.27721
G1 X130.224 Y80.697 E0.01306
G1 X131.263 Y81.736 E0.04662
G1 X131.253 Y81.187 E0.01744
G1 X130.603 Y80.537 E0.02917
G1 X130.982 Y80.376 E0.01306
G1 X131.416 Y80.810 E0.01947
G1 X131.698 Y82.171 F10800.000
G1 F1200.000
G1 X133.801 Y84.274 E0.09437
G1 X134.092 Y84.026 E0.01214
G1 X132.246 Y82.179 E0.08284
G1 X132.659 Y82.052 E0.01369
G1 X134.383 Y83.777 E0.07739
G1 X134.674 Y83.528 E0.01214
G1 X133.071 Y81.925 E0.07195
G1 X133.483 Y81.798 E0.01369
G1 X134.965 Y83.280 E0.06650
G1 X135.256 Y83.031 E0.01214
G1 X133.896 Y81.670 E0.06105
G1 X134.308 Y81.543 E0.01369
G1 X135.547 Y82.782 E0.05561
G1 X135.838 Y82.534 E0.01214
G1 X134.720 Y81.416 E0.05016
G1 X135.133 Y81.289 E0.01369
G1 X136.129 Y82.285 E0.04472
G1 X136.420 Y82.037 E0.01214
G1 X135.545 Y81.161 E0.03927
G1 X135.957 Y81.034 E0.01369
G1 X136.711 Y81.788 E0.03382
G1 X137.002 Y81.539 E0.01214
G1 X136.370 Y80.907 E0.02838
G1 X136.782 Y80.780 E0.01369
G1 X137.293 Y81.291 E0.02293
G1 X137.584 Y81.042 E0.01214
G1 X137.195 Y80.652 E0.01749
G1 X137.607 Y80.525 E0.01369
G1 X137.875 Y80.793 E0.01204
G1 X138.166 Y80.545 E0.01214
G1 X138.019 Y80.398 E0.00659
G1 X138.432 Y80.271 E0.01369
G1 X138.578 Y80.417 E0.00655
G1 E-0.80000 F2100.00000
G1 Z0.800 F10800.000
G1 X125.520 Y97.577
G1 Z0.200
G1 E0.80000 F2100.00000
G1 F1200.000
G1 X126.633 Y98.690 E0.04995
G1 X126.701 Y98.218 E0.01514
G1 X125.289 Y96.807 E0.06332
G1 X124.627 Y95.605 E0.04354
G1 X126.768 Y97.746 E0.09606
G1 X126.835 Y97.274 E0.01514
G1 X123.965 Y94.403 E0.12879
G1 X123.303 Y93.201 E0.04354
G1 X126.903 Y96.801 E0.16153
G1 X126.970 Y96.329 E0.01514
G1 X117.076 Y86.435 E0.44395
G1 X117.485 Y86.305 E0.01364
G1 X127.187 Y96.007 E0.43532
G1 E-0.80000 F2100.00000
G1 Z0.800 F10800.000
G1 X122.672 Y92.571
G1 Z0.200
G1 E0.80000 F2100.00000
G1 F1200.000
G1 X116.666 Y86.564 E0.26949
G1 X116.256 Y86.694 E0.01364
G1 X122.254 Y92.692 E0.26913
G1 X121.956 Y92.934 E0.01217
G1 X115.846 Y86.824 E0.27417
G1 X115.436 Y86.954 E0.01364
G1 X121.659 Y93.177 E0.27922
G1 X121.362 Y93.419 E0.01217
G1 X119.132 Y91.189 E0.10003
G1 X119.116 Y91.713 E0.01661
G1 X121.064 Y93.661 E0.08742
G1 X120.767 Y93.903 E0.01217
G1 X119.099 Y92.236 E0.07481
G1 X119.083 Y92.759 E0.01661
G1 X120.469 Y94.146 E0.06220
G1 X120.172 Y94.388 E0.01217
G1 X119.067 Y93.282 E0.04959
G1 X119.050 Y93.806 E0.01661
G1 X119.875 Y94.630 E0.03698
G1 X119.577 Y94.872 E0.01217
G1 X119.034 Y94.329 E0.02437
G1 X119.018 Y94.852 E0.01661
G1 X119.400 Y95.235 E0.01717
G1 E-0.80000 F2100.00000
G1 Z0.800 F10800.000
G1 X125.210 Y130.463
G1 Z0.200
G1 E0.80000 F2100.00000
G1 F1200.000
G1 X121.303 Y123.372 E0.25383
G1 X117.304 Y126.630 E0.16173
G1 X117.458 Y121.682 E0.15522
G1 X110.360 Y123.619 E0.23071
G1 X110.277 Y123.452 E0.00584
G1 X115.350 Y119.571 E0.20027
G1 X111.856 Y118.027 E0.11976
G1 X116.060 Y116.696 E0.13826
G1 X110.223 Y113.690 E0.20587
G1 X110.266 Y113.517 E0.00561
G1 X117.524 Y113.587 E0.22759
G1 X118.077 Y109.058 E0.14305
G1 X121.768 Y112.741 E0.16348
G1 X124.372 Y111.022 E0.09782
G1 X125.120 Y112.640 E0.05588
G1 X130.115 Y110.523 E0.17009
G1 X130.156 Y112.776 E0.07065
G1 X137.911 Y110.383 E0.25445
G1 X138.000 Y110.545 E0.00578
G1 X132.647 Y115.118 E0.22073
G1 X136.823 Y117.692 E0.15380
G1 X131.610 Y118.423 E0.16503
G1 X136.007 Y122.246 E0.18268
G1 X135.938 Y122.400 E0.00528
G1 X129.076 Y121.487 E0.21705
G1 X130.435 Y126.488 E0.16250
G1 X126.291 Y123.978 E0.15191
G1 X125.371 Y130.434 E0.20445
M73 P2 R42
G1 X125.269 Y130.452 E0.00323
G1 X125.424 Y131.633 F10800.000
G1 F1200.000
G1 X121.191 Y123.950 E0.27503
G1 X116.901 Y127.444 E0.17347
G1 X117.066 Y122.180 E0.16514
G1 X108.601 Y124.489 E0.27510
G1 X108.518 Y124.323 E0.00584
G1 X114.615 Y119.658 E0.24069
G1 X110.791 Y117.969 E0.13108
G1 X115.075 Y116.613 E0.14086
G1 X108.637 Y113.298 E0.22704
G1 X108.680 Y113.124 E0.00561
G1 X117.191 Y113.207 E0.26687
G1 X117.797 Y108.246 E0.15671
G1 X121.817 Y112.257 E0.17806
G1 X124.530 Y110.466 E0.10193
G1 X125.309 Y112.150 E0.05819
G1 X130.482 Y109.958 E0.17615
G1 X130.524 Y112.268 E0.07244
G1 X139.542 Y109.485 E0.29592
G1 X139.631 Y109.647 E0.00578
G1 X133.286 Y115.068 E0.26169
G1 X137.911 Y117.920 E0.17038
G1 X132.482 Y118.682 E0.17188
G1 X137.202 Y122.786 E0.19610
G1 X137.133 Y122.939 E0.00528
G1 X129.588 Y121.935 E0.23863
G1 X131.046 Y127.299 E0.17428
G1 X126.584 Y124.596 E0.16358
G1 X125.585 Y131.603 E0.22193
G1 X125.483 Y131.622 E0.00323
G1 X125.313 Y131.249 F10800.000
G1 E-0.80000 F2100.00000
G1 Z0.800 F10800.000
G1 X108.372 Y124.499
G1 Z0.200
G1 E0.80000 F2100.00000
G1 F1200.000
G1 X108.233 Y124.568 E0.00561
G1 X108.095 Y124.636 E0.00505
G1 X107.957 Y124.704 E0.00449
G1 X107.819 Y124.773 E0.00394
G1 X107.681 Y124.841 E0.00338
G1 X107.543 Y124.909 E0.00282
G1 X107.405 Y124.978 E0.00227
G1 X109.108 Y124.135 F10800.000
G1 F1200.000
G1 X109.238 Y124.070 E0.00115
G1 X109.368 Y124.006 E0.00169
G1 X109.498 Y123.941 E0.00223
G1 X109.629 Y123.877 E0.00277
G1 X109.759 Y123.812 E0.00332
G1 X109.889 Y123.748 E0.00386
G1 X110.019 Y123.683 E0.00440
G1 X110.150 Y123.619 E0.00494
G1 X110.867 Y123.264 F10800.000
G1 F1200.000
G1 X110.997 Y123.199 E0.00115
G1 X111.127 Y123.135 E0.00169
G1 X111.257 Y123.070 E0.00223
G1 X111.387 Y123.006 E0.00277
G1 X111.518 Y122.942 E0.00332
G1 X111.648 Y122.877 E0.00386
G1 X111.778 Y122.813 E0.00440
G1 X111.908 Y122.748 E0.00494
G1 X112.774 Y122.843 F10800.000
G1 F1200.000
G1 X112.239 Y122.307 E0.02403
G1 X112.545 Y122.073 E0.01221
G1 X113.060 Y122.589 E0.02313
G1 X113.484 Y122.473 E0.01394
G1 X112.850 Y121.839 E0.02843
G1 X113.156 Y121.605 E0.01221
G1 X113.908 Y122.357 E0.03374
G1 X114.332 Y122.242 E0.01394
G1 X113.462 Y121.372 E0.03904
G1 X113.767 Y121.138 E0.01221
G1 X114.756 Y122.126 E0.04435
G1 X115.180 Y122.010 E0.01394
G1 X114.073 Y120.904 E0.04965
G1 X114.379 Y120.670 E0.01221
G1 X115.604 Y121.895 E0.05496
G1 X116.028 Y121.779 E0.01394
G1 X114.685 Y120.436 E0.06026
G1 X114.990 Y120.202 E0.01221
G1 X116.452 Y121.663 E0.06556
G1 X116.875 Y121.548 E0.01394
G1 X115.296 Y119.968 E0.07087
G1 X115.602 Y119.734 E0.01221
G1 X117.438 Y121.570 E0.08237
G1 X115.286 Y119.419 F10800.000
G1 F1200.000
G1 X113.630 Y117.762 E0.07432
G1 X113.220 Y117.892 E0.01364
G1 X113.987 Y118.659 E0.03442
G1 X113.020 Y118.232 E0.03353
G1 X112.675 Y117.887 E0.01550
G1 X111.124 Y113.638 F10800.000
G1 F1200.000
G1 X111.533 Y114.047 E0.01835
G1 X112.646 Y114.620 E0.03969
G1 X111.841 Y113.815 E0.03612
G1 X112.386 Y113.820 E0.01729
G1 X113.758 Y115.193 E0.06158
G1 X114.870 Y115.765 E0.03969
G1 X112.930 Y113.825 E0.08704
G1 X113.475 Y113.831 E0.01729
G1 X125.708 Y126.063 E0.54886
G1 X125.775 Y125.591 E0.01514
G1 X114.020 Y113.836 E0.52744
G1 X114.565 Y113.841 E0.01729
G1 X125.843 Y125.119 E0.50601
G1 X125.910 Y124.647 E0.01514
G1 X115.110 Y113.847 E0.48458
G1 X115.655 Y113.852 E0.01729
G1 X125.977 Y124.174 E0.46316
G1 X126.045 Y123.702 E0.01514
G1 X116.200 Y113.857 E0.44173
G1 X116.745 Y113.862 E0.01729
G1 X126.897 Y124.014 E0.45550
G1 X128.265 Y124.843 E0.05076
G1 X117.290 Y113.868 E0.49245
G1 X117.774 Y113.872 E0.01537
G1 X117.781 Y113.819 E0.00171
G1 X129.633 Y125.672 E0.53182
G1 X129.977 Y125.880 E0.01274
G1 X129.826 Y125.325 E0.01825
G1 X117.839 Y113.338 E0.53782
G1 X117.898 Y112.857 E0.01537
G1 X129.624 Y124.584 E0.52615
G1 X129.423 Y123.843 E0.02436
G1 X117.957 Y112.376 E0.51448
G1 X118.016 Y111.896 E0.01537
G1 X129.222 Y123.102 E0.50280
G1 X129.020 Y122.361 E0.02436
G1 X118.074 Y111.415 E0.49113
G1 X118.133 Y110.934 E0.01537
G1 X128.819 Y121.620 E0.47945
G1 X128.691 Y121.150 E0.01543
G1 X128.919 Y121.181 E0.00730
G1 X118.192 Y110.453 E0.48133
G1 X118.251 Y109.972 E0.01537
G1 X129.542 Y121.263 E0.50662
G1 X130.164 Y121.346 E0.01992
G1 X121.846 Y113.028 E0.37321
G1 X122.171 Y112.814 E0.01236
G1 X130.787 Y121.429 E0.38656
G1 X131.409 Y121.512 E0.01992
G1 X122.496 Y112.599 E0.39990
G1 X122.822 Y112.385 E0.01236
G1 X132.032 Y121.595 E0.41324
G1 X132.654 Y121.677 E0.01992
G1 X123.147 Y112.170 E0.42658
G1 X123.472 Y111.955 E0.01236
G1 X133.276 Y121.760 E0.43993
G1 X133.899 Y121.843 E0.01992
G1 X123.797 Y111.741 E0.45327
G1 X124.122 Y111.526 E0.01236
G1 X124.790 Y112.194 E0.02997
G1 E-0.80000 F2100.00000
G1 Z0.800 F10800.000
G1 X132.359 Y119.224
G1 Z0.200
G1 E0.80000 F2100.00000
G1 F1200.000
G1 X135.144 Y122.009 E0.12494
G1 X134.521 Y121.926 E0.01992
G1 X125.417 Y112.821 E0.40851
