; generated by PrusaSlicer 2.2.0+win64 on 2020-08-07 at 15:41:49 UTC

; 

; external perimeters extrusion width = 0.60mm
; perimeters extrusion width = 0.43mm
; infill extrusion width = 0.45mm
; solid infill extrusion width = 0.70mm
; top infill extrusion width = 0.43mm
; first layer extrusion width = 0.42mm

M73 P0 R42
M201 X9000 Y9000 Z500 E10000 ; sets maximum accelerations, mm/sec^2
M203 X500 Y500 Z12 E120 ; sets maximum feedrates, mm/sec
M204 P2000 R1500 T2000 ; sets acceleration (P, T) and retract acceleration (R), mm/sec^2
M205 X10.00 Y10.00 Z0.20 E2.50 ; sets the jerk limits, mm/sec
M205 S0 T0 ; sets the minimum extruding and travel feed rate, mm/sec
M107
M862.3 P "MK2S" ; printer model check
M862.1 P0.4 ; nozzle diameter check
M115 U3.2.3 ; tell printer latest fw version
G90 ; use absolute coordinates
M83 ; extruder relative mode
M204 S2000 T1500 ; MK2 firmware only supports the old M204 format
M104 S215 ; set extruder temp
M140 S60 ; set bed temp
M190 S60 ; wait for bed temp
M109 S215 ; wait for extruder temp
G28 W ; home all without mesh bed level
G80 ; mesh bed leveling
G1 Y-3.0 F1000.0 ; go outside print area
G92 E0.0
G1 X60.0 E9.0  F1000.0 ; intro line
M73 P0 R42
G1 X100.0 E12.5 F1000.0 ; intro line
G92 E0.0
G21 ; set units to millimeters
G90 ; use absolute coordinates
M83 ; use relative distances for extrusion
M900 K30 ; Filament gcode
;BEFORE_LAYER_CHANGE
G92 E0.0
;0.2


G1 E-0.80000 F2100.00000
G1 Z0.600 F10800.000
;AFTER_LAYER_CHANGE
;0.2
G1 X43.889 Y65.374
G1 Z0.200
G1 E0.80000 F2100.00000
M204 S1000
G1 F1200.000
G1 X44.553 Y64.948 E0.02473
G1 X45.461 Y64.682 E0.02967
G1 X45.982 Y64.623 E0.01645
G1 X199.348 Y64.623 E4.80867
G1 X204.426 Y64.659 E0.15923
G1 X205.680 Y65.063 E0.04132
G1 X206.080 Y65.347 E0.01538
G1 X206.649 Y65.913 E0.02515
G1 X206.940 Y66.317 E0.01562
G1 X215.975 Y82.155 E0.57171
G1 X216.176 Y82.644 E0.01657
G1 X216.396 Y83.619 E0.03136
G1 X216.366 Y134.316 E1.58956
G1 X215.977 Y135.540 E0.04027
G1 X215.701 Y135.941 E0.01526
G1 X215.193 Y136.460 E0.02276
G1 X206.085 Y144.649 E0.38404
G1 X205.446 Y145.052 E0.02367
G1 X204.539 Y145.318 E0.02964
G1 X204.018 Y145.377 E0.01645
G1 X45.854 Y145.373 E4.95912
G1 X44.676 Y145.100 E0.03792
G1 X43.957 Y144.685 E0.02602
G1 X34.855 Y136.505 E0.38372
G1 X34.248 Y135.879 E0.02735
G1 X33.923 Y135.334 E0.01989
G1 X33.657 Y134.430 E0.02955
G1 X33.597 Y133.912 E0.01633
G1 X33.624 Y83.443 E1.58243
G1 X34.027 Y82.152 E0.04239
G1 X43.074 Y66.293 E0.57249
G1 X43.849 Y65.419 E0.03662
G1 E-0.80000 F2100.00000
G1 Z0.800 F10800.000
G1 X164.739 Y117.901
G1 Z0.200
G1 E0.80000 F2100.00000
G1 F1200.000
G1 X165.366 Y116.727 E0.04174
G1 X166.211 Y115.698 E0.04174
G1 X167.240 Y114.854 E0.04174
G1 X168.414 Y114.226 E0.04174
G1 X169.688 Y113.840 E0.04174
G1 X171.013 Y113.709 E0.04174
G1 X172.338 Y113.840 E0.04174
G1 X173.612 Y114.226 E0.04174
G1 X174.786 Y114.854 E0.04174
G1 X175.815 Y115.698 E0.04174
G1 X176.659 Y116.727 E0.04174
G1 X177.287 Y117.901 E0.04174
G1 X177.673 Y119.175 E0.04174
G1 X177.804 Y120.500 E0.04174
G1 X177.673 Y121.825 E0.04174
G1 X177.287 Y123.099 E0.04174
G1 X176.659 Y124.273 E0.04174
G1 X175.815 Y125.302 E0.04174
G1 X174.786 Y126.146 E0.04174
G1 X173.612 Y126.774 E0.04174
G1 X172.338 Y127.160 E0.04174
G1 X171.013 Y127.291 E0.04174
G1 X169.688 Y127.160 E0.04174
G1 X168.414 Y126.774 E0.04174
G1 X167.240 Y126.146 E0.04174
G1 X166.211 Y125.302 E0.04174
G1 X165.366 Y124.273 E0.04174
G1 X164.739 Y123.099 E0.04174
G1 X164.352 Y121.825 E0.04174
G1 X164.222 Y120.500 E0.04174
G1 X164.352 Y119.175 E0.04174
G1 X164.721 Y117.959 E0.03986
G1 X165.082 Y118.068 F10800.000
G1 F1200.000
G1 X165.681 Y116.938 E0.04011
G1 X166.479 Y115.966 E0.03941
G1 X167.450 Y115.169 E0.03941
G1 X168.559 Y114.576 E0.03941
G1 X169.762 Y114.211 E0.03941
G1 X171.013 Y114.088 E0.03941
G1 X172.264 Y114.211 E0.03941
G1 X173.467 Y114.576 E0.03941
G1 X174.575 Y115.169 E0.03941
G1 X175.547 Y115.966 E0.03941
G1 X176.344 Y116.938 E0.03941
G1 X176.937 Y118.046 E0.03941
G1 X177.302 Y119.249 E0.03941
G1 X177.425 Y120.500 E0.03941
G1 X177.302 Y121.751 E0.03941
G1 X176.937 Y122.954 E0.03941
G1 X176.344 Y124.062 E0.03941
G1 X175.547 Y125.034 E0.03941
G1 X174.575 Y125.831 E0.03941
G1 X173.467 Y126.424 E0.03941
G1 X172.264 Y126.789 E0.03941
G1 X171.013 Y126.912 E0.03941
G1 X169.762 Y126.789 E0.03941
G1 X168.559 Y126.424 E0.03941
G1 X167.450 Y125.831 E0.03941
G1 X166.479 Y125.034 E0.03941
G1 X165.681 Y124.062 E0.03941
G1 X165.089 Y122.954 E0.03941
G1 X164.724 Y121.751 E0.03941
G1 X164.601 Y120.500 E0.03941
G1 X164.724 Y119.249 E0.03941
G1 X165.065 Y118.126 E0.03681
G1 X164.838 Y117.751 F10800.000
G1 E-0.80000 F2100.00000
G1 Z0.800 F10800.000
G1 X202.298 Y128.708
G1 Z0.200
G1 E0.80000 F2100.00000
G1 F1200.000
G1 X202.485 Y128.090 E0.02023
G1 X202.789 Y127.521 E0.02023
G1 X203.198 Y127.023 E0.02023
G1 X203.697 Y126.613 E0.02023
G1 X204.266 Y126.309 E0.02023
G1 X204.883 Y126.122 E0.02023
G1 X205.468 Y126.064 E0.01842
G1 X206.163 Y126.120 E0.02184
G1 X206.785 Y126.309 E0.02039
G1 X207.354 Y126.613 E0.02023
G1 X207.852 Y127.023 E0.02023
G1 X208.262 Y127.521 E0.02023
G1 X208.566 Y128.090 E0.02023
G1 X208.753 Y128.708 E0.02023
G1 X208.816 Y129.350 E0.02023
G1 X208.753 Y129.992 E0.02023
G1 X208.566 Y130.609 E0.02023
G1 X208.262 Y131.178 E0.02023
G1 X207.853 Y131.677 E0.02023
G1 X207.354 Y132.086 E0.02023
G1 X206.785 Y132.390 E0.02023
G1 X206.168 Y132.577 E0.02023
G1 X205.525 Y132.640 E0.02023
G1 X204.883 Y132.577 E0.02023
G1 X204.266 Y132.390 E0.02023
G1 X203.697 Y132.086 E0.02023
G1 X203.198 Y131.677 E0.02023
G1 X202.789 Y131.178 E0.02023
G1 X202.485 Y130.609 E0.02023
G1 X202.298 Y129.992 E0.02023
G1 X202.235 Y129.350 E0.02023
G1 X202.292 Y128.767 E0.01835
G1 X202.667 Y128.804 F10800.000
G1 F1200.000
G1 X202.835 Y128.235 E0.01860
G1 X203.104 Y127.732 E0.01790
G1 X203.466 Y127.290 E0.01790
G1 X203.908 Y126.928 E0.01790
G1 X204.411 Y126.659 E0.01790
G1 X204.957 Y126.494 E0.01790
G1 X205.472 Y126.443 E0.01620
G1 X206.092 Y126.493 E0.01951
G1 X206.640 Y126.659 E0.01796
G1 X207.143 Y126.928 E0.01790
G1 X207.585 Y127.290 E0.01790
G1 X207.947 Y127.732 E0.01790
G1 X208.216 Y128.235 E0.01790
G1 X208.382 Y128.781 E0.01790
G1 X208.437 Y129.350 E0.01790
G1 X208.382 Y129.918 E0.01790
G1 X208.216 Y130.464 E0.01790
G1 X207.947 Y130.967 E0.01790
G1 X207.585 Y131.409 E0.01790
G1 X207.143 Y131.771 E0.01790
G1 X206.640 Y132.040 E0.01790
G1 X206.094 Y132.206 E0.01790
G1 X205.525 Y132.262 E0.01790
G1 X204.957 Y132.206 E0.01790
G1 X204.411 Y132.040 E0.01790
G1 X203.908 Y131.771 E0.01790
G1 X203.466 Y131.409 E0.01790
G1 X203.104 Y130.967 E0.01790
G1 X202.835 Y130.464 E0.01790
G1 X202.669 Y129.918 E0.01790
G1 X202.614 Y129.350 E0.01790
G1 X202.661 Y128.864 E0.01530
G1 X202.365 Y128.542 F10800.000
G1 E-0.80000 F2100.00000
G1 Z0.800 F10800.000
G1 X139.791 Y129.350
G1 Z0.200
G1 E0.80000 F2100.00000
G1 F1200.000
G1 X139.728 Y129.992 E0.02023
G1 X139.540 Y130.609 E0.02023
G1 X139.236 Y131.178 E0.02023
G1 X138.827 Y131.677 E0.02023
G1 X138.328 Y132.086 E0.02023
G1 X137.759 Y132.390 E0.02023
G1 X137.142 Y132.577 E0.02023
G1 X136.500 Y132.640 E0.02023
G1 X135.858 Y132.577 E0.02023
G1 X135.241 Y132.390 E0.02023
G1 X134.672 Y132.086 E0.02023
G1 X134.173 Y131.677 E0.02023
G1 X133.764 Y131.178 E0.02023
G1 X133.460 Y130.609 E0.02023
G1 X133.272 Y129.992 E0.02023
G1 X133.209 Y129.350 E0.02023
G1 X133.272 Y128.708 E0.02023
G1 X133.460 Y128.090 E0.02023
G1 X133.764 Y127.521 E0.02023
G1 X134.173 Y127.023 E0.02023
G1 X134.672 Y126.613 E0.02023
G1 X135.241 Y126.309 E0.02023
G1 X135.858 Y126.122 E0.02023
G1 X136.443 Y126.064 E0.01842
G1 X137.137 Y126.120 E0.02184
G1 X137.759 Y126.309 E0.02039
G1 X138.328 Y126.613 E0.02023
G1 X138.827 Y127.023 E0.02023
G1 X139.236 Y127.521 E0.02023
G1 X139.540 Y128.090 E0.02023
G1 X139.728 Y128.708 E0.02023
G1 X139.785 Y129.290 E0.01835
G1 X139.410 Y129.327 F10800.000
G1 F1200.000
G1 X139.356 Y129.918 E0.01860
G1 X139.190 Y130.464 E0.01790
G1 X138.921 Y130.967 E0.01790
G1 X138.559 Y131.409 E0.01790
G1 X138.118 Y131.771 E0.01790
G1 X137.614 Y132.040 E0.01790
G1 X137.068 Y132.206 E0.01790
G1 X136.500 Y132.262 E0.01790
G1 X135.932 Y132.206 E0.01790
G1 X135.386 Y132.040 E0.01790
G1 X134.882 Y131.771 E0.01790
G1 X134.441 Y131.409 E0.01790
G1 X134.079 Y130.967 E0.01790
G1 X133.810 Y130.464 E0.01790
G1 X133.644 Y129.918 E0.01790
G1 X133.588 Y129.350 E0.01790
G1 X133.644 Y128.781 E0.01790
G1 X133.810 Y128.235 E0.01790
G1 X134.079 Y127.732 E0.01790
G1 X134.441 Y127.290 E0.01790
G1 X134.882 Y126.928 E0.01790
G1 X135.386 Y126.659 E0.01790
G1 X135.932 Y126.494 E0.01790
G1 X136.446 Y126.443 E0.01620
G1 X137.066 Y126.493 E0.01951
G1 X137.614 Y126.659 E0.01796
G1 X138.118 Y126.928 E0.01790
G1 X138.559 Y127.290 E0.01790
G1 X138.921 Y127.732 E0.01790
G1 X139.190 Y128.235 E0.01790
G1 X139.356 Y128.781 E0.01790
G1 X139.404 Y129.267 E0.01530
G1 X139.757 Y129.525 F10800.000
G1 E-0.80000 F2100.00000
G1 Z0.800 F10800.000
G1 X136.920 Y124.371
G1 Z0.200
G1 E0.80000 F2100.00000
G1 F1200.000
G1 X137.584 Y123.707 E0.02945
G1 X137.800 Y122.903 E0.02609
G1 X137.800 Y109.104 E0.43268
G1 X137.852 Y108.907 E0.00637
G1 X137.920 Y108.840 E0.00301
G1 X138.116 Y108.787 E0.00637
G1 X203.909 Y108.787 E2.06289
G1 X204.105 Y108.840 E0.00637
G1 X204.173 Y108.907 E0.00301
G1 X204.226 Y109.104 E0.00637
G1 X204.226 Y122.903 E0.43268
G1 X204.441 Y123.707 E0.02609
G1 X205.105 Y124.371 E0.02946
G1 X205.909 Y124.587 E0.02609
G1 X212.922 Y124.587 E0.21988
G1 X213.118 Y124.639 E0.00637
G1 X213.186 Y124.707 E0.00301
G1 X213.238 Y124.903 E0.00637
G1 X213.238 Y133.796 E0.27882
G1 X213.186 Y133.992 E0.00637
G1 X213.118 Y134.060 E0.00301
G1 X212.922 Y134.112 E0.00637
G1 X205.909 Y134.112 E0.21988
G1 X205.105 Y134.328 E0.02609
G1 X204.441 Y134.992 E0.02946
G1 X204.226 Y135.796 E0.02609
G1 X204.226 Y141.896 E0.19128
G1 X204.173 Y142.093 E0.00637
G1 X204.105 Y142.160 E0.00301
G1 X203.909 Y142.213 E0.00637
G1 X200.118 Y142.213 E0.11887
G1 X199.922 Y142.160 E0.00637
G1 X199.854 Y142.093 E0.00301
G1 X199.801 Y141.896 E0.00637
G1 X199.801 Y135.796 E0.19128
G1 X199.586 Y134.992 E0.02609
G1 X198.922 Y134.328 E0.02946
G1 X198.118 Y134.112 E0.02609
G1 X143.910 Y134.112 E1.69964
G1 X143.107 Y134.328 E0.02609
G1 X142.442 Y134.992 E0.02946
G1 X142.227 Y135.796 E0.02609
G1 X142.227 Y141.896 E0.19128
G1 X142.174 Y142.093 E0.00637
G1 X142.107 Y142.160 E0.00301
G1 X141.910 Y142.213 E0.00637
G1 X138.116 Y142.213 E0.11896
G1 X137.920 Y142.160 E0.00637
G1 X137.852 Y142.093 E0.00301
G1 X137.800 Y141.896 E0.00637
G1 X137.800 Y135.796 E0.19128
G1 X137.584 Y134.992 E0.02609
G1 X136.920 Y134.328 E0.02945
G1 X136.116 Y134.112 E0.02609
G1 X129.104 Y134.112 E0.21988
G1 X128.907 Y134.060 E0.00637
G1 X128.840 Y133.992 E0.00301
G1 X128.787 Y133.796 E0.00637
G1 X128.787 Y124.903 E0.27882
G1 X128.840 Y124.707 E0.00637
G1 X128.907 Y124.639 E0.00301
G1 X129.104 Y124.587 E0.00637
G1 X136.116 Y124.587 E0.21988
G1 X136.862 Y124.387 E0.02421
G1 X136.725 Y124.033 F10800.000
G1 F1200.000
G1 X137.246 Y123.512 E0.02312
G1 X137.423 Y122.854 E0.02137
G1 X137.423 Y109.054 E0.43268
G1 X137.514 Y108.712 E0.01109
G1 X137.725 Y108.502 E0.00934
G1 X138.067 Y108.410 E0.01109
G1 X203.959 Y108.410 E2.06600
G1 X204.301 Y108.502 E0.01109
G1 X204.511 Y108.712 E0.00934
G1 X204.603 Y109.054 E0.01109
G1 X204.603 Y122.854 E0.43268
G1 X204.779 Y123.512 E0.02137
G1 X205.301 Y124.033 E0.02312
G1 X205.959 Y124.210 E0.02137
G1 X212.972 Y124.210 E0.21988
G1 X213.313 Y124.301 E0.01109
G1 X213.524 Y124.512 E0.00934
G1 X213.615 Y124.854 E0.01109
G1 X213.615 Y133.845 E0.28193
G1 X213.524 Y134.187 E0.01109
G1 X213.313 Y134.398 E0.00934
G1 X212.972 Y134.489 E0.01109
G1 X205.959 Y134.489 E0.21988
G1 X205.301 Y134.666 E0.02137
G1 X204.779 Y135.187 E0.02312
G1 X204.603 Y135.845 E0.02137
G1 X204.603 Y141.946 E0.19128
G1 X204.511 Y142.288 E0.01109
G1 X204.301 Y142.498 E0.00934
G1 X203.959 Y142.590 E0.01109
G1 X200.068 Y142.590 E0.12198
G1 X199.727 Y142.498 E0.01109
G1 X199.516 Y142.288 E0.00934
G1 X199.424 Y141.946 E0.01109
G1 X199.424 Y135.845 E0.19128
G1 X199.248 Y135.187 E0.02137
G1 X198.727 Y134.666 E0.02312
G1 X198.068 Y134.489 E0.02137
G1 X143.960 Y134.489 E1.69653
M73 P2 R41
G1 X143.302 Y134.666 E0.02137
G1 X142.780 Y135.187 E0.02312
G1 X142.604 Y135.845 E0.02137
G1 X142.604 Y141.946 E0.19128
G1 X142.512 Y142.288 E0.01109
G1 X142.302 Y142.498 E0.00934
G1 X141.960 Y142.590 E0.01109
G1 X138.067 Y142.590 E0.12207
G1 X137.725 Y142.498 E0.01109
G1 X137.514 Y142.288 E0.00934
G1 X137.423 Y141.946 E0.01109
G1 X137.423 Y135.845 E0.19128
G1 X137.246 Y135.187 E0.02137
G1 X136.725 Y134.666 E0.02312
G1 X136.067 Y134.489 E0.02137
G1 X129.054 Y134.489 E0.21988
G1 X128.712 Y134.398 E0.01109
G1 X128.502 Y134.187 E0.00934
G1 X128.410 Y133.845 E0.01109
G1 X128.410 Y124.854 E0.28193
G1 X128.502 Y124.512 E0.01109
G1 X128.712 Y124.301 E0.00934
G1 X129.054 Y124.210 E0.01109
G1 X136.067 Y124.210 E0.21988
G1 X136.667 Y124.049 E0.01949
G1 X137.073 Y124.231 F10800.000
G1 E-0.80000 F2100.00000
G1 Z0.800 F10800.000
G1 X129.765 Y133.999
G1 Z0.200
G1 E0.80000 F2100.00000
G1 F1200.000
G1 X129.070 Y133.304 E0.03098
G1 X129.070 Y132.768 E0.01688
G1 X130.131 Y133.830 E0.04729
G1 X130.667 Y133.830 E0.01688
G1 X129.070 Y132.232 E0.07116
G1 X129.070 Y131.696 E0.01688
G1 X131.203 Y133.830 E0.09503
G1 X131.739 Y133.830 E0.01688
G1 X129.070 Y131.161 E0.11890
G1 X129.070 Y130.625 E0.01688
G1 X132.275 Y133.830 E0.14276
G1 X132.810 Y133.830 E0.01688
G1 X129.070 Y130.089 E0.16663
G1 X129.070 Y129.553 E0.01688
G1 X133.346 Y133.830 E0.19050
G1 X133.882 Y133.830 E0.01688
G1 X129.070 Y129.018 E0.21437
G1 X129.070 Y128.482 E0.01688
G1 X134.418 Y133.830 E0.23824
G1 X134.953 Y133.830 E0.01688
G1 X129.070 Y127.946 E0.26210
G1 X129.070 Y127.410 E0.01688
G1 X135.489 Y133.830 E0.28597
G1 X136.025 Y133.830 E0.01688
G1 X129.070 Y126.875 E0.30984
G1 X129.070 Y126.339 E0.01688
G1 X133.087 Y130.356 E0.17898
G1 X132.994 Y130.047 E0.01018
G1 X132.959 Y129.692 E0.01125
G1 X129.070 Y125.803 E0.17324
G1 X129.070 Y125.267 E0.01688
G1 X132.945 Y129.143 E0.17265
G1 X132.993 Y128.655 E0.01544
G1 X129.208 Y124.870 E0.16863
G1 X129.744 Y124.870 E0.01688
G1 X133.118 Y128.243 E0.15030
G1 X133.197 Y127.981 E0.00862
G1 X133.265 Y127.855 E0.00452
G1 X130.280 Y124.870 E0.13299
G1 X130.815 Y124.870 E0.01688
G1 X133.451 Y127.506 E0.11743
G1 X133.527 Y127.363 E0.00508
G1 X133.671 Y127.189 E0.00710
G1 X131.351 Y124.870 E0.10333
G1 X131.887 Y124.870 E0.01688
G1 X133.912 Y126.895 E0.09022
G1 X133.972 Y126.822 E0.00298
G1 X134.193 Y126.640 E0.00901
G1 X132.423 Y124.870 E0.07888
G1 X132.958 Y124.870 E0.01688
G1 X134.487 Y126.399 E0.06812
G1 X134.832 Y126.207 E0.01241
G1 X133.494 Y124.870 E0.05959
G1 X134.030 Y124.870 E0.01688
G1 X135.189 Y126.029 E0.05166
G1 X135.601 Y125.904 E0.01353
G1 X134.566 Y124.870 E0.04610
G1 X135.101 Y124.870 E0.01688
G1 X136.051 Y125.819 E0.04228
G1 X136.440 Y125.780 E0.01233
G1 X136.557 Y125.790 E0.00371
G1 X135.637 Y124.870 E0.04100
G1 X136.169 Y124.866 E0.01675
G1 X137.140 Y125.837 E0.04328
G1 X137.906 Y126.067 E0.02519
G1 X136.591 Y124.752 E0.05857
G1 X137.014 Y124.639 E0.01378
G1 X146.204 Y133.830 E0.40943
G1 X146.740 Y133.830 E0.01688
G1 X137.301 Y124.390 E0.42050
G1 X137.569 Y124.123 E0.01193
G1 X147.276 Y133.830 E0.43244
G1 X147.812 Y133.830 E0.01688
G1 X137.837 Y123.855 E0.44437
G1 X137.951 Y123.433 E0.01377
G1 X148.348 Y133.830 E0.46317
G1 X148.883 Y133.830 E0.01688
G1 X138.064 Y123.010 E0.48199
G1 X138.083 Y122.941 E0.00227
G1 X138.083 Y122.493 E0.01410
G1 X149.419 Y133.830 E0.50503
G1 X149.955 Y133.830 E0.01688
G1 X138.083 Y121.957 E0.52890
G1 X138.083 Y121.422 E0.01688
G1 X150.491 Y133.830 E0.55276
G1 X151.026 Y133.830 E0.01688
G1 X138.083 Y120.886 E0.57663
G1 X138.083 Y120.350 E0.01688
G1 X151.562 Y133.830 E0.60050
G1 X152.098 Y133.830 E0.01688
G1 X138.083 Y119.814 E0.62437
G1 X138.083 Y119.279 E0.01688
G1 X152.634 Y133.830 E0.64824
G1 X153.169 Y133.830 E0.01688
G1 X138.083 Y118.743 E0.67210
G1 X138.083 Y118.207 E0.01688
G1 X153.705 Y133.830 E0.69597
G1 X154.241 Y133.830 E0.01688
G1 X138.083 Y117.671 E0.71984
G1 X138.083 Y117.135 E0.01688
