; generated by PrusaSlicer 2.2.0+win64 on 2020-08-07 at 15:43:07 UTC

; 

; external perimeters extrusion width = 0.45mm
; perimeters extrusion width = 0.45mm
; infill extrusion width = 0.45mm
; solid infill extrusion width = 0.45mm
; top infill extrusion width = 0.40mm
; first layer extrusion width = 0.42mm

M73 P0 R140
M201 X9000 Y9000 Z500 E10000 ; sets maximum accelerations, mm/sec^2
M203 X500 Y500 Z12 E120 ; sets maximum feedrates, mm/sec
M204 P2000 R1500 T2000 ; sets acceleration (P, T) and retract acceleration (R), mm/sec^2
M205 X10.00 Y10.00 Z0.20 E2.50 ; sets the jerk limits, mm/sec
M205 S0 T0 ; sets the minimum extruding and travel feed rate, mm/sec
M107
M862.3 P "MK2S" ; printer model check
M862.1 P0.4 ; nozzle diameter check
M115 U3.2.3 ; tell printer latest fw version
G90 ; use absolute coordinates
M83 ; extruder relative mode
M204 S2000 T1500 ; MK2 firmware only supports the old M204 format
M104 S215 ; set extruder temp
M140 S60 ; set bed temp
M190 S60 ; wait for bed temp
M109 S215 ; wait for extruder temp
G28 W ; home all without mesh bed level
G80 ; mesh bed leveling
G1 Y-3.0 F1000.0 ; go outside print area
G92 E0.0
G1 X60.0 E9.0  F1000.0 ; intro line
M73 P0 R139
G1 X100.0 E12.5 F1000.0 ; intro line
G92 E0.0
G21 ; set units to millimeters
G90 ; use absolute coordinates
M83 ; use relative distances for extrusion
M900 K30 ; Filament gcode
;BEFORE_LAYER_CHANGE
G92 E0.0
;0.2


G1 E-0.80000 F2100.00000
G1 Z0.600 F10800.000
;AFTER_LAYER_CHANGE
;0.2
G1 X85.998 Y64.941
G1 Z0.200
G1 E0.80000 F2100.00000
M204 S1000
G1 F1200.000
G1 X86.746 Y66.558 E0.05588
G1 X91.741 Y64.441 E0.17009
G1 X91.782 Y66.694 E0.07065
G1 X99.537 Y64.302 E0.25445
G1 X99.626 Y64.463 E0.00578
G1 X94.273 Y69.036 E0.22073
G1 X98.449 Y71.611 E0.15380
G1 X93.236 Y72.342 E0.16503
G1 X97.633 Y76.165 E0.18268
G1 X97.564 Y76.318 E0.00528
G1 X90.702 Y75.405 E0.21705
G1 X92.061 Y80.406 E0.16250
G1 X87.917 Y77.896 E0.15191
G1 X86.997 Y84.352 E0.20445
G1 X86.836 Y84.381 E0.00511
G1 X82.929 Y77.291 E0.25383
G1 X78.930 Y80.548 E0.16173
G1 X79.084 Y75.600 E0.15522
G1 X71.986 Y77.537 E0.23071
G1 X71.903 Y77.370 E0.00584
G1 X76.976 Y73.489 E0.20027
G1 X73.482 Y71.945 E0.11976
G1 X77.686 Y70.614 E0.13826
G1 X71.849 Y67.609 E0.20587
G1 X71.892 Y67.435 E0.00561
G1 X79.150 Y67.505 E0.22759
G1 X79.703 Y62.977 E0.14305
G1 X83.394 Y66.659 E0.16348
G1 X85.948 Y64.974 E0.09594
G1 E-0.80000 F2100.00000
G1 Z0.800 F10800.000
G1 X87.050 Y85.551
G1 Z0.200
G1 E0.80000 F2100.00000
G1 F1200.000
G1 X82.817 Y77.868 E0.27503
G1 X78.527 Y81.362 E0.17347
G1 X78.692 Y76.098 E0.16514
G1 X70.227 Y78.408 E0.27510
G1 X70.144 Y78.241 E0.00584
G1 X76.241 Y73.577 E0.24069
G1 X72.417 Y71.887 E0.13108
G1 X76.701 Y70.531 E0.14086
G1 X70.263 Y67.216 E0.22704
G1 X70.306 Y67.043 E0.00561
G1 X78.817 Y67.125 E0.26687
G1 X79.423 Y62.164 E0.15671
G1 X83.443 Y66.175 E0.17806
G1 X86.156 Y64.384 E0.10193
G1 X86.935 Y66.069 E0.05819
G1 X92.108 Y63.876 E0.17615
G1 X92.150 Y66.186 E0.07244
G1 X101.168 Y63.403 E0.29592
G1 X101.257 Y63.565 E0.00578
G1 X94.912 Y68.987 E0.26169
G1 X99.537 Y71.839 E0.17038
G1 X94.108 Y72.600 E0.17188
G1 X98.828 Y76.704 E0.19610
G1 X98.759 Y76.857 E0.00528
G1 X91.214 Y75.854 E0.23863
G1 X92.672 Y81.217 E0.17428
G1 X88.210 Y78.515 E0.16358
G1 X87.211 Y85.522 E0.22193
G1 X87.109 Y85.540 E0.00323
G1 X86.939 Y85.167 F10800.000
G1 E-0.80000 F2100.00000
G1 Z0.800 F10800.000
G1 X69.998 Y78.418
G1 Z0.200
G1 E0.80000 F2100.00000
G1 F1200.000
G1 X69.859 Y78.486 E0.00561
G1 X69.721 Y78.554 E0.00505
G1 X69.583 Y78.623 E0.00449
G1 X69.445 Y78.691 E0.00394
G1 X69.307 Y78.759 E0.00338
G1 X69.169 Y78.828 E0.00282
G1 X69.031 Y78.896 E0.00227
G1 X70.734 Y78.053 F10800.000
G1 F1200.000
G1 X70.864 Y77.989 E0.00115
G1 X70.994 Y77.924 E0.00169
G1 X71.124 Y77.860 E0.00223
G1 X71.255 Y77.795 E0.00277
G1 X71.385 Y77.731 E0.00332
G1 X71.515 Y77.666 E0.00386
G1 X71.645 Y77.602 E0.00440
G1 X71.776 Y77.537 E0.00494
G1 X72.493 Y77.182 F10800.000
G1 F1200.000
G1 X72.623 Y77.118 E0.00115
G1 X72.753 Y77.053 E0.00169
G1 X72.883 Y76.989 E0.00223
G1 X73.013 Y76.924 E0.00277
G1 X73.144 Y76.860 E0.00332
G1 X73.274 Y76.795 E0.00386
G1 X73.404 Y76.731 E0.00440
G1 X73.534 Y76.666 E0.00494
G1 X74.400 Y76.761 F10800.000
G1 F1200.000
G1 X73.865 Y76.225 E0.02403
G1 X74.171 Y75.992 E0.01221
G1 X74.686 Y76.507 E0.02313
G1 X75.110 Y76.391 E0.01394
G1 X74.476 Y75.758 E0.02843
G1 X74.782 Y75.524 E0.01221
G1 X75.534 Y76.276 E0.03374
G1 X75.958 Y76.160 E0.01394
G1 X75.088 Y75.290 E0.03904
G1 X75.393 Y75.056 E0.01221
G1 X76.382 Y76.044 E0.04435
G1 X76.806 Y75.929 E0.01394
G1 X75.699 Y74.822 E0.04965
G1 X76.005 Y74.588 E0.01221
G1 X77.230 Y75.813 E0.05496
G1 X77.654 Y75.697 E0.01394
G1 X76.311 Y74.354 E0.06026
G1 X76.616 Y74.120 E0.01221
G1 X78.078 Y75.582 E0.06556
G1 X78.501 Y75.466 E0.01394
G1 X76.922 Y73.887 E0.07087
G1 X77.228 Y73.653 E0.01221
G1 X79.064 Y75.488 E0.08237
G1 X76.912 Y73.337 F10800.000
G1 F1200.000
G1 X75.256 Y71.681 E0.07432
G1 X74.846 Y71.810 E0.01364
G1 X75.613 Y72.577 E0.03442
G1 X74.646 Y72.150 E0.03353
G1 X74.301 Y71.805 E0.01550
G1 X72.750 Y67.557 F10800.000
G1 F1200.000
G1 X73.159 Y67.966 E0.01835
G1 X74.272 Y68.538 E0.03969
G1 X73.467 Y67.733 E0.03612
G1 X74.012 Y67.738 E0.01729
G1 X75.384 Y69.111 E0.06158
G1 X76.496 Y69.684 E0.03969
G1 X74.556 Y67.744 E0.08704
G1 X75.101 Y67.749 E0.01729
G1 X87.334 Y79.982 E0.54886
G1 X87.401 Y79.509 E0.01514
G1 X75.646 Y67.754 E0.52744
G1 X76.191 Y67.760 E0.01729
G1 X87.469 Y79.037 E0.50601
G1 X87.536 Y78.565 E0.01514
G1 X76.736 Y67.765 E0.48458
G1 X77.281 Y67.770 E0.01729
G1 X87.603 Y78.093 E0.46316
G1 X87.671 Y77.620 E0.01514
G1 X77.826 Y67.775 E0.44173
G1 X78.371 Y67.781 E0.01729
G1 X88.523 Y77.933 E0.45550
G1 X89.891 Y78.761 E0.05076
G1 X78.916 Y67.786 E0.49245
G1 X79.400 Y67.791 E0.01537
G1 X79.407 Y67.737 E0.00171
G1 X91.259 Y79.590 E0.53182
G1 X91.603 Y79.798 E0.01274
G1 X91.452 Y79.243 E0.01825
G1 X79.465 Y67.256 E0.53782
G1 X79.524 Y66.776 E0.01537
G1 X91.250 Y78.502 E0.52615
G1 X91.049 Y77.761 E0.02436
G1 X79.583 Y66.295 E0.51448
G1 X79.642 Y65.814 E0.01537
G1 X90.848 Y77.020 E0.50280
G1 X90.646 Y76.279 E0.02436
G1 X79.700 Y65.333 E0.49113
G1 X79.759 Y64.852 E0.01537
G1 X90.445 Y75.538 E0.47945
G1 X90.317 Y75.069 E0.01543
G1 X90.545 Y75.099 E0.00730
G1 X79.818 Y64.371 E0.48133
G1 X79.877 Y63.891 E0.01537
G1 X91.168 Y75.182 E0.50662
G1 X91.790 Y75.265 E0.01992
G1 X83.472 Y66.947 E0.37321
G1 X83.797 Y66.732 E0.01236
G1 X92.413 Y75.347 E0.38656
G1 X93.035 Y75.430 E0.01992
G1 X84.122 Y66.518 E0.39990
G1 X84.448 Y66.303 E0.01236
G1 X93.658 Y75.513 E0.41324
G1 X94.280 Y75.596 E0.01992
G1 X84.773 Y66.088 E0.42658
G1 X85.098 Y65.874 E0.01236
G1 X94.902 Y75.679 E0.43993
G1 X95.525 Y75.761 E0.01992
G1 X85.423 Y65.659 E0.45327
G1 X85.748 Y65.445 E0.01236
G1 X86.416 Y66.113 E0.02997
G1 E-0.80000 F2100.00000
G1 Z0.800 F10800.000
G1 X93.985 Y73.142
G1 Z0.200
G1 E0.80000 F2100.00000
G1 F1200.000
G1 X96.770 Y75.927 E0.12494
G1 X96.147 Y75.844 E0.01992
G1 X87.043 Y66.740 E0.40851
G1 X87.422 Y66.579 E0.01306
G1 X92.940 Y72.098 E0.24761
G1 X93.413 Y72.031 E0.01516
G1 X87.801 Y66.418 E0.25184
G1 X88.180 Y66.258 E0.01306
G1 X93.887 Y71.965 E0.25607
G1 X94.360 Y71.898 E0.01516
G1 X88.559 Y66.097 E0.26029
G1 X88.938 Y65.937 E0.01306
G1 X94.833 Y71.832 E0.26452
G1 X95.306 Y71.766 E0.01516
G1 X89.317 Y65.776 E0.26875
G1 X89.696 Y65.615 E0.01306
G1 X95.930 Y71.850 E0.27972
G1 X97.350 Y71.650 F10800.000
G1 F1200.000
G1 X96.344 Y70.645 E0.04510
G1 X94.937 Y69.777 E0.05246
G1 X96.726 Y71.567 E0.08028
G1 X96.253 Y71.633 E0.01516
G1 X90.075 Y65.455 E0.27721
G1 X90.454 Y65.294 E0.01306
G1 X91.493 Y66.333 E0.04662
G1 X91.483 Y65.784 E0.01744
G1 X90.833 Y65.134 E0.02917
G1 X91.212 Y64.973 E0.01306
G1 X91.646 Y65.407 E0.01947
G1 X91.927 Y66.768 F10800.000
G1 F1200.000
G1 X94.031 Y68.871 E0.09437
G1 X94.322 Y68.623 E0.01214
G1 X92.476 Y66.776 E0.08284
G1 X92.888 Y66.649 E0.01369
G1 X94.613 Y68.374 E0.07739
G1 X94.904 Y68.125 E0.01214
G1 X93.300 Y66.522 E0.07195
G1 X93.713 Y66.395 E0.01369
G1 X95.195 Y67.877 E0.06650
G1 X95.486 Y67.628 E0.01214
G1 X94.125 Y66.267 E0.06105
G1 X94.537 Y66.140 E0.01369
G1 X95.777 Y67.380 E0.05561
G1 X96.068 Y67.131 E0.01214
G1 X94.950 Y66.013 E0.05016
G1 X95.362 Y65.886 E0.01369
G1 X96.359 Y66.882 E0.04472
G1 X96.650 Y66.634 E0.01214
G1 X95.774 Y65.758 E0.03927
G1 X96.187 Y65.631 E0.01369
G1 X96.941 Y66.385 E0.03382
G1 X97.232 Y66.136 E0.01214
G1 X96.599 Y65.504 E0.02838
G1 X97.012 Y65.377 E0.01369
G1 X97.523 Y65.888 E0.02293
G1 X97.814 Y65.639 E0.01214
G1 X97.424 Y65.249 E0.01749
G1 X97.836 Y65.122 E0.01369
G1 X98.105 Y65.391 E0.01204
G1 X98.396 Y65.142 E0.01214
G1 X98.249 Y64.995 E0.00659
G1 X98.661 Y64.868 E0.01369
G1 X98.807 Y65.014 E0.00655
G1 E-0.80000 F2100.00000
G1 Z0.800 F10800.000
G1 X85.749 Y82.174
G1 Z0.200
G1 E0.80000 F2100.00000
G1 F1200.000
G1 X86.863 Y83.288 E0.04995
G1 X86.930 Y82.815 E0.01514
G1 X85.519 Y81.404 E0.06332
G1 X84.856 Y80.202 E0.04354
G1 X86.997 Y82.343 E0.09606
G1 X87.065 Y81.871 E0.01514
G1 X84.194 Y79.000 E0.12879
G1 X83.532 Y77.798 E0.04354
G1 X87.132 Y81.398 E0.16153
G1 X87.199 Y80.926 E0.01514
G1 X77.305 Y71.032 E0.44395
G1 X77.715 Y70.902 E0.01364
G1 X87.417 Y80.604 E0.43532
G1 E-0.80000 F2100.00000
G1 Z0.800 F10800.000
G1 X82.901 Y77.168
G1 Z0.200
G1 E0.80000 F2100.00000
G1 F1200.000
G1 X76.895 Y71.162 E0.26949
G1 X76.485 Y71.291 E0.01364
G1 X82.483 Y77.289 E0.26913
G1 X82.186 Y77.532 E0.01217
G1 X76.075 Y71.421 E0.27417
G1 X75.666 Y71.551 E0.01364
G1 X81.888 Y77.774 E0.27922
G1 X81.591 Y78.016 E0.01217
G1 X79.362 Y75.786 E0.10003
G1 X79.345 Y76.310 E0.01661
G1 X81.294 Y78.258 E0.08742
G1 X80.996 Y78.500 E0.01217
G1 X79.329 Y76.833 E0.07481
G1 X79.313 Y77.356 E0.01661
G1 X80.699 Y78.743 E0.06220
G1 X80.401 Y78.985 E0.01217
G1 X79.296 Y77.880 E0.04959
G1 X79.280 Y78.403 E0.01661
G1 X80.104 Y79.227 E0.03698
G1 X79.807 Y79.469 E0.01217
G1 X79.263 Y78.926 E0.02437
G1 X79.247 Y79.449 E0.01661
G1 X79.630 Y79.832 E0.01717
G1 E-0.80000 F2100.00000
G1 Z0.800 F10800.000
G1 X86.836 Y115.124
G1 Z0.200
G1 E0.80000 F2100.00000
G1 F1200.000
G1 X82.929 Y108.033 E0.25383
G1 X78.930 Y111.290 E0.16173
G1 X79.084 Y106.342 E0.15522
G1 X71.986 Y108.279 E0.23071
G1 X71.903 Y108.112 E0.00584
G1 X76.976 Y104.231 E0.20027
G1 X73.482 Y102.688 E0.11976
G1 X77.686 Y101.357 E0.13826
G1 X71.849 Y98.351 E0.20587
G1 X71.892 Y98.177 E0.00561
G1 X79.150 Y98.248 E0.22759
G1 X79.703 Y93.719 E0.14305
G1 X83.394 Y97.402 E0.16348
G1 X85.998 Y95.683 E0.09782
G1 X86.746 Y97.300 E0.05588
G1 X91.741 Y95.184 E0.17009
G1 X91.782 Y97.437 E0.07065
G1 X99.537 Y95.044 E0.25445
G1 X99.626 Y95.205 E0.00578
G1 X94.273 Y99.778 E0.22073
G1 X98.449 Y102.353 E0.15380
G1 X93.236 Y103.084 E0.16503
G1 X97.633 Y106.907 E0.18268
G1 X97.564 Y107.060 E0.00528
G1 X90.702 Y106.147 E0.21705
G1 X92.061 Y111.149 E0.16250
G1 X87.917 Y108.639 E0.15191
G1 X86.997 Y115.094 E0.20445
M73 P0 R138
G1 X86.895 Y115.113 E0.00323
G1 X87.050 Y116.293 F10800.000
G1 F1200.000
G1 X82.817 Y108.611 E0.27503
G1 X78.527 Y112.105 E0.17347
G1 X78.692 Y106.840 E0.16514
G1 X70.227 Y109.150 E0.27510
G1 X70.144 Y108.983 E0.00584
G1 X76.241 Y104.319 E0.24069
G1 X72.417 Y102.629 E0.13108
G1 X76.701 Y101.273 E0.14086
G1 X70.263 Y97.959 E0.22704
G1 X70.306 Y97.785 E0.00561
G1 X78.817 Y97.867 E0.26687
G1 X79.423 Y92.906 E0.15671
G1 X83.443 Y96.918 E0.17806
G1 X86.156 Y95.127 E0.10193
G1 X86.935 Y96.811 E0.05819
G1 X92.108 Y94.619 E0.17615
G1 X92.150 Y96.929 E0.07244
G1 X101.168 Y94.146 E0.29592
G1 X101.257 Y94.307 E0.00578
G1 X94.912 Y99.729 E0.26169
G1 X99.537 Y102.581 E0.17038
G1 X94.108 Y103.342 E0.17188
G1 X98.828 Y107.446 E0.19610
G1 X98.759 Y107.600 E0.00528
G1 X91.214 Y106.596 E0.23863
G1 X92.672 Y111.960 E0.17428
G1 X88.210 Y109.257 E0.16358
G1 X87.211 Y116.264 E0.22193
G1 X87.109 Y116.283 E0.00323
G1 X86.939 Y115.909 F10800.000
G1 E-0.80000 F2100.00000
G1 Z0.800 F10800.000
G1 X69.998 Y109.160
G1 Z0.200
G1 E0.80000 F2100.00000
G1 F1200.000
G1 X69.859 Y109.228 E0.00561
G1 X69.721 Y109.297 E0.00505
G1 X69.583 Y109.365 E0.00449
G1 X69.445 Y109.433 E0.00394
G1 X69.307 Y109.502 E0.00338
G1 X69.169 Y109.570 E0.00282
G1 X69.031 Y109.638 E0.00227
G1 X70.734 Y108.795 F10800.000
G1 F1200.000
G1 X70.864 Y108.731 E0.00115
G1 X70.994 Y108.666 E0.00169
G1 X71.124 Y108.602 E0.00223
G1 X71.255 Y108.537 E0.00277
G1 X71.385 Y108.473 E0.00332
G1 X71.515 Y108.408 E0.00386
G1 X71.645 Y108.344 E0.00440
G1 X71.776 Y108.280 E0.00494
G1 X72.493 Y107.925 F10800.000
G1 F1200.000
G1 X72.623 Y107.860 E0.00115
G1 X72.753 Y107.796 E0.00169
G1 X72.883 Y107.731 E0.00223
G1 X73.013 Y107.667 E0.00277
G1 X73.144 Y107.602 E0.00332
G1 X73.274 Y107.538 E0.00386
G1 X73.404 Y107.473 E0.00440
G1 X73.534 Y107.409 E0.00494
G1 X74.400 Y107.503 F10800.000
G1 F1200.000
G1 X73.865 Y106.968 E0.02403
G1 X74.171 Y106.734 E0.01221
G1 X74.686 Y107.249 E0.02313
G1 X75.110 Y107.134 E0.01394
G1 X74.476 Y106.500 E0.02843
G1 X74.782 Y106.266 E0.01221
G1 X75.534 Y107.018 E0.03374
G1 X75.958 Y106.902 E0.01394
G1 X75.088 Y106.032 E0.03904
G1 X75.393 Y105.798 E0.01221
G1 X76.382 Y106.787 E0.04435
G1 X76.806 Y106.671 E0.01394
G1 X75.699 Y105.564 E0.04965
G1 X76.005 Y105.331 E0.01221
G1 X77.230 Y106.555 E0.05496
G1 X77.654 Y106.440 E0.01394
G1 X76.311 Y105.097 E0.06026
G1 X76.616 Y104.863 E0.01221
G1 X78.078 Y106.324 E0.06556
G1 X78.501 Y106.208 E0.01394
G1 X76.922 Y104.629 E0.07087
G1 X77.228 Y104.395 E0.01221
G1 X79.064 Y106.231 E0.08237
G1 X76.912 Y104.079 F10800.000
G1 F1200.000
G1 X75.256 Y102.423 E0.07432
G1 X74.846 Y102.553 E0.01364
G1 X75.613 Y103.320 E0.03442
G1 X74.646 Y102.893 E0.03353
G1 X74.301 Y102.547 E0.01550
G1 X72.750 Y98.299 F10800.000
G1 F1200.000
G1 X73.159 Y98.708 E0.01835
G1 X74.272 Y99.281 E0.03969
G1 X73.467 Y98.475 E0.03612
G1 X74.012 Y98.481 E0.01729
G1 X75.384 Y99.853 E0.06158
G1 X76.496 Y100.426 E0.03969
G1 X74.556 Y98.486 E0.08704
G1 X75.101 Y98.491 E0.01729
G1 X87.334 Y110.724 E0.54886
G1 X87.401 Y110.252 E0.01514
G1 X75.646 Y98.497 E0.52744
G1 X76.191 Y98.502 E0.01729
G1 X87.469 Y109.779 E0.50601
G1 X87.536 Y109.307 E0.01514
G1 X76.736 Y98.507 E0.48458
G1 X77.281 Y98.512 E0.01729
G1 X87.603 Y108.835 E0.46316
G1 X87.671 Y108.363 E0.01514
G1 X77.826 Y98.518 E0.44173
G1 X78.371 Y98.523 E0.01729
G1 X88.523 Y108.675 E0.45550
G1 X89.891 Y109.504 E0.05076
G1 X78.916 Y98.528 E0.49245
G1 X79.400 Y98.533 E0.01537
G1 X79.407 Y98.480 E0.00171
G1 X91.259 Y110.332 E0.53182
G1 X91.603 Y110.540 E0.01274
G1 X91.452 Y109.985 E0.01825
G1 X79.465 Y97.999 E0.53782
G1 X79.524 Y97.518 E0.01537
G1 X91.250 Y109.244 E0.52615
G1 X91.049 Y108.503 E0.02436
G1 X79.583 Y97.037 E0.51448
G1 X79.642 Y96.556 E0.01537
G1 X90.848 Y107.762 E0.50280
G1 X90.646 Y107.021 E0.02436
G1 X79.700 Y96.075 E0.49113
G1 X79.759 Y95.595 E0.01537
G1 X90.445 Y106.280 E0.47945
G1 X90.317 Y105.811 E0.01543
G1 X90.545 Y105.841 E0.00730
G1 X79.818 Y95.114 E0.48133
G1 X79.877 Y94.633 E0.01537
G1 X91.168 Y105.924 E0.50662
G1 X91.790 Y106.007 E0.01992
G1 X83.472 Y97.689 E0.37321
G1 X83.797 Y97.474 E0.01236
G1 X92.413 Y106.090 E0.38656
G1 X93.035 Y106.172 E0.01992
G1 X84.122 Y97.260 E0.39990
G1 X84.448 Y97.045 E0.01236
G1 X93.658 Y106.255 E0.41324
G1 X94.280 Y106.338 E0.01992
G1 X84.773 Y96.831 E0.42658
G1 X85.098 Y96.616 E0.01236
G1 X94.902 Y106.421 E0.43993
G1 X95.525 Y106.504 E0.01992
G1 X85.423 Y96.402 E0.45327
G1 X85.748 Y96.187 E0.01236
G1 X86.416 Y96.855 E0.02997
G1 E-0.80000 F2100.00000
G1 Z0.800 F10800.000
G1 X93.985 Y103.885
G1 Z0.200
G1 E0.80000 F2100.00000
G1 F1200.000
G1 X96.770 Y106.669 E0.12494
G1 X96.147 Y106.586 E0.01992
G1 X87.043 Y97.482 E0.40851
G1 X87.422 Y97.321 E0.01306
G1 X92.940 Y102.840 E0.24761
G1 X93.413 Y102.774 E0.01516
G1 X87.801 Y97.161 E0.25184
G1 X88.180 Y97.000 E0.01306
G1 X93.887 Y102.707 E0.25607
G1 X94.360 Y102.641 E0.01516
G1 X88.559 Y96.840 E0.26029
G1 X88.938 Y96.679 E0.01306
G1 X94.833 Y102.574 E0.26452
G1 X95.306 Y102.508 E0.01516
G1 X89.317 Y96.518 E0.26875
G1 X89.696 Y96.358 E0.01306
G1 X95.930 Y102.592 E0.27972
G1 X97.350 Y102.393 F10800.000
G1 F1200.000
G1 X96.344 Y101.388 E0.04510
G1 X94.937 Y100.520 E0.05246
