; generated by PrusaSlicer 2.2.0+win64 on 2020-08-07 at 15:44:16 UTC

; 

; external perimeters extrusion width = 0.45mm
; perimeters extrusion width = 0.45mm
; infill extrusion width = 0.45mm
; solid infill extrusion width = 0.45mm
; top infill extrusion width = 0.40mm
; first layer extrusion width = 0.42mm

M73 P0 R55
M201 X9000 Y9000 Z500 E10000 ; sets maximum accelerations, mm/sec^2
M203 X500 Y500 Z12 E120 ; sets maximum feedrates, mm/sec
M204 P2000 R1500 T2000 ; sets acceleration (P, T) and retract acceleration (R), mm/sec^2
M205 X10.00 Y10.00 Z0.20 E2.50 ; sets the jerk limits, mm/sec
M205 S0 T0 ; sets the minimum extruding and travel feed rate, mm/sec
M107
M862.3 P "MK2S" ; printer model check
M862.1 P0.4 ; nozzle diameter check
M115 U3.2.3 ; tell printer latest fw version
G90 ; use absolute coordinates
M83 ; extruder relative mode
M204 S2000 T1500 ; MK2 firmware only supports the old M204 format
M104 S215 ; set extruder temp
M140 S60 ; set bed temp
M190 S60 ; wait for bed temp
M109 S215 ; wait for extruder temp
G28 W ; home all without mesh bed level
G80 ; mesh bed leveling
G1 Y-3.0 F1000.0 ; go outside print area
G92 E0.0
G1 X60.0 E9.0  F1000.0 ; intro line
M73 P0 R55
G1 X100.0 E12.5 F1000.0 ; intro line
G92 E0.0
G21 ; set units to millimeters
G90 ; use absolute coordinates
M83 ; use relative distances for extrusion
M900 K30 ; Filament gcode
;BEFORE_LAYER_CHANGE
G92 E0.0
;0.2


G1 E-0.80000 F2100.00000
G1 Z0.600 F10800.000
;AFTER_LAYER_CHANGE
;0.2
G1 X104.641 Y96.105
G1 Z0.200
G1 E0.80000 F2100.00000
M204 S1000
G1 F1200.000
G1 X104.515 Y96.194 E0.00561
G1 X104.389 Y96.282 E0.00505
G1 X104.263 Y96.371 E0.00449
G1 X104.137 Y96.459 E0.00394
G1 X104.011 Y96.548 E0.00338
G1 X103.885 Y96.637 E0.00282
G1 X103.759 Y96.725 E0.00227
G1 E-0.80000 F2100.00000
G1 Z0.800 F10800.000
G1 X128.578 Y100.909
G1 Z0.200
G1 E0.80000 F2100.00000
G1 F1200.000
G1 X121.748 Y92.049 E0.35077
G1 X117.027 Y97.279 E0.22090
G1 X116.208 Y90.589 E0.21131
G1 X106.472 Y94.932 E0.33426
G1 X106.364 Y94.779 E0.00584
G1 X112.807 Y88.064 E0.29178
G1 X107.728 Y86.697 E0.16492
G1 X113.016 Y84.078 E0.18504
G1 X104.293 Y81.164 E0.28837
G1 X104.309 Y80.986 E0.00561
G1 X114.615 Y79.498 E0.32650
G1 X114.417 Y73.216 E0.19706
G1 X120.203 Y77.444 E0.22468
G1 X123.323 Y74.615 E0.13207
G1 X124.654 Y76.618 E0.07543
G1 X130.869 Y72.775 E0.22911
G1 X131.384 Y75.754 E0.09479
G1 X141.825 Y70.679 E0.36400
G1 X141.937 Y70.825 E0.00578
G1 X135.302 Y78.535 E0.31894
G1 X141.556 Y81.174 E0.21284
G1 X134.753 Y83.223 E0.22278
G1 X141.568 Y87.520 E0.25261
G1 X141.522 Y87.682 E0.00528
G1 X131.878 Y87.884 E0.30246
G1 X134.755 Y94.351 E0.22194
G1 X128.628 Y91.822 E0.20782
G1 X128.732 Y100.856 E0.28325
G1 X128.635 Y100.889 E0.00323
G1 X128.968 Y102.033 F10800.000
G1 F1200.000
G1 X121.725 Y92.637 E0.37197
G1 X116.754 Y98.145 E0.23265
G1 X115.896 Y91.142 E0.22123
G1 X104.866 Y96.060 E0.37866
G1 X104.759 Y95.908 E0.00584
G1 X112.094 Y88.262 E0.33220
G1 X106.666 Y86.801 E0.17623
G1 X112.029 Y84.146 E0.18765
G1 X102.666 Y81.018 E0.30954
G1 X102.682 Y80.840 E0.00561
G1 X114.228 Y79.173 E0.36578
G1 X114.016 Y72.456 E0.21072
G1 X120.177 Y76.958 E0.23926
G1 X123.394 Y74.041 E0.13618
G1 X124.766 Y76.106 E0.07773
G1 X131.145 Y72.160 E0.23516
G1 X131.670 Y75.195 E0.09657
G1 X143.301 Y69.542 E0.40547
G1 X143.413 Y69.688 E0.00578
G1 X135.925 Y78.388 E0.35990
G1 X142.667 Y81.234 E0.22942
G1 X135.654 Y83.345 E0.22964
G1 X142.831 Y87.871 E0.26604
G1 X142.786 Y88.033 E0.00528
G1 X132.453 Y88.249 E0.32404
G1 X135.482 Y95.060 E0.23372
G1 X129.012 Y92.389 E0.21949
G1 X129.122 Y101.979 E0.30072
G1 X129.025 Y102.013 E0.00323
G1 X128.799 Y101.670 F10800.000
G1 X128.600 Y99.210
G1 F1200.000
G1 X124.344 Y94.954 E0.19011
G1 X126.152 Y97.299 E0.09354
G1 X128.434 Y99.581 E0.10196
G1 X128.441 Y100.125 E0.01717
G1 X127.025 Y98.709 E0.06325
G1 E-0.80000 F2100.00000
G1 Z0.800 F10800.000
G1 X123.933 Y75.738
G1 Z0.200
G1 E0.80000 F2100.00000
G1 F1200.000
G1 X123.254 Y75.059 E0.03034
G1 X122.972 Y75.314 E0.01202
G1 X135.190 Y87.532 E0.54583
G1 X135.716 Y87.521 E0.01663
G1 X124.958 Y76.763 E0.48062
G1 X125.290 Y76.557 E0.01233
G1 X136.243 Y87.510 E0.48931
G1 X136.769 Y87.499 E0.01663
G1 X125.622 Y76.352 E0.49799
G1 X125.954 Y76.147 E0.01233
G1 X137.295 Y87.488 E0.50667
G1 X137.822 Y87.477 E0.01663
G1 X126.286 Y75.941 E0.51536
G1 X126.618 Y75.736 E0.01233
G1 X138.514 Y87.632 E0.53147
G1 X139.179 Y86.148 F10800.000
G1 F1200.000
G1 X140.453 Y87.422 E0.05691
G1 X139.927 Y87.433 E0.01663
G1 X138.268 Y85.774 E0.07411
G1 X136.814 Y84.857 E0.05432
G1 X139.401 Y87.444 E0.11558
G1 X138.874 Y87.455 E0.01663
G1 X135.359 Y83.940 E0.15704
G1 X134.077 Y83.131 E0.04789
G1 X134.441 Y83.021 E0.01201
G1 X126.950 Y75.531 E0.33466
G1 X127.282 Y75.325 E0.01233
G1 X134.854 Y82.897 E0.33828
G1 X135.267 Y82.773 E0.01362
G1 X127.614 Y75.120 E0.34189
G1 X127.946 Y74.915 E0.01233
G1 X135.680 Y82.648 E0.34551
G1 X136.093 Y82.524 E0.01362
G1 X128.278 Y74.709 E0.34913
G1 X128.610 Y74.504 E0.01233
G1 X136.506 Y82.400 E0.35275
G1 X136.919 Y82.275 E0.01362
G1 X128.942 Y74.299 E0.35637
G1 X129.274 Y74.093 E0.01233
G1 X137.468 Y82.287 E0.36607
G1 X137.881 Y82.163 F10800.000
G1 F1200.000
G1 X131.527 Y75.810 E0.28385
G1 X131.227 Y75.509 F10800.000
G1 F1200.000
G1 X129.606 Y73.888 E0.07241
G1 X129.938 Y73.683 E0.01233
G1 X130.906 Y74.651 E0.04326
G1 X130.794 Y74.001 E0.02083
G1 X130.270 Y73.477 E0.02341
G1 X130.602 Y73.272 E0.01233
G1 X130.890 Y73.560 E0.01286
G1 E-0.80000 F2100.00000
G1 Z0.800 F10800.000
G1 X141.198 Y71.510
G1 Z0.200
G1 E0.80000 F2100.00000
G1 F1200.000
G1 X141.055 Y71.367 E0.00639
G1 X140.693 Y71.543 E0.01270
G1 X140.829 Y71.679 E0.00607
G1 X140.581 Y71.968 E0.01204
G1 X140.332 Y71.719 E0.01112
G1 X139.970 Y71.895 E0.01270
G1 X140.332 Y72.256 E0.01617
G1 X140.084 Y72.545 E0.01204
G1 X139.609 Y72.070 E0.02122
G1 X139.247 Y72.246 E0.01270
G1 X139.835 Y72.834 E0.02627
G1 X139.586 Y73.123 E0.01204
G1 X138.885 Y72.422 E0.03132
G1 X138.524 Y72.598 E0.01270
G1 X139.338 Y73.412 E0.03637
G1 X139.089 Y73.700 E0.01204
G1 X138.162 Y72.773 E0.04142
G1 X137.801 Y72.949 E0.01270
G1 X138.841 Y73.989 E0.04647
G1 X138.592 Y74.278 E0.01204
G1 X137.439 Y73.125 E0.05152
G1 X137.078 Y73.300 E0.01270
G1 X138.344 Y74.567 E0.05657
G1 X138.095 Y74.855 E0.01204
G1 X136.716 Y73.476 E0.06162
G1 X136.355 Y73.652 E0.01270
G1 X137.847 Y75.144 E0.06667
G1 X137.598 Y75.433 E0.01204
G1 X135.993 Y73.828 E0.07172
G1 X135.631 Y74.003 E0.01270
G1 X137.350 Y75.722 E0.07677
G1 X137.101 Y76.011 E0.01204
G1 X135.270 Y74.179 E0.08182
G1 X134.908 Y74.355 E0.01270
G1 X136.853 Y76.299 E0.08687
G1 X136.604 Y76.588 E0.01204
G1 X134.547 Y74.531 E0.09192
G1 X134.185 Y74.706 E0.01270
G1 X136.356 Y76.877 E0.09697
G1 X136.107 Y77.166 E0.01204
G1 X133.824 Y74.882 E0.10202
G1 X133.462 Y75.058 E0.01270
G1 X135.859 Y77.454 E0.10707
G1 X135.610 Y77.743 E0.01204
G1 X133.100 Y75.234 E0.11212
G1 X132.739 Y75.409 E0.01270
G1 X135.362 Y78.032 E0.11717
G1 X135.113 Y78.321 E0.01204
G1 X132.377 Y75.585 E0.12222
G1 X132.016 Y75.761 E0.01270
G1 X138.157 Y81.902 E0.27439
G1 X138.570 Y81.778 E0.01362
G1 X135.876 Y79.084 E0.12037
G1 X136.806 Y79.476 E0.03188
G1 X138.983 Y81.654 E0.09728
G1 X139.396 Y81.529 E0.01362
G1 X137.736 Y79.869 E0.07419
G1 X138.665 Y80.261 E0.03188
G1 X139.809 Y81.405 E0.05111
G1 X140.222 Y81.281 E0.01362
G1 X139.595 Y80.654 E0.02802
G1 X140.525 Y81.046 E0.03188
G1 X140.771 Y81.293 E0.01101
G1 E-0.80000 F2100.00000
G1 Z0.800 F10800.000
G1 X134.830 Y87.709
G1 Z0.200
G1 E0.80000 F2100.00000
G1 F1200.000
G1 X122.691 Y75.570 E0.54234
G1 X122.409 Y75.825 E0.01202
G1 X134.137 Y87.554 E0.52398
G1 X133.611 Y87.565 E0.01663
G1 X122.127 Y76.081 E0.51306
G1 X121.845 Y76.336 E0.01202
G1 X133.085 Y87.576 E0.50213
G1 X132.558 Y87.586 E0.01663
G1 X121.564 Y76.592 E0.49120
G1 X121.282 Y76.847 E0.01202
G1 X132.032 Y87.597 E0.48028
G1 X131.506 Y87.608 E0.01663
G1 X121.000 Y77.103 E0.46935
G1 X120.718 Y77.358 E0.01202
G1 X131.829 Y88.469 E0.49639
G1 X132.259 Y89.437 E0.03346
G1 X120.437 Y77.614 E0.52820
G1 X120.222 Y77.809 E0.00916
G1 X119.747 Y77.461 E0.01859
G1 X132.690 Y90.404 E0.57825
G1 X133.120 Y91.372 E0.03346
G1 X117.750 Y76.002 E0.68668
G1 X115.754 Y74.543 E0.07812
G1 X133.551 Y92.340 E0.79510
G1 X133.981 Y93.308 E0.03346
G1 X114.727 Y74.053 E0.86022
G1 X114.744 Y74.608 E0.01753
G1 X133.779 Y93.642 E0.85039
G1 X132.864 Y93.265 E0.03127
G1 X114.762 Y75.163 E0.80873
G1 X114.779 Y75.717 E0.01753
G1 X131.949 Y92.887 E0.76707
G1 X131.034 Y92.509 E0.03127
G1 X114.797 Y76.272 E0.72542
G1 X114.814 Y76.827 E0.01753
G1 X130.119 Y92.132 E0.68376
M73 P1 R54
G1 X129.204 Y91.754 E0.03127
G1 X114.831 Y77.382 E0.64210
G1 X114.849 Y77.937 E0.01753
G1 X128.341 Y91.428 E0.60277
G1 X128.347 Y91.972 E0.01717
G1 X114.866 Y78.491 E0.60226
G1 X114.884 Y79.046 E0.01753
G1 X128.353 Y92.515 E0.60176
G1 X128.359 Y93.059 E0.01717
G1 X114.901 Y79.601 E0.60126
G1 X114.906 Y79.742 E0.00445
G1 X114.555 Y79.792 E0.01119
G1 X128.366 Y93.603 E0.61700
G1 X128.372 Y94.146 E0.01717
G1 X114.086 Y79.860 E0.63825
G1 X113.616 Y79.928 E0.01499
G1 X128.378 Y94.690 E0.65951
G1 X128.384 Y95.233 E0.01717
G1 X113.147 Y79.996 E0.68076
G1 X112.677 Y80.063 E0.01499
G1 X128.391 Y95.777 E0.70201
G1 X128.397 Y96.320 E0.01717
G1 X112.208 Y80.131 E0.72327
G1 X111.738 Y80.199 E0.01499
G1 X128.403 Y96.864 E0.74452
G1 X128.409 Y97.407 E0.01717
G1 X111.269 Y80.267 E0.76578
G1 X110.799 Y80.335 E0.01499
G1 X128.416 Y97.951 E0.78703
G1 X128.422 Y98.494 E0.01717
G1 X110.330 Y80.402 E0.80828
G1 X109.860 Y80.470 E0.01499
G1 X121.401 Y92.011 E0.51560
G1 X121.146 Y92.293 E0.01202
G1 X113.170 Y84.317 E0.35634
G1 X112.811 Y84.495 E0.01267
G1 X120.891 Y92.576 E0.36100
G1 X120.636 Y92.858 E0.01202
G1 X112.452 Y84.673 E0.36567
G1 X112.092 Y84.851 E0.01267
G1 X120.382 Y93.141 E0.37034
G1 X120.127 Y93.423 E0.01202
G1 X111.733 Y85.029 E0.37501
G1 X111.373 Y85.207 E0.01267
G1 X119.872 Y93.705 E0.37968
G1 X119.617 Y93.988 E0.01202
G1 X116.531 Y90.902 E0.13786
G1 X116.606 Y91.514 E0.01949
G1 X119.362 Y94.270 E0.12312
G1 X119.107 Y94.553 E0.01202
G1 X116.681 Y92.127 E0.10838
G1 X116.756 Y92.739 E0.01949
G1 X118.852 Y94.835 E0.09365
G1 X118.597 Y95.117 E0.01202
G1 X116.831 Y93.351 E0.07891
G1 X116.906 Y93.963 E0.01949
G1 X118.342 Y95.400 E0.06417
G1 X118.088 Y95.682 E0.01202
G1 X116.981 Y94.576 E0.04943
G1 X117.056 Y95.188 E0.01949
G1 X117.833 Y95.965 E0.03469
G1 X117.578 Y96.247 E0.01202
G1 X117.131 Y95.800 E0.01996
G1 X117.206 Y96.413 E0.01949
G1 X117.443 Y96.650 E0.01059
G1 E-0.80000 F2100.00000
G1 Z0.800 F10800.000
G1 X116.130 Y90.501
G1 Z0.200
G1 E0.80000 F2100.00000
G1 F1200.000
G1 X111.014 Y85.385 E0.22855
G1 X110.655 Y85.563 E0.01267
G1 X115.630 Y90.538 E0.22226
G1 X115.258 Y90.703 E0.01285
G1 X112.914 Y88.360 E0.10471
G1 X112.651 Y88.634 E0.01200
G1 X114.886 Y90.869 E0.09986
G1 X114.515 Y91.035 E0.01285
G1 X112.388 Y88.908 E0.09501
G1 X112.125 Y89.183 E0.01200
G1 X114.143 Y91.201 E0.09016
G1 X113.772 Y91.366 E0.01285
G1 X111.862 Y89.457 E0.08531
G1 X111.599 Y89.731 E0.01200
G1 X113.400 Y91.532 E0.08047
G1 X113.029 Y91.698 E0.01285
G1 X111.336 Y90.005 E0.07562
G1 X111.073 Y90.279 E0.01200
G1 X112.657 Y91.863 E0.07077
G1 X112.285 Y92.029 E0.01285
G1 X110.810 Y90.554 E0.06592
G1 X110.547 Y90.828 E0.01200
G1 X111.914 Y92.195 E0.06107
G1 X111.542 Y92.361 E0.01285
G1 X110.284 Y91.102 E0.05622
G1 X110.021 Y91.376 E0.01200
G1 X111.171 Y92.526 E0.05138
G1 X110.799 Y92.692 E0.01285
G1 X109.758 Y91.651 E0.04653
G1 X109.495 Y91.925 E0.01200
G1 X110.427 Y92.858 E0.04168
G1 X110.056 Y93.023 E0.01285
G1 X109.231 Y92.199 E0.03683
G1 X108.968 Y92.473 E0.01200
G1 X109.684 Y93.189 E0.03198
G1 X109.313 Y93.355 E0.01285
G1 X108.705 Y92.748 E0.02714
G1 X108.442 Y93.022 E0.01200
G1 X108.941 Y93.521 E0.02229
G1 X108.570 Y93.686 E0.01285
G1 X108.059 Y93.176 E0.02280
G1 X107.869 Y93.835 F10800.000
G1 F1200.000
G1 X107.750 Y93.919 E0.00494
G1 X107.631 Y94.002 E0.00440
G1 X107.513 Y94.086 E0.00386
G1 X107.394 Y94.169 E0.00332
G1 X107.275 Y94.253 E0.00277
G1 X107.156 Y94.336 E0.00223
G1 X107.037 Y94.420 E0.00169
G1 X106.918 Y94.504 E0.00115
G1 X106.264 Y94.964 F10800.000
G1 F1200.000
G1 X106.145 Y95.047 E0.00494
G1 X106.026 Y95.131 E0.00440
G1 X105.907 Y95.215 E0.00386
G1 X105.788 Y95.298 E0.00332
G1 X105.669 Y95.382 E0.00277
G1 X105.551 Y95.465 E0.00223
G1 X105.432 Y95.549 E0.00169
G1 X105.313 Y95.632 E0.00115
G1 E-0.80000 F2100.00000
G1 Z0.800 F10800.000
G1 X108.731 Y86.326
G1 Z0.200
G1 E0.80000 F2100.00000
G1 F1200.000
G1 X109.207 Y86.802 E0.02127
G1 X109.943 Y87.000 E0.02405
G1 X109.217 Y86.275 E0.03240
G1 X109.577 Y86.097 E0.01267
G1 X110.678 Y87.198 E0.04919
G1 X111.413 Y87.396 E0.02405
G1 X109.936 Y85.919 E0.06598
G1 X110.295 Y85.741 E0.01267
G1 X112.389 Y87.834 E0.09352
G1 X112.709 Y83.856 F10800.000
G1 F1200.000
G1 X109.391 Y80.538 E0.14824
G1 X108.921 Y80.606 E0.01499
G1 X111.634 Y83.318 E0.12117
G1 X110.827 Y83.048 E0.02687
G1 X108.452 Y80.674 E0.10610
G1 X107.982 Y80.741 E0.01499
G1 X110.020 Y82.779 E0.09104
G1 X109.213 Y82.510 E0.02687
G1 X107.513 Y80.809 E0.07597
G1 X107.043 Y80.877 E0.01499
G1 X108.407 Y82.240 E0.06090
G1 X107.600 Y81.971 E0.02687
G1 X106.574 Y80.945 E0.04583
G1 X106.104 Y81.013 E0.01499
G1 X106.793 Y81.701 E0.03076
G1 X105.986 Y81.432 E0.02687
G1 X105.635 Y81.080 E0.01570
G1 X105.165 Y81.148 E0.01499
G1 X105.448 Y81.431 E0.01263
G1 E-0.80000 F2100.00000
G1 Z0.800 F10800.000
G1 X108.799 Y134.588
G1 Z0.200
G1 E0.80000 F2100.00000
G1 F1200.000
G1 X108.673 Y134.676 E0.00561
G1 X108.547 Y134.765 E0.00505
G1 X108.421 Y134.853 E0.00449
G1 X108.295 Y134.942 E0.00394
G1 X108.169 Y135.031 E0.00338
G1 X108.043 Y135.119 E0.00282
G1 X107.917 Y135.208 E0.00227
G1 E-0.80000 F2100.00000
G1 Z0.800 F10800.000
G1 X132.736 Y139.392
G1 Z0.200
G1 E0.80000 F2100.00000
G1 F1200.000
G1 X125.906 Y130.532 E0.35077
G1 X121.186 Y135.762 E0.22090
G1 X120.366 Y129.072 E0.21131
G1 X110.630 Y133.414 E0.33426
G1 X110.523 Y133.262 E0.00584
G1 X116.965 Y126.546 E0.29178
G1 X111.886 Y125.179 E0.16492
G1 X117.175 Y122.561 E0.18504
G1 X108.451 Y119.647 E0.28837
G1 X108.467 Y119.469 E0.00561
G1 X118.773 Y117.980 E0.32650
G1 X118.576 Y111.699 E0.19706
G1 X124.361 Y115.927 E0.22468
G1 X127.481 Y113.097 E0.13207
G1 X128.813 Y115.101 E0.07543
G1 X135.027 Y111.257 E0.22911
G1 X135.542 Y114.236 E0.09479
G1 X145.983 Y109.161 E0.36400
G1 X146.096 Y109.307 E0.00578
G1 X139.460 Y117.017 E0.31894
G1 X145.714 Y119.657 E0.21284
G1 X138.911 Y121.706 E0.22278
G1 X145.726 Y126.003 E0.25261
G1 X145.681 Y126.165 E0.00528
G1 X136.036 Y126.366 E0.30246
G1 X138.913 Y132.834 E0.22194
G1 X132.786 Y130.305 E0.20782
G1 X132.890 Y139.338 E0.28325
G1 X132.793 Y139.372 E0.00323
G1 X133.126 Y140.515 F10800.000
G1 F1200.000
G1 X125.883 Y131.120 E0.37197
G1 X120.912 Y136.628 E0.23265
G1 X120.054 Y129.624 E0.22123
G1 X109.024 Y134.543 E0.37866
G1 X108.917 Y134.391 E0.00584
G1 X116.252 Y126.745 E0.33220
G1 X110.824 Y125.284 E0.17623
G1 X116.188 Y122.628 E0.18765
G1 X106.824 Y119.501 E0.30954
G1 X106.840 Y119.323 E0.00561
G1 X118.386 Y117.655 E0.36578
G1 X118.174 Y110.938 E0.21072
G1 X124.335 Y115.441 E0.23926
G1 X127.553 Y112.523 E0.13618
G1 X128.925 Y114.588 E0.07773
G1 X135.303 Y110.643 E0.23516
G1 X135.828 Y113.678 E0.09657
G1 X147.459 Y108.025 E0.40547
G1 X147.571 Y108.171 E0.00578
G1 X140.084 Y116.871 E0.35990
G1 X146.825 Y119.716 E0.22942
G1 X139.812 Y121.828 E0.22964
G1 X146.989 Y126.354 E0.26604
G1 X146.944 Y126.516 E0.00528
G1 X136.611 Y126.731 E0.32404
G1 X139.641 Y133.542 E0.23372
G1 X133.170 Y130.871 E0.21949
G1 X133.280 Y140.462 E0.30072
G1 X133.183 Y140.496 E0.00323
G1 X132.957 Y140.153 F10800.000
G1 X132.758 Y137.692
G1 F1200.000
G1 X128.503 Y133.437 E0.19011
G1 X130.310 Y135.782 E0.09354
G1 X132.593 Y138.064 E0.10196
G1 X132.599 Y138.608 E0.01717
G1 X131.183 Y137.192 E0.06325
G1 E-0.80000 F2100.00000
G1 Z0.800 F10800.000
G1 X128.092 Y114.220
G1 Z0.200
G1 E0.80000 F2100.00000
G1 F1200.000
G1 X127.412 Y113.541 E0.03034
G1 X127.131 Y113.797 E0.01202
G1 X139.348 Y126.014 E0.54583
G1 X139.875 Y126.003 E0.01663
G1 X129.117 Y115.245 E0.48062
G1 X129.449 Y115.040 E0.01233
