; generated by PrusaSlicer 2.2.0+win64 on 2020-08-07 at 15:42:56 UTC

; 

; external perimeters extrusion width = 0.45mm
; perimeters extrusion width = 0.45mm
; infill extrusion width = 0.45mm
; solid infill extrusion width = 0.45mm
; top infill extrusion width = 0.40mm
; first layer extrusion width = 0.42mm

M73 P0 R71
M201 X9000 Y9000 Z500 E10000 ; sets maximum accelerations, mm/sec^2
M203 X500 Y500 Z12 E120 ; sets maximum feedrates, mm/sec
M204 P2000 R1500 T2000 ; sets acceleration (P, T) and retract acceleration (R), mm/sec^2
M205 X10.00 Y10.00 Z0.20 E2.50 ; sets the jerk limits, mm/sec
M205 S0 T0 ; sets the minimum extruding and travel feed rate, mm/sec
M107
M862.3 P "MK2S" ; printer model check
M862.1 P0.4 ; nozzle diameter check
M115 U3.2.3 ; tell printer latest fw version
G90 ; use absolute coordinates
M83 ; extruder relative mode
M204 S2000 T1500 ; MK2 firmware only supports the old M204 format
M104 S215 ; set extruder temp
M140 S60 ; set bed temp
M190 S60 ; wait for bed temp
M109 S215 ; wait for extruder temp
G28 W ; home all without mesh bed level
G80 ; mesh bed leveling
G1 Y-3.0 F1000.0 ; go outside print area
G92 E0.0
G1 X60.0 E9.0  F1000.0 ; intro line
M73 P0 R71
G1 X100.0 E12.5 F1000.0 ; intro line
G92 E0.0
G21 ; set units to millimeters
G90 ; use absolute coordinates
M83 ; use relative distances for extrusion
M900 K30 ; Filament gcode
;BEFORE_LAYER_CHANGE
G92 E0.0
;0.2


G1 E-0.80000 F2100.00000
G1 Z0.600 F10800.000
;AFTER_LAYER_CHANGE
;0.2
G1 X138.312 Y109.090
G1 Z0.200
G1 E0.80000 F2100.00000
M204 S1000
G1 F1200.000
G1 X142.003 Y112.773 E0.16348
G1 X144.606 Y111.054 E0.09782
G1 X145.355 Y112.672 E0.05588
G1 X150.350 Y110.555 E0.17009
G1 X150.391 Y112.808 E0.07065
G1 X158.145 Y110.415 E0.25445
G1 X158.234 Y110.576 E0.00578
G1 X152.882 Y115.149 E0.22073
G1 X157.057 Y117.724 E0.15380
G1 X151.845 Y118.455 E0.16503
G1 X156.242 Y122.278 E0.18268
G1 X156.172 Y122.431 E0.00528
G1 X149.310 Y121.518 E0.21705
G1 X150.670 Y126.520 E0.16250
G1 X146.526 Y124.010 E0.15191
G1 X145.605 Y130.465 E0.20445
G1 X145.445 Y130.495 E0.00511
G1 X141.538 Y123.404 E0.25383
G1 X137.538 Y126.661 E0.16173
G1 X137.693 Y121.713 E0.15522
G1 X130.594 Y123.650 E0.23071
G1 X130.512 Y123.484 E0.00584
G1 X135.585 Y119.602 E0.20027
G1 X132.091 Y118.059 E0.11976
G1 X136.295 Y116.728 E0.13826
G1 X130.457 Y113.722 E0.20587
G1 X130.500 Y113.549 E0.00561
G1 X137.758 Y113.619 E0.22759
G1 X138.305 Y109.150 E0.14117
G1 E-0.80000 F2100.00000
G1 Z0.800 F10800.000
G1 X145.659 Y131.665
G1 Z0.200
G1 E0.80000 F2100.00000
G1 F1200.000
G1 X141.426 Y123.982 E0.27503
G1 X137.136 Y127.476 E0.17347
G1 X137.300 Y122.212 E0.16514
G1 X128.836 Y124.521 E0.27510
G1 X128.753 Y124.354 E0.00584
G1 X134.850 Y119.690 E0.24069
G1 X131.026 Y118.000 E0.13108
G1 X135.309 Y116.644 E0.14086
G1 X128.871 Y113.330 E0.22704
G1 X128.914 Y113.156 E0.00561
G1 X137.425 Y113.239 E0.26687
G1 X138.031 Y108.278 E0.15671
G1 X142.052 Y112.289 E0.17806
G1 X144.765 Y110.498 E0.10193
G1 X145.544 Y112.182 E0.05819
G1 X150.717 Y109.990 E0.17615
G1 X150.759 Y112.300 E0.07244
G1 X159.777 Y109.517 E0.29592
G1 X159.866 Y109.678 E0.00578
G1 X153.520 Y115.100 E0.26169
G1 X158.146 Y117.952 E0.17038
G1 X152.717 Y118.714 E0.17188
G1 X157.437 Y122.817 E0.19610
G1 X157.367 Y122.971 E0.00528
G1 X149.823 Y121.967 E0.23863
G1 X151.281 Y127.331 E0.17428
G1 X146.818 Y124.628 E0.16358
G1 X145.819 Y131.635 E0.22193
G1 X145.718 Y131.654 E0.00323
G1 X145.548 Y131.280 F10800.000
G1 E-0.80000 F2100.00000
G1 Z0.800 F10800.000
G1 X128.606 Y124.531
G1 Z0.200
G1 E0.80000 F2100.00000
G1 F1200.000
G1 X128.468 Y124.599 E0.00561
G1 X128.330 Y124.668 E0.00505
G1 X128.192 Y124.736 E0.00449
G1 X128.054 Y124.804 E0.00394
G1 X127.916 Y124.873 E0.00338
G1 X127.778 Y124.941 E0.00282
G1 X127.640 Y125.009 E0.00227
G1 X129.342 Y124.166 F10800.000
G1 F1200.000
G1 X129.473 Y124.102 E0.00115
G1 X129.603 Y124.038 E0.00169
G1 X129.733 Y123.973 E0.00223
G1 X129.863 Y123.909 E0.00277
G1 X129.993 Y123.844 E0.00332
G1 X130.124 Y123.780 E0.00386
G1 X130.254 Y123.715 E0.00440
G1 X130.384 Y123.651 E0.00494
G1 X131.101 Y123.296 F10800.000
G1 F1200.000
G1 X131.231 Y123.231 E0.00115
G1 X131.362 Y123.167 E0.00169
G1 X131.492 Y123.102 E0.00223
G1 X131.622 Y123.038 E0.00277
G1 X131.752 Y122.973 E0.00332
G1 X131.882 Y122.909 E0.00386
G1 X132.013 Y122.844 E0.00440
G1 X132.143 Y122.780 E0.00494
G1 X133.009 Y122.874 F10800.000
G1 F1200.000
G1 X132.473 Y122.339 E0.02403
G1 X132.779 Y122.105 E0.01221
G1 X133.295 Y122.621 E0.02313
G1 X133.718 Y122.505 E0.01394
G1 X133.085 Y121.871 E0.02843
G1 X133.390 Y121.637 E0.01221
G1 X134.142 Y122.389 E0.03374
G1 X134.566 Y122.273 E0.01394
G1 X133.696 Y121.403 E0.03904
G1 X134.002 Y121.169 E0.01221
G1 X134.990 Y122.158 E0.04435
G1 X135.414 Y122.042 E0.01394
G1 X134.308 Y120.936 E0.04965
G1 X134.613 Y120.702 E0.01221
G1 X135.838 Y121.926 E0.05496
G1 X136.262 Y121.811 E0.01394
G1 X134.919 Y120.468 E0.06026
G1 X135.225 Y120.234 E0.01221
G1 X136.686 Y121.695 E0.06556
G1 X137.110 Y121.579 E0.01394
G1 X135.530 Y120.000 E0.07087
G1 X135.836 Y119.766 E0.01221
G1 X137.672 Y121.602 E0.08237
G1 X135.521 Y119.450 F10800.000
G1 F1200.000
G1 X133.864 Y117.794 E0.07432
G1 X133.454 Y117.924 E0.01364
G1 X134.221 Y118.691 E0.03442
G1 X133.255 Y118.264 E0.03353
G1 X132.909 Y117.918 E0.01550
G1 X131.359 Y113.670 F10800.000
G1 F1200.000
G1 X131.768 Y114.079 E0.01835
G1 X132.880 Y114.652 E0.03969
G1 X132.075 Y113.847 E0.03612
G1 X132.620 Y113.852 E0.01729
G1 X133.993 Y115.224 E0.06158
G1 X135.105 Y115.797 E0.03969
G1 X133.165 Y113.857 E0.08704
G1 X133.710 Y113.862 E0.01729
G1 X145.943 Y126.095 E0.54886
G1 X146.010 Y125.623 E0.01514
G1 X134.255 Y113.868 E0.52744
G1 X134.800 Y113.873 E0.01729
G1 X146.077 Y125.151 E0.50601
G1 X146.145 Y124.678 E0.01514
G1 X135.345 Y113.878 E0.48458
G1 X135.889 Y113.884 E0.01729
G1 X146.212 Y124.206 E0.46316
G1 X146.279 Y123.734 E0.01514
G1 X136.434 Y113.889 E0.44173
G1 X136.979 Y113.894 E0.01729
G1 X147.131 Y124.046 E0.45550
G1 X148.499 Y124.875 E0.05076
G1 X137.524 Y113.899 E0.49245
G1 X138.008 Y113.904 E0.01537
G1 X138.015 Y113.851 E0.00171
G1 X149.868 Y125.704 E0.53182
G1 X150.211 Y125.912 E0.01274
G1 X150.060 Y125.356 E0.01825
G1 X138.074 Y113.370 E0.53782
G1 X138.133 Y112.889 E0.01537
G1 X149.859 Y124.615 E0.52615
G1 X149.658 Y123.874 E0.02436
G1 X138.191 Y112.408 E0.51448
G1 X138.250 Y111.927 E0.01537
G1 X149.456 Y123.133 E0.50280
G1 X149.255 Y122.392 E0.02436
G1 X138.309 Y111.447 E0.49113
G1 X138.368 Y110.966 E0.01537
G1 X149.053 Y121.651 E0.47945
G1 X148.926 Y121.182 E0.01543
G1 X149.154 Y121.212 E0.00730
G1 X138.426 Y110.485 E0.48133
G1 X138.485 Y110.004 E0.01537
G1 X149.776 Y121.295 E0.50662
G1 X150.399 Y121.378 E0.01992
G1 X142.081 Y113.060 E0.37321
G1 X142.406 Y112.846 E0.01236
G1 X151.021 Y121.461 E0.38656
G1 X151.644 Y121.544 E0.01992
G1 X142.731 Y112.631 E0.39990
G1 X143.056 Y112.416 E0.01236
G1 X152.266 Y121.626 E0.41324
G1 X152.888 Y121.709 E0.01992
G1 X143.381 Y112.202 E0.42658
G1 X143.706 Y111.987 E0.01236
G1 X153.511 Y121.792 E0.43993
G1 X154.133 Y121.875 E0.01992
G1 X144.031 Y111.773 E0.45327
G1 X144.356 Y111.558 E0.01236
G1 X145.024 Y112.226 E0.02997
G1 E-0.80000 F2100.00000
G1 Z0.800 F10800.000
G1 X152.594 Y119.256
G1 Z0.200
G1 E0.80000 F2100.00000
G1 F1200.000
G1 X155.378 Y122.040 E0.12494
G1 X154.756 Y121.958 E0.01992
G1 X145.651 Y112.853 E0.40851
G1 X146.030 Y112.693 E0.01306
G1 X151.549 Y118.211 E0.24761
G1 X152.022 Y118.145 E0.01516
G1 X146.409 Y112.532 E0.25184
G1 X146.788 Y112.371 E0.01306
G1 X152.495 Y118.078 E0.25607
G1 X152.968 Y118.012 E0.01516
G1 X147.167 Y112.211 E0.26029
G1 X147.546 Y112.050 E0.01306
G1 X153.442 Y117.946 E0.26452
G1 X153.915 Y117.879 E0.01516
G1 X147.925 Y111.889 E0.26875
G1 X148.304 Y111.729 E0.01306
G1 X154.538 Y117.963 E0.27972
G1 X155.958 Y117.764 F10800.000
G1 F1200.000
G1 X154.953 Y116.759 E0.04510
G1 X153.545 Y115.891 E0.05246
G1 X155.335 Y117.680 E0.08028
G1 X154.861 Y117.746 E0.01516
G1 X148.683 Y111.568 E0.27721
G1 X149.062 Y111.408 E0.01306
G1 X150.101 Y112.447 E0.04662
G1 X150.091 Y111.897 E0.01744
G1 X149.441 Y111.247 E0.02917
G1 X149.820 Y111.086 E0.01306
G1 X150.254 Y111.520 E0.01947
G1 X150.536 Y112.881 F10800.000
G1 F1200.000
G1 X152.639 Y114.985 E0.09437
G1 X152.930 Y114.736 E0.01214
G1 X151.084 Y112.890 E0.08284
G1 X151.496 Y112.763 E0.01369
G1 X153.221 Y114.487 E0.07739
G1 X153.512 Y114.239 E0.01214
G1 X151.909 Y112.635 E0.07195
G1 X152.321 Y112.508 E0.01369
G1 X153.803 Y113.990 E0.06650
G1 X154.094 Y113.742 E0.01214
G1 X152.733 Y112.381 E0.06105
G1 X153.146 Y112.254 E0.01369
G1 X154.385 Y113.493 E0.05561
G1 X154.676 Y113.244 E0.01214
G1 X153.558 Y112.126 E0.05016
G1 X153.971 Y111.999 E0.01369
G1 X154.967 Y112.996 E0.04472
G1 X155.258 Y112.747 E0.01214
G1 X154.383 Y111.872 E0.03927
G1 X154.795 Y111.745 E0.01369
G1 X155.549 Y112.498 E0.03382
G1 X155.840 Y112.250 E0.01214
G1 X155.208 Y111.617 E0.02838
G1 X155.620 Y111.490 E0.01369
G1 X156.131 Y112.001 E0.02293
G1 X156.422 Y111.753 E0.01214
G1 X156.032 Y111.363 E0.01749
G1 X156.445 Y111.236 E0.01369
G1 X156.713 Y111.504 E0.01204
G1 X157.004 Y111.255 E0.01214
G1 X156.857 Y111.108 E0.00659
G1 X157.269 Y110.981 E0.01369
G1 X157.415 Y111.127 E0.00655
G1 E-0.80000 F2100.00000
G1 Z0.800 F10800.000
G1 X144.358 Y128.288
G1 Z0.200
G1 E0.80000 F2100.00000
G1 F1200.000
G1 X145.471 Y129.401 E0.04995
G1 X145.538 Y128.929 E0.01514
G1 X144.127 Y127.517 E0.06332
G1 X143.465 Y126.316 E0.04354
G1 X145.606 Y128.456 E0.09606
G1 X145.673 Y127.984 E0.01514
G1 X142.803 Y125.114 E0.12879
G1 X142.140 Y123.912 E0.04354
G1 X145.740 Y127.512 E0.16153
G1 X145.808 Y127.040 E0.01514
G1 X135.913 Y117.145 E0.44395
G1 X136.323 Y117.015 E0.01364
G1 X146.025 Y126.717 E0.43532
G1 E-0.80000 F2100.00000
G1 Z0.800 F10800.000
G1 X141.510 Y123.281
G1 Z0.200
G1 E0.80000 F2100.00000
G1 F1200.000
G1 X135.504 Y117.275 E0.26949
G1 X135.094 Y117.405 E0.01364
G1 X141.092 Y123.403 E0.26913
G1 X140.794 Y123.645 E0.01217
G1 X134.684 Y117.534 E0.27417
G1 X134.274 Y117.664 E0.01364
G1 X140.497 Y123.887 E0.27922
G1 X140.200 Y124.129 E0.01217
G1 X137.970 Y121.900 E0.10003
G1 X137.954 Y122.423 E0.01661
G1 X139.902 Y124.372 E0.08742
G1 X139.605 Y124.614 E0.01217
G1 X137.937 Y122.946 E0.07481
G1 X137.921 Y123.470 E0.01661
G1 X139.307 Y124.856 E0.06220
G1 X139.010 Y125.098 E0.01217
G1 X137.905 Y123.993 E0.04959
G1 X137.888 Y124.516 E0.01661
G1 X138.713 Y125.340 E0.03698
G1 X138.415 Y125.583 E0.01217
G1 X137.872 Y125.040 E0.02437
G1 X137.856 Y125.563 E0.01661
G1 X138.238 Y125.945 E0.01717
G1 E-0.80000 F2100.00000
G1 Z0.800 F10800.000
G1 X145.445 Y99.752
G1 Z0.200
G1 E0.80000 F2100.00000
G1 F1200.000
G1 X141.538 Y92.662 E0.25383
G1 X137.538 Y95.919 E0.16173
G1 X137.693 Y90.971 E0.15522
G1 X130.594 Y92.908 E0.23071
G1 X130.512 Y92.741 E0.00584
G1 X135.585 Y88.860 E0.20027
G1 X132.091 Y87.316 E0.11976
G1 X136.295 Y85.986 E0.13826
G1 X130.457 Y82.980 E0.20587
G1 X130.500 Y82.806 E0.00561
G1 X137.758 Y82.877 E0.22759
G1 X138.312 Y78.348 E0.14305
G1 X142.003 Y82.030 E0.16348
G1 X144.606 Y80.312 E0.09782
G1 X145.355 Y81.929 E0.05588
G1 X150.350 Y79.813 E0.17009
G1 X150.391 Y82.066 E0.07065
G1 X158.145 Y79.673 E0.25445
G1 X158.234 Y79.834 E0.00578
G1 X152.882 Y84.407 E0.22073
G1 X157.057 Y86.982 E0.15380
G1 X151.845 Y87.713 E0.16503
G1 X156.242 Y91.536 E0.18268
G1 X156.172 Y91.689 E0.00528
G1 X149.310 Y90.776 E0.21705
G1 X150.670 Y95.778 E0.16250
G1 X146.526 Y93.268 E0.15191
M73 P1 R70
G1 X145.605 Y99.723 E0.20445
G1 X145.504 Y99.742 E0.00323
G1 X145.659 Y100.922 F10800.000
G1 F1200.000
G1 X141.426 Y93.240 E0.27503
G1 X137.136 Y96.733 E0.17347
G1 X137.300 Y91.469 E0.16514
G1 X128.836 Y93.779 E0.27510
G1 X128.753 Y93.612 E0.00584
G1 X134.850 Y88.948 E0.24069
G1 X131.026 Y87.258 E0.13108
G1 X135.309 Y85.902 E0.14086
G1 X128.871 Y82.587 E0.22704
G1 X128.914 Y82.414 E0.00561
G1 X137.425 Y82.496 E0.26687
G1 X138.031 Y77.535 E0.15671
G1 X142.052 Y81.546 E0.17806
G1 X144.765 Y79.755 E0.10193
G1 X145.544 Y81.440 E0.05819
G1 X150.717 Y79.248 E0.17615
G1 X150.759 Y81.557 E0.07244
G1 X159.777 Y78.775 E0.29592
G1 X159.866 Y78.936 E0.00578
G1 X153.520 Y84.358 E0.26169
G1 X158.146 Y87.210 E0.17038
G1 X152.717 Y87.971 E0.17188
G1 X157.437 Y92.075 E0.19610
G1 X157.367 Y92.228 E0.00528
G1 X149.823 Y91.225 E0.23863
G1 X151.281 Y96.589 E0.17428
G1 X146.818 Y93.886 E0.16358
G1 X145.819 Y100.893 E0.22193
G1 X145.718 Y100.911 E0.00323
G1 X145.548 Y100.538 F10800.000
G1 E-0.80000 F2100.00000
G1 Z0.800 F10800.000
G1 X128.606 Y93.789
G1 Z0.200
G1 E0.80000 F2100.00000
G1 F1200.000
G1 X128.468 Y93.857 E0.00561
G1 X128.330 Y93.925 E0.00505
G1 X128.192 Y93.994 E0.00449
G1 X128.054 Y94.062 E0.00394
G1 X127.916 Y94.130 E0.00338
G1 X127.778 Y94.199 E0.00282
G1 X127.640 Y94.267 E0.00227
G1 X129.342 Y93.424 F10800.000
G1 F1200.000
G1 X129.473 Y93.360 E0.00115
G1 X129.603 Y93.295 E0.00169
G1 X129.733 Y93.231 E0.00223
G1 X129.863 Y93.166 E0.00277
G1 X129.993 Y93.102 E0.00332
G1 X130.124 Y93.037 E0.00386
G1 X130.254 Y92.973 E0.00440
G1 X130.384 Y92.908 E0.00494
G1 X131.101 Y92.553 F10800.000
G1 F1200.000
G1 X131.231 Y92.489 E0.00115
G1 X131.362 Y92.424 E0.00169
G1 X131.492 Y92.360 E0.00223
G1 X131.622 Y92.295 E0.00277
G1 X131.752 Y92.231 E0.00332
G1 X131.882 Y92.167 E0.00386
G1 X132.013 Y92.102 E0.00440
G1 X132.143 Y92.038 E0.00494
G1 X133.009 Y92.132 F10800.000
G1 F1200.000
G1 X132.473 Y91.597 E0.02403
G1 X132.779 Y91.363 E0.01221
G1 X133.295 Y91.878 E0.02313
G1 X133.718 Y91.763 E0.01394
G1 X133.085 Y91.129 E0.02843
G1 X133.390 Y90.895 E0.01221
G1 X134.142 Y91.647 E0.03374
G1 X134.566 Y91.531 E0.01394
G1 X133.696 Y90.661 E0.03904
G1 X134.002 Y90.427 E0.01221
G1 X134.990 Y91.416 E0.04435
G1 X135.414 Y91.300 E0.01394
G1 X134.308 Y90.193 E0.04965
G1 X134.613 Y89.959 E0.01221
G1 X135.838 Y91.184 E0.05496
G1 X136.262 Y91.068 E0.01394
G1 X134.919 Y89.725 E0.06026
G1 X135.225 Y89.492 E0.01221
G1 X136.686 Y90.953 E0.06556
G1 X137.110 Y90.837 E0.01394
G1 X135.530 Y89.258 E0.07087
G1 X135.836 Y89.024 E0.01221
G1 X137.672 Y90.860 E0.08237
G1 X135.521 Y88.708 F10800.000
G1 F1200.000
G1 X133.864 Y87.052 E0.07432
G1 X133.454 Y87.181 E0.01364
G1 X134.221 Y87.949 E0.03442
G1 X133.255 Y87.521 E0.03353
G1 X132.909 Y87.176 E0.01550
G1 X131.359 Y82.928 F10800.000
G1 F1200.000
G1 X131.768 Y83.337 E0.01835
G1 X132.880 Y83.909 E0.03969
G1 X132.075 Y83.104 E0.03612
G1 X132.620 Y83.110 E0.01729
G1 X133.993 Y84.482 E0.06158
G1 X135.105 Y85.055 E0.03969
G1 X133.165 Y83.115 E0.08704
G1 X133.710 Y83.120 E0.01729
G1 X145.943 Y95.353 E0.54886
G1 X146.010 Y94.881 E0.01514
G1 X134.255 Y83.125 E0.52744
G1 X134.800 Y83.131 E0.01729
G1 X146.077 Y94.408 E0.50601
G1 X146.145 Y93.936 E0.01514
G1 X135.345 Y83.136 E0.48458
G1 X135.889 Y83.141 E0.01729
G1 X146.212 Y93.464 E0.46316
G1 X146.279 Y92.991 E0.01514
G1 X136.434 Y83.147 E0.44173
G1 X136.979 Y83.152 E0.01729
G1 X147.131 Y93.304 E0.45550
G1 X148.499 Y94.132 E0.05076
G1 X137.524 Y83.157 E0.49245
G1 X138.008 Y83.162 E0.01537
G1 X138.015 Y83.108 E0.00171
G1 X149.868 Y94.961 E0.53182
G1 X150.211 Y95.169 E0.01274
G1 X150.060 Y94.614 E0.01825
G1 X138.074 Y82.628 E0.53782
G1 X138.133 Y82.147 E0.01537
G1 X149.859 Y93.873 E0.52615
G1 X149.658 Y93.132 E0.02436
G1 X138.191 Y81.666 E0.51448
G1 X138.250 Y81.185 E0.01537
G1 X149.456 Y92.391 E0.50280
G1 X149.255 Y91.650 E0.02436
G1 X138.309 Y80.704 E0.49113
G1 X138.368 Y80.223 E0.01537
G1 X149.053 Y90.909 E0.47945
G1 X148.926 Y90.440 E0.01543
G1 X149.154 Y90.470 E0.00730
G1 X138.426 Y79.743 E0.48133
G1 X138.485 Y79.262 E0.01537
G1 X149.776 Y90.553 E0.50662
G1 X150.399 Y90.636 E0.01992
G1 X142.081 Y82.318 E0.37321
G1 X142.406 Y82.103 E0.01236
G1 X151.021 Y90.719 E0.38656
G1 X151.644 Y90.801 E0.01992
G1 X142.731 Y81.889 E0.39990
G1 X143.056 Y81.674 E0.01236
G1 X152.266 Y90.884 E0.41324
G1 X152.888 Y90.967 E0.01992
G1 X143.381 Y81.460 E0.42658
G1 X143.706 Y81.245 E0.01236
G1 X153.511 Y91.050 E0.43993
G1 X154.133 Y91.133 E0.01992
G1 X144.031 Y81.030 E0.45327
G1 X144.356 Y80.816 E0.01236
G1 X145.024 Y81.484 E0.02997
G1 E-0.80000 F2100.00000
G1 Z0.800 F10800.000
G1 X152.594 Y88.514
G1 Z0.200
G1 E0.80000 F2100.00000
