; generated by PrusaSlicer 2.1.0+win64 on 2019-12-06 at 23:32:28 UTC

; 

; external perimeters extrusion width = 0.60mm
; perimeters extrusion width = 0.43mm
; infill extrusion width = 0.45mm
; solid infill extrusion width = 0.70mm
; top infill extrusion width = 0.43mm
; first layer extrusion width = 0.42mm

M73 P0 R31
M201 X9000 Y9000 Z500 E10000 ; sets maximum accelerations, mm/sec^2
M203 X500 Y500 Z12 E120 ; sets maximum feedrates, mm/sec
M204 P2000 R1500 T2000 ; sets acceleration (P, T) and retract acceleration (R), mm/sec^2
M205 X10.00 Y10.00 Z0.20 E2.50 ; sets the jerk limits, mm/sec
M205 S0 T0 ; sets the minimum extruding and travel feed rate, mm/sec
M107
M862.3 P "MK2S" ; printer model check
M862.1 P0.4 ; nozzle diameter check
M115 U3.2.3 ; tell printer latest fw version
G90 ; use absolute coordinates
M83 ; extruder relative mode
M204 S2000 T1500 ; MK2 firmware only supports the old M204 format
M104 S215 ; set extruder temp
M140 S60 ; set bed temp
M190 S60 ; wait for bed temp
M109 S215 ; wait for extruder temp
G28 W ; home all without mesh bed level
G80 ; mesh bed leveling
G1 Y-3.0 F1000.0 ; go outside print area
G92 E0.0
G1 X60.0 E9.0  F1000.0 ; intro line
M73 P0 R31
G1 X100.0 E12.5 F1000.0 ; intro line
G92 E0.0
G21 ; set units to millimeters
G90 ; use absolute coordinates
M83 ; use relative distances for extrusion
M900 K30 ; Filament gcode
;BEFORE_LAYER_CHANGE
G92 E0.0
;0.2


G1 E-0.80000 F2100.00000
G1 Z0.600 F10800.000
;AFTER_LAYER_CHANGE
;0.2
G1 X74.845 Y56.606
G1 Z0.200
G1 E0.80000 F2100.00000
M204 S1000
G1 F1200
G1 X75.900 Y55.175 E0.05574
G1 X76.521 Y54.572 E0.02717
G1 X77.275 Y53.993 E0.02980
G1 X78.569 Y53.276 E0.04639
G1 X79.387 Y52.968 E0.02739
G1 X80.301 Y52.736 E0.02957
G1 X81.189 Y52.619 E0.02809
G1 X135.270 Y52.597 E1.69567
G1 X136.286 Y52.684 E0.03198
G1 X137.845 Y53.075 E0.05038
G1 X139.290 Y53.769 E0.05027
G1 X140.157 Y54.379 E0.03323
G1 X159.088 Y73.276 E0.83868
G1 X159.966 Y74.591 E0.04959
G1 X175.258 Y101.228 E0.96303
G1 X175.649 Y102.075 E0.02925
G1 X175.933 Y102.944 E0.02866
G1 X176.110 Y103.796 E0.02729
G1 X176.202 Y105.028 E0.03872
G1 X176.106 Y106.245 E0.03828
G1 X175.893 Y107.208 E0.03094
G1 X160.397 Y152.228 E1.49283
G1 X159.988 Y153.137 E0.03125
G1 X159.516 Y153.915 E0.02854
G1 X158.565 Y155.063 E0.04673
G1 X157.859 Y155.693 E0.02968
G1 X157.141 Y156.198 E0.02751
G1 X156.379 Y156.619 E0.02729
G1 X155.500 Y156.979 E0.02980
G1 X154.052 Y157.332 E0.04673
G1 X153.123 Y157.416 E0.02923
G1 X81.927 Y157.418 E2.23230
G1 X81.046 Y157.382 E0.02764
G1 X79.582 Y157.106 E0.04673
G1 X78.692 Y156.794 E0.02957
G1 X77.909 Y156.415 E0.02729
G1 X77.165 Y155.949 E0.02751
G1 X76.424 Y155.354 E0.02980
G1 X75.413 Y154.259 E0.04673
G1 X74.880 Y153.471 E0.02980
G1 X74.474 Y152.689 E0.02763
G1 X74.138 Y151.804 E0.02969
G1 X73.823 Y150.348 E0.04673
G1 X73.763 Y149.450 E0.02820
G1 X73.762 Y60.608 E2.78559
G1 X73.810 Y59.757 E0.02673
G1 X73.971 Y58.824 E0.02968
G1 X74.438 Y57.413 E0.04661
G1 X74.818 Y56.660 E0.02643
G1 E-0.80000 F2100.00000
G1 Z0.800 F10800.000
G1 X114.720 Y110.170
G1 Z0.200
G1 E0.80000 F2100.00000
G1 F1200
G1 X115.068 Y109.947 E0.01297
G1 X115.436 Y109.756 E0.01297
G1 X115.819 Y109.600 E0.01297
G1 X116.215 Y109.480 E0.01297
G1 X116.620 Y109.396 E0.01297
G1 X117.031 Y109.349 E0.01297
G1 X117.337 Y109.342 E0.00960
G1 X117.851 Y109.366 E0.01614
G1 X118.265 Y109.433 E0.01315
G1 X118.666 Y109.535 E0.01297
G1 X119.056 Y109.674 E0.01297
G1 X119.431 Y109.847 E0.01297
G1 X119.790 Y110.054 E0.01297
G1 X120.128 Y110.293 E0.01297
G1 X120.442 Y110.561 E0.01297
G1 X120.732 Y110.857 E0.01297
G1 X120.993 Y111.178 E0.01297
G1 X121.223 Y111.521 E0.01297
G1 X121.422 Y111.884 E0.01297
G1 X121.587 Y112.263 E0.01297
G1 X121.717 Y112.656 E0.01297
G1 X121.810 Y113.059 E0.01297
G1 X121.866 Y113.469 E0.01297
G1 X121.885 Y113.882 E0.01297
G1 X121.866 Y114.296 E0.01297
G1 X121.810 Y114.705 E0.01297
G1 X121.717 Y115.108 E0.01297
G1 X121.587 Y115.501 E0.01297
G1 X121.422 Y115.881 E0.01297
G1 X121.223 Y116.244 E0.01297
G1 X120.993 Y116.587 E0.01297
G1 X120.732 Y116.908 E0.01297
G1 X120.442 Y117.204 E0.01297
G1 X120.128 Y117.472 E0.01297
G1 X119.790 Y117.710 E0.01297
G1 X119.431 Y117.917 E0.01297
G1 X119.056 Y118.091 E0.01297
G1 X118.666 Y118.229 E0.01297
G1 X118.265 Y118.332 E0.01297
G1 X117.857 Y118.397 E0.01297
G1 X117.444 Y118.426 E0.01297
G1 X117.031 Y118.416 E0.01297
G1 X116.620 Y118.369 E0.01297
G1 X116.215 Y118.285 E0.01297
G1 X115.819 Y118.164 E0.01297
G1 X115.436 Y118.008 E0.01297
G1 X115.068 Y117.818 E0.01297
G1 X114.720 Y117.595 E0.01297
G1 X114.393 Y117.341 E0.01297
G1 X114.091 Y117.059 E0.01297
G1 X113.816 Y116.750 E0.01297
G1 X113.569 Y116.418 E0.01297
G1 X113.354 Y116.064 E0.01297
G1 X113.172 Y115.693 E0.01297
G1 X113.025 Y115.306 E0.01297
G1 X112.914 Y114.908 E0.01297
G1 X112.839 Y114.501 E0.01297
G1 X112.801 Y114.089 E0.01297
G1 X112.801 Y113.675 E0.01297
G1 X112.839 Y113.264 E0.01297
G1 X112.914 Y112.857 E0.01297
G1 X113.025 Y112.458 E0.01297
G1 X113.172 Y112.072 E0.01297
G1 X113.354 Y111.700 E0.01297
G1 X113.514 Y111.439 E0.00960
G1 X113.812 Y111.019 E0.01614
G1 X114.091 Y110.706 E0.01316
G1 X114.393 Y110.423 E0.01297
G1 X114.673 Y110.206 E0.01109
G1 X114.904 Y110.504 F10800.000
G1 F1200
G1 X115.257 Y110.274 E0.01323
G1 X115.594 Y110.099 E0.01189
G1 X115.945 Y109.956 E0.01189
G1 X116.308 Y109.845 E0.01189
G1 X116.679 Y109.768 E0.01189
G1 X117.056 Y109.725 E0.01189
G1 X117.812 Y109.742 E0.02370
G1 X118.188 Y109.803 E0.01196
G1 X118.556 Y109.897 E0.01189
G1 X118.913 Y110.024 E0.01189
G1 X119.258 Y110.183 E0.01189
G1 X119.586 Y110.372 E0.01189
G1 X119.896 Y110.591 E0.01189
G1 X120.185 Y110.837 E0.01189
G1 X120.450 Y111.108 E0.01189
G1 X120.689 Y111.402 E0.01189
G1 X120.901 Y111.717 E0.01189
G1 X121.083 Y112.050 E0.01189
G1 X121.234 Y112.398 E0.01189
G1 X121.353 Y112.758 E0.01189
G1 X121.439 Y113.128 E0.01189
G1 X121.490 Y113.503 E0.01189
G1 X121.508 Y113.882 E0.01189
G1 X121.490 Y114.261 E0.01189
G1 X121.439 Y114.637 E0.01189
G1 X121.353 Y115.007 E0.01189
G1 X121.234 Y115.367 E0.01189
G1 X121.083 Y115.715 E0.01189
G1 X120.901 Y116.047 E0.01189
G1 X120.689 Y116.362 E0.01189
G1 X120.450 Y116.656 E0.01189
G1 X120.185 Y116.928 E0.01189
G1 X119.896 Y117.174 E0.01189
G1 X119.586 Y117.392 E0.01189
G1 X119.258 Y117.582 E0.01189
G1 X118.913 Y117.741 E0.01189
G1 X118.556 Y117.868 E0.01189
G1 X118.188 Y117.962 E0.01189
G1 X117.814 Y118.022 E0.01189
G1 X117.436 Y118.048 E0.01189
G1 X117.056 Y118.040 E0.01189
G1 X116.679 Y117.996 E0.01189
G1 X116.308 Y117.919 E0.01189
G1 X115.945 Y117.809 E0.01189
G1 X115.594 Y117.665 E0.01189
G1 X115.257 Y117.491 E0.01189
G1 X114.938 Y117.287 E0.01189
G1 X114.638 Y117.054 E0.01189
G1 X114.361 Y116.795 E0.01189
G1 X114.108 Y116.512 E0.01189
G1 X113.883 Y116.207 E0.01189
G1 X113.686 Y115.883 E0.01189
G1 X113.519 Y115.542 E0.01189
G1 X113.384 Y115.188 E0.01189
G1 X113.281 Y114.823 E0.01189
G1 X113.213 Y114.450 E0.01189
G1 X113.178 Y114.072 E0.01189
G1 X113.178 Y113.693 E0.01189
G1 X113.213 Y113.315 E0.01189
G1 X113.281 Y112.942 E0.01189
G1 X113.384 Y112.577 E0.01189
G1 X113.519 Y112.222 E0.01189
G1 X113.686 Y111.882 E0.01189
G1 X114.107 Y111.254 E0.02370
G1 X114.361 Y110.970 E0.01196
G1 X114.638 Y110.711 E0.01189
G1 X114.856 Y110.541 E0.00867
G1 X114.865 Y110.106 F10800.000
G1 X114.182 Y109.682
G1 F1200
G1 X114.316 Y109.576 E0.00535
G1 X114.791 Y109.279 E0.01756
G1 X115.295 Y109.034 E0.01756
G1 X115.822 Y108.844 E0.01756
G1 X116.366 Y108.711 E0.01756
G1 X116.921 Y108.637 E0.01756
G1 X117.481 Y108.622 E0.01756
G1 X117.980 Y108.662 E0.01570
G1 X118.592 Y108.771 E0.01950
G1 X119.126 Y108.932 E0.01747
G1 X119.642 Y109.150 E0.01756
G1 X120.132 Y109.421 E0.01756
G1 X120.590 Y109.743 E0.01756
G1 X121.012 Y110.112 E0.01756
G1 X121.392 Y110.524 E0.01756
G1 X121.726 Y110.973 E0.01756
G1 X122.010 Y111.456 E0.01756
G1 X122.241 Y111.966 E0.01756
G1 X122.417 Y112.498 E0.01756
G1 X122.536 Y113.045 E0.01756
G1 X122.595 Y113.602 E0.01756
G1 X122.595 Y114.162 E0.01756
G1 X122.536 Y114.719 E0.01756
G1 X122.417 Y115.267 E0.01756
G1 X122.241 Y115.799 E0.01756
G1 X122.010 Y116.309 E0.01756
G1 X121.726 Y116.791 E0.01756
G1 X121.392 Y117.241 E0.01756
G1 X121.012 Y117.652 E0.01756
G1 X120.590 Y118.021 E0.01756
G1 X120.132 Y118.343 E0.01756
G1 X119.642 Y118.615 E0.01756
G1 X119.126 Y118.832 E0.01756
G1 X118.589 Y118.994 E0.01756
G1 X118.039 Y119.098 E0.01756
G1 X117.481 Y119.143 E0.01756
G1 X116.921 Y119.128 E0.01756
G1 X116.366 Y119.053 E0.01756
G1 X115.822 Y118.920 E0.01756
G1 X115.295 Y118.730 E0.01756
G1 X114.791 Y118.485 E0.01756
G1 X114.316 Y118.188 E0.01756
G1 X113.876 Y117.842 E0.01756
G1 X113.474 Y117.452 E0.01756
G1 X113.117 Y117.020 E0.01756
G1 X112.807 Y116.554 E0.01756
G1 X112.549 Y116.057 E0.01756
G1 X112.345 Y115.535 E0.01756
G1 X112.197 Y114.995 E0.01756
G1 X112.108 Y114.442 E0.01756
G1 X112.079 Y113.882 E0.01756
G1 X112.108 Y113.323 E0.01756
G1 X112.197 Y112.770 E0.01756
G1 X112.345 Y112.230 E0.01756
G1 X112.549 Y111.708 E0.01756
G1 X112.807 Y111.211 E0.01756
G1 X113.117 Y110.744 E0.01756
G1 X113.474 Y110.313 E0.01756
G1 X113.876 Y109.922 E0.01756
G1 X114.135 Y109.719 E0.01033
G1 X114.099 Y109.267 F10800.000
G1 F1200
G1 X114.608 Y108.949 E0.01882
G1 X115.148 Y108.686 E0.01882
G1 X115.713 Y108.483 E0.01882
G1 X116.296 Y108.340 E0.01882
G1 X116.891 Y108.261 E0.01882
G1 X117.491 Y108.245 E0.01882
G1 X118.028 Y108.288 E0.01690
G1 X118.680 Y108.404 E0.02076
G1 X119.254 Y108.577 E0.01879
G1 X119.807 Y108.810 E0.01882
G1 X120.332 Y109.101 E0.01882
G1 X120.823 Y109.446 E0.01882
G1 X121.275 Y109.842 E0.01882
G1 X121.682 Y110.283 E0.01882
G1 X122.040 Y110.765 E0.01882
G1 X122.345 Y111.282 E0.01882
G1 X122.593 Y111.829 E0.01882
G1 X122.782 Y112.399 E0.01882
G1 X122.909 Y112.985 E0.01882
G1 X122.972 Y113.582 E0.01882
G1 X122.972 Y114.182 E0.01882
G1 X122.909 Y114.779 E0.01882
G1 X122.782 Y115.366 E0.01882
G1 X122.593 Y115.936 E0.01882
G1 X122.345 Y116.483 E0.01882
G1 X122.040 Y117.000 E0.01882
G1 X121.682 Y117.482 E0.01882
G1 X121.275 Y117.923 E0.01882
G1 X120.823 Y118.318 E0.01882
G1 X120.332 Y118.663 E0.01882
G1 X119.807 Y118.954 E0.01882
G1 X119.254 Y119.188 E0.01882
G1 X118.679 Y119.361 E0.01882
G1 X118.089 Y119.472 E0.01882
G1 X117.491 Y119.520 E0.01882
G1 X116.891 Y119.504 E0.01882
G1 X116.296 Y119.424 E0.01882
G1 X115.713 Y119.282 E0.01882
G1 X115.148 Y119.078 E0.01882
G1 X114.608 Y118.816 E0.01882
G1 X114.099 Y118.497 E0.01882
G1 X113.627 Y118.127 E0.01882
G1 X113.197 Y117.708 E0.01882
G1 X112.814 Y117.246 E0.01882
G1 X112.482 Y116.745 E0.01882
G1 X112.205 Y116.213 E0.01882
G1 X111.986 Y115.654 E0.01882
G1 X111.828 Y115.074 E0.01882
G1 X111.733 Y114.482 E0.01882
G1 X111.701 Y113.882 E0.01882
G1 X111.733 Y113.283 E0.01882
G1 X111.828 Y112.690 E0.01882
G1 X111.986 Y112.111 E0.01882
G1 X112.205 Y111.552 E0.01882
G1 X112.482 Y111.019 E0.01882
G1 X112.814 Y110.519 E0.01882
G1 X113.197 Y110.057 E0.01882
G1 X113.627 Y109.638 E0.01882
G1 X114.052 Y109.304 E0.01694
G1 X114.462 Y109.436 F10800.000
G1 X114.504 Y109.884
G1 F1200
G1 X114.897 Y109.634 E0.01290
G1 X115.294 Y109.430 E0.01236
G1 X115.707 Y109.263 E0.01236
G1 X116.119 Y109.137 E0.01194
G1 X116.556 Y109.045 E0.01236
G1 X116.998 Y108.992 E0.01236
G1 X117.471 Y108.985 E0.01310
G1 X117.934 Y109.017 E0.01286
G1 X118.508 Y109.123 E0.01618
G1 X119.003 Y109.272 E0.01433
G1 X119.484 Y109.475 E0.01446
G1 X119.941 Y109.727 E0.01446
G1 X120.353 Y110.015 E0.01394
G1 X120.691 Y110.306 E0.01237
G1 X121.002 Y110.626 E0.01236
G1 X121.274 Y110.960 E0.01194
G1 X121.523 Y111.330 E0.01236
G1 X121.739 Y111.720 E0.01236
G1 X121.918 Y112.129 E0.01236
G1 X122.070 Y112.592 E0.01352
G1 X122.180 Y113.103 E0.01446
G1 X122.234 Y113.622 E0.01446
G1 X122.234 Y114.143 E0.01446
G1 X122.180 Y114.662 E0.01446
G1 X122.070 Y115.172 E0.01446
G1 X121.918 Y115.636 E0.01352
G1 X121.739 Y116.044 E0.01236
G1 X121.531 Y116.422 E0.01194
G1 X121.283 Y116.792 E0.01236
G1 X121.002 Y117.139 E0.01236
G1 X120.691 Y117.459 E0.01236
G1 X120.353 Y117.750 E0.01237
G1 X119.941 Y118.038 E0.01394
G1 X119.484 Y118.290 E0.01446
G1 X119.003 Y118.492 E0.01446
G1 X118.504 Y118.643 E0.01446
G1 X117.991 Y118.740 E0.01446
G1 X117.471 Y118.783 E0.01446
G1 X116.998 Y118.772 E0.01311
G1 X116.571 Y118.722 E0.01194
G1 X116.119 Y118.627 E0.01278
G1 X115.707 Y118.502 E0.01194
G1 X115.294 Y118.334 E0.01236
G1 X114.884 Y118.123 E0.01279
G1 X114.520 Y117.892 E0.01194
G1 X114.113 Y117.571 E0.01436
G1 X113.740 Y117.207 E0.01446
G1 X113.407 Y116.805 E0.01446
G1 X113.118 Y116.370 E0.01446
G1 X112.877 Y115.908 E0.01446
G1 X112.686 Y115.422 E0.01446
G1 X112.568 Y114.996 E0.01226
G1 X112.485 Y114.542 E0.01279
G1 X112.446 Y114.098 E0.01236
G1 X112.446 Y113.667 E0.01194
G1 X112.487 Y113.208 E0.01278
G1 X112.564 Y112.784 E0.01194
G1 X112.686 Y112.342 E0.01269
G1 X112.877 Y111.857 E0.01446
G1 X113.118 Y111.394 E0.01446
G1 X113.408 Y110.961 E0.01446
G1 X113.740 Y110.558 E0.01446
G1 X114.113 Y110.193 E0.01446
G1 X114.457 Y109.921 E0.01217
G1 E-0.80000 F2100.00000
G1 Z0.800 F10800.000
G1 X116.620 Y127.145
G1 Z0.200
G1 E0.80000 F2100.00000
G1 F1200
G1 X117.031 Y127.098 E0.01297
G1 X117.337 Y127.091 E0.00960
G1 X117.851 Y127.116 E0.01614
G1 X118.265 Y127.183 E0.01315
G1 X118.666 Y127.285 E0.01297
G1 X119.056 Y127.424 E0.01297
G1 X119.431 Y127.597 E0.01297
G1 X119.790 Y127.804 E0.01297
G1 X120.128 Y128.042 E0.01297
G1 X120.442 Y128.311 E0.01297
G1 X120.732 Y128.606 E0.01297
G1 X120.993 Y128.927 E0.01297
G1 X121.223 Y129.271 E0.01297
G1 X121.422 Y129.634 E0.01297
G1 X121.587 Y130.013 E0.01297
G1 X121.717 Y130.406 E0.01297
G1 X121.810 Y130.809 E0.01297
G1 X121.866 Y131.219 E0.01297
G1 X121.885 Y131.632 E0.01297
G1 X121.866 Y132.045 E0.01297
G1 X121.810 Y132.455 E0.01297
G1 X121.717 Y132.858 E0.01297
G1 X121.587 Y133.251 E0.01297
G1 X121.422 Y133.630 E0.01297
G1 X121.223 Y133.993 E0.01297
G1 X120.993 Y134.336 E0.01297
G1 X120.732 Y134.657 E0.01297
G1 X120.442 Y134.953 E0.01297
G1 X120.128 Y135.221 E0.01297
G1 X119.790 Y135.460 E0.01297
G1 X119.431 Y135.667 E0.01297
G1 X119.056 Y135.840 E0.01297
G1 X118.666 Y135.979 E0.01297
G1 X118.265 Y136.081 E0.01297
G1 X117.857 Y136.147 E0.01297
G1 X117.444 Y136.175 E0.01297
G1 X117.031 Y136.166 E0.01297
G1 X116.620 Y136.119 E0.01297
G1 X116.215 Y136.035 E0.01297
G1 X115.819 Y135.914 E0.01297
G1 X115.436 Y135.758 E0.01297
G1 X115.068 Y135.567 E0.01297
G1 X114.720 Y135.344 E0.01297
G1 X114.393 Y135.091 E0.01297
G1 X114.091 Y134.808 E0.01297
G1 X113.816 Y134.500 E0.01297
G1 X113.569 Y134.167 E0.01297
G1 X113.354 Y133.814 E0.01297
G1 X113.172 Y133.442 E0.01297
G1 X113.025 Y133.056 E0.01297
G1 X112.914 Y132.657 E0.01297
G1 X112.839 Y132.251 E0.01297
G1 X112.801 Y131.839 E0.01297
G1 X112.801 Y131.425 E0.01297
G1 X112.839 Y131.013 E0.01297
G1 X112.914 Y130.606 E0.01297
G1 X113.025 Y130.208 E0.01297
G1 X113.172 Y129.821 E0.01297
G1 X113.354 Y129.450 E0.01297
G1 X113.514 Y129.188 E0.00960
G1 X113.812 Y128.768 E0.01614
G1 X114.091 Y128.455 E0.01316
G1 X114.393 Y128.173 E0.01297
G1 X114.720 Y127.919 E0.01297
G1 X115.068 Y127.696 E0.01297
G1 X115.436 Y127.506 E0.01297
G1 X115.819 Y127.350 E0.01297
G1 X116.215 Y127.229 E0.01297
G1 X116.561 Y127.157 E0.01109
G1 X116.638 Y127.526 F10800.000
G1 F1200
G1 X117.056 Y127.475 E0.01323
G1 X117.332 Y127.468 E0.00864
G1 X117.812 Y127.492 E0.01507
G1 X118.188 Y127.552 E0.01196
G1 X118.556 Y127.646 E0.01189
G1 X118.913 Y127.773 E0.01189
G1 X119.258 Y127.932 E0.01189
G1 X119.586 Y128.122 E0.01189
G1 X119.896 Y128.341 E0.01189
G1 X120.185 Y128.587 E0.01189
G1 X120.450 Y128.858 E0.01189
G1 X120.689 Y129.152 E0.01189
G1 X120.901 Y129.467 E0.01189
G1 X121.083 Y129.800 E0.01189
G1 X121.234 Y130.147 E0.01189
G1 X121.353 Y130.508 E0.01189
G1 X121.439 Y130.877 E0.01189
G1 X121.490 Y131.253 E0.01189
G1 X121.508 Y131.632 E0.01189
G1 X121.490 Y132.011 E0.01189
G1 X121.439 Y132.387 E0.01189
G1 X121.353 Y132.756 E0.01189
G1 X121.234 Y133.116 E0.01189
G1 X121.083 Y133.464 E0.01189
G1 X120.901 Y133.797 E0.01189
G1 X120.689 Y134.112 E0.01189
G1 X120.450 Y134.406 E0.01189
G1 X120.185 Y134.677 E0.01189
G1 X119.896 Y134.923 E0.01189
G1 X119.586 Y135.142 E0.01189
