; generated by PrusaSlicer 2.2.0+win64 on 2020-08-27 at 16:16:05 UTC

; 

; external perimeters extrusion width = 0.45mm
; perimeters extrusion width = 0.45mm
; infill extrusion width = 0.45mm
; solid infill extrusion width = 0.45mm
; top infill extrusion width = 0.40mm
; support material extrusion width = 0.35mm
; first layer extrusion width = 0.42mm

M73 P0 R102
M201 X9000 Y9000 Z500 E10000 ; sets maximum accelerations, mm/sec^2
M203 X500 Y500 Z12 E120 ; sets maximum feedrates, mm/sec
M204 P2000 R1500 T2000 ; sets acceleration (P, T) and retract acceleration (R), mm/sec^2
M205 X10.00 Y10.00 Z0.20 E2.50 ; sets the jerk limits, mm/sec
M205 S0 T0 ; sets the minimum extruding and travel feed rate, mm/sec
M107
M862.3 P "MK2S" ; printer model check
M862.1 P0.4 ; nozzle diameter check
M115 U3.2.3 ; tell printer latest fw version
G90 ; use absolute coordinates
M83 ; extruder relative mode
M204 S2000 T1500 ; MK2 firmware only supports the old M204 format
M104 S215 ; set extruder temp
M140 S60 ; set bed temp
M190 S60 ; wait for bed temp
M109 S215 ; wait for extruder temp
G28 W ; home all without mesh bed level
G80 ; mesh bed leveling
G1 Y-3.0 F1000.0 ; go outside print area
G92 E0.0
G1 X60.0 E9.0  F1000.0 ; intro line
M73 P0 R101
G1 X100.0 E12.5 F1000.0 ; intro line
G92 E0.0
G21 ; set units to millimeters
G90 ; use absolute coordinates
M83 ; use relative distances for extrusion
M900 K0.06 ; Filament gcode LA 1.5
M900 K30 ; Filament gcode LA 1.0
;BEFORE_LAYER_CHANGE
G92 E0.0
;0.2


G1 E-0.80000 F2100.00000
G1 Z0.600 F10800.000
;AFTER_LAYER_CHANGE
;0.2
G1 X90.572 Y54.856
G1 Z0.200
G1 E0.80000 F2100.00000
M204 S1000
G1 F1200.000
G1 X82.996 Y62.432 E0.33592
G1 X83.529 Y62.965 E0.02365
G1 X90.985 Y55.509 E0.33060
G1 X91.518 Y56.043 E0.02365
G1 X84.062 Y63.498 E0.33060
G1 X84.128 Y63.564 E0.00289
G1 X82.496 Y65.195 E0.07234
G1 X82.964 Y65.663 E0.02075
G1 X93.683 Y54.945 E0.47527
G1 X94.216 Y55.478 E0.02365
G1 X83.498 Y66.196 E0.47527
G1 X84.031 Y66.730 E0.02365
G1 X94.749 Y56.011 E0.47527
G1 X94.846 Y56.108 E0.00429
G1 X96.477 Y54.477 E0.07234
G1 X96.914 Y54.913 E0.01936
G1 X82.933 Y68.894 E0.61995
G1 X83.466 Y69.428 E0.02365
G1 X97.447 Y55.446 E0.61995
G1 X97.980 Y55.980 E0.02365
G1 X83.999 Y69.961 E0.61995
G1 X84.128 Y70.089 E0.00569
G1 X82.496 Y71.720 E0.07234
G1 X82.901 Y72.125 E0.01796
G1 X98.514 Y56.513 E0.69228
G1 X99.047 Y57.046 E0.02365
G1 X83.434 Y72.659 E0.69228
G1 X83.968 Y73.192 E0.02365
G1 X99.580 Y57.579 E0.69228
G1 X100.114 Y58.113 E0.02365
G1 X82.870 Y75.357 E0.76462
G1 X83.403 Y75.890 E0.02365
G1 X100.647 Y58.646 E0.76462
G1 X101.180 Y59.179 E0.02365
G1 X83.816 Y76.543 E0.76994
G1 E-0.80000 F2100.00000
G1 Z0.800 F10800.000
G1 X91.734 Y70.044
G1 Z0.200
G1 E0.80000 F2100.00000
G1 F1200.000
G1 X88.373 Y73.404 E0.12135
G1 X88.732 Y73.763 E0.01295
G1 X91.994 Y70.500 E0.11782
G1 X92.353 Y70.859 E0.01295
G1 X89.090 Y74.122 E0.11782
G1 X89.449 Y74.480 E0.01295
G1 X92.712 Y71.217 E0.11782
G1 X93.070 Y71.576 E0.01295
G1 X89.807 Y74.839 E0.11782
G1 X89.952 Y74.983 E0.00522
G1 X88.321 Y76.614 E0.05891
G1 X88.535 Y76.829 E0.00773
G1 X95.060 Y70.303 E0.23564
G1 X95.419 Y70.662 E0.01295
G1 X88.893 Y77.187 E0.23564
G1 X89.252 Y77.546 E0.01295
G1 X95.777 Y71.020 E0.23564
G1 X96.136 Y71.379 E0.01295
G1 X89.610 Y77.904 E0.23564
G1 X89.952 Y78.246 E0.01234
G1 X88.321 Y79.877 E0.05891
G1 X88.338 Y79.894 E0.00061
G1 X94.863 Y73.369 E0.23563
G1 X95.222 Y73.727 E0.01295
G1 X88.696 Y80.253 E0.23563
G1 X89.055 Y80.611 E0.01295
G1 X95.580 Y74.086 E0.23563
G1 X95.939 Y74.444 E0.01295
G1 X89.413 Y80.970 E0.23564
G1 X89.772 Y81.328 E0.01295
G1 X96.297 Y74.803 E0.23564
G1 X96.477 Y74.983 E0.00651
G1 X94.846 Y76.614 E0.05891
G1 X95.024 Y76.793 E0.00644
G1 X88.499 Y83.318 E0.23564
G1 X88.858 Y83.677 E0.01295
G1 X95.383 Y77.151 E0.23564
G1 X95.742 Y77.510 E0.01295
G1 X89.216 Y84.035 E0.23563
G1 X89.575 Y84.394 E0.01295
G1 X96.100 Y77.869 E0.23563
G1 X96.459 Y78.227 E0.01295
G1 X89.933 Y84.753 E0.23564
G1 X89.952 Y84.771 E0.00068
G1 X88.321 Y86.403 E0.05891
G1 X88.660 Y86.742 E0.01227
G1 X95.186 Y80.217 E0.23563
G1 X95.544 Y80.576 E0.01295
G1 X89.019 Y87.101 E0.23563
G1 X89.378 Y87.460 E0.01295
G1 X95.903 Y80.934 E0.23563
G1 X96.262 Y81.293 E0.01295
G1 X89.736 Y87.818 E0.23563
G1 X89.952 Y88.034 E0.00779
G1 X88.321 Y89.665 E0.05891
G1 X88.463 Y89.808 E0.00515
G1 X96.620 Y81.651 E0.29454
G1 X96.979 Y82.010 E0.01295
G1 X88.822 Y90.167 E0.29454
G1 X89.180 Y90.525 E0.01295
G1 X97.337 Y82.368 E0.29454
G1 X97.696 Y82.727 E0.01295
G1 X89.539 Y90.884 E0.29454
G1 X89.898 Y91.242 E0.01295
G1 X98.054 Y83.085 E0.29454
G1 X98.109 Y83.140 E0.00197
G1 X96.477 Y84.771 E0.05891
G1 X96.782 Y85.075 E0.01098
G1 X88.625 Y93.232 E0.29454
G1 X88.983 Y93.591 E0.01295
G1 X97.140 Y85.434 E0.29454
G1 X97.499 Y85.792 E0.01295
G1 X89.342 Y93.949 E0.29454
G1 X89.700 Y94.308 E0.01295
G1 X97.857 Y86.151 E0.29454
G1 X98.109 Y86.403 E0.00908
G1 X96.477 Y88.034 E0.05891
G1 X96.584 Y88.141 E0.00386
G1 X88.428 Y96.298 E0.29454
G1 X88.786 Y96.656 E0.01295
G1 X96.943 Y88.500 E0.29454
G1 X97.302 Y88.858 E0.01295
G1 X89.145 Y97.015 E0.29454
G1 X89.503 Y97.373 E0.01295
G1 X97.660 Y89.217 E0.29454
G1 X98.019 Y89.575 E0.01295
G1 X89.862 Y97.732 E0.29454
G1 X89.952 Y97.822 E0.00325
G1 X88.321 Y99.453 E0.05891
G1 X88.589 Y99.722 E0.00970
G1 X96.746 Y91.565 E0.29454
G1 X97.104 Y91.924 E0.01295
G1 X88.850 Y100.178 E0.29807
G1 X88.356 Y99.733 F10800.000
G1 F1200.000
G1 X82.195 Y105.895 E0.27322
G1 X82.728 Y106.428 E0.02365
G1 X88.770 Y100.386 E0.26790
G1 X89.303 Y100.920 E0.02365
G1 X83.261 Y106.961 E0.26790
G1 X83.795 Y107.494 E0.02365
G1 X88.205 Y103.084 E0.19556
G1 X88.738 Y103.617 E0.02365
G1 X84.328 Y108.028 E0.19556
G1 X84.722 Y108.422 E0.01747
G1 X84.747 Y108.397 E0.00111
G1 X85.025 Y108.397 E0.00874
G1 X89.271 Y104.151 E0.18827
G1 X89.805 Y104.684 E0.02365
G1 X87.026 Y107.463 E0.12322
G1 X87.559 Y107.996 E0.02365
G1 X90.338 Y105.217 E0.12322
G1 X90.871 Y105.751 E0.02365
G1 X87.972 Y108.649 E0.12854
G1 X86.329 Y108.436 F10800.000
G1 F1200.000
G1 X86.922 Y107.843 E0.02142
G1 X87.281 Y108.201 E0.01295
G1 X86.556 Y108.926 E0.02618
G1 X86.556 Y109.154 E0.00580
G1 X87.047 Y109.152 E0.01255
G1 X87.639 Y108.560 E0.02138
G1 X87.998 Y108.919 E0.01295
G1 X87.637 Y109.279 E0.01301
G1 X87.882 Y109.806 F10800.000
G1 F1200.000
G1 X88.208 Y109.480 E0.01445
G1 X87.129 Y109.493 E0.03383
G1 X86.800 Y109.822 E0.01459
G1 X84.612 Y108.719 F10800.000
G1 F1200.000
G1 X84.207 Y109.124 E0.01464
G1 X84.233 Y108.777 E0.00890
G1 X83.865 Y108.749 E0.00942
G1 X84.215 Y108.399 E0.01265
G1 X83.856 Y108.040 E0.01295
G1 X83.179 Y108.717 E0.02445
G1 X82.456 Y108.723 E0.01847
G1 X83.498 Y107.681 E0.03761
G1 X83.139 Y107.323 E0.01295
G1 X81.659 Y108.803 E0.05346
G1 X81.410 Y108.835 E0.00641
G1 X80.700 Y109.045 E0.01890
G1 X82.781 Y106.964 E0.07514
G1 X82.422 Y106.606 E0.01295
G1 X79.680 Y109.348 E0.09901
G1 X79.573 Y109.389 E0.00293
G1 X79.176 Y109.613 E0.01163
G1 X79.002 Y110.026 E0.01146
G1 X74.265 Y114.763 E0.17103
G1 X74.624 Y115.121 E0.01295
G1 X79.142 Y110.603 E0.16314
G1 X79.161 Y110.678 E0.00196
G1 X79.513 Y110.949 E0.01135
G1 X74.983 Y115.480 E0.16360
G1 X75.270 Y115.767 E0.01037
G1 X76.901 Y114.136 E0.05891
G1 X76.972 Y114.207 E0.00258
G1 X80.216 Y110.963 E0.11713
G1 X80.898 Y110.963 E0.01741
G1 X80.908 Y110.988 E0.00069
G1 X77.331 Y114.565 E0.12918
G1 X77.690 Y114.924 E0.01295
G1 X81.468 Y111.145 E0.13645
G1 X82.185 Y111.146 E0.01830
G1 X78.048 Y115.283 E0.14938
G1 X78.407 Y115.641 E0.01295
G1 X82.902 Y111.146 E0.16231
G1 X83.398 Y111.147 E0.01269
G1 X83.473 Y111.292 E0.00417
G1 X80.397 Y114.368 E0.11109
G1 X80.755 Y114.727 E0.01295
G1 X84.043 Y111.439 E0.11874
G1 X84.474 Y111.438 E0.01099
G1 X84.474 Y111.570 E0.00336
G1 X84.039 Y111.569 E0.01110
G1 X84.001 Y112.198 E0.01608
G1 X81.114 Y115.085 E0.10427
G1 X81.472 Y115.444 E0.01295
G1 X84.376 Y112.541 E0.10485
G1 X84.474 Y112.552 E0.00252
G1 X84.474 Y113.160 E0.01551
G1 X83.462 Y114.171 E0.03652
G1 X83.821 Y114.530 E0.01295
G1 X84.675 Y113.676 E0.03083
G1 X84.761 Y113.763 E0.00313
G1 X85.305 Y113.763 E0.01388
G1 X84.179 Y114.888 E0.04064
G1 X84.538 Y115.247 E0.01295
G1 X87.183 Y112.602 E0.09550
G1 X87.894 Y112.608 E0.01818
G1 X84.799 Y115.703 E0.11179
G1 E-0.80000 F2100.00000
G1 Z0.800 F10800.000
G1 X92.495 Y102.270
G1 Z0.200
G1 E0.80000 F2100.00000
G1 F1200.000
G1 X92.649 Y102.116 E0.00557
G1 X92.648 Y101.399 E0.01829
G1 X92.230 Y101.818 E0.01512
G1 X90.497 Y102.925 F10800.000
G1 F1200.000
G1 X90.908 Y102.514 E0.01823
G1 X91.061 Y102.270 F10800.000
G1 F1200.000
G1 X93.080 Y100.251 E0.07290
G1 X93.114 Y100.308 F10800.000
G1 F1200.000
G1 X94.772 Y98.650 E0.07353
G1 X94.920 Y99.150 E0.01634
G1 X94.961 Y99.527 E0.01190
G1 X93.502 Y100.986 E0.06471
G1 X93.729 Y101.159 E0.00893
G1 X93.932 Y101.262 E0.00715
G1 X94.044 Y101.370 E0.00488
G1 X94.095 Y101.460 E0.00324
G1 X95.035 Y100.520 E0.04168
G1 X94.995 Y101.524 E0.03150
G1 X94.579 Y101.493 E0.01309
G1 X94.598 Y102.024 E0.01666
G1 X94.355 Y102.267 E0.01077
G1 X94.803 Y102.114 F10800.000
G1 F1200.000
G1 X95.174 Y101.742 E0.01342
G1 X93.506 Y98.849 F10800.000
G1 F1200.000
G1 X94.528 Y97.828 E0.04531
G1 X94.407 Y97.419 E0.01338
G1 X94.234 Y97.104 E0.01124
G1 X94.199 Y97.090 E0.00118
G1 X93.297 Y97.992 E0.04003
G1 X97.884 Y99.033 F10800.000
G1 F1200.000
G1 X95.334 Y101.582 E0.09206
G1 X95.371 Y100.828 E0.01927
G1 X97.427 Y98.772 E0.07426
G1 X97.069 Y98.413 E0.01295
G1 X95.365 Y100.117 E0.06153
G1 X95.299 Y99.466 E0.01672
G1 X96.710 Y98.055 E0.05095
G1 X96.477 Y97.822 E0.00841
G1 X98.109 Y96.191 E0.05891
G1 X97.983 Y96.065 E0.00454
G1 X95.190 Y98.857 E0.10084
G1 X95.026 Y98.304 E0.01473
G1 X97.624 Y95.706 E0.09382
G1 X97.266 Y95.348 E0.01295
G1 X94.862 Y97.751 E0.08679
G1 X94.687 Y97.210 E0.01454
G1 X96.907 Y94.989 E0.08019
G1 X96.549 Y94.631 E0.01295
G1 X94.383 Y96.796 E0.07819
G1 X94.044 Y96.653 E0.00941
G1 X93.726 Y96.736 E0.00840
G1 X97.822 Y92.641 E0.14789
G1 X97.463 Y92.282 E0.01295
G1 X89.306 Y100.439 E0.29454
G1 X89.665 Y100.798 E0.01295
G1 X93.124 Y97.338 E0.12493
G1 X93.124 Y98.055 E0.01831
G1 X88.392 Y102.787 E0.17089
G1 X88.750 Y103.146 E0.01295
G1 X92.942 Y98.954 E0.15136
G1 X92.942 Y99.672 E0.01832
G1 X89.109 Y103.505 E0.13841
G1 X89.468 Y103.863 E0.01295
G1 X90.325 Y103.006 E0.03095
G1 X90.325 Y103.723 E0.01831
G1 X89.826 Y104.222 E0.01800
G1 X90.185 Y104.580 E0.01295
G1 X90.680 Y104.085 E0.01789
G1 X90.809 Y104.214 E0.00466
G1 X91.268 Y104.214 E0.01172
G1 X90.543 Y104.939 E0.02618
G1 X90.902 Y105.297 E0.01295
G1 X91.486 Y104.713 E0.02111
G1 X91.480 Y105.436 E0.01848
G1 X91.163 Y105.754 E0.01146
G1 X91.652 Y106.036 F10800.000
G1 F1200.000
G1 X91.964 Y105.724 E0.01381
G1 X91.980 Y104.642 E0.03395
G1 X91.657 Y104.965 E0.01434
G1 X94.281 Y105.540 F10800.000
G1 F1200.000
G1 X94.603 Y105.218 E0.01428
G1 X94.592 Y104.249 E0.03039
G1 X94.506 Y104.249 E0.00270
G1 X94.266 Y104.489 E0.01065
G1 X94.803 Y104.982 F10800.000
G1 F1200.000
G1 X95.957 Y103.827 E0.04170
G1 X96.316 Y104.186 E0.01295
G1 X94.811 Y105.691 E0.05434
G1 X95.141 Y106.078 F10800.000
G1 F1200.000
G1 X94.937 Y106.282 E0.00736
G1 X95.156 Y108.931 F10800.000
G1 F1200.000
G1 X94.560 Y109.528 E0.02645
G1 X91.957 Y108.931 F10800.000
G1 F1200.000
G1 X91.273 Y109.615 E0.03032
G1 E-0.80000 F2100.00000
G1 Z0.800 F10800.000
G1 X98.009 Y108.947
G1 Z0.200
G1 E0.80000 F2100.00000
G1 F1200.000
G1 X97.800 Y109.156 E0.00755
G1 X98.559 Y109.795 F10800.000
G1 F1200.000
G1 X98.871 Y109.482 E0.01386
G1 X99.839 Y109.491 E0.03032
G1 X99.839 Y109.582 E0.00284
G1 X99.610 Y109.810 E0.01015
G1 X102.162 Y109.392 F10800.000
G1 F1200.000
G1 X101.821 Y109.732 E0.01511
G1 X100.854 Y108.566 F10800.000
G1 F1200.000
G1 X101.265 Y108.155 E0.01823
G1 X101.631 Y106.043 F10800.000
G1 F1200.000
G1 X98.535 Y109.138 E0.11178
G1 X99.247 Y109.143 E0.01818
G1 X101.891 Y106.499 E0.09550
G1 X102.250 Y106.857 E0.01295
G1 X101.124 Y107.983 E0.04064
G1 X101.668 Y107.983 E0.01388
G1 X101.755 Y108.070 E0.00313
G1 X102.609 Y107.216 E0.03083
G1 X102.967 Y107.574 E0.01295
G1 X101.956 Y108.586 E0.03652
G1 X101.956 Y109.194 E0.01552
G1 X102.054 Y109.205 E0.00252
G1 X104.957 Y106.302 E0.10485
G1 X105.316 Y106.660 E0.01295
G1 X102.428 Y109.548 E0.10427
G1 X102.390 Y110.176 E0.01608
G1 X101.956 Y110.176 E0.01110
G1 X101.956 Y110.307 E0.00336
G1 X102.386 Y110.307 E0.01099
G1 X105.674 Y107.019 E0.11874
G1 X106.033 Y107.377 E0.01295
G1 X102.956 Y110.454 E0.11110
G1 X103.031 Y110.599 E0.00417
G1 X103.528 Y110.599 E0.01269
G1 X108.023 Y106.105 E0.16231
G1 X108.381 Y106.463 E0.01295
G1 X104.244 Y110.600 E0.14938
G1 X104.961 Y110.600 E0.01830
G1 X108.740 Y106.822 E0.13645
G1 X109.098 Y107.180 E0.01295
G1 X105.521 Y110.758 E0.12918
G1 X105.531 Y110.783 E0.00069
G1 X106.213 Y110.783 E0.01741
G1 X109.457 Y107.539 E0.11713
G1 X109.528 Y107.610 E0.00258
G1 X111.160 Y105.979 E0.05891
G1 X111.447 Y106.266 E0.01037
G1 X106.916 Y110.797 E0.16360
G1 X107.268 Y111.068 E0.01135
M73 P1 R100
G1 X107.288 Y111.142 E0.00196
G1 X111.805 Y106.625 E0.16314
G1 X112.164 Y106.983 E0.01295
G1 X107.168 Y111.979 E0.18041
G1 X105.306 Y112.646 F10800.000
G1 F1200.000
G1 X106.808 Y111.145 E0.06657
G1 X106.781 Y111.125 E0.00104
G1 X105.761 Y111.125 E0.03198
G1 X104.233 Y112.653 E0.06775
G1 X103.889 Y112.687 E0.01085
G1 X103.136 Y112.683 E0.02360
G1 X104.614 Y111.206 E0.06550
G1 X104.614 Y110.942 E0.00827
G1 X103.811 Y110.942 E0.02515
G1 X102.335 Y112.418 E0.06546
G1 X102.373 Y112.472 F10800.000
G1 F1200.000
G1 X101.956 Y112.889 E0.01506
G1 X101.956 Y113.089 E0.00510
G1 X102.214 Y113.347 E0.00934
G1 X102.565 Y112.997 E0.01265
G1 X103.250 Y113.029 E0.01751
G1 X102.573 Y113.706 E0.02445
G1 X102.931 Y114.064 E0.01295
G1 X103.973 Y113.023 E0.03761
G1 X104.770 Y112.942 E0.02047
G1 X103.290 Y114.423 E0.05346
G1 X103.649 Y114.781 E0.01295
G1 X105.729 Y112.701 E0.07514
G1 X106.749 Y112.398 E0.02716
G1 X104.007 Y115.140 E0.09901
G1 X104.366 Y115.498 E0.01295
G1 X112.522 Y107.342 E0.29454
G1 X112.791 Y107.610 E0.00969
G1 X114.422 Y105.979 E0.05891
G1 X114.512 Y106.069 E0.00325
G1 X106.356 Y114.226 E0.29454
G1 X106.714 Y114.584 E0.01295
G1 X114.871 Y106.427 E0.29454
G1 X115.229 Y106.786 E0.01295
G1 X107.073 Y114.943 E0.29454
G1 X107.431 Y115.301 E0.01295
G1 X115.588 Y107.145 E0.29454
G1 X115.947 Y107.503 E0.01295
G1 X107.790 Y115.660 E0.29454
G1 X107.897 Y115.767 E0.00386
G1 X109.528 Y114.136 E0.05891
G1 X109.780 Y114.387 E0.00908
G1 X117.936 Y106.230 E0.29454
G1 X118.295 Y106.589 E0.01295
G1 X110.138 Y114.746 E0.29454
G1 X110.497 Y115.104 E0.01295
G1 X118.654 Y106.947 E0.29454
G1 X119.012 Y107.306 E0.01295
G1 X110.855 Y115.463 E0.29454
G1 X111.160 Y115.767 E0.01098
G1 X112.791 Y114.136 E0.05891
G1 X112.845 Y114.190 E0.00197
G1 X121.002 Y106.033 E0.29454
G1 X121.361 Y106.392 E0.01295
G1 X113.204 Y114.549 E0.29454
G1 X113.562 Y114.907 E0.01295
G1 X121.719 Y106.750 E0.29454
G1 X122.078 Y107.109 E0.01295
G1 X113.921 Y115.266 E0.29454
G1 X114.280 Y115.624 E0.01295
G1 X122.436 Y107.467 E0.29454
G1 X122.579 Y107.610 E0.00515
G1 X124.210 Y105.979 E0.05891
G1 X124.426 Y106.195 E0.00780
G1 X116.269 Y114.351 E0.29454
G1 X116.628 Y114.710 E0.01295
G1 X124.785 Y106.553 E0.29454
G1 X125.143 Y106.912 E0.01295
G1 X116.987 Y115.069 E0.29454
G1 X117.345 Y115.427 E0.01295
G1 X125.502 Y107.270 E0.29454
G1 X125.842 Y107.610 E0.01227
G1 X127.473 Y105.979 E0.05891
G1 X127.492 Y105.998 E0.00068
G1 X119.335 Y114.154 E0.29454
G1 X119.694 Y114.513 E0.01295
G1 X127.850 Y106.356 E0.29454
G1 X128.209 Y106.715 E0.01295
G1 X120.052 Y114.871 E0.29454
G1 X120.411 Y115.230 E0.01295
G1 X128.567 Y107.073 E0.29454
G1 X128.926 Y107.432 E0.01295
G1 X120.769 Y115.589 E0.29454
G1 X120.948 Y115.767 E0.00644
G1 X124.210 Y112.504 E0.11782
G1 X124.391 Y112.684 E0.00651
G1 X130.916 Y106.159 E0.23564
G1 X131.275 Y106.518 E0.01295
G1 X124.749 Y113.043 E0.23564
G1 X125.108 Y113.402 E0.01295
G1 X131.633 Y106.876 E0.23564
G1 X131.992 Y107.235 E0.01295
G1 X125.466 Y113.760 E0.23564
G1 X125.825 Y114.119 E0.01295
G1 X132.350 Y107.593 E0.23564
G1 X132.709 Y107.952 E0.01295
G1 X127.815 Y112.846 E0.17673
G1 X128.173 Y113.204 E0.01295
G1 X133.067 Y108.310 E0.17673
