; generated by PrusaSlicer 2.1.1+win64 on 2020-04-29 at 15:49:28 UTC

; 

; external perimeters extrusion width = 0.45mm
; perimeters extrusion width = 0.45mm
; infill extrusion width = 0.45mm
; solid infill extrusion width = 0.45mm
; top infill extrusion width = 0.40mm
; first layer extrusion width = 0.42mm

M73 P0 R43
M201 X9000 Y9000 Z500 E10000 ; sets maximum accelerations, mm/sec^2
M203 X500 Y500 Z12 E120 ; sets maximum feedrates, mm/sec
M204 P2000 R1500 T2000 ; sets acceleration (P, T) and retract acceleration (R), mm/sec^2
M205 X10.00 Y10.00 Z0.20 E2.50 ; sets the jerk limits, mm/sec
M205 S0 T0 ; sets the minimum extruding and travel feed rate, mm/sec
M107
M862.3 P "MK2S" ; printer model check
M862.1 P0.4 ; nozzle diameter check
M115 U3.2.3 ; tell printer latest fw version
G90 ; use absolute coordinates
M83 ; extruder relative mode
M204 S2000 T1500 ; MK2 firmware only supports the old M204 format
M104 S215 ; set extruder temp
M140 S60 ; set bed temp
M190 S60 ; wait for bed temp
M109 S215 ; wait for extruder temp
G28 W ; home all without mesh bed level
G80 ; mesh bed leveling
G1 Y-3.0 F1000.0 ; go outside print area
G92 E0.0
G1 X60.0 E9.0  F1000.0 ; intro line
M73 P0 R43
G1 X100.0 E12.5 F1000.0 ; intro line
G92 E0.0
G21 ; set units to millimeters
G90 ; use absolute coordinates
M83 ; use relative distances for extrusion
M900 K30 ; Filament gcode
;BEFORE_LAYER_CHANGE
G92 E0.0
;0.2


G1 E-0.80000 F2100.00000
G1 Z0.600 F10800.000
;AFTER_LAYER_CHANGE
;0.2
G1 X127.344 Y126.242
G1 Z0.200
G1 E0.80000 F2100.00000
M204 S1000
G1 F1200
G1 X120.318 Y126.256 E0.22032
G1 X120.303 Y118.909 E0.23035
G1 X134.459 Y118.882 E0.44386
G1 X134.474 Y126.228 E0.23035
G1 X127.404 Y126.242 E0.22165
G1 X127.345 Y126.619 F10800.000
G1 F1200
G1 X119.941 Y126.634 E0.23214
G1 X119.925 Y118.533 E0.25399
G1 X134.836 Y118.504 E0.46750
G1 X134.851 Y126.604 E0.25399
G1 X127.405 Y126.619 E0.23348
G1 X127.058 Y126.340 F10800.000
G1 E-0.80000 F2100.00000
G1 Z0.800 F10800.000
G1 X120.429 Y125.366
G1 Z0.200
G1 E0.80000 F2100.00000
G1 F1200
G1 X121.035 Y125.972 E0.02731
G1 X121.576 Y125.970 E0.01724
G1 X120.598 Y124.992 E0.04408
G1 X120.597 Y124.449 E0.01731
G1 X122.117 Y125.969 E0.06851
G1 X122.658 Y125.968 E0.01724
G1 X120.596 Y123.906 E0.09293
G1 X120.595 Y123.363 E0.01731
G1 X123.199 Y125.967 E0.11736
G1 X123.740 Y125.966 E0.01724
G1 X120.594 Y122.820 E0.14179
G1 X120.593 Y122.277 E0.01731
G1 X124.281 Y125.965 E0.16622
G1 X124.822 Y125.964 E0.01724
G1 X120.592 Y121.734 E0.19065
G1 X120.590 Y121.191 E0.01731
G1 X125.363 Y125.963 E0.21508
G1 X125.904 Y125.962 E0.01724
G1 X120.589 Y120.648 E0.23951
G1 X120.588 Y120.105 E0.01731
G1 X126.445 Y125.961 E0.26394
G1 X126.986 Y125.960 E0.01724
G1 X120.587 Y119.562 E0.28837
G1 X120.587 Y119.191 E0.01180
G1 X120.759 Y119.191 E0.00548
G1 X127.527 Y125.959 E0.30503
G1 X128.067 Y125.958 E0.01724
G1 X121.300 Y119.190 E0.30503
G1 X121.841 Y119.189 E0.01724
G1 X128.608 Y125.957 E0.30503
G1 X129.149 Y125.956 E0.01724
G1 X122.382 Y119.188 E0.30503
G1 X122.922 Y119.187 E0.01724
G1 X129.690 Y125.955 E0.30503
G1 X130.231 Y125.954 E0.01724
G1 X123.463 Y119.186 E0.30503
G1 X124.004 Y119.185 E0.01724
G1 X130.772 Y125.953 E0.30503
G1 X131.313 Y125.952 E0.01724
G1 X124.545 Y119.184 E0.30503
G1 X125.086 Y119.183 E0.01724
G1 X131.854 Y125.950 E0.30503
G1 X132.395 Y125.949 E0.01724
G1 X125.627 Y119.181 E0.30503
G1 X126.168 Y119.180 E0.01724
G1 X132.936 Y125.948 E0.30503
G1 X133.477 Y125.947 E0.01724
G1 X126.709 Y119.179 E0.30503
G1 X127.250 Y119.178 E0.01724
G1 X134.018 Y125.946 E0.30503
G1 X134.190 Y125.946 E0.00549
G1 X134.190 Y125.576 E0.01180
G1 X127.791 Y119.177 E0.28837
G1 X128.332 Y119.176 E0.01724
G1 X134.189 Y125.033 E0.26394
G1 X134.187 Y124.489 E0.01731
G1 X128.873 Y119.175 E0.23951
G1 X129.414 Y119.174 E0.01724
G1 X134.186 Y123.946 E0.21508
G1 X134.185 Y123.403 E0.01731
G1 X129.955 Y119.173 E0.19065
G1 X130.496 Y119.172 E0.01724
G1 X134.184 Y122.860 E0.16623
G1 X134.183 Y122.317 E0.01731
G1 X131.037 Y119.171 E0.14180
G1 X131.578 Y119.170 E0.01724
G1 X134.182 Y121.774 E0.11737
G1 X134.181 Y121.231 E0.01731
G1 X132.119 Y119.169 E0.09294
G1 X132.660 Y119.168 E0.01724
G1 X134.180 Y120.688 E0.06851
G1 X134.179 Y120.145 E0.01731
G1 X133.201 Y119.167 E0.04408
G1 X133.742 Y119.166 E0.01724
G1 X134.348 Y119.772 E0.02731
G1 E-0.80000 F2100.00000
G1 Z0.800 F10800.000
G1 X167.662 Y82.668
G1 Z0.200
G1 E0.80000 F2100.00000
G1 F1200
G1 X167.204 Y82.646 E0.01439
G1 X166.750 Y82.579 E0.01439
G1 X166.305 Y82.467 E0.01439
G1 X165.872 Y82.312 E0.01439
G1 X165.457 Y82.116 E0.01439
G1 X165.064 Y81.880 E0.01439
G1 X164.695 Y81.607 E0.01439
G1 X164.355 Y81.298 E0.01439
G1 X164.047 Y80.958 E0.01439
G1 X163.773 Y80.589 E0.01439
G1 X163.537 Y80.196 E0.01439
G1 X163.341 Y79.781 E0.01439
G1 X163.186 Y79.349 E0.01439
G1 X163.075 Y78.903 E0.01439
G1 X163.007 Y78.449 E0.01439
G1 X162.985 Y77.991 E0.01439
G1 X163.007 Y77.532 E0.01439
G1 X163.075 Y77.078 E0.01439
G1 X163.186 Y76.633 E0.01439
G1 X163.341 Y76.200 E0.01439
G1 X163.537 Y75.786 E0.01439
G1 X163.773 Y75.392 E0.01439
G1 X164.047 Y75.023 E0.01439
G1 X164.355 Y74.683 E0.01439
G1 X164.695 Y74.375 E0.01439
G1 X165.064 Y74.101 E0.01439
G1 X165.457 Y73.865 E0.01439
G1 X165.872 Y73.669 E0.01439
G1 X166.305 Y73.514 E0.01439
G1 X166.750 Y73.403 E0.01439
G1 X167.200 Y73.336 E0.01428
G1 X167.760 Y73.315 E0.01757
G1 X168.119 Y73.335 E0.01127
G1 X168.575 Y73.403 E0.01445
G1 X169.020 Y73.514 E0.01439
G1 X169.453 Y73.669 E0.01439
G1 X169.868 Y73.865 E0.01439
G1 X170.261 Y74.101 E0.01439
G1 X170.630 Y74.375 E0.01439
G1 X170.970 Y74.683 E0.01439
G1 X171.278 Y75.023 E0.01439
G1 X171.552 Y75.392 E0.01439
G1 X171.788 Y75.786 E0.01439
G1 X171.984 Y76.200 E0.01439
G1 X172.139 Y76.633 E0.01439
G1 X172.250 Y77.078 E0.01439
G1 X172.318 Y77.532 E0.01439
G1 X172.340 Y77.991 E0.01439
G1 X172.318 Y78.449 E0.01439
G1 X172.250 Y78.903 E0.01439
G1 X172.139 Y79.349 E0.01439
G1 X171.984 Y79.781 E0.01439
G1 X171.788 Y80.196 E0.01439
G1 X171.552 Y80.589 E0.01439
G1 X171.278 Y80.958 E0.01439
G1 X170.970 Y81.298 E0.01439
G1 X170.630 Y81.607 E0.01439
G1 X170.261 Y81.880 E0.01439
G1 X169.868 Y82.116 E0.01439
G1 X169.453 Y82.312 E0.01439
G1 X169.020 Y82.467 E0.01439
G1 X168.575 Y82.579 E0.01439
G1 X168.121 Y82.646 E0.01439
G1 X167.722 Y82.665 E0.01251
G1 X167.662 Y83.046 F10800.000
G1 F1200
G1 X167.167 Y83.022 E0.01556
G1 X166.676 Y82.949 E0.01555
G1 X166.195 Y82.828 E0.01556
G1 X165.728 Y82.661 E0.01556
G1 X165.279 Y82.449 E0.01556
G1 X164.854 Y82.194 E0.01556
G1 X164.455 Y81.898 E0.01556
G1 X164.088 Y81.565 E0.01556
G1 X163.755 Y81.198 E0.01556
G1 X163.459 Y80.799 E0.01556
G1 X163.204 Y80.374 E0.01556
G1 X162.992 Y79.925 E0.01556
G1 X162.825 Y79.458 E0.01556
G1 X162.704 Y78.977 E0.01556
G1 X162.632 Y78.486 E0.01556
G1 X162.607 Y77.991 E0.01556
G1 X162.632 Y77.495 E0.01556
G1 X162.704 Y77.004 E0.01556
G1 X162.825 Y76.523 E0.01556
G1 X162.992 Y76.056 E0.01556
G1 X163.204 Y75.608 E0.01556
G1 X163.459 Y75.182 E0.01556
G1 X163.755 Y74.784 E0.01556
G1 X164.088 Y74.416 E0.01556
G1 X164.455 Y74.083 E0.01556
G1 X164.854 Y73.787 E0.01556
G1 X165.279 Y73.532 E0.01556
G1 X165.728 Y73.320 E0.01556
G1 X166.195 Y73.153 E0.01556
G1 X166.676 Y73.032 E0.01556
G1 X167.166 Y72.960 E0.01551
G1 X167.764 Y72.938 E0.01877
G1 X168.157 Y72.960 E0.01236
G1 X168.649 Y73.032 E0.01558
G1 X169.130 Y73.153 E0.01556
G1 X169.597 Y73.320 E0.01556
G1 X170.046 Y73.532 E0.01556
G1 X170.471 Y73.787 E0.01556
G1 X170.870 Y74.083 E0.01556
G1 X171.237 Y74.416 E0.01556
G1 X171.570 Y74.784 E0.01556
G1 X171.866 Y75.182 E0.01556
G1 X172.121 Y75.608 E0.01556
G1 X172.333 Y76.056 E0.01556
G1 X172.500 Y76.523 E0.01556
G1 X172.621 Y77.004 E0.01556
G1 X172.693 Y77.495 E0.01556
G1 X172.718 Y77.991 E0.01556
G1 X172.693 Y78.486 E0.01556
G1 X172.621 Y78.977 E0.01556
G1 X172.500 Y79.458 E0.01556
G1 X172.333 Y79.925 E0.01556
G1 X172.121 Y80.374 E0.01556
G1 X171.866 Y80.799 E0.01556
G1 X171.570 Y81.198 E0.01556
G1 X171.237 Y81.565 E0.01556
G1 X170.870 Y81.898 E0.01556
G1 X170.471 Y82.194 E0.01556
G1 X170.046 Y82.449 E0.01556
G1 X169.597 Y82.661 E0.01556
G1 X169.130 Y82.828 E0.01556
G1 X168.649 Y82.949 E0.01556
G1 X168.158 Y83.022 E0.01556
G1 X167.722 Y83.043 E0.01367
G1 X167.463 Y82.700 F10800.000
G1 X166.366 Y82.366
G1 F1200
G1 X163.563 Y79.563 E0.12588
G1 X163.457 Y79.266 E0.01001
G1 X163.346 Y78.806 E0.01505
G1 X166.847 Y82.307 E0.15726
G1 X167.232 Y82.364 E0.01234
G1 X167.456 Y82.375 E0.00712
G1 X163.278 Y78.198 E0.18763
G1 X163.284 Y77.663 E0.01697
G1 X167.990 Y82.369 E0.21136
G1 X168.469 Y82.308 E0.01535
G1 X163.345 Y77.184 E0.23016
G1 X163.449 Y76.748 E0.01424
G1 X168.905 Y82.204 E0.24507
G1 X169.306 Y82.065 E0.01347
G1 X163.589 Y76.347 E0.25678
G1 X163.759 Y75.978 E0.01293
G1 X169.675 Y81.894 E0.26573
G1 X170.018 Y81.696 E0.01256
G1 X163.957 Y75.635 E0.27223
G1 X164.180 Y75.318 E0.01231
G1 X170.335 Y81.473 E0.27646
G1 X170.628 Y81.227 E0.01218
G1 X164.427 Y75.025 E0.27855
G1 X164.555 Y74.883 E0.00607
G1 X164.697 Y74.755 E0.00607
G1 X170.898 Y80.956 E0.27855
G1 X171.145 Y80.663 E0.01218
G1 X164.990 Y74.508 E0.27646
G1 X165.307 Y74.285 E0.01231
G1 X171.368 Y80.346 E0.27223
G1 X171.566 Y80.004 E0.01256
G1 X165.650 Y74.087 E0.26574
G1 X166.019 Y73.917 E0.01293
G1 X171.736 Y79.634 E0.25679
G1 X171.876 Y79.233 E0.01347
G1 X166.420 Y73.777 E0.24508
G1 X166.856 Y73.673 E0.01424
G1 X171.980 Y78.797 E0.23016
G1 X172.041 Y78.318 E0.01535
G1 X167.337 Y73.614 E0.21129
G1 X167.868 Y73.604 E0.01686
G1 X172.047 Y77.784 E0.18772
G1 X172.036 Y77.560 E0.00712
G1 X171.979 Y77.176 E0.01234
G1 X168.477 Y73.674 E0.15727
G1 X168.938 Y73.785 E0.01505
G1 X169.235 Y73.891 E0.01001
G1 X172.038 Y76.694 E0.12589
G1 X171.636 Y75.753 F10800.000
G1 F1200
G1 X169.900 Y74.017 E0.07797
G1 E-0.80000 F2100.00000
G1 Z0.800 F10800.000
G1 X163.689 Y80.229
G1 Z0.200
G1 E0.80000 F2100.00000
G1 F1200
G1 X165.424 Y81.964 E0.07795
G1 E-0.80000 F2100.00000
G1 Z0.800 F10800.000
G1 X106.014 Y126.242
G1 Z0.200
G1 E0.80000 F2100.00000
G1 F1200
G1 X98.987 Y126.256 E0.22032
G1 X98.973 Y118.909 E0.23035
G1 X113.129 Y118.882 E0.44386
G1 X113.143 Y126.228 E0.23035
G1 X106.074 Y126.242 E0.22165
G1 X106.015 Y126.619 F10800.000
G1 F1200
G1 X98.611 Y126.634 E0.23214
G1 X98.595 Y118.533 E0.25399
G1 X113.505 Y118.504 E0.46750
G1 X113.521 Y126.604 E0.25399
G1 X106.075 Y126.619 E0.23348
G1 X105.728 Y126.340 F10800.000
G1 E-0.80000 F2100.00000
G1 Z0.800 F10800.000
G1 X99.099 Y125.366
G1 Z0.200
G1 E0.80000 F2100.00000
G1 F1200
G1 X99.705 Y125.972 E0.02731
G1 X100.245 Y125.970 E0.01724
G1 X99.268 Y124.992 E0.04408
G1 X99.266 Y124.449 E0.01731
G1 X100.786 Y125.969 E0.06851
G1 X101.327 Y125.968 E0.01724
G1 X99.265 Y123.906 E0.09293
G1 X99.264 Y123.363 E0.01731
G1 X101.868 Y125.967 E0.11736
G1 X102.409 Y125.966 E0.01724
G1 X99.263 Y122.820 E0.14179
G1 X99.262 Y122.277 E0.01731
G1 X102.950 Y125.965 E0.16622
G1 X103.491 Y125.964 E0.01724
G1 X99.261 Y121.734 E0.19065
G1 X99.260 Y121.191 E0.01731
G1 X104.032 Y125.963 E0.21508
G1 X104.573 Y125.962 E0.01724
G1 X99.259 Y120.648 E0.23951
G1 X99.258 Y120.105 E0.01731
G1 X105.114 Y125.961 E0.26394
G1 X105.655 Y125.960 E0.01724
G1 X99.257 Y119.562 E0.28837
G1 X99.256 Y119.191 E0.01180
G1 X99.428 Y119.191 E0.00548
G1 X106.196 Y125.959 E0.30503
G1 X106.737 Y125.958 E0.01724
G1 X99.969 Y119.190 E0.30503
G1 X100.510 Y119.189 E0.01724
G1 X107.278 Y125.957 E0.30503
G1 X107.819 Y125.956 E0.01724
G1 X101.051 Y119.188 E0.30503
G1 X101.592 Y119.187 E0.01724
G1 X108.360 Y125.955 E0.30503
G1 X108.901 Y125.954 E0.01724
G1 X102.133 Y119.186 E0.30503
G1 X102.674 Y119.185 E0.01724
G1 X109.442 Y125.953 E0.30503
G1 X109.983 Y125.952 E0.01724
G1 X103.215 Y119.184 E0.30503
G1 X103.756 Y119.183 E0.01724
G1 X110.524 Y125.950 E0.30503
G1 X111.065 Y125.949 E0.01724
G1 X104.297 Y119.181 E0.30503
G1 X104.838 Y119.180 E0.01724
G1 X111.606 Y125.948 E0.30503
G1 X112.147 Y125.947 E0.01724
G1 X105.379 Y119.179 E0.30503
G1 X105.920 Y119.178 E0.01724
G1 X112.688 Y125.946 E0.30503
G1 X112.860 Y125.946 E0.00549
G1 X112.859 Y125.576 E0.01180
G1 X106.461 Y119.177 E0.28837
G1 X107.002 Y119.176 E0.01724
G1 X112.858 Y125.033 E0.26394
G1 X112.857 Y124.489 E0.01731
G1 X107.543 Y119.175 E0.23951
G1 X108.084 Y119.174 E0.01724
G1 X112.856 Y123.946 E0.21508
G1 X112.855 Y123.403 E0.01731
G1 X108.625 Y119.173 E0.19065
G1 X109.166 Y119.172 E0.01724
G1 X112.854 Y122.860 E0.16623
G1 X112.853 Y122.317 E0.01731
G1 X109.707 Y119.171 E0.14180
G1 X110.248 Y119.170 E0.01724
G1 X112.852 Y121.774 E0.11737
G1 X112.851 Y121.231 E0.01731
G1 X110.789 Y119.169 E0.09294
G1 X111.330 Y119.168 E0.01724
G1 X112.850 Y120.688 E0.06851
G1 X112.849 Y120.145 E0.01731
G1 X111.871 Y119.167 E0.04408
G1 X112.412 Y119.166 E0.01724
G1 X113.018 Y119.772 E0.02731
G1 E-0.80000 F2100.00000
G1 Z0.800 F10800.000
G1 X106.014 Y111.721
G1 Z0.200
G1 E0.80000 F2100.00000
G1 F1200
G1 X98.987 Y111.735 E0.22032
G1 X98.973 Y104.388 E0.23035
G1 X113.129 Y104.361 E0.44386
G1 X113.143 Y111.707 E0.23035
G1 X106.074 Y111.721 E0.22165
G1 X106.015 Y112.098 F10800.000
G1 F1200
G1 X98.611 Y112.113 E0.23214
G1 X98.595 Y104.012 E0.25399
G1 X113.505 Y103.983 E0.46750
G1 X113.521 Y112.084 E0.25399
G1 X106.075 Y112.098 E0.23348
G1 X105.728 Y111.820 F10800.000
G1 E-0.80000 F2100.00000
G1 Z0.800 F10800.000
G1 X99.099 Y110.845
G1 Z0.200
G1 E0.80000 F2100.00000
G1 F1200
G1 X99.705 Y111.451 E0.02731
G1 X100.245 Y111.450 E0.01724
G1 X99.268 Y110.472 E0.04408
G1 X99.266 Y109.929 E0.01731
G1 X100.786 Y111.449 E0.06851
G1 X101.327 Y111.448 E0.01724
G1 X99.265 Y109.386 E0.09293
G1 X99.264 Y108.842 E0.01731
G1 X101.868 Y111.446 E0.11736
G1 X102.409 Y111.445 E0.01724
G1 X99.263 Y108.299 E0.14179
M73 P2 R42
G1 X99.262 Y107.756 E0.01731
G1 X102.950 Y111.444 E0.16622
G1 X103.491 Y111.443 E0.01724
G1 X99.261 Y107.213 E0.19065
G1 X99.260 Y106.670 E0.01731
G1 X104.032 Y111.442 E0.21508
G1 X104.573 Y111.441 E0.01724
G1 X99.259 Y106.127 E0.23951
G1 X99.258 Y105.584 E0.01731
G1 X105.114 Y111.440 E0.26394
G1 X105.655 Y111.439 E0.01724
G1 X99.257 Y105.041 E0.28837
G1 X99.256 Y104.670 E0.01180
G1 X99.428 Y104.670 E0.00548
G1 X106.196 Y111.438 E0.30503
G1 X106.737 Y111.437 E0.01724
G1 X99.969 Y104.669 E0.30503
G1 X100.510 Y104.668 E0.01724
G1 X107.278 Y111.436 E0.30503
G1 X107.819 Y111.435 E0.01724
G1 X101.051 Y104.667 E0.30503
G1 X101.592 Y104.666 E0.01724
G1 X108.360 Y111.434 E0.30503
G1 X108.901 Y111.433 E0.01724
G1 X102.133 Y104.665 E0.30503
G1 X102.674 Y104.664 E0.01724
G1 X109.442 Y111.432 E0.30503
G1 X109.983 Y111.431 E0.01724
G1 X103.215 Y104.663 E0.30503
G1 X103.756 Y104.662 E0.01724
G1 X110.524 Y111.430 E0.30503
G1 X111.065 Y111.429 E0.01724
G1 X104.297 Y104.661 E0.30503
G1 X104.838 Y104.660 E0.01724
G1 X111.606 Y111.428 E0.30503
G1 X112.147 Y111.426 E0.01724
G1 X105.379 Y104.659 E0.30503
G1 X105.920 Y104.658 E0.01724
G1 X112.688 Y111.425 E0.30503
G1 X112.860 Y111.425 E0.00549
G1 X112.859 Y111.055 E0.01180
G1 X106.461 Y104.656 E0.28837
G1 X107.002 Y104.655 E0.01724
G1 X112.858 Y110.512 E0.26394
G1 X112.857 Y109.969 E0.01731
G1 X107.543 Y104.654 E0.23951
G1 X108.084 Y104.653 E0.01724
G1 X112.856 Y109.426 E0.21508
G1 X112.855 Y108.882 E0.01731
G1 X108.625 Y104.652 E0.19065
G1 X109.166 Y104.651 E0.01724
G1 X112.854 Y108.339 E0.16623
G1 X112.853 Y107.796 E0.01731
G1 X109.707 Y104.650 E0.14180
G1 X110.248 Y104.649 E0.01724
G1 X112.852 Y107.253 E0.11737
G1 X112.851 Y106.710 E0.01731
G1 X110.789 Y104.648 E0.09294
G1 X111.330 Y104.647 E0.01724
G1 X112.850 Y106.167 E0.06851
G1 X112.849 Y105.624 E0.01731
G1 X111.871 Y104.646 E0.04408
G1 X112.412 Y104.645 E0.01724
G1 X113.018 Y105.251 E0.02731
G1 E-0.80000 F2100.00000
G1 Z0.800 F10800.000
G1 X184.224 Y82.668
G1 Z0.200
G1 E0.80000 F2100.00000
G1 F1200
G1 X183.765 Y82.646 E0.01439
G1 X183.311 Y82.579 E0.01439
G1 X182.866 Y82.467 E0.01439
G1 X182.434 Y82.312 E0.01439
G1 X182.019 Y82.116 E0.01439
G1 X181.625 Y81.880 E0.01439
G1 X181.256 Y81.607 E0.01439
G1 X180.916 Y81.298 E0.01439
G1 X180.608 Y80.958 E0.01439
G1 X180.334 Y80.589 E0.01439
G1 X180.098 Y80.196 E0.01439
G1 X179.902 Y79.781 E0.01439
G1 X179.747 Y79.349 E0.01439
G1 X179.636 Y78.903 E0.01439
