; generated by PrusaSlicer 2.1.1+win64 on 2020-04-29 at 15:48:40 UTC

; 

; external perimeters extrusion width = 0.45mm
; perimeters extrusion width = 0.45mm
; infill extrusion width = 0.45mm
; solid infill extrusion width = 0.45mm
; top infill extrusion width = 0.40mm
; first layer extrusion width = 0.42mm

M73 P0 R11
M201 X9000 Y9000 Z500 E10000 ; sets maximum accelerations, mm/sec^2
M203 X500 Y500 Z12 E120 ; sets maximum feedrates, mm/sec
M204 P2000 R1500 T2000 ; sets acceleration (P, T) and retract acceleration (R), mm/sec^2
M205 X10.00 Y10.00 Z0.20 E2.50 ; sets the jerk limits, mm/sec
M205 S0 T0 ; sets the minimum extruding and travel feed rate, mm/sec
M107
M862.3 P "MK2S" ; printer model check
M862.1 P0.4 ; nozzle diameter check
M115 U3.2.3 ; tell printer latest fw version
G90 ; use absolute coordinates
M83 ; extruder relative mode
M204 S2000 T1500 ; MK2 firmware only supports the old M204 format
M104 S215 ; set extruder temp
M140 S60 ; set bed temp
M190 S60 ; wait for bed temp
M109 S215 ; wait for extruder temp
G28 W ; home all without mesh bed level
G80 ; mesh bed leveling
G1 Y-3.0 F1000.0 ; go outside print area
G92 E0.0
G1 X60.0 E9.0  F1000.0 ; intro line
M73 P0 R11
G1 X100.0 E12.5 F1000.0 ; intro line
G92 E0.0
G21 ; set units to millimeters
G90 ; use absolute coordinates
M83 ; use relative distances for extrusion
M900 K30 ; Filament gcode
;BEFORE_LAYER_CHANGE
G92 E0.0
;0.2


G1 E-0.80000 F2100.00000
G1 Z0.600 F10800.000
;AFTER_LAYER_CHANGE
;0.2
G1 X119.068 Y117.961
G1 Z0.200
G1 E0.80000 F2100.00000
M204 S1000
G1 F1200
G1 X112.041 Y117.975 E0.22032
G1 X112.027 Y110.628 E0.23035
G1 X126.183 Y110.601 E0.44386
G1 X126.197 Y117.948 E0.23035
G1 X119.128 Y117.961 E0.22165
G1 X119.069 Y118.339 F10800.000
G1 F1200
G1 X111.665 Y118.353 E0.23214
G1 X111.649 Y110.252 E0.25399
G1 X126.559 Y110.223 E0.46750
G1 X126.575 Y118.324 E0.25399
G1 X119.129 Y118.338 E0.23348
G1 X118.782 Y118.060 F10800.000
G1 E-0.80000 F2100.00000
G1 Z0.800 F10800.000
G1 X112.153 Y117.085
G1 Z0.200
G1 E0.80000 F2100.00000
G1 F1200
G1 X112.758 Y117.691 E0.02731
G1 X113.299 Y117.690 E0.01724
G1 X112.321 Y116.712 E0.04408
G1 X112.320 Y116.169 E0.01731
G1 X113.840 Y117.689 E0.06851
G1 X114.381 Y117.688 E0.01724
G1 X112.319 Y115.626 E0.09293
G1 X112.318 Y115.083 E0.01731
G1 X114.922 Y117.687 E0.11736
G1 X115.463 Y117.686 E0.01724
G1 X112.317 Y114.540 E0.14179
G1 X112.316 Y113.997 E0.01731
G1 X116.004 Y117.685 E0.16622
G1 X116.545 Y117.684 E0.01724
G1 X112.315 Y113.453 E0.19065
G1 X112.314 Y112.910 E0.01731
G1 X117.086 Y117.683 E0.21508
G1 X117.627 Y117.681 E0.01724
G1 X112.313 Y112.367 E0.23951
G1 X112.312 Y111.824 E0.01731
G1 X118.168 Y117.680 E0.26394
G1 X118.709 Y117.679 E0.01724
G1 X112.311 Y111.281 E0.28837
G1 X112.310 Y110.911 E0.01180
G1 X112.482 Y110.910 E0.00548
G1 X119.250 Y117.678 E0.30503
G1 X119.791 Y117.677 E0.01724
G1 X113.023 Y110.909 E0.30503
G1 X113.564 Y110.908 E0.01724
G1 X120.332 Y117.676 E0.30503
G1 X120.873 Y117.675 E0.01724
G1 X114.105 Y110.907 E0.30503
G1 X114.646 Y110.906 E0.01724
G1 X121.414 Y117.674 E0.30503
G1 X121.955 Y117.673 E0.01724
G1 X115.187 Y110.905 E0.30503
G1 X115.728 Y110.904 E0.01724
G1 X122.496 Y117.672 E0.30503
G1 X123.037 Y117.671 E0.01724
G1 X116.269 Y110.903 E0.30503
G1 X116.810 Y110.902 E0.01724
G1 X123.578 Y117.670 E0.30503
G1 X124.119 Y117.669 E0.01724
G1 X117.351 Y110.901 E0.30503
G1 X117.892 Y110.900 E0.01724
G1 X124.660 Y117.668 E0.30503
G1 X125.201 Y117.667 E0.01724
G1 X118.433 Y110.899 E0.30503
G1 X118.974 Y110.898 E0.01724
G1 X125.742 Y117.666 E0.30503
G1 X125.914 Y117.665 E0.00549
G1 X125.913 Y117.295 E0.01180
G1 X119.515 Y110.897 E0.28837
G1 X120.056 Y110.896 E0.01724
G1 X125.912 Y116.752 E0.26394
G1 X125.911 Y116.209 E0.01731
G1 X120.597 Y110.895 E0.23951
G1 X121.138 Y110.894 E0.01724
G1 X125.910 Y115.666 E0.21508
G1 X125.909 Y115.123 E0.01731
G1 X121.679 Y110.892 E0.19065
G1 X122.220 Y110.891 E0.01724
G1 X125.908 Y114.580 E0.16623
G1 X125.907 Y114.037 E0.01731
G1 X122.761 Y110.890 E0.14180
G1 X123.302 Y110.889 E0.01724
G1 X125.906 Y113.493 E0.11737
G1 X125.905 Y112.950 E0.01731
G1 X123.843 Y110.888 E0.09294
G1 X124.384 Y110.887 E0.01724
G1 X125.904 Y112.407 E0.06851
G1 X125.903 Y111.864 E0.01731
G1 X124.925 Y110.886 E0.04408
G1 X125.466 Y110.885 E0.01724
G1 X126.072 Y111.491 E0.02731
G1 E-0.80000 F2100.00000
G1 Z0.800 F10800.000
G1 X138.056 Y103.430
G1 Z0.200
G1 E0.80000 F2100.00000
G1 F1200
G1 X137.597 Y103.407 E0.01439
G1 X137.143 Y103.340 E0.01439
G1 X136.698 Y103.228 E0.01439
G1 X136.266 Y103.073 E0.01439
G1 X135.851 Y102.877 E0.01439
G1 X135.457 Y102.641 E0.01439
G1 X135.088 Y102.368 E0.01439
G1 X134.748 Y102.059 E0.01439
G1 X134.440 Y101.719 E0.01439
G1 X134.166 Y101.351 E0.01439
G1 X133.930 Y100.957 E0.01439
G1 X133.734 Y100.542 E0.01439
G1 X133.579 Y100.110 E0.01439
G1 X133.468 Y99.664 E0.01439
G1 X133.401 Y99.210 E0.01439
G1 X133.378 Y98.752 E0.01439
G1 X133.401 Y98.293 E0.01439
G1 X133.468 Y97.839 E0.01439
G1 X133.579 Y97.394 E0.01439
G1 X133.734 Y96.962 E0.01439
G1 X133.930 Y96.547 E0.01439
G1 X134.166 Y96.153 E0.01439
G1 X134.440 Y95.784 E0.01439
G1 X134.748 Y95.444 E0.01439
G1 X135.088 Y95.136 E0.01439
G1 X135.457 Y94.862 E0.01439
G1 X135.851 Y94.626 E0.01439
G1 X136.266 Y94.430 E0.01439
G1 X136.698 Y94.275 E0.01439
G1 X137.143 Y94.164 E0.01439
G1 X137.594 Y94.097 E0.01428
G1 X138.154 Y94.076 E0.01757
G1 X138.513 Y94.096 E0.01127
G1 X138.968 Y94.164 E0.01445
G1 X139.414 Y94.275 E0.01439
G1 X139.846 Y94.430 E0.01439
G1 X140.261 Y94.626 E0.01439
G1 X140.655 Y94.862 E0.01439
G1 X141.023 Y95.136 E0.01439
G1 X141.364 Y95.444 E0.01439
G1 X141.672 Y95.784 E0.01439
G1 X141.945 Y96.153 E0.01439
G1 X142.181 Y96.547 E0.01439
G1 X142.378 Y96.962 E0.01439
G1 X142.532 Y97.394 E0.01439
G1 X142.644 Y97.839 E0.01439
G1 X142.711 Y98.293 E0.01439
G1 X142.734 Y98.752 E0.01439
G1 X142.711 Y99.210 E0.01439
G1 X142.644 Y99.664 E0.01439
G1 X142.532 Y100.110 E0.01439
G1 X142.378 Y100.542 E0.01439
G1 X142.181 Y100.957 E0.01439
G1 X141.945 Y101.351 E0.01439
G1 X141.672 Y101.719 E0.01439
G1 X141.364 Y102.059 E0.01439
G1 X141.023 Y102.368 E0.01439
G1 X140.655 Y102.641 E0.01439
G1 X140.261 Y102.877 E0.01439
G1 X139.846 Y103.073 E0.01439
G1 X139.414 Y103.228 E0.01439
G1 X138.968 Y103.340 E0.01439
G1 X138.514 Y103.407 E0.01439
G1 X138.116 Y103.427 E0.01251
G1 X138.056 Y103.807 F10800.000
G1 F1200
G1 X137.560 Y103.783 E0.01556
G1 X137.070 Y103.710 E0.01555
G1 X136.588 Y103.589 E0.01556
G1 X136.121 Y103.422 E0.01556
G1 X135.673 Y103.210 E0.01556
G1 X135.247 Y102.955 E0.01556
G1 X134.849 Y102.660 E0.01556
G1 X134.481 Y102.326 E0.01556
G1 X134.148 Y101.959 E0.01556
G1 X133.852 Y101.560 E0.01556
G1 X133.597 Y101.135 E0.01556
G1 X133.385 Y100.686 E0.01556
G1 X133.218 Y100.219 E0.01556
G1 X133.098 Y99.738 E0.01556
G1 X133.025 Y99.247 E0.01556
G1 X133.000 Y98.752 E0.01556
G1 X133.025 Y98.256 E0.01556
G1 X133.098 Y97.765 E0.01556
G1 X133.218 Y97.284 E0.01556
G1 X133.385 Y96.817 E0.01556
G1 X133.597 Y96.369 E0.01556
G1 X133.852 Y95.943 E0.01556
G1 X134.148 Y95.545 E0.01556
G1 X134.481 Y95.177 E0.01556
G1 X134.849 Y94.844 E0.01556
G1 X135.247 Y94.548 E0.01556
G1 X135.673 Y94.293 E0.01556
G1 X136.121 Y94.081 E0.01556
G1 X136.588 Y93.914 E0.01556
G1 X137.070 Y93.793 E0.01556
G1 X137.559 Y93.721 E0.01551
G1 X138.157 Y93.699 E0.01877
G1 X138.551 Y93.721 E0.01236
G1 X139.042 Y93.793 E0.01558
G1 X139.523 Y93.914 E0.01556
G1 X139.990 Y94.081 E0.01556
G1 X140.439 Y94.293 E0.01556
G1 X140.864 Y94.548 E0.01556
G1 X141.263 Y94.844 E0.01556
G1 X141.630 Y95.177 E0.01556
G1 X141.964 Y95.545 E0.01556
G1 X142.259 Y95.943 E0.01556
G1 X142.514 Y96.369 E0.01556
G1 X142.726 Y96.817 E0.01556
G1 X142.893 Y97.284 E0.01556
G1 X143.014 Y97.765 E0.01556
G1 X143.087 Y98.256 E0.01556
G1 X143.111 Y98.752 E0.01556
G1 X143.087 Y99.247 E0.01556
G1 X143.014 Y99.738 E0.01556
G1 X142.893 Y100.219 E0.01556
G1 X142.726 Y100.686 E0.01556
G1 X142.514 Y101.135 E0.01556
G1 X142.259 Y101.560 E0.01556
G1 X141.964 Y101.959 E0.01556
G1 X141.630 Y102.326 E0.01556
G1 X141.263 Y102.660 E0.01556
G1 X140.864 Y102.955 E0.01556
G1 X140.439 Y103.210 E0.01556
G1 X139.990 Y103.422 E0.01556
G1 X139.523 Y103.589 E0.01556
G1 X139.042 Y103.710 E0.01556
G1 X138.551 Y103.783 E0.01556
G1 X138.116 Y103.804 E0.01367
G1 X137.856 Y103.461 F10800.000
G1 X136.759 Y103.127
G1 F1200
G1 X133.957 Y100.324 E0.12588
G1 X133.850 Y100.027 E0.01001
G1 X133.739 Y99.567 E0.01505
G1 X137.241 Y103.068 E0.15726
G1 X137.625 Y103.125 E0.01234
G1 X137.849 Y103.136 E0.00712
G1 X133.671 Y98.959 E0.18763
G1 X133.677 Y98.424 E0.01697
G1 X138.383 Y103.130 E0.21136
G1 X138.862 Y103.069 E0.01535
G1 X133.738 Y97.945 E0.23016
G1 X133.842 Y97.509 E0.01424
G1 X139.299 Y102.965 E0.24507
G1 X139.699 Y102.826 E0.01347
G1 X133.982 Y97.109 E0.25678
G1 X134.152 Y96.739 E0.01293
G1 X140.069 Y102.655 E0.26573
G1 X140.411 Y102.457 E0.01256
G1 X134.350 Y96.396 E0.27223
G1 X134.573 Y96.079 E0.01231
G1 X140.728 Y102.234 E0.27646
G1 X141.022 Y101.988 E0.01218
G1 X134.820 Y95.786 E0.27855
G1 X134.948 Y95.644 E0.00607
G1 X135.090 Y95.516 E0.00607
G1 X141.292 Y101.718 E0.27855
G1 X141.539 Y101.424 E0.01218
G1 X135.383 Y95.269 E0.27646
G1 X135.700 Y95.046 E0.01231
G1 X141.762 Y101.107 E0.27223
G1 X141.959 Y100.765 E0.01256
G1 X136.043 Y94.848 E0.26574
G1 X136.413 Y94.678 E0.01293
G1 X142.130 Y100.395 E0.25679
G1 X142.269 Y99.995 E0.01347
G1 X136.813 Y94.538 E0.24508
G1 X137.249 Y94.434 E0.01424
G1 X142.374 Y99.558 E0.23016
G1 X142.434 Y99.079 E0.01535
G1 X137.730 Y94.375 E0.21129
G1 X138.261 Y94.365 E0.01686
G1 X142.440 Y98.545 E0.18772
G1 X142.429 Y98.321 E0.00712
G1 X142.372 Y97.937 E0.01234
G1 X138.871 Y94.435 E0.15727
G1 X139.332 Y94.546 E0.01505
G1 X139.628 Y94.652 E0.01001
G1 X142.431 Y97.455 E0.12589
G1 X142.030 Y96.514 F10800.000
G1 F1200
G1 X140.294 Y94.778 E0.07797
G1 E-0.80000 F2100.00000
G1 Z0.800 F10800.000
G1 X134.082 Y100.990
G1 Z0.200
G1 E0.80000 F2100.00000
G1 F1200
G1 X135.818 Y102.725 E0.07795
G1 E-0.80000 F2100.00000
G1 Z0.800 F10800.000
G1 X119.068 Y103.441
G1 Z0.200
G1 E0.80000 F2100.00000
G1 F1200
G1 X112.041 Y103.454 E0.22032
G1 X112.027 Y96.108 E0.23035
G1 X126.183 Y96.080 E0.44386
G1 X126.197 Y103.427 E0.23035
G1 X119.128 Y103.441 E0.22165
G1 X119.069 Y103.818 F10800.000
G1 F1200
G1 X111.665 Y103.832 E0.23214
G1 X111.649 Y95.731 E0.25399
G1 X126.559 Y95.702 E0.46750
G1 X126.575 Y103.803 E0.25399
G1 X119.129 Y103.818 E0.23348
G1 X118.782 Y103.539 F10800.000
G1 E-0.80000 F2100.00000
G1 Z0.800 F10800.000
G1 X112.153 Y102.564
G1 Z0.200
G1 E0.80000 F2100.00000
G1 F1200
G1 X112.758 Y103.170 E0.02731
G1 X113.299 Y103.169 E0.01724
G1 X112.321 Y102.191 E0.04408
G1 X112.320 Y101.648 E0.01731
G1 X113.840 Y103.168 E0.06851
G1 X114.381 Y103.167 E0.01724
G1 X112.319 Y101.105 E0.09293
G1 X112.318 Y100.562 E0.01731
G1 X114.922 Y103.166 E0.11736
G1 X115.463 Y103.165 E0.01724
G1 X112.317 Y100.019 E0.14179
G1 X112.316 Y99.476 E0.01731
G1 X116.004 Y103.164 E0.16622
G1 X116.545 Y103.163 E0.01724
G1 X112.315 Y98.933 E0.19065
G1 X112.314 Y98.390 E0.01731
G1 X117.086 Y103.162 E0.21508
G1 X117.627 Y103.161 E0.01724
G1 X112.313 Y97.846 E0.23951
G1 X112.312 Y97.303 E0.01731
G1 X118.168 Y103.160 E0.26394
G1 X118.709 Y103.159 E0.01724
G1 X112.311 Y96.760 E0.28837
G1 X112.310 Y96.390 E0.01180
G1 X112.482 Y96.390 E0.00548
G1 X119.250 Y103.157 E0.30503
G1 X119.791 Y103.156 E0.01724
G1 X113.023 Y96.389 E0.30503
G1 X113.564 Y96.387 E0.01724
G1 X120.332 Y103.155 E0.30503
G1 X120.873 Y103.154 E0.01724
G1 X114.105 Y96.386 E0.30503
G1 X114.646 Y96.385 E0.01724
G1 X121.414 Y103.153 E0.30503
G1 X121.955 Y103.152 E0.01724
G1 X115.187 Y96.384 E0.30503
G1 X115.728 Y96.383 E0.01724
G1 X122.496 Y103.151 E0.30503
G1 X123.037 Y103.150 E0.01724
G1 X116.269 Y96.382 E0.30503
G1 X116.810 Y96.381 E0.01724
G1 X123.578 Y103.149 E0.30503
G1 X124.119 Y103.148 E0.01724
G1 X117.351 Y96.380 E0.30503
G1 X117.892 Y96.379 E0.01724
G1 X124.660 Y103.147 E0.30503
G1 X125.201 Y103.146 E0.01724
G1 X118.433 Y96.378 E0.30503
G1 X118.974 Y96.377 E0.01724
G1 X125.742 Y103.145 E0.30503
G1 X125.914 Y103.145 E0.00549
G1 X125.913 Y102.774 E0.01180
G1 X119.515 Y96.376 E0.28837
G1 X120.056 Y96.375 E0.01724
G1 X125.912 Y102.231 E0.26394
G1 X125.911 Y101.688 E0.01731
G1 X120.597 Y96.374 E0.23951
G1 X121.138 Y96.373 E0.01724
G1 X125.910 Y101.145 E0.21508
G1 X125.909 Y100.602 E0.01731
G1 X121.679 Y96.372 E0.19065
G1 X122.220 Y96.371 E0.01724
G1 X125.908 Y100.059 E0.16623
G1 X125.907 Y99.516 E0.01731
G1 X122.761 Y96.370 E0.14180
G1 X123.302 Y96.369 E0.01724
G1 X125.906 Y98.973 E0.11737
G1 X125.905 Y98.430 E0.01731
G1 X123.843 Y96.367 E0.09294
G1 X124.384 Y96.366 E0.01724
G1 X125.904 Y97.886 E0.06851
G1 X125.903 Y97.343 E0.01731
G1 X124.925 Y96.365 E0.04408
G1 X125.466 Y96.364 E0.01724
G1 X126.072 Y96.970 E0.02731
G1 E-0.80000 F2100.00000
G1 Z0.800 F10800.000
G1 X97.738 Y117.961
G1 Z0.200
G1 E0.80000 F2100.00000
G1 F1200
G1 X90.711 Y117.975 E0.22032
G1 X90.697 Y110.628 E0.23035
G1 X104.853 Y110.601 E0.44386
G1 X104.867 Y117.948 E0.23035
G1 X97.798 Y117.961 E0.22165
G1 X97.738 Y118.339 F10800.000
G1 F1200
G1 X90.334 Y118.353 E0.23214
G1 X90.319 Y110.252 E0.25399
G1 X105.229 Y110.223 E0.46750
G1 X105.245 Y118.324 E0.25399
G1 X97.798 Y118.338 E0.23348
G1 X97.451 Y118.060 F10800.000
G1 E-0.80000 F2100.00000
G1 Z0.800 F10800.000
G1 X90.822 Y117.085
G1 Z0.200
G1 E0.80000 F2100.00000
G1 F1200
G1 X91.428 Y117.691 E0.02731
G1 X91.969 Y117.690 E0.01724
G1 X90.991 Y116.712 E0.04408
G1 X90.990 Y116.169 E0.01731
G1 X92.510 Y117.689 E0.06851
G1 X93.051 Y117.688 E0.01724
G1 X90.989 Y115.626 E0.09293
G1 X90.988 Y115.083 E0.01731
G1 X93.592 Y117.687 E0.11736
G1 X94.133 Y117.686 E0.01724
G1 X90.987 Y114.540 E0.14179
G1 X90.986 Y113.997 E0.01731
G1 X94.674 Y117.685 E0.16622
G1 X95.215 Y117.684 E0.01724
G1 X90.985 Y113.453 E0.19065
M73 P10 R10
G1 X90.984 Y112.910 E0.01731
G1 X95.756 Y117.683 E0.21508
G1 X96.297 Y117.681 E0.01724
G1 X90.983 Y112.367 E0.23951
G1 X90.982 Y111.824 E0.01731
G1 X96.838 Y117.680 E0.26394
G1 X97.379 Y117.679 E0.01724
G1 X90.981 Y111.281 E0.28837
G1 X90.980 Y110.911 E0.01180
G1 X91.152 Y110.910 E0.00548
G1 X97.920 Y117.678 E0.30503
G1 X98.461 Y117.677 E0.01724
G1 X91.693 Y110.909 E0.30503
G1 X92.234 Y110.908 E0.01724
G1 X99.002 Y117.676 E0.30503
G1 X99.543 Y117.675 E0.01724
G1 X92.775 Y110.907 E0.30503
G1 X93.316 Y110.906 E0.01724
G1 X100.084 Y117.674 E0.30503
G1 X100.625 Y117.673 E0.01724
G1 X93.857 Y110.905 E0.30503
G1 X94.398 Y110.904 E0.01724
G1 X101.166 Y117.672 E0.30503
G1 X101.707 Y117.671 E0.01724
G1 X94.939 Y110.903 E0.30503
G1 X95.480 Y110.902 E0.01724
G1 X102.248 Y117.670 E0.30503
G1 X102.789 Y117.669 E0.01724
G1 X96.021 Y110.901 E0.30503
G1 X96.562 Y110.900 E0.01724
G1 X103.330 Y117.668 E0.30503
G1 X103.870 Y117.667 E0.01724
G1 X97.103 Y110.899 E0.30503
G1 X97.644 Y110.898 E0.01724
G1 X104.411 Y117.666 E0.30503
G1 X104.584 Y117.665 E0.00549
G1 X104.583 Y117.295 E0.01180
G1 X98.185 Y110.897 E0.28837
G1 X98.725 Y110.896 E0.01724
G1 X104.582 Y116.752 E0.26394
G1 X104.581 Y116.209 E0.01731
G1 X99.266 Y110.895 E0.23951
G1 X99.807 Y110.894 E0.01724
G1 X104.580 Y115.666 E0.21508
G1 X104.579 Y115.123 E0.01731
G1 X100.348 Y110.892 E0.19065
G1 X100.889 Y110.891 E0.01724
G1 X104.578 Y114.580 E0.16623
G1 X104.577 Y114.037 E0.01731
G1 X101.430 Y110.890 E0.14180
G1 X101.971 Y110.889 E0.01724
G1 X104.575 Y113.493 E0.11737
G1 X104.574 Y112.950 E0.01731
G1 X102.512 Y110.888 E0.09294
G1 X103.053 Y110.887 E0.01724
G1 X104.573 Y112.407 E0.06851
G1 X104.572 Y111.864 E0.01731
G1 X103.594 Y110.886 E0.04408
G1 X104.135 Y110.885 E0.01724
G1 X104.741 Y111.491 E0.02731
G1 E-0.80000 F2100.00000
G1 Z0.800 F10800.000
G1 X154.617 Y103.430
G1 Z0.200
G1 E0.80000 F2100.00000
G1 F1200
G1 X154.158 Y103.407 E0.01439
G1 X153.704 Y103.340 E0.01439
G1 X153.259 Y103.228 E0.01439
G1 X152.827 Y103.073 E0.01439
G1 X152.412 Y102.877 E0.01439
G1 X152.018 Y102.641 E0.01439
G1 X151.649 Y102.368 E0.01439
G1 X151.309 Y102.059 E0.01439
G1 X151.001 Y101.719 E0.01439
G1 X150.727 Y101.351 E0.01439
G1 X150.492 Y100.957 E0.01439
G1 X150.295 Y100.542 E0.01439
G1 X150.141 Y100.110 E0.01439
