; generated by PrusaSlicer 2.3.1+win64 on 2022-02-16 at 21:07:33 UTC

; 

; external perimeters extrusion width = 0.45mm
; perimeters extrusion width = 0.45mm
; infill extrusion width = 0.45mm
; solid infill extrusion width = 0.45mm
; top infill extrusion width = 0.40mm
; first layer extrusion width = 0.42mm

M73 P0 R186
M201 X9000 Y9000 Z500 E10000 ; sets maximum accelerations, mm/sec^2
M203 X500 Y500 Z12 E120 ; sets maximum feedrates, mm/sec
M204 P2000 R1500 T2000 ; sets acceleration (P, T) and retract acceleration (R), mm/sec^2
M205 X10.00 Y10.00 Z0.20 E2.50 ; sets the jerk limits, mm/sec
M205 S0 T0 ; sets the minimum extruding and travel feed rate, mm/sec
M107
;TYPE:Custom
M862.3 P "MK2S" ; printer model check
M862.1 P0.4 ; nozzle diameter check
M115 U3.2.3 ; tell printer latest fw version
G90 ; use absolute coordinates
M83 ; extruder relative mode
M204 S2000 T1500 ; MK2 firmware only supports the old M204 format
M104 S215 ; set extruder temp
M140 S60 ; set bed temp
M190 S60 ; wait for bed temp
M109 S215 ; wait for extruder temp
G28 W ; home all without mesh bed level
G80 ; mesh bed leveling
G1 Y-3.0 F1000.0 ; go outside print area
G92 E0.0
G1 X60.0 E9.0  F1000.0 ; intro line
G1 X100.0 E12.5 F1000.0 ; intro line
G92 E0.0
G21 ; set units to millimeters
G90 ; use absolute coordinates
M83 ; use relative distances for extrusion
M900 K0.05 ; Filament gcode LA 1.5
M900 K30 ; Filament gcode LA 1.0
;LAYER_CHANGE
;Z:0.2
;HEIGHT:0.2
;BEFORE_LAYER_CHANGE
G92 E0.0
;0.2


G1 E-0.80000 F2100.000
G1 Z0.600 F10800.000
;AFTER_LAYER_CHANGE
;0.2
G1 X87.767 Y84.147
G1 Z0.200
G1 E0.80000 F2100.000
M204 S1000
;TYPE:Skirt
;WIDTH:0.42
G1 F1200.000
G1 X88.294 Y83.501 E0.02614
G1 X112.405 Y62.797 E0.99645
G1 X112.966 Y62.441 E0.02083
G1 X113.435 Y62.285 E0.01550
G1 X113.926 Y62.229 E0.01550
G1 X136.056 Y62.229 E0.69386
G1 X136.873 Y62.375 E0.02602
G1 X137.590 Y62.793 E0.02602
G1 X161.725 Y83.517 E0.99743
G1 X162.149 Y84.008 E0.02036
G1 X162.427 Y84.599 E0.02048
G1 X162.533 Y85.297 E0.02213
G1 X162.533 Y145.402 E1.88454
G1 X162.455 Y145.997 E0.01882
G1 X162.233 Y146.550 E0.01870
G1 X161.864 Y147.048 E0.01941
G1 X161.376 Y147.435 E0.01953
G1 X160.804 Y147.681 E0.01953
G1 X160.188 Y147.771 E0.01953
G1 X89.833 Y147.771 E2.20593
G1 X89.241 Y147.694 E0.01870
G1 X88.688 Y147.471 E0.01870
G1 X88.191 Y147.102 E0.01941
G1 X87.804 Y146.614 E0.01953
G1 X87.558 Y146.046 E0.01941
G1 X87.467 Y145.430 E0.01953
G1 X87.467 Y85.291 E1.88559
M73 P0 R185
G1 X87.545 Y84.700 E0.01870
G1 X87.745 Y84.202 E0.01682
; printing object splint 1p.stl id:0 copy 1
G1 E-0.80000 F2100.000
G1 Z0.800 F10800.000
G1 X138.827 Y89.856
G1 Z0.200
G1 E0.80000 F2100.000
;TYPE:Perimeter
G1 F1200.000
G1 X140.068 Y89.906 E0.03894
G1 X143.444 Y89.908 E0.10586
G1 X143.444 Y95.369 E0.17122
G1 X141.787 Y95.369 E0.05196
G1 X141.781 Y103.213 E0.24595
G1 X138.839 Y103.213 E0.09223
G1 X138.828 Y89.916 E0.41693
G1 X138.845 Y89.479 F10800.000
;TYPE:External perimeter
G1 F1200.000
G1 X138.793 Y89.477 E0.00163
G1 X138.793 Y86.541 E0.09204
G1 X140.148 Y86.490 E0.04250
G1 X157.560 Y86.488 E0.54596
G1 X158.560 Y86.503 E0.03135
G1 X159.415 Y86.543 E0.02683
G1 X159.415 Y89.477 E0.09198
G1 X158.133 Y89.529 E0.04024
G1 X154.387 Y89.531 E0.11744
G1 X154.387 Y95.746 E0.19486
G1 X156.044 Y95.746 E0.05197
G1 X156.050 Y102.948 E0.22583
G1 X142.158 Y102.948 E0.43558
G1 X142.164 Y95.746 E0.22583
G1 X143.821 Y95.746 E0.05197
G1 X143.821 Y89.531 E0.19486
G1 X140.075 Y89.529 E0.11744
G1 X138.905 Y89.481 E0.03672
G1 X138.818 Y89.523 F10800.000
G1 X138.817 Y86.163
;TYPE:Perimeter
G1 F1200.000
G1 X138.819 Y86.090 E0.00230
G1 X159.380 Y86.090 E0.64466
G1 X159.381 Y86.164 E0.00233
G1 X158.572 Y86.126 E0.02540
G1 X157.563 Y86.111 E0.03162
G1 X140.140 Y86.113 E0.54629
G1 X138.877 Y86.161 E0.03964
G1 E-0.80000 F2100.000
G1 Z0.800 F10800.000
G1 X154.764 Y89.908
G1 Z0.200
G1 E0.80000 F2100.000
G1 F1200.000
G1 X158.140 Y89.906 E0.10586
G1 X159.389 Y89.855 E0.03919
G1 X159.369 Y90.723 E0.02721
G1 X159.369 Y103.213 E0.39162
G1 X156.427 Y103.213 E0.09223
G1 X156.421 Y95.369 E0.24595
G1 X154.764 Y95.369 E0.05196
G1 X154.764 Y89.968 E0.16934
G1 E-0.80000 F2100.000
G1 Z0.800 F10800.000
G1 X159.750 Y85.713
G1 Z0.200
G1 E0.80000 F2100.000
;TYPE:External perimeter
G1 F1200.000
G1 X159.790 Y86.804 E0.03424
G1 X159.792 Y88.761 E0.06137
G1 X159.746 Y90.727 E0.06165
G1 X159.746 Y103.590 E0.40330
G1 X138.462 Y103.590 E0.66734
G1 X138.462 Y90.714 E0.40373
G1 X138.448 Y89.724 E0.03105
G1 X138.419 Y89.233 E0.01541
G1 X138.419 Y86.782 E0.07684
G1 X138.454 Y85.713 E0.03355
G1 X159.690 Y85.713 E0.66585
G1 X159.565 Y86.067 F10800.000
G1 X158.518 Y90.004
;TYPE:Solid infill
;WIDTH:0.431493
G1 F1200.000
G1 X159.090 Y90.575 E0.02610
G1 X159.086 Y91.121 E0.01765
G1 X158.153 Y90.188 E0.04262
G1 X157.605 Y90.189 E0.01773
G1 X159.086 Y91.671 E0.06770
G1 X159.086 Y92.220 E0.01775
G1 X157.055 Y90.189 E0.09279
G1 X156.506 Y90.190 E0.01774
G1 X159.086 Y92.770 E0.11789
G1 X159.086 Y93.319 E0.01775
G1 X155.957 Y90.190 E0.14298
G1 X155.408 Y90.190 E0.01774
G1 X159.086 Y93.869 E0.16808
G1 X159.086 Y94.418 E0.01775
G1 X155.047 Y90.379 E0.18457
G1 X155.047 Y90.928 E0.01776
G1 X159.086 Y94.968 E0.18457
G1 X159.086 Y95.517 E0.01775
G1 X155.047 Y91.478 E0.18457
G1 X155.047 Y92.027 E0.01776
G1 X159.086 Y96.067 E0.18457
G1 X159.086 Y96.616 E0.01775
G1 X155.047 Y92.577 E0.18457
G1 X155.047 Y93.126 E0.01776
G1 X159.086 Y97.166 E0.18457
G1 X159.086 Y97.715 E0.01775
G1 X155.047 Y93.676 E0.18457
G1 X155.047 Y94.225 E0.01776
G1 X155.907 Y95.086 E0.03932
G1 X155.358 Y95.086 E0.01776
G1 X154.877 Y94.605 E0.02197
G1 X156.535 Y95.713 F10800.000
G1 F1200.000
G1 X159.086 Y98.265 E0.11659
G1 X159.086 Y98.814 E0.01775
G1 X156.705 Y96.433 E0.10881
G1 X156.705 Y96.983 E0.01777
G1 X159.086 Y99.364 E0.10879
G1 X159.086 Y99.913 E0.01775
G1 X156.706 Y97.533 E0.10877
G1 X156.706 Y98.083 E0.01777
G1 X159.086 Y100.463 E0.10875
G1 X159.086 Y101.012 E0.01775
G1 X156.707 Y98.633 E0.10873
G1 X156.707 Y99.183 E0.01777
G1 X159.086 Y101.562 E0.10871
G1 X159.086 Y102.111 E0.01775
G1 X156.707 Y99.733 E0.10869
G1 X156.708 Y100.283 E0.01777
G1 X159.086 Y102.661 E0.10867
G1 X159.086 Y102.930 E0.00870
G1 X158.806 Y102.930 E0.00906
G1 X156.708 Y100.833 E0.09584
G1 X156.709 Y101.383 E0.01777
G1 X158.256 Y102.930 E0.07071
G1 X157.707 Y102.930 E0.01776
G1 X156.709 Y101.932 E0.04559
G1 X156.710 Y102.482 E0.01777
G1 X157.327 Y103.100 E0.02821
G1 X156.239 Y103.269 F10800.000
;TYPE:Gap fill
;WIDTH:0.307516
G1 F1200.000
G1 X141.969 Y103.269 E0.31395
G1 E-0.80000 F2100.000
G1 Z0.800 F10800.000
G1 X143.331 Y90.805
G1 Z0.200
G1 E0.80000 F2100.000
;TYPE:Solid infill
;WIDTH:0.43035
G1 F1200.000
G1 X142.716 Y90.190 E0.02802
G1 X142.168 Y90.190 E0.01766
G1 X143.161 Y91.183 E0.04526
G1 X143.161 Y91.731 E0.01765
G1 X141.619 Y90.190 E0.07024
G1 X141.071 Y90.189 E0.01766
G1 X143.161 Y92.279 E0.09522
G1 X143.161 Y92.827 E0.01765
G1 X140.523 Y90.189 E0.12020
G1 X139.971 Y90.185 E0.01778
G1 X143.161 Y93.375 E0.14534
G1 X143.161 Y93.923 E0.01765
G1 X139.400 Y90.162 E0.17135
G1 X139.110 Y90.150 E0.00936
G1 X139.110 Y90.420 E0.00868
G1 X143.161 Y94.471 E0.18457
G1 X143.161 Y95.019 E0.01765
G1 X139.111 Y90.968 E0.18454
G1 X139.111 Y91.516 E0.01767
G1 X142.681 Y95.086 E0.16262
G1 X142.133 Y95.086 E0.01765
G1 X139.112 Y92.065 E0.13764
G1 X139.112 Y92.613 E0.01767
G1 X141.585 Y95.086 E0.11265
G1 X141.504 Y95.086 E0.00259
G1 X141.504 Y95.553 E0.01505
G1 X139.113 Y93.162 E0.10895
G1 X139.113 Y93.710 E0.01767
G1 X141.503 Y96.101 E0.10890
G1 X141.503 Y96.648 E0.01764
G1 X139.114 Y94.259 E0.10886
G1 X139.114 Y94.807 E0.01767
G1 X141.503 Y97.195 E0.10882
G1 X141.502 Y97.743 E0.01764
G1 X139.115 Y95.355 E0.10877
G1 X139.115 Y95.904 E0.01767
G1 X141.502 Y98.290 E0.10873
G1 X141.501 Y98.838 E0.01764
G1 X139.116 Y96.452 E0.10869
G1 X139.116 Y97.001 E0.01767
G1 X141.501 Y99.385 E0.10865
G1 X141.500 Y99.933 E0.01764
G1 X139.117 Y97.549 E0.10860
G1 X139.117 Y98.097 E0.01767
G1 X141.500 Y100.480 E0.10856
G1 X141.500 Y101.028 E0.01764
G1 X139.118 Y98.646 E0.10852
G1 X139.118 Y99.194 E0.01767
G1 X141.499 Y101.575 E0.10848
G1 X141.499 Y102.123 E0.01764
G1 X139.119 Y99.743 E0.10843
G1 X139.119 Y100.291 E0.01767
G1 X141.498 Y102.670 E0.10839
G1 X141.498 Y102.930 E0.00837
G1 X141.210 Y102.930 E0.00927
G1 X139.120 Y100.840 E0.09524
G1 X139.120 Y101.388 E0.01767
G1 X140.662 Y102.930 E0.07026
G1 X140.114 Y102.930 E0.01765
G1 X139.121 Y101.936 E0.04527
G1 X139.121 Y102.485 E0.01767
G1 X139.736 Y103.100 E0.02802
; stop printing object splint 1p.stl id:0 copy 1
; printing object splint 1p.stl id:0 copy 0
G1 E-0.80000 F2100.000
G1 Z0.800 F10800.000
G1 X141.787 Y116.066
G1 Z0.200
G1 E0.80000 F2100.000
;TYPE:Perimeter
;WIDTH:0.42
G1 F1200.000
G1 X141.781 Y123.910 E0.24595
G1 X138.839 Y123.910 E0.09223
G1 X138.827 Y110.553 E0.41881
G1 X140.068 Y110.603 E0.03894
G1 X143.444 Y110.605 E0.10586
G1 X143.444 Y116.066 E0.17122
G1 X141.847 Y116.066 E0.05008
G1 X142.164 Y116.443 F10800.000
;TYPE:External perimeter
G1 F1200.000
G1 X143.821 Y116.443 E0.05197
G1 X143.821 Y110.228 E0.19486
G1 X140.075 Y110.226 E0.11744
G1 X138.793 Y110.174 E0.04024
G1 X138.793 Y107.239 E0.09204
G1 X140.148 Y107.187 E0.04250
G1 X157.560 Y107.185 E0.54596
G1 X158.560 Y107.200 E0.03135
G1 X159.415 Y107.240 E0.02683
G1 X159.415 Y110.174 E0.09198
G1 X158.133 Y110.226 E0.04024
G1 X154.387 Y110.228 E0.11744
G1 X154.387 Y116.443 E0.19486
G1 X156.044 Y116.443 E0.05197
G1 X156.050 Y123.645 E0.22583
G1 X142.158 Y123.645 E0.43558
G1 X142.164 Y116.503 E0.22395
G1 X142.021 Y116.069 F10800.000
G1 E-0.80000 F2100.000
G1 Z0.800 F10800.000
G1 X159.381 Y106.861
G1 Z0.200
G1 E0.80000 F2100.000
;TYPE:Perimeter
G1 F1200.000
G1 X158.572 Y106.823 E0.02540
G1 X157.563 Y106.808 E0.03162
G1 X140.140 Y106.810 E0.54629
G1 X138.817 Y106.860 E0.04152
G1 X138.819 Y106.787 E0.00230
G1 X159.380 Y106.787 E0.64466
G1 X159.380 Y106.801 E0.00045
G1 X159.389 Y110.552 F10800.000
G1 F1200.000
G1 X159.369 Y111.420 E0.02721
G1 X159.369 Y123.910 E0.39162
G1 X156.427 Y123.910 E0.09223
G1 X156.421 Y116.066 E0.24595
G1 X154.764 Y116.066 E0.05196
G1 X154.764 Y110.605 E0.17122
G1 X158.140 Y110.603 E0.10586
G1 X159.329 Y110.555 E0.03731
G1 X159.750 Y106.410 F10800.000
;TYPE:External perimeter
G1 F1200.000
G1 X159.790 Y107.501 E0.03424
G1 X159.792 Y109.459 E0.06137
G1 X159.746 Y111.424 E0.06165
G1 X159.746 Y124.287 E0.40330
G1 X138.462 Y124.287 E0.66734
G1 X138.462 Y111.411 E0.40373
G1 X138.448 Y110.421 E0.03105
G1 X138.419 Y109.930 E0.01541
G1 X138.419 Y107.480 E0.07684
G1 X138.454 Y106.410 E0.03355
G1 X159.690 Y106.410 E0.66585
G1 X159.565 Y106.764 F10800.000
G1 X158.518 Y110.701
;TYPE:Solid infill
;WIDTH:0.431493
G1 F1200.000
G1 X159.090 Y111.272 E0.02610
G1 X159.086 Y111.818 E0.01765
G1 X158.153 Y110.885 E0.04262
G1 X157.605 Y110.886 E0.01773
G1 X159.086 Y112.368 E0.06770
G1 X159.086 Y112.917 E0.01775
G1 X157.055 Y110.886 E0.09279
G1 X156.506 Y110.887 E0.01774
G1 X159.086 Y113.467 E0.11789
G1 X159.086 Y114.016 E0.01775
G1 X155.957 Y110.887 E0.14298
G1 X155.408 Y110.887 E0.01774
G1 X159.086 Y114.566 E0.16808
G1 X159.086 Y115.115 E0.01775
G1 X155.047 Y111.076 E0.18457
G1 X155.047 Y111.625 E0.01776
G1 X159.086 Y115.665 E0.18457
G1 X159.086 Y116.214 E0.01775
G1 X155.047 Y112.175 E0.18457
G1 X155.047 Y112.724 E0.01776
G1 X159.086 Y116.764 E0.18457
G1 X159.086 Y117.313 E0.01775
G1 X155.047 Y113.274 E0.18457
G1 X155.047 Y113.823 E0.01776
G1 X159.086 Y117.863 E0.18457
G1 X159.086 Y118.412 E0.01775
G1 X155.047 Y114.373 E0.18457
G1 X155.047 Y114.923 E0.01776
G1 X155.907 Y115.783 E0.03932
G1 X155.358 Y115.783 E0.01776
G1 X154.877 Y115.302 E0.02197
G1 X156.535 Y116.410 F10800.000
G1 F1200.000
G1 X159.086 Y118.962 E0.11659
G1 X159.086 Y119.511 E0.01775
G1 X156.705 Y117.130 E0.10881
G1 X156.705 Y117.680 E0.01777
G1 X159.086 Y120.061 E0.10879
G1 X159.086 Y120.610 E0.01775
G1 X156.706 Y118.230 E0.10877
G1 X156.706 Y118.780 E0.01777
G1 X159.086 Y121.160 E0.10875
G1 X159.086 Y121.709 E0.01775
G1 X156.707 Y119.330 E0.10873
G1 X156.707 Y119.880 E0.01777
G1 X159.086 Y122.259 E0.10871
G1 X159.086 Y122.809 E0.01775
G1 X156.707 Y120.430 E0.10869
G1 X156.708 Y120.980 E0.01777
G1 X159.086 Y123.358 E0.10867
G1 X159.086 Y123.627 E0.00870
G1 X158.806 Y123.627 E0.00906
G1 X156.708 Y121.530 E0.09584
G1 X156.709 Y122.080 E0.01777
G1 X158.256 Y123.627 E0.07071
G1 X157.707 Y123.627 E0.01776
G1 X156.709 Y122.630 E0.04559
G1 X156.710 Y123.180 E0.01777
G1 X157.327 Y123.797 E0.02821
G1 X156.239 Y123.966 F10800.000
;TYPE:Gap fill
;WIDTH:0.307516
G1 F1200.000
G1 X141.969 Y123.966 E0.31395
G1 E-0.80000 F2100.000
G1 Z0.800 F10800.000
G1 X143.331 Y111.502
G1 Z0.200
G1 E0.80000 F2100.000
;TYPE:Solid infill
;WIDTH:0.43035
G1 F1200.000
G1 X142.716 Y110.887 E0.02802
G1 X142.168 Y110.887 E0.01766
G1 X143.161 Y111.881 E0.04526
G1 X143.161 Y112.428 E0.01765
G1 X141.619 Y110.887 E0.07024
G1 X141.071 Y110.886 E0.01766
G1 X143.161 Y112.976 E0.09522
G1 X143.161 Y113.524 E0.01765
G1 X140.523 Y110.886 E0.12020
G1 X139.971 Y110.882 E0.01778
G1 X143.161 Y114.072 E0.14534
G1 X143.161 Y114.620 E0.01765
G1 X139.400 Y110.859 E0.17135
G1 X139.110 Y110.847 E0.00936
G1 X139.110 Y111.117 E0.00868
G1 X143.161 Y115.168 E0.18457
G1 X143.161 Y115.716 E0.01765
G1 X139.111 Y111.665 E0.18454
G1 X139.111 Y112.214 E0.01767
G1 X142.681 Y115.783 E0.16262
G1 X142.133 Y115.783 E0.01765
G1 X139.112 Y112.762 E0.13764
G1 X139.112 Y113.310 E0.01767
G1 X141.585 Y115.783 E0.11265
G1 X141.504 Y115.783 E0.00259
G1 X141.504 Y116.250 E0.01505
G1 X139.113 Y113.859 E0.10895
G1 X139.113 Y114.407 E0.01767
G1 X141.503 Y116.798 E0.10890
G1 X141.503 Y117.345 E0.01764
G1 X139.114 Y114.956 E0.10886
G1 X139.114 Y115.504 E0.01767
G1 X141.503 Y117.893 E0.10882
G1 X141.502 Y118.440 E0.01764
G1 X139.115 Y116.053 E0.10877
G1 X139.115 Y116.601 E0.01767
G1 X141.502 Y118.988 E0.10873
G1 X141.501 Y119.535 E0.01764
G1 X139.116 Y117.149 E0.10869
G1 X139.116 Y117.698 E0.01767
G1 X141.501 Y120.083 E0.10865
G1 X141.500 Y120.630 E0.01764
G1 X139.117 Y118.246 E0.10860
G1 X139.117 Y118.795 E0.01767
G1 X141.500 Y121.177 E0.10856
G1 X141.500 Y121.725 E0.01764
G1 X139.118 Y119.343 E0.10852
G1 X139.118 Y119.891 E0.01767
G1 X141.499 Y122.272 E0.10848
G1 X141.499 Y122.820 E0.01764
G1 X139.119 Y120.440 E0.10843
G1 X139.119 Y120.988 E0.01767
G1 X141.498 Y123.367 E0.10839
G1 X141.498 Y123.627 E0.00837
G1 X141.210 Y123.627 E0.00927
G1 X139.120 Y121.537 E0.09524
G1 X139.120 Y122.085 E0.01767
G1 X140.662 Y123.627 E0.07026
G1 X140.114 Y123.627 E0.01765
G1 X139.121 Y122.634 E0.04527
G1 X139.121 Y123.182 E0.01767
G1 X139.736 Y123.797 E0.02802
; stop printing object splint 1p.stl id:0 copy 0
; printing object splint 1p.stl id:0 copy 2
G1 E-0.80000 F2100.000
G1 Z0.800 F10800.000
G1 X141.787 Y136.763
G1 Z0.200
G1 E0.80000 F2100.000
;TYPE:Perimeter
;WIDTH:0.42
G1 F1200.000
G1 X141.781 Y144.607 E0.24595
G1 X138.839 Y144.607 E0.09223
G1 X138.827 Y131.250 E0.41881
M73 P0 R184
G1 X140.068 Y131.300 E0.03894
G1 X143.444 Y131.302 E0.10586
G1 X143.444 Y136.763 E0.17122
G1 X141.847 Y136.763 E0.05008
G1 X142.164 Y137.140 F10800.000
;TYPE:External perimeter
G1 F1200.000
G1 X143.821 Y137.140 E0.05197
G1 X143.821 Y130.925 E0.19486
G1 X140.075 Y130.923 E0.11744
G1 X138.793 Y130.871 E0.04024
G1 X138.793 Y127.936 E0.09204
G1 X140.148 Y127.884 E0.04250
G1 X157.560 Y127.882 E0.54596
G1 X158.560 Y127.897 E0.03135
G1 X159.415 Y127.938 E0.02683
G1 X159.415 Y130.871 E0.09198
G1 X158.133 Y130.923 E0.04024
G1 X154.387 Y130.925 E0.11744
G1 X154.387 Y137.140 E0.19486
G1 X156.044 Y137.140 E0.05197
G1 X156.050 Y144.343 E0.22583
G1 X142.158 Y144.343 E0.43558
G1 X142.164 Y137.200 E0.22395
G1 X142.021 Y136.766 F10800.000
G1 E-0.80000 F2100.000
G1 Z0.800 F10800.000
G1 X159.381 Y127.559
G1 Z0.200
G1 E0.80000 F2100.000
;TYPE:Perimeter
G1 F1200.000
G1 X158.572 Y127.520 E0.02540
G1 X157.563 Y127.505 E0.03162
G1 X140.140 Y127.507 E0.54629
G1 X138.817 Y127.557 E0.04152
G1 X138.819 Y127.484 E0.00230
G1 X159.380 Y127.484 E0.64466
G1 X159.380 Y127.499 E0.00045
G1 X159.389 Y131.250 F10800.000
G1 F1200.000
G1 X159.369 Y132.117 E0.02721
G1 X159.369 Y144.607 E0.39162
