; generated by PrusaSlicer 2.3.1+win64 on 2022-02-16 at 21:07:51 UTC

; 

; external perimeters extrusion width = 0.45mm
; perimeters extrusion width = 0.45mm
; infill extrusion width = 0.45mm
; solid infill extrusion width = 0.45mm
; top infill extrusion width = 0.40mm
; first layer extrusion width = 0.42mm

M73 P0 R55
M201 X9000 Y9000 Z500 E10000 ; sets maximum accelerations, mm/sec^2
M203 X500 Y500 Z12 E120 ; sets maximum feedrates, mm/sec
M204 P2000 R1500 T2000 ; sets acceleration (P, T) and retract acceleration (R), mm/sec^2
M205 X10.00 Y10.00 Z0.20 E2.50 ; sets the jerk limits, mm/sec
M205 S0 T0 ; sets the minimum extruding and travel feed rate, mm/sec
M107
;TYPE:Custom
M862.3 P "MK2S" ; printer model check
M862.1 P0.4 ; nozzle diameter check
M115 U3.2.3 ; tell printer latest fw version
G90 ; use absolute coordinates
M83 ; extruder relative mode
M204 S2000 T1500 ; MK2 firmware only supports the old M204 format
M104 S215 ; set extruder temp
M140 S60 ; set bed temp
M190 S60 ; wait for bed temp
M109 S215 ; wait for extruder temp
G28 W ; home all without mesh bed level
G80 ; mesh bed leveling
G1 Y-3.0 F1000.0 ; go outside print area
G92 E0.0
G1 X60.0 E9.0  F1000.0 ; intro line
G1 X100.0 E12.5 F1000.0 ; intro line
G92 E0.0
G21 ; set units to millimeters
G90 ; use absolute coordinates
M83 ; use relative distances for extrusion
M900 K0.05 ; Filament gcode LA 1.5
M900 K30 ; Filament gcode LA 1.0
;LAYER_CHANGE
;Z:0.2
;HEIGHT:0.2
;BEFORE_LAYER_CHANGE
G92 E0.0
;0.2


G1 E-0.80000 F2100.000
G1 Z0.600 F10800.000
;AFTER_LAYER_CHANGE
;0.2
G1 X101.852 Y83.691
G1 Z0.200
G1 E0.80000 F2100.000
M204 S1000
;TYPE:Skirt
;WIDTH:0.42
G1 F1200.000
G1 X102.321 Y83.299 E0.01917
G1 X102.875 Y83.039 E0.01917
G1 X103.477 Y82.929 E0.01917
G1 X125.707 Y82.926 E0.69703
G1 X126.602 Y83.102 E0.02860
G1 X147.338 Y91.763 E0.70459
G1 X147.923 Y92.123 E0.02154
G1 X148.380 Y92.631 E0.02142
G1 X148.675 Y93.256 E0.02166
G1 X148.778 Y93.935 E0.02154
G1 X148.777 Y116.079 E0.69429
G1 X148.704 Y116.640 E0.01775
G1 X148.501 Y117.165 E0.01763
G1 X148.019 Y117.793 E0.02484
G1 X147.360 Y118.227 E0.02473
G1 X126.191 Y127.024 E0.71877
G1 X103.577 Y127.074 E0.70906
G1 X103.015 Y127.001 E0.01775
G1 X102.487 Y126.798 E0.01775
G1 X101.976 Y126.434 E0.01965
G1 X101.577 Y125.946 E0.01977
G1 X101.321 Y125.374 E0.01965
G1 X101.223 Y124.752 E0.01977
G1 X101.222 Y85.288 E1.23736
G1 X101.294 Y84.722 E0.01787
G1 X101.499 Y84.190 E0.01787
G1 X101.818 Y83.740 E0.01729
; printing object splint 1p.stl id:0 copy 0
G1 E-0.80000 F2100.000
G1 Z0.800 F10800.000
G1 X132.308 Y110.660
G1 Z0.200
G1 E0.80000 F2100.000
;TYPE:Perimeter
G1 F1200.000
G1 X137.769 Y110.660 E0.17122
G1 X137.769 Y112.317 E0.05196
G1 X145.613 Y112.323 E0.24595
G1 X145.613 Y115.265 E0.09223
G1 X133.109 Y115.265 E0.39207
G1 X132.256 Y115.285 E0.02675
G1 X132.306 Y114.036 E0.03918
G1 X132.308 Y110.720 E0.10398
G1 E-0.80000 F2100.000
G1 Z0.800 F10800.000
G1 X132.308 Y99.340
G1 Z0.200
G1 E0.80000 F2100.000
G1 F1200.000
G1 X132.306 Y95.964 E0.10586
G1 X132.256 Y94.724 E0.03892
G1 X145.613 Y94.735 E0.41881
G1 X145.613 Y97.677 E0.09223
G1 X137.769 Y97.683 E0.24595
G1 X137.769 Y99.340 E0.05196
G1 X132.368 Y99.340 E0.16934
G1 E-0.80000 F2100.000
G1 Z0.800 F10800.000
G1 X128.944 Y94.689
G1 Z0.200
G1 E0.80000 F2100.000
;TYPE:External perimeter
G1 F1200.000
G1 X131.877 Y94.689 E0.09198
G1 X131.929 Y95.971 E0.04024
G1 X131.932 Y99.717 E0.11744
G1 X138.146 Y99.717 E0.19486
G1 X138.146 Y98.060 E0.05197
G1 X145.349 Y98.054 E0.22583
G1 X145.349 Y111.946 E0.43558
G1 X138.146 Y111.940 E0.22583
G1 X138.146 Y110.283 E0.05197
G1 X131.932 Y110.283 E0.19486
G1 X131.929 Y114.029 E0.11744
G1 X131.877 Y115.311 E0.04024
G1 X128.944 Y115.311 E0.09198
G1 X128.904 Y114.456 E0.02683
G1 X128.888 Y113.456 E0.03135
G1 X128.888 Y96.544 E0.53029
G1 X128.904 Y95.544 E0.03135
G1 X128.941 Y94.749 E0.02495
G1 X128.948 Y94.289 F10800.000
G1 X128.565 Y94.713
;TYPE:Perimeter
G1 F1200.000
G1 X128.527 Y95.532 E0.02570
G1 X128.511 Y96.541 E0.03162
G1 X128.511 Y113.459 E0.53047
G1 X128.527 Y114.468 E0.03162
G1 X128.565 Y115.287 E0.02572
G1 X128.490 Y115.285 E0.00235
G1 X128.490 Y94.716 E0.64493
G1 X128.505 Y94.715 E0.00047
G1 X128.113 Y94.350 F10800.000
;TYPE:External perimeter
G1 F1200.000
G1 X129.139 Y94.318 E0.03218
G1 X131.515 Y94.312 E0.07450
G1 X132.010 Y94.343 E0.01553
G1 X133.008 Y94.358 E0.03131
G1 X145.991 Y94.358 E0.40706
G1 X145.991 Y115.642 E0.66734
G1 X133.113 Y115.642 E0.40376
G1 X131.145 Y115.688 E0.06172
G1 X129.183 Y115.685 E0.06152
G1 X128.113 Y115.650 E0.03356
G1 X128.113 Y94.410 E0.66594
G1 X128.467 Y94.537 F10800.000
G1 E-0.80000 F2100.000
G1 Z0.800 F10800.000
G1 X145.500 Y95.632
G1 Z0.200
G1 E0.80000 F2100.000
;TYPE:Solid infill
;WIDTH:0.430348
G1 F1200.000
G1 X144.886 Y95.018 E0.02800
G1 X144.338 Y95.018 E0.01765
G1 X145.331 Y96.011 E0.04523
G1 X145.331 Y96.559 E0.01765
G1 X143.790 Y95.018 E0.07019
G1 X143.242 Y95.018 E0.01765
G1 X145.331 Y97.106 E0.09515
G1 X145.331 Y97.394 E0.00927
G1 X145.071 Y97.394 E0.00838
G1 X142.694 Y95.018 E0.10827
G1 X142.146 Y95.018 E0.01765
G1 X144.523 Y97.395 E0.10829
G1 X143.976 Y97.395 E0.01764
G1 X141.598 Y95.018 E0.10831
G1 X141.050 Y95.018 E0.01765
G1 X143.428 Y97.396 E0.10833
G1 X142.881 Y97.396 E0.01764
G1 X140.503 Y95.018 E0.10835
G1 X139.955 Y95.018 E0.01765
G1 X142.333 Y97.396 E0.10837
G1 X141.786 Y97.397 E0.01764
G1 X139.407 Y95.018 E0.10839
G1 X138.859 Y95.018 E0.01765
G1 X141.238 Y97.397 E0.10841
M73 P1 R55
G1 X140.691 Y97.398 E0.01764
G1 X138.311 Y95.018 E0.10843
G1 X137.763 Y95.018 E0.01765
G1 X140.143 Y97.398 E0.10845
G1 X139.596 Y97.399 E0.01764
G1 X137.215 Y95.018 E0.10847
G1 X136.667 Y95.018 E0.01765
G1 X139.048 Y97.399 E0.10849
G1 X138.501 Y97.399 E0.01764
G1 X136.119 Y95.018 E0.10851
G1 X135.571 Y95.018 E0.01765
G1 X137.953 Y97.400 E0.10853
G1 X137.487 Y97.400 E0.01504
G1 X137.487 Y97.481 E0.00260
G1 X135.023 Y95.018 E0.11222
G1 X134.476 Y95.018 E0.01765
G1 X137.487 Y98.029 E0.13718
G1 X137.487 Y98.577 E0.01765
G1 X133.928 Y95.018 E0.16214
G1 X133.380 Y95.018 E0.01765
G1 X137.419 Y99.057 E0.18403
G1 X136.871 Y99.057 E0.01765
G1 X132.829 Y95.015 E0.18415
G1 X132.551 Y95.011 E0.00896
G1 X132.562 Y95.296 E0.00920
G1 X136.323 Y99.057 E0.17134
G1 X135.775 Y99.057 E0.01765
G1 X132.585 Y95.867 E0.14533
G1 X132.589 Y96.419 E0.01778
G1 X135.228 Y99.057 E0.12019
G1 X134.680 Y99.057 E0.01765
G1 X132.590 Y96.967 E0.09521
G1 X132.590 Y97.516 E0.01766
G1 X134.132 Y99.057 E0.07023
G1 X133.584 Y99.057 E0.01765
G1 X132.590 Y98.064 E0.04526
G1 X132.591 Y98.612 E0.01766
G1 X133.206 Y99.227 E0.02801
G1 E-0.80000 F2100.000
G1 Z0.800 F10800.000
G1 X145.670 Y97.865
G1 Z0.200
G1 E0.80000 F2100.000
;TYPE:Gap fill
;WIDTH:0.307516
G1 F1200.000
G1 X145.670 Y112.135 E0.31395
G1 X145.500 Y113.223 F10800.000
;TYPE:Solid infill
;WIDTH:0.431484
G1 F1200.000
G1 X144.883 Y112.606 E0.02821
G1 X144.333 Y112.605 E0.01777
G1 X145.331 Y113.603 E0.04559
G1 X145.331 Y114.152 E0.01775
G1 X143.783 Y112.605 E0.07072
G1 X143.233 Y112.604 E0.01777
G1 X145.331 Y114.702 E0.09584
G1 X145.331 Y114.982 E0.00906
G1 X145.061 Y114.982 E0.00870
G1 X142.683 Y112.604 E0.10867
G1 X142.133 Y112.603 E0.01777
G1 X144.512 Y114.982 E0.10869
G1 X143.962 Y114.982 E0.01775
G1 X141.583 Y112.603 E0.10871
G1 X141.033 Y112.603 E0.01777
G1 X143.413 Y114.982 E0.10873
G1 X142.863 Y114.982 E0.01775
G1 X140.483 Y112.602 E0.10875
G1 X139.933 Y112.602 E0.01777
G1 X142.314 Y114.982 E0.10877
G1 X141.764 Y114.982 E0.01775
G1 X139.383 Y112.601 E0.10879
G1 X138.834 Y112.601 E0.01777
G1 X141.215 Y114.982 E0.10881
G1 X140.665 Y114.982 E0.01775
G1 X138.114 Y112.431 E0.11659
G1 X137.656 Y111.423 F10800.000
G1 F1200.000
G1 X137.176 Y110.943 E0.02196
G1 X136.626 Y110.943 E0.01775
G1 X137.656 Y111.973 E0.04707
G1 X135.907 Y110.773 F10800.000
G1 F1200.000
G1 X140.116 Y114.982 E0.19232
G1 X139.566 Y114.982 E0.01775
G1 X135.527 Y110.943 E0.18457
G1 X134.977 Y110.943 E0.01775
G1 X139.017 Y114.982 E0.18457
G1 X138.467 Y114.982 E0.01775
G1 X134.428 Y110.943 E0.18457
G1 X133.878 Y110.943 E0.01775
G1 X137.918 Y114.982 E0.18457
G1 X137.368 Y114.982 E0.01775
G1 X133.329 Y110.943 E0.18457
G1 X132.779 Y110.943 E0.01775
G1 X136.819 Y114.982 E0.18457
G1 X136.269 Y114.982 E0.01775
G1 X132.591 Y111.304 E0.16808
M73 P1 R54
G1 X132.590 Y111.853 E0.01774
G1 X135.720 Y114.982 E0.14299
G1 X135.170 Y114.982 E0.01775
G1 X132.590 Y112.402 E0.11789
G1 X132.590 Y112.951 E0.01774
G1 X134.621 Y114.982 E0.09280
G1 X134.071 Y114.982 E0.01775
G1 X132.589 Y113.500 E0.06771
G1 X132.589 Y114.049 E0.01773
G1 X133.522 Y114.982 E0.04263
G1 X132.975 Y114.985 E0.01766
G1 X132.404 Y114.414 E0.02609
; stop printing object splint 1p.stl id:0 copy 0
; printing object splint 1p.stl id:1 copy 1
G1 E-0.80000 F2100.000
G1 Z0.800 F10800.000
G1 X108.991 Y99.395
G1 Z0.200
G1 E0.80000 F2100.000
;TYPE:Perimeter
;WIDTH:0.42
G1 F1200.000
G1 X105.615 Y99.397 E0.10586
G1 X104.367 Y99.448 E0.03918
G1 X104.386 Y98.595 E0.02675
G1 X104.387 Y86.090 E0.39207
G1 X107.328 Y86.090 E0.09223
G1 X107.334 Y93.934 E0.24595
G1 X108.991 Y93.934 E0.05196
G1 X108.991 Y99.335 E0.16934
G1 E-0.80000 F2100.000
G1 Z0.800 F10800.000
G1 X107.705 Y86.355
G1 Z0.200
G1 E0.80000 F2100.000
;TYPE:External perimeter
G1 F1200.000
G1 X121.597 Y86.355 E0.43558
G1 X121.592 Y93.557 E0.22583
G1 X119.934 Y93.557 E0.05197
G1 X119.934 Y99.772 E0.19486
G1 X123.680 Y99.774 E0.11744
G1 X124.962 Y99.826 E0.04024
G1 X124.962 Y102.761 E0.09204
G1 X123.608 Y102.813 E0.04250
G1 X106.195 Y102.815 E0.54596
G1 X105.195 Y102.800 E0.03135
G1 X104.341 Y102.760 E0.02683
G1 X104.341 Y99.826 E0.09198
G1 X105.623 Y99.774 E0.04024
G1 X109.369 Y99.772 E0.11744
G1 X109.369 Y93.557 E0.19486
G1 X107.711 Y93.557 E0.05197
G1 X107.705 Y86.415 E0.22395
G1 X107.675 Y85.956 F10800.000
G1 E-0.80000 F2100.000
G1 Z0.800 F10800.000
G1 X124.939 Y103.140
G1 Z0.200
G1 E0.80000 F2100.000
;TYPE:Perimeter
G1 F1200.000
G1 X124.936 Y103.213 E0.00230
G1 X104.367 Y103.213 E0.64495
G1 X104.364 Y103.138 E0.00235
G1 X105.184 Y103.177 E0.02572
G1 X106.192 Y103.192 E0.03162
G1 X123.615 Y103.190 E0.54629
G1 X124.879 Y103.142 E0.03964
G1 X124.929 Y99.447 F10800.000
G1 F1200.000
G1 X123.688 Y99.397 E0.03896
G1 X120.311 Y99.395 E0.10586
G1 X120.311 Y93.934 E0.17122
G1 X121.969 Y93.934 E0.05196
G1 X121.975 Y86.090 E0.24595
G1 X124.916 Y86.090 E0.09223
G1 X124.927 Y99.387 E0.41693
G1 X125.301 Y103.590 F10800.000
;TYPE:External perimeter
G1 F1200.000
G1 X104.002 Y103.590 E0.66783
G1 X103.967 Y102.520 E0.03356
G1 X103.963 Y100.558 E0.06152
G1 X104.009 Y98.590 E0.06172
G1 X104.009 Y85.713 E0.40376
G1 X125.293 Y85.713 E0.66734
G1 X125.296 Y99.083 E0.41921
G1 X125.339 Y100.559 E0.04629
G1 X125.336 Y102.520 E0.06150
G1 X125.303 Y103.530 E0.03168
G1 X124.956 Y103.389 F10800.000
G1 E-0.80000 F2100.000
G1 Z0.800 F10800.000
G1 X124.019 Y86.203
G1 Z0.200
G1 E0.80000 F2100.000
;TYPE:Solid infill
;WIDTH:0.430348
G1 F1200.000
G1 X124.634 Y86.818 E0.02800
G1 X124.634 Y87.365 E0.01765
G1 X123.641 Y86.373 E0.04523
G1 X123.093 Y86.373 E0.01765
G1 X124.634 Y87.913 E0.07019
G1 X124.634 Y88.461 E0.01765
G1 X122.545 Y86.373 E0.09515
G1 X122.257 Y86.373 E0.00927
G1 X122.257 Y86.633 E0.00838
G1 X124.634 Y89.009 E0.10827
G1 X124.634 Y89.557 E0.01765
G1 X122.257 Y87.180 E0.10829
G1 X122.256 Y87.728 E0.01764
G1 X124.634 Y90.105 E0.10830
G1 X124.634 Y90.653 E0.01765
G1 X122.256 Y88.275 E0.10832
G1 X122.255 Y88.823 E0.01764
G1 X124.634 Y91.201 E0.10834
G1 X124.634 Y91.749 E0.01765
G1 X122.255 Y89.370 E0.10836
G1 X122.255 Y89.918 E0.01764
G1 X124.634 Y92.297 E0.10838
G1 X124.634 Y92.845 E0.01765
G1 X122.254 Y90.465 E0.10840
G1 X122.254 Y91.013 E0.01764
G1 X124.634 Y93.392 E0.10842
G1 X124.634 Y93.940 E0.01765
G1 X122.253 Y91.560 E0.10844
G1 X122.253 Y92.108 E0.01764
G1 X124.634 Y94.488 E0.10846
G1 X124.634 Y95.036 E0.01765
G1 X122.252 Y92.655 E0.10848
G1 X122.252 Y93.203 E0.01764
G1 X124.634 Y95.584 E0.10850
G1 X124.634 Y96.132 E0.01765
G1 X122.252 Y93.750 E0.10852
G1 X122.251 Y94.217 E0.01504
G1 X122.171 Y94.217 E0.00260
G1 X124.634 Y96.680 E0.11221
G1 X124.634 Y97.228 E0.01765
G1 X121.623 Y94.217 E0.13717
G1 X121.075 Y94.217 E0.01765
G1 X124.634 Y97.776 E0.16213
G1 X124.636 Y98.326 E0.01772
G1 X120.594 Y94.284 E0.18413
G1 X120.594 Y94.832 E0.01765
G1 X124.641 Y98.879 E0.18437
G1 X124.644 Y99.153 E0.00882
G1 X124.355 Y99.141 E0.00930
G1 X120.594 Y95.380 E0.17134
G1 X120.594 Y95.928 E0.01765
G1 X123.784 Y99.118 E0.14533
G1 X123.232 Y99.114 E0.01778
G1 X120.594 Y96.476 E0.12019
G1 X120.594 Y97.024 E0.01765
G1 X122.684 Y99.114 E0.09521
G1 X122.136 Y99.113 E0.01766
G1 X120.594 Y97.572 E0.07023
G1 X120.594 Y98.120 E0.01765
G1 X121.588 Y99.113 E0.04526
M73 P2 R54
G1 X121.039 Y99.113 E0.01766
G1 X120.425 Y98.498 E0.02801
G1 E-0.80000 F2100.000
G1 Z0.800 F10800.000
G1 X121.786 Y86.034
G1 Z0.200
G1 E0.80000 F2100.000
;TYPE:Gap fill
;WIDTH:0.307516
G1 F1200.000
G1 X107.517 Y86.034 E0.31395
G1 X106.428 Y86.203 F10800.000
;TYPE:Solid infill
;WIDTH:0.431485
G1 F1200.000
G1 X107.046 Y86.820 E0.02821
G1 X107.046 Y87.370 E0.01777
G1 X106.049 Y86.373 E0.04559
G1 X105.499 Y86.373 E0.01775
G1 X107.047 Y87.920 E0.07072
G1 X107.047 Y88.470 E0.01777
G1 X104.950 Y86.373 E0.09584
G1 X104.669 Y86.373 E0.00905
G1 X104.669 Y86.642 E0.00870
G1 X107.048 Y89.020 E0.10867
G1 X107.048 Y89.570 E0.01777
G1 X104.669 Y87.191 E0.10869
G1 X104.669 Y87.741 E0.01775
G1 X107.048 Y90.120 E0.10871
G1 X107.049 Y90.670 E0.01777
G1 X104.669 Y88.291 E0.10873
G1 X104.669 Y88.840 E0.01775
G1 X107.049 Y91.220 E0.10875
G1 X107.050 Y91.770 E0.01777
G1 X104.669 Y89.390 E0.10877
G1 X104.669 Y89.939 E0.01775
G1 X107.050 Y92.320 E0.10879
G1 X107.051 Y92.870 E0.01777
G1 X104.669 Y90.489 E0.10881
G1 X104.669 Y91.038 E0.01775
G1 X107.221 Y93.590 E0.11659
G1 X108.228 Y94.047 F10800.000
G1 F1200.000
G1 X108.709 Y94.528 E0.02197
G1 X108.709 Y95.077 E0.01775
G1 X107.678 Y94.047 E0.04707
G1 X108.878 Y95.797 F10800.000
G1 F1200.000
G1 X104.669 Y91.588 E0.19232
G1 X104.669 Y92.137 E0.01775
G1 X108.709 Y96.176 E0.18457
G1 X108.709 Y96.726 E0.01775
G1 X104.669 Y92.687 E0.18457
G1 X104.669 Y93.236 E0.01775
G1 X108.709 Y97.275 E0.18457
G1 X108.709 Y97.825 E0.01775
G1 X104.669 Y93.786 E0.18457
G1 X104.669 Y94.335 E0.01775
G1 X108.709 Y98.375 E0.18457
G1 X108.709 Y98.924 E0.01775
G1 X104.669 Y94.885 E0.18457
G1 X104.669 Y95.434 E0.01775
G1 X108.348 Y99.113 E0.16808
G1 X107.799 Y99.113 E0.01774
G1 X104.669 Y95.984 E0.14299
G1 X104.669 Y96.533 E0.01775
G1 X107.249 Y99.113 E0.11789
G1 X106.700 Y99.114 E0.01774
G1 X104.669 Y97.083 E0.09280
G1 X104.669 Y97.632 E0.01775
G1 X106.151 Y99.114 E0.06771
G1 X105.602 Y99.115 E0.01773
G1 X104.669 Y98.182 E0.04263
G1 X104.666 Y98.728 E0.01766
G1 X105.237 Y99.299 E0.02609
; stop printing object splint 1p.stl id:1 copy 1
; printing object splint 1p.stl id:1 copy 0
G1 E-0.80000 F2100.000
G1 Z0.800 F10800.000
G1 X107.334 Y114.631
G1 Z0.200
G1 E0.80000 F2100.000
;TYPE:Perimeter
;WIDTH:0.42
G1 F1200.000
G1 X108.991 Y114.631 E0.05196
G1 X108.991 Y120.092 E0.17122
G1 X105.615 Y120.094 E0.10586
G1 X104.367 Y120.145 E0.03918
G1 X104.386 Y119.292 E0.02675
G1 X104.387 Y106.787 E0.39207
G1 X107.328 Y106.787 E0.09223
G1 X107.334 Y114.571 E0.24407
G1 X107.711 Y114.254 F10800.000
;TYPE:External perimeter
G1 F1200.000
G1 X107.705 Y107.052 E0.22583
G1 X121.597 Y107.052 E0.43558
G1 X121.592 Y114.254 E0.22583
G1 X119.934 Y114.254 E0.05197
G1 X119.934 Y120.469 E0.19486
G1 X123.680 Y120.471 E0.11744
G1 X124.962 Y120.523 E0.04024
G1 X124.962 Y123.459 E0.09204
G1 X123.608 Y123.510 E0.04250
G1 X106.195 Y123.512 E0.54596
G1 X105.195 Y123.497 E0.03135
G1 X104.341 Y123.457 E0.02683
G1 X104.341 Y120.523 E0.09198
G1 X105.623 Y120.471 E0.04024
G1 X109.369 Y120.469 E0.11744
G1 X109.369 Y114.254 E0.19486
G1 X107.771 Y114.254 E0.05009
G1 X107.348 Y114.085 F10800.000
G1 E-0.80000 F2100.000
G1 Z0.800 F10800.000
G1 X124.939 Y123.837
G1 Z0.200
G1 E0.80000 F2100.000
;TYPE:Perimeter
G1 F1200.000
G1 X124.936 Y123.910 E0.00230
G1 X104.367 Y123.910 E0.64495
G1 X104.364 Y123.835 E0.00235
G1 X105.184 Y123.874 E0.02572
G1 X106.192 Y123.889 E0.03162
G1 X123.615 Y123.887 E0.54629
