; G-Code generated by Simplify3D(R) Version 4.1.2
; Nov 9, 2019 at 1:53:38 PM
; Settings Summary
;   processName,Process1
;   applyToModels,Torch Flame B,Torch Flame B(2),Torch Flame B(3),Torch Flame B(2)(2),Torch Flame B(4),Torch Flame B(2)(3),Torch Flame B(5),Torch Flame B(2)(4)
;   profileName,Prusa Research Original Prusa i3 MK2
;   profileVersion,2019-10-24 09:35:36
;   baseProfile,
;   printMaterial,PLA
;   printQuality,Medium
;   printExtruders,
;   extruderName,Primary Extruder
;   extruderToolheadNumber,0
;   extruderDiameter,0.4
;   extruderAutoWidth,1
;   extruderWidth,0.48
;   extrusionMultiplier,1
;   extruderUseRetract,1
;   extruderRetractionDistance,1.5
;   extruderExtraRestartDistance,0
;   extruderRetractionZLift,0
;   extruderRetractionSpeed,1800
;   extruderUseCoasting,1
;   extruderCoastingDistance,0.2
;   extruderUseWipe,1
;   extruderWipeDistance,2
;   primaryExtruder,0
;   layerHeight,0.2
;   topSolidLayers,3
;   bottomSolidLayers,3
;   perimeterOutlines,2
;   printPerimetersInsideOut,1
;   startPointOption,2
;   startPointOriginX,0
;   startPointOriginY,0
;   sequentialIslands,0
;   spiralVaseMode,0
;   firstLayerHeightPercentage,150
;   firstLayerWidthPercentage,100
;   firstLayerUnderspeed,0.5
;   useRaft,0
;   raftExtruder,0
;   raftTopLayers,2
;   raftBaseLayers,2
;   raftOffset,3
;   raftSeparationDistance,0.14
;   raftTopInfill,100
;   aboveRaftSpeedMultiplier,0.3
;   useSkirt,0
;   skirtExtruder,0
;   skirtLayers,1
;   skirtOutlines,2
;   skirtOffset,4
;   usePrimePillar,0
;   primePillarExtruder,999
;   primePillarWidth,12
;   primePillarLocation,7
;   primePillarSpeedMultiplier,1
;   useOozeShield,0
;   oozeShieldExtruder,999
;   oozeShieldOffset,2
;   oozeShieldOutlines,1
;   oozeShieldSidewallShape,1
;   oozeShieldSidewallAngle,30
;   oozeShieldSpeedMultiplier,1
;   infillExtruder,0
;   internalInfillPattern,Rectilinear
;   externalInfillPattern,Rectilinear
;   infillPercentage,15
;   outlineOverlapPercentage,20
;   infillExtrusionWidthPercentage,100
;   minInfillLength,5
;   infillLayerInterval,1
;   internalInfillAngles,45,-45
;   overlapInternalInfillAngles,0
;   externalInfillAngles,45,-45
;   generateSupport,0
;   supportExtruder,0
;   supportInfillPercentage,50
;   supportExtraInflation,0
;   supportBaseLayers,2
;   denseSupportExtruder,0
;   denseSupportLayers,0
;   denseSupportInfillPercentage,70
;   supportLayerInterval,1
;   supportHorizontalPartOffset,0.3
;   supportUpperSeparationLayers,1
;   supportLowerSeparationLayers,1
;   supportType,0
;   supportGridSpacing,1
;   maxOverhangAngle,45
;   supportAngles,0
;   temperatureName,Primary Extruder,Heated Bed
;   temperatureNumber,0,0
;   temperatureSetpointCount,1,1
;   temperatureSetpointLayers,1,1
;   temperatureSetpointTemperatures,200,60
;   temperatureStabilizeAtStartup,1,1
;   temperatureHeatedBed,0,1
;   fanLayers,1,2
;   fanSpeeds,0,100
;   blipFanToFullPower,0
;   adjustSpeedForCooling,1
;   minSpeedLayerTime,15
;   minCoolingSpeedSlowdown,20
;   increaseFanForCooling,0
;   minFanLayerTime,45
;   maxCoolingFanSpeed,100
;   increaseFanForBridging,0
;   bridgingFanSpeed,100
;   use5D,1
;   relativeEdistances,0
;   allowEaxisZeroing,1
;   independentExtruderAxes,0
;   includeM10123,0
;   stickySupport,1
;   applyToolheadOffsets,0
;   gcodeXoffset,0
;   gcodeYoffset,0
;   gcodeZoffset,0
;   overrideMachineDefinition,1
;   machineTypeOverride,0
;   strokeXoverride,250
;   strokeYoverride,210
;   strokeZoverride,200
;   originOffsetXoverride,0
;   originOffsetYoverride,0
;   originOffsetZoverride,0
;   homeXdirOverride,-1
;   homeYdirOverride,-1
;   homeZdirOverride,-1
;   flipXoverride,1
;   flipYoverride,-1
;   flipZoverride,1
;   toolheadOffsets,0,0|0,0|0,0|0,0|0,0|0,0
;   overrideFirmwareConfiguration,1
;   firmwareTypeOverride,RepRap (Marlin/Repetier/Sprinter)
;   GPXconfigOverride,r2
;   baudRateOverride,250000
;   overridePrinterModels,1
;   printerModelsOverride
;   startingGcode,M115 U3.0.7 ; use the latest firmware version,G28 W ; home all axes without mesh bed leveling,G80 ; run mesh bed leveling routine,G1 Y-3.0 F1000.0 ; prepare to prime,G92 E0 ; reset extrusion distance,G1 X60.0 E9.0  F1000.0 ; priming,G1 X100.0 E12.5  F1000.0 ; priming
;   layerChangeGcode,
;   retractionGcode,
;   toolChangeGcode,
;   endingGcode,M106 S0 ; turn off cooling fan,M104 S0 ; turn off extruder,M140 S0 ; turn off bed,G1 X0 Y200 ; part removal,M84 ; disable motors
;   exportFileFormat,gcode
;   celebration,0
;   celebrationSong,Random Song
;   postProcessing,
;   defaultSpeed,2400
;   outlineUnderspeed,0.8
;   solidInfillUnderspeed,0.8
;   supportUnderspeed,0.8
;   rapidXYspeed,4800
;   rapidZspeed,1002
;   minBridgingArea,50
;   bridgingExtraInflation,0
;   bridgingExtrusionMultiplier,1
;   bridgingSpeedMultiplier,1
;   useFixedBridgingAngle,0
;   fixedBridgingAngle,0
;   applyBridgingToPerimeters,0
;   filamentDiameters,1.75|1.75|1.75|1.75|1.75|1.75
;   filamentPricesPerKg,46|46|46|46|46|46
;   filamentDensities,1.25|1.25|1.25|1.25|1.25|1.25
;   useMinPrintHeight,0
;   minPrintHeight,0
;   useMaxPrintHeight,0
;   maxPrintHeight,0
;   useDiaphragm,0
;   diaphragmLayerInterval,20
;   robustSlicing,1
;   mergeAllIntoSolid,0
;   onlyRetractWhenCrossingOutline,1
;   retractBetweenLayers,1
;   useRetractionMinTravel,0
;   retractionMinTravel,3
;   retractWhileWiping,1
;   onlyWipeOutlines,1
;   avoidCrossingOutline,0
;   maxMovementDetourFactor,3
;   toolChangeRetractionDistance,12
;   toolChangeExtraRestartDistance,-0.5
;   toolChangeRetractionSpeed,600
;   externalThinWallType,0
;   internalThinWallType,2
;   thinWallAllowedOverlapPercentage,25
;   singleExtrusionMinLength,1
;   singleExtrusionMinPrintingWidthPercentage,50
;   singleExtrusionMaxPrintingWidthPercentage,200
;   singleExtrusionEndpointExtension,0.2
;   horizontalSizeCompensation,0
G90
M82
M106 S0
M140 S60
M190 S60
M104 S200 T0
M109 S200 T0
M115 U3.0.7 ; use the latest firmware version
G28 W ; home all axes without mesh bed leveling
G80 ; run mesh bed leveling routine
G1 Y-3.0 F1000.0 ; prepare to prime
G92 E0 ; reset extrusion distance
G1 X60.0 E9.0  F1000.0 ; priming
G1 X100.0 E12.5  F1000.0 ; priming
; process Process1
; layer 1, Z = 0.300
T0
G92 E0.0000
G1 E-1.5000 F1800
; feature inner perimeter
; tool H0.300 W0.480
G1 Z0.300 F1002
G1 X93.568 Y86.439 F4800
G1 E0.0000 F1800
G92 E0.0000
G1 X94.671 Y86.502 E0.0661 F1080
G1 X94.978 Y86.545 E0.0847
G1 X95.299 Y86.631 E0.1046
G1 X95.671 Y86.788 E0.1288
G1 X96.117 Y87.051 E0.1598
G1 X96.650 Y87.448 E0.1996
G1 X98.272 Y88.895 E0.3297
G1 X98.559 Y89.165 E0.3533
G1 X98.726 Y89.342 E0.3678
G1 X98.858 Y89.519 E0.3811
G1 X98.916 Y89.625 E0.3883
G1 X98.982 Y89.828 E0.4011
G1 X99.026 Y90.100 E0.4176
G1 X99.065 Y90.750 E0.4566
G1 X99.112 Y93.526 E0.6228
G1 X99.084 Y94.040 E0.6536
G1 X99.037 Y94.272 E0.6678
G1 X98.965 Y94.450 E0.6793
G1 X98.835 Y94.649 E0.6935
G1 X98.708 Y94.801 E0.7053
G1 X98.403 Y95.117 E0.7316
G1 X96.997 Y96.467 E0.8483
G1 X96.608 Y96.806 E0.8793
G1 X96.254 Y97.077 E0.9059
G1 X95.935 Y97.285 E0.9287
G1 X95.656 Y97.436 E0.9477
G1 X95.409 Y97.537 E0.9637
G1 X95.185 Y97.605 E0.9777
G1 X94.956 Y97.650 E0.9917
G1 X94.740 Y97.675 E1.0047
G1 X93.890 Y97.713 E1.0556
G1 X93.568 Y97.747 E1.0750
G1 X93.568 Y86.639 E1.7401
G1 X93.568 Y86.439 F1080
; feature outer perimeter
G1 X93.580 Y85.959 F4800
G92 E0.0000
G1 X94.718 Y86.024 E0.0682 F960
G1 X95.074 Y86.074 E0.0898
G1 X95.456 Y86.176 E0.1134
G1 X95.887 Y86.359 E0.1414
G1 X96.383 Y86.650 E0.1759
G1 X96.954 Y87.076 E0.2185
G1 X98.597 Y88.541 E0.3503
G1 X98.898 Y88.825 E0.3751
G1 X99.094 Y89.032 E0.3922
G1 X99.264 Y89.260 E0.4092
G1 X99.359 Y89.435 E0.4211
G1 X99.450 Y89.715 E0.4387
G1 X99.504 Y90.047 E0.4589
G1 X99.545 Y90.732 E0.5000
G1 X99.592 Y93.535 E0.6678
G1 X99.561 Y94.101 E0.7017
G1 X99.499 Y94.411 E0.7207
G1 X99.392 Y94.674 E0.7377
G1 X99.222 Y94.935 E0.7563
G1 X99.065 Y95.122 E0.7709
G1 X98.742 Y95.457 E0.7988
G1 X97.321 Y96.821 E0.9167
G1 X96.912 Y97.178 E0.9492
G1 X96.532 Y97.469 E0.9779
G1 X96.181 Y97.698 E1.0030
G1 X95.862 Y97.870 E1.0247
G1 X95.570 Y97.990 E1.0436
G1 X95.301 Y98.071 E1.0603
G1 X95.030 Y98.124 E1.0769
G1 X94.777 Y98.153 E1.0921
G1 X93.926 Y98.192 E1.1431
G1 X93.516 Y98.235 E1.1678
G1 X93.088 Y98.328 E1.1941
G1 X93.088 Y85.857 E1.9407
G1 X93.210 Y85.894 E1.9483
G1 X93.383 Y85.924 E1.9588
G1 X93.580 Y85.959 F960
G1 X94.718 Y86.024 F960
G1 X95.074 Y86.074
G1 X95.456 Y86.176
G1 X95.553 Y86.217
; feature solid layer
G1 X95.727 Y87.267 F4800
G92 E0.0000
G1 X98.647 Y90.187 E0.2472 F960
G1 X98.681 Y90.765 E0.2819
G1 X98.683 Y90.902 E0.2901
G1 X94.671 Y86.890 E0.6298
G1 X94.633 Y86.885 E0.6321
G1 X93.952 Y86.849 E0.6732
G1 X98.695 Y91.593 E1.0748
G1 X98.707 Y92.283 E1.1162
G1 X93.952 Y87.528 E1.5187
G1 X93.952 Y88.207 E1.5594
G1 X98.718 Y92.974 E1.9630
G1 X98.728 Y93.518 E1.9956
G1 X98.720 Y93.654 E2.0037
G1 X93.952 Y88.886 E2.4074
G1 X93.952 Y89.565 E2.4481
G1 X98.633 Y94.246 E2.8444
G1 X98.623 Y94.271 E2.8461
G1 X98.526 Y94.420 E2.8567
G1 X98.422 Y94.544 E2.8664
G1 X98.339 Y94.630 E2.8736
G1 X93.952 Y90.244 E3.2450
G1 X93.952 Y90.922 E3.2856
G1 X98.001 Y94.971 E3.6284
G1 X97.654 Y95.304 E3.6572
G1 X93.952 Y91.601 E3.9706
G1 X93.952 Y92.280 E4.0113
G1 X97.308 Y95.636 E4.2954
G1 X96.962 Y95.969 E4.3242
G1 X93.952 Y92.959 E4.5790
G1 X93.952 Y93.638 E4.6197
G1 X96.610 Y96.295 E4.8447
G1 X96.365 Y96.509 E4.8641
G1 X96.240 Y96.604 E4.8736
G1 X93.952 Y94.316 E5.0673
G1 X93.952 Y94.995 E5.1079
G1 X95.843 Y96.887 E5.2680
G1 X95.739 Y96.955 E5.2755
G1 X95.491 Y97.088 E5.2923
G1 X95.402 Y97.125 E5.2981
G1 X93.952 Y95.674 E5.4209
G1 X93.952 Y96.353 E5.4615
G1 X94.872 Y97.273 E5.5394
G1 X94.709 Y97.291 E5.5492
G1 X94.233 Y97.313 E5.5778
G1 X94.093 Y97.173 E5.5896
G1 X93.952 Y97.032 F960
G92 E0.0000
G1 E-1.5000 F1800
; feature inner perimeter
G1 X107.429 Y97.747 F4800
G1 E0.0000 F1800
G92 E0.0000
G1 X107.429 Y86.439 E0.6770 F1080
G1 X108.532 Y86.502 E0.7431
G1 X108.839 Y86.545 E0.7617
G1 X109.160 Y86.631 E0.7816
G1 X109.531 Y86.788 E0.8058
G1 X109.978 Y87.051 E0.8368
G1 X110.511 Y87.448 E0.8766
G1 X112.133 Y88.895 E1.0067
G1 X112.420 Y89.165 E1.0303
G1 X112.587 Y89.342 E1.0448
G1 X112.719 Y89.519 E1.0581
G1 X112.776 Y89.625 E1.0653
G1 X112.843 Y89.828 E1.0781
G1 X112.887 Y90.100 E1.0946
G1 X112.926 Y90.750 E1.1336
G1 X112.973 Y93.526 E1.2998
G1 X112.944 Y94.040 E1.3306
G1 X112.898 Y94.272 E1.3448
G1 X112.825 Y94.450 E1.3563
G1 X112.696 Y94.649 E1.3705
G1 X112.569 Y94.801 E1.3824
G1 X112.264 Y95.117 E1.4086
G1 X110.858 Y96.467 E1.5253
G1 X110.469 Y96.806 E1.5563
G1 X110.115 Y97.077 E1.5829
G1 X109.796 Y97.285 E1.6057
G1 X109.517 Y97.436 E1.6247
G1 X109.270 Y97.537 E1.6407
G1 X109.046 Y97.605 E1.6547
G1 X108.817 Y97.650 E1.6687
G1 X108.600 Y97.675 E1.6817
G1 X107.751 Y97.713 E1.7326
G1 X107.628 Y97.726 E1.7401
G1 X107.429 Y97.747 F1080
; feature outer perimeter
G1 X107.377 Y98.235 F4800
G92 E0.0000
G1 X106.949 Y98.328 E0.0262 F960
G1 X106.949 Y85.857 E0.7729
G1 X107.071 Y85.894 E0.7805
G1 X107.441 Y85.959 E0.8030
G1 X108.578 Y86.024 E0.8712
G1 X108.935 Y86.074 E0.8927
G1 X109.317 Y86.176 E0.9164
G1 X109.748 Y86.359 E0.9444
G1 X110.244 Y86.650 E0.9789
G1 X110.814 Y87.076 E1.0215
G1 X112.457 Y88.541 E1.1533
G1 X112.759 Y88.825 E1.1781
G1 X112.955 Y89.032 E1.1952
G1 X113.125 Y89.260 E1.2122
G1 X113.219 Y89.435 E1.2241
G1 X113.311 Y89.715 E1.2417
G1 X113.365 Y90.047 E1.2619
G1 X113.406 Y90.732 E1.3030
G1 X113.453 Y93.535 E1.4708
G1 X113.422 Y94.101 E1.5047
G1 X113.359 Y94.411 E1.5237
G1 X113.253 Y94.674 E1.5406
G1 X113.082 Y94.935 E1.5593
G1 X112.926 Y95.122 E1.5739
G1 X112.603 Y95.457 E1.6017
G1 X111.182 Y96.821 E1.7197
G1 X110.773 Y97.178 E1.7522
G1 X110.392 Y97.469 E1.7809
G1 X110.041 Y97.698 E1.8060
G1 X109.723 Y97.870 E1.8276
G1 X109.431 Y97.990 E1.8466
G1 X109.162 Y98.071 E1.8633
G1 X108.891 Y98.124 E1.8799
G1 X108.638 Y98.153 E1.8951
G1 X107.787 Y98.192 E1.9461
G1 X107.576 Y98.214 E1.9588
G1 X107.377 Y98.235 F960
G1 X106.949 Y98.328 F960
G1 X106.949 Y96.767
; feature solid layer
G1 X107.813 Y97.316 F4800
G92 E0.0000
G1 X107.822 Y97.325 E0.0008 F960
G1 X108.471 Y97.296 E0.0397
G1 X107.813 Y96.637 E0.0954
G1 X107.813 Y95.959 E0.1361
G1 X109.055 Y97.201 E0.2413
G1 X109.141 Y97.175 E0.2466
G1 X109.352 Y97.088 E0.2603
G1 X109.527 Y96.994 E0.2722
G1 X107.813 Y95.280 E0.4173
G1 X107.813 Y94.601 E0.4580
G1 X109.940 Y96.728 E0.6380
G1 X110.226 Y96.509 E0.6596
G1 X110.319 Y96.428 E0.6670
G1 X107.813 Y93.922 E0.8791
G1 X107.813 Y93.243 E0.9198
G1 X110.678 Y96.108 E1.1623
G1 X111.024 Y95.776 E1.1911
G1 X107.813 Y92.564 E1.4630
G1 X107.813 Y91.886 E1.5036
G1 X111.370 Y95.443 E1.8048
G1 X111.716 Y95.111 E1.8335
G1 X107.813 Y91.207 E2.1640
G1 X107.813 Y90.528 E2.2047
G1 X112.060 Y94.775 E2.5643
G1 X112.283 Y94.544 E2.5835
G1 X112.385 Y94.422 E2.5931
G1 X107.813 Y89.849 E2.9802
G1 X107.813 Y89.170 E3.0208
G1 X112.566 Y93.924 E3.4233
G1 X112.589 Y93.518 E3.4476
G1 X112.584 Y93.263 E3.4629
G1 X107.813 Y88.492 E3.8669
G1 X107.813 Y87.813 E3.9075
G1 X112.573 Y92.573 E4.3105
G1 X112.561 Y91.882 E4.3519
G1 X107.813 Y87.134 E4.7539
G1 X107.813 Y86.845 E4.7712
G1 X108.227 Y86.869 E4.7960
G1 X112.549 Y91.192 E5.1620
G1 X112.542 Y90.765 E5.1875
G1 X112.526 Y90.489 E5.2040
G1 X109.172 Y87.135 E5.4880
G1 X109.030 Y86.994 F960
G92 E0.0000
G1 E-1.5000 F1800
; feature inner perimeter
G1 X121.290 Y86.439 F4800
G1 E0.0000 F1800
G92 E0.0000
G1 X122.393 Y86.502 E0.0661 F1080
G1 X122.700 Y86.545 E0.0847
G1 X123.021 Y86.631 E0.1046
G1 X123.392 Y86.788 E0.1288
G1 X123.839 Y87.051 E0.1598
G1 X124.371 Y87.448 E0.1996
G1 X125.994 Y88.895 E0.3297
G1 X126.281 Y89.165 E0.3533
G1 X126.448 Y89.342 E0.3678
G1 X126.580 Y89.519 E0.3811
G1 X126.637 Y89.625 E0.3883
G1 X126.704 Y89.828 E0.4011
G1 X126.748 Y90.100 E0.4176
G1 X126.787 Y90.750 E0.4566
G1 X126.834 Y93.526 E0.6228
G1 X126.805 Y94.040 E0.6536
G1 X126.759 Y94.272 E0.6678
G1 X126.686 Y94.450 E0.6793
G1 X126.557 Y94.649 E0.6935
G1 X126.430 Y94.801 E0.7053
G1 X126.125 Y95.117 E0.7316
G1 X124.719 Y96.467 E0.8483
G1 X124.330 Y96.806 E0.8793
G1 X123.976 Y97.077 E0.9059
G1 X123.657 Y97.285 E0.9287
G1 X123.378 Y97.436 E0.9477
G1 X123.131 Y97.537 E0.9637
G1 X122.907 Y97.605 E0.9777
G1 X122.678 Y97.650 E0.9917
G1 X122.461 Y97.675 E1.0047
G1 X121.612 Y97.713 E1.0556
G1 X121.290 Y97.747 E1.0750
G1 X121.290 Y86.639 E1.7401
G1 X121.290 Y86.439 F1080
; feature outer perimeter
G1 X121.302 Y85.959 F4800
G92 E0.0000
G1 X122.439 Y86.024 E0.0682 F960
G1 X122.796 Y86.074 E0.0898
G1 X123.178 Y86.176 E0.1134
G1 X123.608 Y86.359 E0.1414
G1 X124.105 Y86.650 E0.1759
G1 X124.675 Y87.076 E0.2185
G1 X126.318 Y88.541 E0.3503
G1 X126.620 Y88.825 E0.3751
G1 X126.815 Y89.032 E0.3922
G1 X126.986 Y89.260 E0.4092
G1 X127.080 Y89.435 E0.4211
G1 X127.172 Y89.715 E0.4387
G1 X127.226 Y90.047 E0.4589
G1 X127.266 Y90.732 E0.5000
G1 X127.314 Y93.535 E0.6678
G1 X127.283 Y94.101 E0.7017
G1 X127.220 Y94.411 E0.7207
G1 X127.114 Y94.674 E0.7377
G1 X126.943 Y94.935 E0.7563
G1 X126.787 Y95.122 E0.7709
G1 X126.464 Y95.457 E0.7988
G1 X125.043 Y96.821 E0.9167
G1 X124.633 Y97.178 E0.9492
G1 X124.253 Y97.469 E0.9779
G1 X123.902 Y97.698 E1.0030
G1 X123.584 Y97.870 E1.0247
G1 X123.291 Y97.990 E1.0436
G1 X123.023 Y98.071 E1.0603
G1 X122.752 Y98.124 E1.0769
G1 X122.499 Y98.153 E1.0921
G1 X121.648 Y98.192 E1.1431
G1 X121.238 Y98.235 E1.1678
G1 X120.810 Y98.328 E1.1941
G1 X120.810 Y85.857 E1.9407
G1 X120.932 Y85.894 E1.9483
G1 X121.105 Y85.924 E1.9588
G1 X121.302 Y85.959 F960
G1 X122.439 Y86.024 F960
G1 X122.796 Y86.074
G1 X123.178 Y86.176
G1 X123.275 Y86.217
; feature solid layer
G1 X123.770 Y87.479 F4800
G92 E0.0000
G1 X126.353 Y90.061 E0.2186 F960
G1 X126.366 Y90.142 E0.2236
G1 X126.403 Y90.765 E0.2609
G1 X126.403 Y90.790 E0.2624
G1 X122.521 Y86.908 E0.5912
G1 X122.355 Y86.885 E0.6012
G1 X121.786 Y86.852 E0.6353
G1 X126.415 Y91.481 E1.0272
G1 X126.427 Y92.171 E1.0685
G1 X121.674 Y87.418 E1.4710
G1 X121.674 Y88.097 E1.5116
G1 X126.438 Y92.862 E1.9150
G1 X126.449 Y93.518 E1.9543
G1 X126.448 Y93.550 E1.9562
G1 X121.674 Y88.776 E2.3604
G1 X121.674 Y89.455 E2.4011
