; G-Code generated by Simplify3D(R) Version 4.1.1
; Apr 26, 2019 at 12:11:41 PM
; Settings Summary
;   processName,Process1
;   applyToModels,orbV1R1,orbV1R1(2),orbV1R1(3),orbV1R1(4),orbV1R1(5),orbV1R1(6)
;   profileName,Original Prusa i3 MK2 RC4
;   profileVersion,2019-04-14 22:45:17
;   baseProfile,Prusa Mendel (modified)
;   printMaterial,PLA
;   printQuality,NORMAL 0.2mm
;   printExtruders,
;   extruderName,Primary Extruder
;   extruderToolheadNumber,0
;   extruderDiameter,0.4
;   extruderAutoWidth,0
;   extruderWidth,0.45
;   extrusionMultiplier,1
;   extruderUseRetract,1
;   extruderRetractionDistance,0.8
;   extruderExtraRestartDistance,0
;   extruderRetractionZLift,0
;   extruderRetractionSpeed,1800
;   extruderUseCoasting,1
;   extruderCoastingDistance,0.2
;   extruderUseWipe,1
;   extruderWipeDistance,2
;   primaryExtruder,0
;   layerHeight,0.2
;   topSolidLayers,3
;   bottomSolidLayers,3
;   perimeterOutlines,2
;   printPerimetersInsideOut,1
;   startPointOption,2
;   startPointOriginX,0
;   startPointOriginY,0
;   sequentialIslands,0
;   spiralVaseMode,0
;   firstLayerHeightPercentage,100
;   firstLayerWidthPercentage,95
;   firstLayerUnderspeed,0.6
;   useRaft,0
;   raftExtruder,0
;   raftTopLayers,3
;   raftBaseLayers,2
;   raftOffset,3
;   raftSeparationDistance,0.14
;   raftTopInfill,100
;   aboveRaftSpeedMultiplier,0.3
;   useSkirt,0
;   skirtExtruder,0
;   skirtLayers,1
;   skirtOutlines,1
;   skirtOffset,1.8
;   usePrimePillar,0
;   primePillarExtruder,999
;   primePillarWidth,12
;   primePillarLocation,7
;   primePillarSpeedMultiplier,1
;   useOozeShield,0
;   oozeShieldExtruder,999
;   oozeShieldOffset,2
;   oozeShieldOutlines,1
;   oozeShieldSidewallShape,1
;   oozeShieldSidewallAngle,30
;   oozeShieldSpeedMultiplier,1
;   infillExtruder,0
;   internalInfillPattern,Rectilinear
;   externalInfillPattern,Rectilinear
;   infillPercentage,30
;   outlineOverlapPercentage,21
;   infillExtrusionWidthPercentage,100
;   minInfillLength,2
;   infillLayerInterval,1
;   internalInfillAngles,45,-45
;   overlapInternalInfillAngles,0
;   externalInfillAngles,45,-45
;   generateSupport,0
;   supportExtruder,0
;   supportInfillPercentage,30
;   supportExtraInflation,0.5
;   supportBaseLayers,0
;   denseSupportExtruder,0
;   denseSupportLayers,0
;   denseSupportInfillPercentage,70
;   supportLayerInterval,1
;   supportHorizontalPartOffset,0.2
;   supportUpperSeparationLayers,1
;   supportLowerSeparationLayers,1
;   supportType,0
;   supportGridSpacing,4
;   maxOverhangAngle,45
;   supportAngles,0
;   temperatureName,Primary Extruder,Heated Bed
;   temperatureNumber,0,1
;   temperatureSetpointCount,1,1
;   temperatureSetpointLayers,1,1
;   temperatureSetpointTemperatures,230,55
;   temperatureStabilizeAtStartup,1,1
;   temperatureHeatedBed,0,1
;   fanLayers,1,2
;   fanSpeeds,0,100
;   blipFanToFullPower,1
;   adjustSpeedForCooling,1
;   minSpeedLayerTime,15
;   minCoolingSpeedSlowdown,5
;   increaseFanForCooling,0
;   minFanLayerTime,45
;   maxCoolingFanSpeed,100
;   increaseFanForBridging,1
;   bridgingFanSpeed,100
;   use5D,1
;   relativeEdistances,1
;   allowEaxisZeroing,1
;   independentExtruderAxes,0
;   includeM10123,0
;   stickySupport,1
;   applyToolheadOffsets,0
;   gcodeXoffset,0
;   gcodeYoffset,0
;   gcodeZoffset,0
;   overrideMachineDefinition,1
;   machineTypeOverride,0
;   strokeXoverride,250
;   strokeYoverride,210
;   strokeZoverride,200
;   originOffsetXoverride,0
;   originOffsetYoverride,0
;   originOffsetZoverride,0
;   homeXdirOverride,-1
;   homeYdirOverride,-1
;   homeZdirOverride,-1
;   flipXoverride,1
;   flipYoverride,-1
;   flipZoverride,1
;   toolheadOffsets,0,0|0,0|0,0|0,0|0,0|0,0
;   overrideFirmwareConfiguration,0
;   firmwareTypeOverride,RepRap (Marlin/Repetier/Sprinter)
;   GPXconfigOverride,r2
;   baudRateOverride,250000
;   overridePrinterModels,1
;   printerModelsOverride
;   startingGcode,M115 U3.0.7 ; tell the printer latest firmware varsion available,G28 W ; home all without mesh bed level,G80 ; mesh bed leveling,G1 Y-3.0 F1000.0 ; go outside printing area,G1 X60.0 E9.0  F1000.0 ; intro line,G1 X100.0 E12.5  F1000.0 ; intro line
;   layerChangeGcode,
;   retractionGcode,
;   toolChangeGcode,
;   endingGcode,M104 S0 ; turn off temperature,M140 S0 ; turn off heatbed,M107 ; turn off fan,G1 X0 Y200; home X axis,M84 ; disable motors
;   exportFileFormat,gcode
;   celebration,0
;   celebrationSong,Random Song
;   postProcessing,{REPLACE "; outer perimeter\n" "; outer perimeter\nM204 S600\n"},{REPLACE "; inner perimeter\n" "; inner perimeter\nM204 S1200\n"},{REPLACE "; solid layer\n" "; solid layer\nM204 S1500\n"},{REPLACE "; infill\n" "; infill\nM204 S2000\n"}
;   defaultSpeed,2400
;   outlineUnderspeed,0.8
;   solidInfillUnderspeed,0.8
;   supportUnderspeed,0.8
;   rapidXYspeed,4800
;   rapidZspeed,1002
;   minBridgingArea,50
;   bridgingExtraInflation,1
;   bridgingExtrusionMultiplier,1
;   bridgingSpeedMultiplier,1
;   useFixedBridgingAngle,0
;   fixedBridgingAngle,0
;   applyBridgingToPerimeters,0
;   filamentDiameters,1.75|1.75|1.75|1.75|1.75|1.75
;   filamentPricesPerKg,215|215|215|215|215|215
;   filamentDensities,1.25|1.25|1.25|1.25|1.25|1.25
;   useMinPrintHeight,0
;   minPrintHeight,0
;   useMaxPrintHeight,0
;   maxPrintHeight,0
;   useDiaphragm,0
;   diaphragmLayerInterval,20
;   robustSlicing,1
;   mergeAllIntoSolid,0
;   onlyRetractWhenCrossingOutline,0
;   retractBetweenLayers,0
;   useRetractionMinTravel,1
;   retractionMinTravel,3
;   retractWhileWiping,1
;   onlyWipeOutlines,0
;   avoidCrossingOutline,0
;   maxMovementDetourFactor,3
;   toolChangeRetractionDistance,12
;   toolChangeExtraRestartDistance,-0.5
;   toolChangeRetractionSpeed,600
;   externalThinWallType,0
;   internalThinWallType,2
;   thinWallAllowedOverlapPercentage,25
;   singleExtrusionMinLength,1
;   singleExtrusionMinPrintingWidthPercentage,50
;   singleExtrusionMaxPrintingWidthPercentage,200
;   singleExtrusionEndpointExtension,0.2
;   horizontalSizeCompensation,0
G90
M83
M127
M140 S55 T0
M134 T0
M104 S230 T0
M133 T0
M115 U3.0.7 ; tell the printer latest firmware varsion available
G28 W ; home all without mesh bed level
G80 ; mesh bed leveling
G1 Y-3.0 F1000.0 ; go outside printing area
G1 X60.0 E9.0  F1000.0 ; intro line
G1 X100.0 E12.5  F1000.0 ; intro line
; process Process1
; layer 1, Z = 0.200
M135 T0
G1 E-0.8000 F1800
; feature inner perimeter
; tool H0.200 W0.428
G1 Z0.200 F1002
G1 X91.362 Y80.935 F4800
G1 E0.8000 F1800
G1 X91.822 Y80.542 E0.0215 F1296
G1 X92.338 Y80.226 E0.0215
G1 X92.897 Y79.994 E0.0215
G1 X93.486 Y79.853 E0.0215
G1 X94.093 Y79.805 E0.0216
G1 X95.345 Y79.889 E0.0446
G1 X96.205 Y80.016 E0.0309
G1 X96.960 Y80.204 E0.0277
G1 X97.645 Y80.449 E0.0259
G1 X100.288 Y81.647 E0.1032
G1 X101.516 Y82.147 E0.0471
G1 X102.676 Y82.550 E0.0437
G1 X103.723 Y82.838 E0.0386
G1 X104.751 Y83.031 E0.0372
G1 X105.591 Y83.102 E0.0300
G1 X106.444 Y83.079 E0.0303
G1 X107.261 Y82.966 E0.0293
G1 X108.086 Y82.766 E0.0302
G1 X108.936 Y82.477 E0.0319
G1 X109.863 Y82.082 E0.0358
G1 X112.560 Y80.729 E0.1073
G1 X113.436 Y80.336 E0.0341
G1 X114.242 Y80.040 E0.0306
G1 X114.958 Y79.844 E0.0264
G1 X115.130 Y79.809 E0.0062
G1 X115.696 Y79.854 E0.0202
G1 X116.300 Y80.002 E0.0221
G1 X116.839 Y80.226 E0.0208
G1 X117.355 Y80.542 E0.0215
G1 X117.827 Y80.947 E0.0221
G1 X118.209 Y81.395 E0.0209
G1 X118.521 Y81.903 E0.0212
G1 X118.757 Y82.471 E0.0219
G1 X118.898 Y83.059 E0.0215
G1 X118.948 Y83.687 E0.0224
G1 X118.948 Y84.637 E0.0338
G1 X118.898 Y85.266 E0.0224
G1 X118.757 Y85.854 E0.0215
G1 X118.525 Y86.413 E0.0215
G1 X118.209 Y86.929 E0.0215
G1 X117.816 Y87.389 E0.0215
G1 X117.356 Y87.782 E0.0215
G1 X116.840 Y88.099 E0.0215
G1 X116.281 Y88.330 E0.0215
G1 X115.692 Y88.472 E0.0215
G1 X115.130 Y88.516 E0.0200
G1 X114.959 Y88.480 E0.0062
G1 X114.242 Y88.285 E0.0264
G1 X113.436 Y87.988 E0.0305
G1 X112.557 Y87.594 E0.0342
G1 X109.844 Y86.234 E0.1079
G1 X108.936 Y85.847 E0.0351
G1 X108.086 Y85.558 E0.0319
G1 X107.261 Y85.358 E0.0302
G1 X106.444 Y85.246 E0.0293
G1 X105.591 Y85.223 E0.0303
G1 X104.751 Y85.294 E0.0300
G1 X103.723 Y85.486 E0.0372
G1 X102.676 Y85.774 E0.0386
G1 X101.516 Y86.177 E0.0437
G1 X100.288 Y86.678 E0.0471
G1 X97.645 Y87.875 E0.1032
G1 X96.960 Y88.121 E0.0259
G1 X96.205 Y88.309 E0.0277
G1 X95.345 Y88.435 E0.0309
G1 X94.093 Y88.519 E0.0446
G1 X93.486 Y88.472 E0.0216
G1 X92.897 Y88.330 E0.0215
G1 X92.338 Y88.099 E0.0215
G1 X91.822 Y87.782 E0.0215
G1 X91.362 Y87.389 E0.0215
G1 X90.969 Y86.929 E0.0215
G1 X90.652 Y86.413 E0.0215
G1 X90.421 Y85.854 E0.0215
G1 X90.280 Y85.266 E0.0215
G1 X90.230 Y84.637 E0.0224
G1 X90.230 Y83.687 E0.0338
G1 X90.280 Y83.059 E0.0224
G1 X90.421 Y82.470 E0.0215
G1 X90.652 Y81.911 E0.0215
G1 X90.969 Y81.395 E0.0215
G1 X91.232 Y81.087 E0.0144
G1 X91.362 Y80.935 F1296
G1 X91.822 Y80.542 F1296
G1 X92.338 Y80.226
G1 X92.897 Y79.994
G1 X93.076 Y79.951
; feature outer perimeter
G1 X92.765 Y79.586 F4800
G1 X93.418 Y79.429 E0.0239 F1152
G1 X94.090 Y79.377 E0.0240
G1 X95.390 Y79.464 E0.0463
G1 X96.288 Y79.596 E0.0322
G1 X97.084 Y79.794 E0.0292
G1 X97.806 Y80.052 E0.0272
G1 X100.457 Y81.254 E0.1035
G1 X101.667 Y81.747 E0.0464
G1 X102.803 Y82.142 E0.0428
G1 X103.819 Y82.421 E0.0374
G1 X104.809 Y82.607 E0.0358
G1 X105.604 Y82.674 E0.0284
G1 X106.409 Y82.652 E0.0286
G1 X107.182 Y82.546 E0.0277
G1 X107.967 Y82.355 E0.0287
G1 X108.783 Y82.078 E0.0307
G1 X109.683 Y81.694 E0.0348
G1 X112.377 Y80.343 E0.1071
G1 X113.274 Y79.940 E0.0350
G1 X114.112 Y79.632 E0.0317
G1 X114.859 Y79.429 E0.0275
G1 X115.102 Y79.378 E0.0089
G1 X115.764 Y79.430 E0.0236
G1 X116.434 Y79.594 E0.0245
G1 X117.034 Y79.844 E0.0231
G1 X117.608 Y80.195 E0.0239
G1 X118.131 Y80.644 E0.0245
G1 X118.556 Y81.143 E0.0233
G1 X118.903 Y81.708 E0.0236
G1 X119.165 Y82.338 E0.0242
G1 X119.322 Y82.992 E0.0239
G1 X119.375 Y83.671 E0.0242
G1 X119.375 Y84.654 E0.0350
G1 X119.322 Y85.333 E0.0242
G1 X119.165 Y85.987 E0.0239
G1 X118.907 Y86.608 E0.0239
G1 X118.556 Y87.181 E0.0239
G1 X118.119 Y87.693 E0.0239
G1 X117.608 Y88.129 E0.0239
G1 X117.034 Y88.481 E0.0239
G1 X116.413 Y88.738 E0.0239
G1 X115.759 Y88.895 E0.0239
G1 X115.103 Y88.947 E0.0234
G1 X114.859 Y88.896 E0.0089
G1 X114.112 Y88.693 E0.0275
G1 X113.274 Y88.385 E0.0317
G1 X112.374 Y87.980 E0.0351
G1 X109.665 Y86.622 E0.1077
G1 X108.783 Y86.247 E0.0341
G1 X107.967 Y85.969 E0.0307
G1 X107.182 Y85.779 E0.0287
G1 X106.409 Y85.672 E0.0277
G1 X105.604 Y85.651 E0.0286
G1 X104.809 Y85.718 E0.0284
G1 X103.819 Y85.903 E0.0358
G1 X102.803 Y86.182 E0.0374
G1 X101.667 Y86.577 E0.0428
G1 X100.457 Y87.071 E0.0464
G1 X97.806 Y88.272 E0.1035
G1 X97.084 Y88.530 E0.0272
G1 X96.288 Y88.728 E0.0292
G1 X95.390 Y88.861 E0.0322
G1 X94.090 Y88.948 E0.0463
G1 X93.418 Y88.895 E0.0240
G1 X92.765 Y88.738 E0.0239
G1 X92.143 Y88.481 E0.0239
G1 X91.570 Y88.129 E0.0239
G1 X91.058 Y87.693 E0.0239
G1 X90.622 Y87.181 E0.0239
G1 X90.270 Y86.608 E0.0239
G1 X90.013 Y85.987 E0.0239
G1 X89.856 Y85.333 E0.0239
G1 X89.803 Y84.654 E0.0242
G1 X89.803 Y83.671 E0.0350
G1 X89.856 Y82.992 E0.0242
G1 X90.013 Y82.338 E0.0239
G1 X90.270 Y81.717 E0.0239
G1 X90.622 Y81.143 E0.0239
G1 X91.058 Y80.632 E0.0239
G1 X91.570 Y80.195 E0.0239
G1 X92.143 Y79.844 E0.0239
G1 X92.580 Y79.663 E0.0168
G1 X92.765 Y79.586 F1152
G1 X93.418 Y79.429 F1152
G1 X94.090 Y79.377
G1 X94.742 Y79.420
; feature inner perimeter
G1 X94.589 Y81.019 F4800
G1 X94.043 Y81.066 E0.0195 F1296
G1 X93.514 Y81.208 E0.0195
G1 X93.017 Y81.440 E0.0195
G1 X92.568 Y81.754 E0.0195
G1 X92.181 Y82.141 E0.0195
G1 X91.866 Y82.590 E0.0195
G1 X91.635 Y83.087 E0.0195
G1 X91.493 Y83.616 E0.0195
G1 X91.445 Y84.165 E0.0196
G1 X91.499 Y84.732 E0.0202
G1 X91.635 Y85.237 E0.0186
G1 X91.866 Y85.734 E0.0195
G1 X92.181 Y86.183 E0.0195
G1 X92.568 Y86.570 E0.0195
G1 X93.017 Y86.885 E0.0195
G1 X93.514 Y87.116 E0.0195
G1 X94.043 Y87.258 E0.0195
G1 X94.589 Y87.306 E0.0195
G1 X95.135 Y87.258 E0.0195
G1 X95.664 Y87.116 E0.0195
G1 X96.161 Y86.885 E0.0195
G1 X96.610 Y86.570 E0.0195
G1 X96.997 Y86.183 E0.0195
G1 X97.311 Y85.734 E0.0195
G1 X97.543 Y85.237 E0.0195
G1 X97.685 Y84.708 E0.0195
G1 X97.733 Y84.162 E0.0195
G1 X97.685 Y83.616 E0.0195
G1 X97.543 Y83.087 E0.0195
G1 X97.311 Y82.590 E0.0195
G1 X96.997 Y82.141 E0.0195
G1 X96.610 Y81.754 E0.0195
G1 X96.161 Y81.440 E0.0195
G1 X95.664 Y81.208 E0.0195
G1 X95.135 Y81.066 E0.0195
G1 X94.788 Y81.036 E0.0124
G1 X94.589 Y81.019 F1296
G1 X94.043 Y81.066 F1296
G1 X93.514 Y81.208
G1 X93.017 Y81.440
G1 X92.725 Y81.644
; feature outer perimeter
G1 X92.844 Y82.083 F4800
G1 X92.509 Y82.417 E0.0168 F1152
G1 X92.238 Y82.805 E0.0168
G1 X92.038 Y83.234 E0.0168
G1 X91.915 Y83.691 E0.0168
G1 X91.874 Y84.163 E0.0169
G1 X91.921 Y84.656 E0.0176
G1 X92.038 Y85.091 E0.0160
G1 X92.238 Y85.520 E0.0168
G1 X92.509 Y85.907 E0.0168
G1 X92.844 Y86.242 E0.0168
G1 X93.232 Y86.513 E0.0168
G1 X93.660 Y86.713 E0.0168
G1 X94.117 Y86.836 E0.0168
G1 X94.589 Y86.877 E0.0168
G1 X95.060 Y86.836 E0.0168
G1 X95.517 Y86.713 E0.0168
G1 X95.946 Y86.513 E0.0168
G1 X96.334 Y86.242 E0.0168
G1 X96.668 Y85.907 E0.0168
G1 X96.940 Y85.520 E0.0168
G1 X97.140 Y85.091 E0.0168
G1 X97.262 Y84.634 E0.0168
G1 X97.303 Y84.162 E0.0168
G1 X97.262 Y83.691 E0.0168
G1 X97.140 Y83.234 E0.0168
G1 X96.940 Y82.805 E0.0168
G1 X96.668 Y82.417 E0.0168
G1 X96.334 Y82.083 E0.0168
G1 X95.946 Y81.811 E0.0168
G1 X95.517 Y81.611 E0.0168
G1 X95.060 Y81.489 E0.0168
G1 X94.589 Y81.448 E0.0168
G1 X94.117 Y81.489 E0.0168
G1 X93.660 Y81.611 E0.0168
G1 X93.232 Y81.811 E0.0168
G1 X93.008 Y81.968 E0.0097
G1 X92.844 Y82.083 F1152
G1 X92.509 Y82.417 E-0.7393 F1152
G1 X92.487 Y82.449 E-0.0607
G1 X92.238 Y82.805 F1152
G1 X92.038 Y83.234
G1 X91.915 Y83.691
G1 X91.906 Y83.798
; feature inner perimeter
G1 X111.445 Y84.163 F4800
G1 E0.8000 F1800
G1 X111.493 Y84.708 E0.0195 F1296
G1 X111.635 Y85.239 E0.0195
G1 X111.868 Y85.737 E0.0195
G1 X112.183 Y86.186 E0.0195
G1 X112.572 Y86.574 E0.0195
G1 X113.022 Y86.887 E0.0195
G1 X113.509 Y87.115 E0.0191
G1 X114.028 Y87.255 E0.0191
G1 X114.585 Y87.306 E0.0199
G1 X115.133 Y87.259 E0.0196
G1 X115.663 Y87.117 E0.0195
G1 X116.161 Y86.885 E0.0195
G1 X116.610 Y86.570 E0.0195
G1 X116.998 Y86.181 E0.0195
G1 X117.313 Y85.731 E0.0195
G1 X117.544 Y85.234 E0.0195
G1 X117.686 Y84.703 E0.0195
G1 X117.732 Y84.157 E0.0195
G1 X117.685 Y83.621 E0.0191
G1 X117.544 Y83.091 E0.0195
G1 X117.313 Y82.593 E0.0195
G1 X116.998 Y82.142 E0.0195
G1 X116.602 Y81.748 E0.0199
G1 X116.161 Y81.440 E0.0191
G1 X115.674 Y81.212 E0.0191
G1 X115.145 Y81.068 E0.0195
G1 X114.589 Y81.018 E0.0198
G1 X114.039 Y81.067 E0.0196
G1 X113.509 Y81.210 E0.0195
G1 X113.012 Y81.443 E0.0195
G1 X112.571 Y81.752 E0.0191
G1 X112.176 Y82.147 E0.0199
G1 X111.867 Y82.589 E0.0192
G1 X111.632 Y83.096 E0.0199
G1 X111.491 Y83.627 E0.0195
G1 X111.462 Y83.963 E0.0120
G1 X111.445 Y84.163 F1296
G1 X111.493 Y84.708 F1296
G1 X111.635 Y85.239
G1 X111.868 Y85.737
G1 X112.071 Y86.026
; feature outer perimeter
G1 X112.512 Y85.910 F4800
G1 X112.847 Y86.245 E0.0169 F1152
G1 X113.236 Y86.516 E0.0168
G1 X113.656 Y86.712 E0.0165
G1 X114.104 Y86.832 E0.0165
G1 X114.586 Y86.877 E0.0172
G1 X115.058 Y86.836 E0.0169
G1 X115.516 Y86.713 E0.0169
G1 X115.946 Y86.513 E0.0169
G1 X116.334 Y86.241 E0.0169
G1 X116.669 Y85.906 E0.0169
G1 X116.941 Y85.517 E0.0169
G1 X117.141 Y85.087 E0.0169
G1 X117.263 Y84.629 E0.0169
G1 X117.303 Y84.157 E0.0168
G1 X117.263 Y83.695 E0.0165
G1 X117.141 Y83.237 E0.0168
G1 X116.941 Y82.807 E0.0169
G1 X116.669 Y82.418 E0.0169
G1 X116.326 Y82.077 E0.0172
G1 X115.946 Y81.811 E0.0165
G1 X115.526 Y81.615 E0.0165
G1 X115.069 Y81.491 E0.0168
G1 X114.589 Y81.448 E0.0171
G1 X114.114 Y81.490 E0.0170
G1 X113.656 Y81.613 E0.0169
G1 X113.227 Y81.814 E0.0168
G1 X112.847 Y82.080 E0.0165
G1 X112.505 Y82.423 E0.0172
G1 X112.239 Y82.803 E0.0165
G1 X112.035 Y83.242 E0.0172
G1 X111.914 Y83.700 E0.0168
G1 X111.874 Y84.162 E0.0165
G1 X111.916 Y84.634 E0.0168
G1 X112.039 Y85.092 E0.0169
G1 X112.239 Y85.522 E0.0169
G1 X112.397 Y85.746 E0.0097
G1 X112.512 Y85.910 F1152
G1 X112.847 Y86.245 F1152
G1 X113.236 Y86.516
G1 X113.656 Y86.712
G1 X114.104 Y86.832
G1 X114.228 Y86.844
