; generated by PrusaSlicer 2.2.0+win64 on 2020-07-22 at 19:34:02 UTC

; 

; external perimeters extrusion width = 0.60mm
; perimeters extrusion width = 0.43mm
; infill extrusion width = 0.45mm
; solid infill extrusion width = 0.70mm
; top infill extrusion width = 0.43mm
; first layer extrusion width = 0.42mm

M73 P0 R80
M201 X9000 Y9000 Z500 E10000 ; sets maximum accelerations, mm/sec^2
M203 X500 Y500 Z12 E120 ; sets maximum feedrates, mm/sec
M204 P2000 R1500 T2000 ; sets acceleration (P, T) and retract acceleration (R), mm/sec^2
M205 X10.00 Y10.00 Z0.20 E2.50 ; sets the jerk limits, mm/sec
M205 S0 T0 ; sets the minimum extruding and travel feed rate, mm/sec
M107
M862.3 P "MK2S" ; printer model check
M862.1 P0.4 ; nozzle diameter check
M115 U3.2.3 ; tell printer latest fw version
G90 ; use absolute coordinates
M83 ; extruder relative mode
M204 S2000 T1500 ; MK2 firmware only supports the old M204 format
M104 S215 ; set extruder temp
M140 S60 ; set bed temp
M190 S60 ; wait for bed temp
M109 S215 ; wait for extruder temp
G28 W ; home all without mesh bed level
G80 ; mesh bed leveling
G1 Y-3.0 F1000.0 ; go outside print area
G92 E0.0
G1 X60.0 E9.0  F1000.0 ; intro line
M73 P0 R80
G1 X100.0 E12.5 F1000.0 ; intro line
G92 E0.0
G21 ; set units to millimeters
G90 ; use absolute coordinates
M83 ; use relative distances for extrusion
M900 K0.06 ; Filament gcode LA 1.5
M900 K30 ; Filament gcode LA 1.0
;BEFORE_LAYER_CHANGE
G92 E0.0
;0.2


G1 E-0.80000 F2100.00000
G1 Z0.600 F10800.000
;AFTER_LAYER_CHANGE
;0.2
G1 X96.626 Y67.646
G1 Z0.200
G1 E0.80000 F2100.00000
M204 S1000
G1 F1200.000
G1 X96.940 Y67.006 E0.02237
G1 X97.314 Y66.585 E0.01763
G1 X97.772 Y66.266 E0.01752
G1 X98.296 Y66.061 E0.01763
G1 X98.850 Y65.986 E0.01752
G1 X151.111 Y65.985 E1.63863
G1 X152.006 Y66.162 E0.02860
G1 X152.769 Y66.662 E0.02860
G1 X153.285 Y67.410 E0.02849
G1 X153.484 Y68.300 E0.02860
G1 X153.485 Y141.271 E2.28795
G1 X153.374 Y141.976 E0.02237
G1 X153.060 Y142.616 E0.02237
G1 X152.686 Y143.037 E0.01763
G1 X152.221 Y143.360 E0.01775
G1 X151.693 Y143.564 E0.01775
G1 X151.131 Y143.637 E0.01775
G1 X98.873 Y143.637 E1.63851
G1 X98.173 Y143.525 E0.02225
G1 X97.536 Y143.212 E0.02225
G1 X97.113 Y142.836 E0.01775
G1 X96.791 Y142.370 E0.01775
G1 X96.588 Y141.841 E0.01775
G1 X96.515 Y141.280 E0.01775
G1 X96.515 Y68.351 E2.28664
G1 X96.617 Y67.705 E0.02049
G1 E-0.80000 F2100.00000
G1 Z0.800 F10800.000
G1 X118.693 Y109.026
G1 Z0.200
G1 E0.80000 F2100.00000
G1 F1200.000
G1 X121.785 Y108.088 E0.10129
G1 X125.000 Y107.772 E0.10129
G1 X128.215 Y108.088 E0.10129
G1 X131.307 Y109.026 E0.10129
G1 X134.156 Y110.549 E0.10129
G1 X136.653 Y112.599 E0.10129
G1 X138.703 Y115.096 E0.10129
G1 X140.226 Y117.945 E0.10129
G1 X141.163 Y121.037 E0.10129
G1 X141.480 Y124.252 E0.10129
G1 X141.163 Y127.467 E0.10129
G1 X140.226 Y130.558 E0.10129
G1 X138.703 Y133.408 E0.10129
G1 X136.653 Y135.905 E0.10129
G1 X134.156 Y137.954 E0.10129
G1 X131.307 Y139.477 E0.10130
G1 X128.213 Y140.415 E0.10136
G1 X127.270 Y140.487 E0.02964
G1 X125.000 Y140.602 E0.07127
G1 X122.730 Y140.487 E0.07126
G1 X121.787 Y140.415 E0.02964
G1 X118.693 Y139.477 E0.10136
G1 X115.844 Y137.954 E0.10130
G1 X113.347 Y135.905 E0.10129
G1 X111.297 Y133.408 E0.10129
G1 X109.774 Y130.558 E0.10129
G1 X108.837 Y127.467 E0.10129
G1 X108.520 Y124.252 E0.10129
G1 X108.837 Y121.037 E0.10129
G1 X109.774 Y117.945 E0.10129
G1 X111.297 Y115.096 E0.10129
G1 X113.347 Y112.599 E0.10129
G1 X115.844 Y110.549 E0.10129
G1 X118.640 Y109.055 E0.09941
G1 X118.746 Y108.630 F10800.000
G1 E-0.80000 F2100.00000
G1 Z0.800 F10800.000
G1 X120.681 Y140.474
G1 Z0.200
G1 E0.80000 F2100.00000
G1 F1200.000
G1 X99.680 Y140.473 E0.65850
G1 X99.680 Y107.348 E1.03860
G1 X150.320 Y107.348 E1.58781
G1 X150.320 Y140.473 E1.03860
G1 X129.319 Y140.474 E0.65850
G1 X131.452 Y139.827 E0.06988
G1 X134.366 Y138.270 E0.10363
G1 X136.921 Y136.173 E0.10362
G1 X139.018 Y133.618 E0.10362
G1 X140.576 Y130.703 E0.10362
G1 X141.535 Y127.541 E0.10362
G1 X141.859 Y124.252 E0.10362
G1 X141.535 Y120.963 E0.10362
G1 X140.576 Y117.800 E0.10362
G1 X139.018 Y114.886 E0.10362
G1 X136.921 Y112.331 E0.10362
G1 X134.366 Y110.234 E0.10362
G1 X131.452 Y108.676 E0.10362
G1 X128.289 Y107.717 E0.10362
G1 X125.000 Y107.393 E0.10362
G1 X121.711 Y107.717 E0.10362
G1 X118.548 Y108.676 E0.10362
G1 X115.634 Y110.234 E0.10362
G1 X113.079 Y112.331 E0.10362
G1 X110.982 Y114.886 E0.10362
G1 X109.424 Y117.800 E0.10362
G1 X108.465 Y120.963 E0.10362
G1 X108.141 Y124.252 E0.10362
G1 X108.465 Y127.541 E0.10362
G1 X109.424 Y130.703 E0.10362
G1 X110.982 Y133.618 E0.10362
G1 X113.079 Y136.173 E0.10362
G1 X115.634 Y138.270 E0.10362
G1 X118.548 Y139.827 E0.10363
G1 X120.624 Y140.456 E0.06800
G1 E-0.80000 F2100.00000
G1 Z0.800 F10800.000
G1 X99.302 Y140.850
G1 Z0.200
G1 E0.80000 F2100.00000
G1 F1200.000
G1 X99.302 Y106.971 E1.06225
G1 X150.698 Y106.971 E1.61145
G1 X150.698 Y140.850 E1.06225
G1 X128.230 Y140.851 E0.70445
G1 X127.230 Y140.873 E0.03135
G1 X125.244 Y140.968 E0.06237
G1 X124.756 Y140.968 E0.01528
G1 X122.770 Y140.873 E0.06237
G1 X121.770 Y140.851 E0.03135
G1 X99.362 Y140.850 E0.70257
G1 X99.503 Y140.503 F10800.000
G1 X100.559 Y140.360
G1 F1200.000
G1 X99.962 Y139.763 E0.02659
G1 X99.962 Y139.227 E0.01689
G1 X100.925 Y140.190 E0.04292
G1 X101.461 Y140.190 E0.01689
G1 X99.962 Y138.691 E0.06681
G1 X99.962 Y138.155 E0.01689
G1 X101.997 Y140.190 E0.09070
G1 X102.533 Y140.190 E0.01689
G1 X99.962 Y137.619 E0.11459
G1 X99.962 Y137.083 E0.01689
G1 X103.069 Y140.190 E0.13848
G1 X103.605 Y140.190 E0.01689
G1 X99.962 Y136.547 E0.16237
G1 X99.962 Y136.011 E0.01689
G1 X104.142 Y140.190 E0.18626
G1 X104.678 Y140.190 E0.01689
G1 X99.962 Y135.475 E0.21015
G1 X99.962 Y134.939 E0.01689
G1 X105.214 Y140.190 E0.23404
G1 X105.750 Y140.190 E0.01689
G1 X99.962 Y134.403 E0.25794
G1 X99.962 Y133.867 E0.01689
G1 X106.286 Y140.190 E0.28183
G1 X106.822 Y140.190 E0.01689
G1 X99.962 Y133.331 E0.30572
G1 X99.962 Y132.795 E0.01689
G1 X107.358 Y140.190 E0.32961
G1 X107.894 Y140.190 E0.01689
G1 X99.962 Y132.259 E0.35350
G1 X99.962 Y131.723 E0.01689
G1 X108.430 Y140.190 E0.37739
G1 X108.966 Y140.190 E0.01689
G1 X99.962 Y131.187 E0.40128
G1 X99.962 Y130.651 E0.01689
G1 X109.502 Y140.190 E0.42517
G1 X110.038 Y140.190 E0.01689
G1 X99.962 Y130.115 E0.44906
G1 X99.962 Y129.579 E0.01689
G1 X110.574 Y140.190 E0.47295
G1 X111.110 Y140.191 E0.01689
G1 X99.962 Y129.043 E0.49684
G1 X99.962 Y128.507 E0.01689
G1 X111.646 Y140.191 E0.52073
G1 X112.182 Y140.191 E0.01689
G1 X99.962 Y127.971 E0.54463
G1 X99.962 Y127.435 E0.01689
G1 X112.718 Y140.191 E0.56852
G1 X113.254 Y140.191 E0.01689
G1 X99.962 Y126.899 E0.59241
G1 X99.962 Y126.363 E0.01689
G1 X113.790 Y140.191 E0.61630
G1 X114.326 Y140.191 E0.01689
G1 X99.962 Y125.827 E0.64019
G1 X99.962 Y125.291 E0.01689
G1 X114.862 Y140.191 E0.66408
M73 P1 R79
G1 X115.398 Y140.191 E0.01689
G1 X99.962 Y124.755 E0.68797
G1 X99.962 Y124.219 E0.01689
G1 X116.104 Y140.360 E0.71942
G1 X117.034 Y139.146 F10800.000
G1 F1200.000
G1 X118.078 Y140.191 E0.04657
G1 X117.542 Y140.191 E0.01689
G1 X116.296 Y138.944 E0.05557
G1 X115.476 Y138.506 E0.02929
G1 X114.615 Y137.799 E0.03511
G1 X117.006 Y140.191 E0.10660
G1 X116.470 Y140.191 E0.01689
G1 X99.962 Y123.683 E0.73575
G1 X99.962 Y123.147 E0.01689
G1 X111.453 Y134.637 E0.51212
G1 X110.746 Y133.776 E0.03511
G1 X110.308 Y132.956 E0.02929
G1 X99.962 Y122.611 E0.46109
G1 X99.962 Y122.075 E0.01689
G1 X109.692 Y131.805 E0.43366
G1 X109.162 Y130.812 E0.03547
G1 X109.130 Y130.706 E0.00350
G1 X99.962 Y121.539 E0.40858
G1 X99.962 Y121.003 E0.01689
G1 X108.896 Y129.937 E0.39818
G1 X108.663 Y129.167 E0.02534
G1 X99.962 Y120.467 E0.38778
G1 X99.962 Y119.931 E0.01689
G1 X108.429 Y128.398 E0.37737
G1 X108.196 Y127.628 E0.02534
G1 X99.962 Y119.395 E0.36697
G1 X99.962 Y118.859 E0.01689
G1 X108.130 Y127.027 E0.36404
G1 X108.072 Y126.432 E0.01883
G1 X99.962 Y118.323 E0.36143
G1 X99.962 Y117.787 E0.01689
G1 X108.013 Y125.837 E0.35882
G1 X107.955 Y125.243 E0.01883
G1 X99.962 Y117.251 E0.35621
G1 X99.962 Y116.715 E0.01689
G1 X107.896 Y124.648 E0.35360
G1 X107.857 Y124.252 E0.01255
G1 X107.873 Y124.089 E0.00515
G1 X99.962 Y116.179 E0.35257
G1 X99.962 Y115.643 E0.01689
G1 X107.921 Y123.601 E0.35471
G1 X107.969 Y123.113 E0.01545
G1 X99.962 Y115.107 E0.35685
G1 X99.962 Y114.571 E0.01689
G1 X108.017 Y122.625 E0.35900
G1 X108.065 Y122.137 E0.01545
G1 X99.962 Y114.035 E0.36114
G1 X99.962 Y113.499 E0.01689
G1 X108.113 Y121.649 E0.36328
G1 X108.161 Y121.162 E0.01545
G1 X99.962 Y112.963 E0.36542
G1 X99.962 Y112.427 E0.01689
G1 X108.246 Y120.710 E0.36920
G1 X108.371 Y120.299 E0.01354
G1 X99.962 Y111.891 E0.37476
G1 X99.962 Y111.355 E0.01689
G1 X108.496 Y119.888 E0.38032
G1 X108.620 Y119.477 E0.01354
G1 X99.962 Y110.819 E0.38588
G1 X99.962 Y110.283 E0.01689
G1 X108.745 Y119.065 E0.39144
G1 X108.870 Y118.654 E0.01354
G1 X99.962 Y109.747 E0.39700
G1 X99.962 Y109.211 E0.01689
G1 X108.995 Y118.243 E0.40256
G1 X109.119 Y117.832 E0.01354
G1 X99.962 Y108.674 E0.40812
G1 X99.962 Y108.138 E0.01689
G1 X109.285 Y117.461 E0.41550
G1 X109.472 Y117.112 E0.01248
G1 X99.991 Y107.631 E0.42257
G1 X100.527 Y107.631 E0.01689
G1 X109.658 Y116.763 E0.40700
G1 X109.845 Y116.413 E0.01248
G1 X101.063 Y107.631 E0.39143
G1 X101.599 Y107.631 E0.01689
G1 X110.032 Y116.064 E0.37586
G1 X110.219 Y115.715 E0.01248
G1 X102.135 Y107.631 E0.36029
G1 X102.671 Y107.631 E0.01689
G1 X110.405 Y115.365 E0.34473
G1 X110.592 Y115.016 E0.01248
G1 X103.207 Y107.631 E0.32916
G1 X103.743 Y107.631 E0.01689
G1 X110.788 Y114.676 E0.31402
G1 X111.030 Y114.382 E0.01200
G1 X104.279 Y107.631 E0.30090
G1 X104.815 Y107.631 E0.01689
G1 X111.271 Y114.087 E0.28777
G1 X111.513 Y113.793 E0.01200
G1 X105.351 Y107.631 E0.27465
G1 X105.887 Y107.631 E0.01689
G1 X111.755 Y113.499 E0.26153
G1 X111.996 Y113.204 E0.01200
G1 X106.423 Y107.631 E0.24841
G1 X106.959 Y107.631 E0.01689
G1 X112.238 Y112.910 E0.23529
G1 X112.479 Y112.615 E0.01200
G1 X107.495 Y107.631 E0.22217
G1 X108.031 Y107.631 E0.01689
G1 X112.721 Y112.321 E0.20905
G1 X112.878 Y112.130 E0.00780
G1 X112.981 Y112.045 E0.00421
G1 X108.567 Y107.631 E0.19675
G1 X109.103 Y107.631 E0.01689
G1 X113.276 Y111.804 E0.18598
G1 X113.570 Y111.562 E0.01200
G1 X109.639 Y107.631 E0.17521
G1 X110.175 Y107.631 E0.01689
G1 X113.864 Y111.320 E0.16444
G1 X114.159 Y111.079 E0.01200
G1 X110.711 Y107.631 E0.15368
G1 X111.247 Y107.631 E0.01689
G1 X114.453 Y110.837 E0.14291
G1 X114.748 Y110.596 E0.01200
G1 X111.783 Y107.631 E0.13214
G1 X112.319 Y107.631 E0.01689
G1 X115.042 Y110.354 E0.12137
G1 X115.336 Y110.112 E0.01200
G1 X112.855 Y107.631 E0.11060
G1 X113.391 Y107.631 E0.01689
G1 X115.660 Y109.900 E0.10112
G1 X116.009 Y109.713 E0.01248
G1 X113.927 Y107.631 E0.09280
G1 X114.463 Y107.631 E0.01689
G1 X116.358 Y109.526 E0.08448
G1 X116.708 Y109.339 E0.01248
G1 X114.999 Y107.631 E0.07616
G1 X115.535 Y107.631 E0.01689
G1 X117.057 Y109.153 E0.06784
G1 X117.406 Y108.966 E0.01248
G1 X116.071 Y107.631 E0.05952
G1 X116.607 Y107.631 E0.01689
G1 X117.756 Y108.779 E0.05119
G1 X118.105 Y108.593 E0.01248
G1 X117.143 Y107.631 E0.04287
G1 X117.679 Y107.631 E0.01689
G1 X118.457 Y108.409 E0.03467
G1 X118.868 Y108.284 E0.01354
G1 X118.215 Y107.631 E0.02911
G1 X118.751 Y107.631 E0.01689
G1 X119.279 Y108.159 E0.02355
G1 X119.690 Y108.034 E0.01354
G1 X119.287 Y107.631 E0.01799
G1 X119.823 Y107.631 E0.01689
G1 X120.238 Y108.046 E0.01849
G1 X120.572 Y107.697 F10800.000
G1 F1200.000
G1 X120.947 Y107.642 E0.00741
G1 X121.511 Y107.558 E0.00457
G1 E-0.80000 F2100.00000
G1 Z0.800 F10800.000
G1 X128.489 Y107.558
G1 Z0.200
G1 E0.80000 F2100.00000
G1 F1200.000
G1 X128.677 Y107.586 E0.00152
G1 X128.865 Y107.614 E0.00225
G1 X129.053 Y107.642 E0.00298
G1 X129.240 Y107.669 E0.00370
G1 X129.428 Y107.697 E0.00443
G1 X130.374 Y108.231 F10800.000
G1 F1200.000
G1 X129.774 Y107.631 E0.02677
G1 X130.310 Y107.631 E0.01690
G1 X130.889 Y108.210 E0.02583
G1 X131.560 Y108.414 E0.02210
G1 X131.708 Y108.493 E0.00528
G1 X130.846 Y107.631 E0.03842
G1 X131.382 Y107.631 E0.01690
G1 X132.860 Y109.108 E0.06587
G1 X134.011 Y109.724 E0.04117
G1 X131.918 Y107.631 E0.09331
G1 X132.454 Y107.631 E0.01690
G1 X150.038 Y125.214 E0.78384
G1 X150.038 Y124.678 E0.01690
G1 X132.991 Y107.631 E0.75994
G1 X133.527 Y107.631 E0.01690
G1 X150.038 Y124.142 E0.73604
G1 X150.038 Y123.605 E0.01690
G1 X134.063 Y107.631 E0.71214
G1 X134.599 Y107.631 E0.01690
G1 X150.038 Y123.069 E0.68824
G1 X150.038 Y122.533 E0.01690
G1 X135.135 Y107.631 E0.66434
G1 X135.671 Y107.631 E0.01690
G1 X150.038 Y121.997 E0.64044
G1 X150.038 Y121.461 E0.01690
G1 X136.207 Y107.631 E0.61654
G1 X136.743 Y107.631 E0.01690
G1 X150.038 Y120.925 E0.59264
G1 X150.038 Y120.389 E0.01690
G1 X137.280 Y107.631 E0.56874
G1 X137.816 Y107.631 E0.01690
G1 X150.038 Y119.853 E0.54484
G1 X150.038 Y119.316 E0.01690
G1 X138.352 Y107.631 E0.52094
G1 X138.888 Y107.631 E0.01690
G1 X150.038 Y118.780 E0.49704
G1 X150.038 Y118.244 E0.01690
G1 X139.424 Y107.631 E0.47314
G1 X139.960 Y107.631 E0.01690
G1 X150.038 Y117.708 E0.44924
G1 X150.038 Y117.172 E0.01690
G1 X140.496 Y107.631 E0.42534
G1 X141.032 Y107.631 E0.01690
G1 X150.038 Y116.636 E0.40144
G1 X150.038 Y116.100 E0.01690
G1 X141.569 Y107.631 E0.37754
G1 X142.105 Y107.631 E0.01690
G1 X150.038 Y115.564 E0.35364
G1 X150.038 Y115.027 E0.01690
G1 X142.641 Y107.631 E0.32974
G1 X143.177 Y107.631 E0.01690
G1 X150.038 Y114.491 E0.30584
G1 X150.038 Y113.955 E0.01690
G1 X143.713 Y107.631 E0.28194
G1 X144.249 Y107.631 E0.01690
G1 X150.038 Y113.419 E0.25804
G1 X150.038 Y112.883 E0.01690
G1 X144.785 Y107.631 E0.23414
G1 X145.321 Y107.631 E0.01690
G1 X150.038 Y112.347 E0.21024
G1 X150.038 Y111.811 E0.01690
G1 X145.858 Y107.631 E0.18634
G1 X146.394 Y107.631 E0.01690
G1 X150.038 Y111.275 E0.16244
G1 X150.038 Y110.739 E0.01690
G1 X146.930 Y107.631 E0.13854
G1 X147.466 Y107.631 E0.01690
G1 X150.038 Y110.202 E0.11464
G1 X150.038 Y109.666 E0.01690
G1 X148.002 Y107.631 E0.09074
G1 X148.538 Y107.631 E0.01690
G1 X150.038 Y109.130 E0.06684
G1 X150.038 Y108.594 E0.01690
G1 X149.074 Y107.631 E0.04294
G1 X149.610 Y107.631 E0.01690
G1 X150.207 Y108.228 E0.02661
G1 E-0.80000 F2100.00000
G1 Z0.800 F10800.000
G1 X150.207 Y125.920
G1 Z0.200
G1 E0.80000 F2100.00000
G1 F1200.000
G1 X139.528 Y115.240 E0.47607
G1 X140.144 Y116.392 E0.04117
G1 X150.038 Y126.286 E0.44107
M73 P2 R78
G1 X150.038 Y126.822 E0.01690
G1 X140.759 Y117.544 E0.41362
G1 X140.838 Y117.691 E0.00528
G1 X141.042 Y118.362 E0.02210
G1 X150.038 Y127.358 E0.40103
G1 X150.038 Y127.894 E0.01690
G1 X141.275 Y119.132 E0.39062
G1 X141.509 Y119.902 E0.02535
G1 X150.038 Y128.431 E0.38022
G1 X150.038 Y128.967 E0.01690
G1 X141.742 Y120.671 E0.36981
G1 X141.814 Y120.907 E0.00778
G1 X141.854 Y121.319 E0.01305
G1 X150.038 Y129.503 E0.36481
G1 X150.038 Y130.039 E0.01690
G1 X141.913 Y121.914 E0.36219
G1 X141.971 Y122.509 E0.01884
G1 X150.038 Y130.575 E0.35958
G1 X150.038 Y131.111 E0.01690
G1 X142.030 Y123.104 E0.35697
G1 X142.089 Y123.698 E0.01884
G1 X150.038 Y131.647 E0.35436
G1 X150.038 Y132.183 E0.01690
G1 X142.140 Y124.286 E0.35208
G1 X142.092 Y124.774 E0.01546
G1 X150.038 Y132.720 E0.35422
G1 X150.038 Y133.256 E0.01690
G1 X142.044 Y125.262 E0.35636
G1 X141.996 Y125.750 E0.01546
G1 X150.038 Y133.792 E0.35851
G1 X150.038 Y134.328 E0.01690
G1 X141.947 Y126.238 E0.36065
G1 X141.899 Y126.726 E0.01546
G1 X150.038 Y134.864 E0.36279
G1 X150.038 Y135.400 E0.01690
G1 X141.851 Y127.214 E0.36494
G1 X141.814 Y127.596 E0.01211
G1 X141.787 Y127.685 E0.00293
G1 X150.038 Y135.936 E0.36782
G1 X150.038 Y136.472 E0.01690
G1 X141.662 Y128.097 E0.37338
G1 X141.537 Y128.508 E0.01355
G1 X150.038 Y137.009 E0.37894
G1 X150.038 Y137.545 E0.01690
G1 X141.412 Y128.919 E0.38451
G1 X141.288 Y129.331 E0.01355
G1 X150.038 Y138.081 E0.39007
G1 X150.038 Y138.617 E0.01690
G1 X141.163 Y129.742 E0.39563
G1 X141.038 Y130.153 E0.01355
G1 X150.038 Y139.153 E0.40120
G1 X150.038 Y139.689 E0.01690
G1 X140.913 Y130.565 E0.40676
G1 X140.838 Y130.812 E0.00815
G1 X140.764 Y130.951 E0.00498
G1 X150.002 Y140.190 E0.41184
G1 X149.466 Y140.190 E0.01690
G1 X140.577 Y131.301 E0.39627
G1 X140.390 Y131.650 E0.01249
