; generated by PrusaSlicer 2.3.1+win64 on 2021-10-20 at 17:27:07 UTC

; 

; external perimeters extrusion width = 0.45mm
; perimeters extrusion width = 0.45mm
; infill extrusion width = 0.45mm
; solid infill extrusion width = 0.45mm
; top infill extrusion width = 0.40mm
; first layer extrusion width = 0.42mm

M73 P0 R326
M201 X9000 Y9000 Z500 E10000 ; sets maximum accelerations, mm/sec^2
M203 X500 Y500 Z12 E120 ; sets maximum feedrates, mm/sec
M204 P2000 R1500 T2000 ; sets acceleration (P, T) and retract acceleration (R), mm/sec^2
M205 X10.00 Y10.00 Z0.20 E2.50 ; sets the jerk limits, mm/sec
M205 S0 T0 ; sets the minimum extruding and travel feed rate, mm/sec
M107
;TYPE:Custom
M862.3 P "MK2S" ; printer model check
M862.1 P0.4 ; nozzle diameter check
M115 U3.2.3 ; tell printer latest fw version
G90 ; use absolute coordinates
M83 ; extruder relative mode
M204 S2000 T1500 ; MK2 firmware only supports the old M204 format
M104 S215 ; set extruder temp
M140 S60 ; set bed temp
M190 S60 ; wait for bed temp
M109 S215 ; wait for extruder temp
G28 W ; home all without mesh bed level
G80 ; mesh bed leveling
G1 Y-3.0 F1000.0 ; go outside print area
G92 E0.0
G1 X60.0 E9.0  F1000.0 ; intro line
G1 X100.0 E12.5 F1000.0 ; intro line
G92 E0.0
G21 ; set units to millimeters
G90 ; use absolute coordinates
M83 ; use relative distances for extrusion
M900 K0.05 ; Filament gcode LA 1.5
M900 K30 ; Filament gcode LA 1.0
;LAYER_CHANGE
;Z:0.2
;HEIGHT:0.2
;BEFORE_LAYER_CHANGE
G92 E0.0
;0.2


G1 E-0.80000 F2100.000
G1 Z0.600 F10800.000
;AFTER_LAYER_CHANGE
;0.2
; printing object obelisk.stl id:0 copy 0
G1 X219.843 Y103.638
G1 Z0.200
G1 E0.80000 F2100.000
M204 S1000
;TYPE:Perimeter
;WIDTH:0.42
G1 F1200.000
G1 X220.042 Y105.669 E0.06399
G1 X164.700 Y105.669 E1.73522
G1 X172.226 Y29.094 E2.41253
G1 X212.517 Y29.094 E1.26328
G1 X219.837 Y103.578 E2.34666
G1 X220.212 Y103.541 F10800.000
;TYPE:External perimeter
G1 F1200.000
G1 X220.458 Y106.046 E0.07891
G1 X164.284 Y106.046 E1.76130
G1 X171.884 Y28.717 E2.43629
G1 X212.858 Y28.717 E1.28472
G1 X220.206 Y103.482 E2.35549
G1 X219.928 Y103.823 F10800.000
G1 E-0.80000 F2100.000
G1 Z0.800 F10800.000
G1 X212.498 Y30.056
G1 Z0.200
G1 E0.80000 F2100.000
;TYPE:Solid infill
;WIDTH:0.420897
G1 F1200.000
G1 X211.818 Y29.377 E0.03021
G1 X211.283 Y29.377 E0.01680
G1 X212.367 Y30.460 E0.04816
G1 X212.425 Y31.053 E0.01872
G1 X210.749 Y29.377 E0.07450
G1 X210.214 Y29.377 E0.01680
G1 X212.483 Y31.646 E0.10085
G1 X212.541 Y32.238 E0.01872
G1 X209.680 Y29.377 E0.12720
G1 X209.145 Y29.377 E0.01680
G1 X212.600 Y32.831 E0.15355
G1 X212.658 Y33.424 E0.01872
G1 X208.611 Y29.377 E0.17990
G1 X208.076 Y29.377 E0.01680
G1 X212.716 Y34.017 E0.20625
G1 X212.775 Y34.610 E0.01872
G1 X207.541 Y29.377 E0.23259
G1 X207.007 Y29.377 E0.01680
G1 X212.833 Y35.202 E0.25894
G1 X212.891 Y35.795 E0.01872
G1 X206.472 Y29.377 E0.28529
G1 X205.938 Y29.377 E0.01680
G1 X212.949 Y36.388 E0.31164
G1 X213.008 Y36.981 E0.01872
G1 X205.403 Y29.377 E0.33799
G1 X204.869 Y29.377 E0.01680
G1 X213.066 Y37.574 E0.36434
G1 X213.124 Y38.166 E0.01872
G1 X204.334 Y29.377 E0.39068
G1 X203.800 Y29.377 E0.01680
G1 X213.182 Y38.759 E0.41703
G1 X213.241 Y39.352 E0.01872
G1 X203.265 Y29.377 E0.44338
G1 X202.731 Y29.377 E0.01680
G1 X213.299 Y39.945 E0.46973
G1 X213.357 Y40.538 E0.01872
G1 X202.196 Y29.377 E0.49608
G1 X201.662 Y29.377 E0.01680
G1 X213.415 Y41.130 E0.52243
G1 X213.474 Y41.723 E0.01872
G1 X201.127 Y29.377 E0.54877
G1 X200.592 Y29.377 E0.01680
G1 X213.532 Y42.316 E0.57512
G1 X213.590 Y42.909 E0.01872
G1 X200.058 Y29.377 E0.60147
G1 X199.523 Y29.377 E0.01680
G1 X213.648 Y43.502 E0.62782
G1 X213.707 Y44.094 E0.01872
G1 X198.989 Y29.377 E0.65417
G1 X198.454 Y29.377 E0.01680
G1 X213.765 Y44.687 E0.68052
G1 X213.823 Y45.280 E0.01872
G1 X197.920 Y29.377 E0.70686
G1 X197.385 Y29.377 E0.01680
G1 X213.881 Y45.873 E0.73321
G1 X213.940 Y46.466 E0.01872
G1 X196.851 Y29.377 E0.75956
G1 X196.316 Y29.377 E0.01680
G1 X213.998 Y47.058 E0.78591
G1 X214.056 Y47.651 E0.01872
G1 X195.782 Y29.377 E0.81226
G1 X195.247 Y29.377 E0.01680
G1 X214.115 Y48.244 E0.83861
G1 X214.173 Y48.837 E0.01872
G1 X194.712 Y29.377 E0.86495
M73 P0 R325
G1 X194.178 Y29.377 E0.01680
G1 X214.231 Y49.430 E0.89130
G1 X214.289 Y50.022 E0.01872
G1 X193.643 Y29.377 E0.91765
G1 X193.109 Y29.377 E0.01680
G1 X214.348 Y50.615 E0.94400
G1 X214.406 Y51.208 E0.01872
G1 X192.574 Y29.377 E0.97035
G1 X192.040 Y29.377 E0.01680
G1 X214.464 Y51.801 E0.99670
G1 X214.522 Y52.394 E0.01872
G1 X191.505 Y29.377 E1.02304
G1 X190.971 Y29.377 E0.01680
G1 X214.581 Y52.986 E1.04939
G1 X214.639 Y53.579 E0.01872
G1 X190.436 Y29.377 E1.07574
G1 X189.902 Y29.377 E0.01680
G1 X214.697 Y54.172 E1.10209
G1 X214.755 Y54.765 E0.01872
G1 X189.367 Y29.377 E1.12844
G1 X188.833 Y29.377 E0.01680
G1 X214.814 Y55.358 E1.15479
G1 X214.872 Y55.950 E0.01872
G1 X188.298 Y29.377 E1.18113
G1 X187.763 Y29.377 E0.01680
G1 X214.930 Y56.543 E1.20748
G1 X214.988 Y57.136 E0.01872
G1 X187.229 Y29.377 E1.23383
G1 X186.694 Y29.377 E0.01680
G1 X215.047 Y57.729 E1.26018
G1 X215.105 Y58.322 E0.01872
G1 X186.160 Y29.377 E1.28653
G1 X185.625 Y29.377 E0.01680
G1 X215.163 Y58.914 E1.31288
G1 X215.221 Y59.507 E0.01872
G1 X185.091 Y29.377 E1.33922
G1 X184.556 Y29.377 E0.01680
G1 X215.280 Y60.100 E1.36557
G1 X215.338 Y60.693 E0.01872
G1 X184.022 Y29.377 E1.39192
G1 X183.487 Y29.377 E0.01680
G1 X215.396 Y61.286 E1.41827
G1 X215.454 Y61.879 E0.01872
G1 X182.953 Y29.377 E1.44462
G1 X182.418 Y29.377 E0.01680
G1 X215.513 Y62.471 E1.47097
G1 X215.571 Y63.064 E0.01872
G1 X181.884 Y29.377 E1.49731
G1 X181.349 Y29.377 E0.01680
G1 X215.629 Y63.657 E1.52366
G1 X215.688 Y64.250 E0.01872
G1 X180.814 Y29.377 E1.55001
G1 X180.280 Y29.377 E0.01680
G1 X215.746 Y64.843 E1.57636
G1 X215.804 Y65.435 E0.01872
G1 X179.745 Y29.377 E1.60271
G1 X179.211 Y29.377 E0.01680
G1 X215.862 Y66.028 E1.62906
M73 P0 R324
G1 X215.921 Y66.621 E0.01872
G1 X178.676 Y29.377 E1.65540
G1 X178.142 Y29.377 E0.01680
G1 X215.979 Y67.214 E1.68175
G1 X216.037 Y67.807 E0.01872
G1 X177.607 Y29.377 E1.70810
G1 X177.073 Y29.377 E0.01680
G1 X216.095 Y68.399 E1.73445
G1 X216.154 Y68.992 E0.01872
G1 X176.538 Y29.377 E1.76080
G1 X176.004 Y29.377 E0.01680
G1 X216.212 Y69.585 E1.78715
G1 X216.270 Y70.178 E0.01872
G1 X175.469 Y29.377 E1.81349
G1 X174.935 Y29.377 E0.01680
G1 X216.328 Y70.771 E1.83984
G1 X216.387 Y71.363 E0.01872
G1 X174.400 Y29.377 E1.86619
G1 X173.865 Y29.377 E0.01680
G1 X216.445 Y71.956 E1.89254
G1 X216.503 Y72.549 E0.01872
G1 X173.331 Y29.377 E1.91889
G1 X172.796 Y29.377 E0.01680
G1 X216.561 Y73.142 E1.94524
G1 X216.620 Y73.735 E0.01872
G1 X172.463 Y29.577 E1.96266
G1 X172.415 Y30.064 E0.01537
G1 X216.678 Y74.327 E1.96737
G1 X216.736 Y74.920 E0.01872
G1 X172.367 Y30.551 E1.97209
G1 X172.319 Y31.038 E0.01537
G1 X216.794 Y75.513 E1.97680
G1 X216.853 Y76.106 E0.01872
G1 X172.271 Y31.524 E1.98152
G1 X172.223 Y32.011 E0.01537
G1 X216.911 Y76.699 E1.98624
G1 X216.969 Y77.291 E0.01872
G1 X172.176 Y32.498 E1.99095
G1 X172.128 Y32.984 E0.01537
G1 X217.028 Y77.884 E1.99567
M73 P0 R323
G1 X217.086 Y78.477 E0.01872
G1 X172.080 Y33.471 E2.00038
G1 X172.032 Y33.958 E0.01537
G1 X217.144 Y79.070 E2.00510
G1 X217.202 Y79.663 E0.01872
G1 X171.984 Y34.445 E2.00981
G1 X171.936 Y34.931 E0.01537
G1 X217.261 Y80.255 E2.01453
G1 X217.319 Y80.848 E0.01872
G1 X171.889 Y35.418 E2.01924
G1 X171.841 Y35.905 E0.01537
G1 X217.377 Y81.441 E2.02396
M73 P1 R323
G1 X217.435 Y82.034 E0.01872
G1 X171.793 Y36.391 E2.02868
G1 X171.745 Y36.878 E0.01537
G1 X217.494 Y82.627 E2.03339
G1 X217.552 Y83.219 E0.01872
G1 X171.697 Y37.365 E2.03811
G1 X171.649 Y37.851 E0.01537
G1 X217.610 Y83.812 E2.04282
G1 X217.668 Y84.405 E0.01872
G1 X171.602 Y38.338 E2.04754
G1 X171.554 Y38.825 E0.01537
G1 X217.727 Y84.998 E2.05225
G1 X217.785 Y85.591 E0.01872
G1 X171.506 Y39.312 E2.05697
G1 X171.458 Y39.798 E0.01537
G1 X217.843 Y86.183 E2.06169
G1 X217.901 Y86.776 E0.01872
G1 X171.410 Y40.285 E2.06640
G1 X171.362 Y40.772 E0.01537
G1 X217.960 Y87.369 E2.07112
G1 X218.018 Y87.962 E0.01872
G1 X171.315 Y41.258 E2.07583
G1 X171.267 Y41.745 E0.01537
G1 X218.076 Y88.555 E2.08055
G1 X218.134 Y89.147 E0.01872
G1 X171.219 Y42.232 E2.08526
M73 P1 R322
G1 X171.171 Y42.719 E0.01537
G1 X218.193 Y89.740 E2.08998
G1 X218.251 Y90.333 E0.01872
G1 X171.123 Y43.205 E2.09469
G1 X171.075 Y43.692 E0.01537
G1 X218.309 Y90.926 E2.09941
G1 X218.368 Y91.519 E0.01872
G1 X171.028 Y44.179 E2.10413
G1 X170.980 Y44.665 E0.01537
G1 X218.426 Y92.111 E2.10884
G1 X218.484 Y92.704 E0.01872
G1 X170.932 Y45.152 E2.11356
G1 X170.884 Y45.639 E0.01537
G1 X218.542 Y93.297 E2.11827
G1 X218.601 Y93.890 E0.01872
G1 X170.836 Y46.125 E2.12299
G1 X170.788 Y46.612 E0.01537
G1 X218.659 Y94.483 E2.12770
G1 X218.717 Y95.075 E0.01872
G1 X170.741 Y47.099 E2.13242
G1 X170.693 Y47.586 E0.01537
G1 X218.775 Y95.668 E2.13713
G1 X218.834 Y96.261 E0.01872
G1 X170.645 Y48.072 E2.14185
G1 X170.597 Y48.559 E0.01537
G1 X218.892 Y96.854 E2.14657
G1 X218.950 Y97.447 E0.01872
G1 X170.549 Y49.046 E2.15128
G1 X170.501 Y49.532 E0.01537
G1 X219.008 Y98.039 E2.15600
G1 X219.067 Y98.632 E0.01872
G1 X170.454 Y50.019 E2.16071
G1 X170.406 Y50.506 E0.01537
G1 X219.125 Y99.225 E2.16543
M73 P1 R321
G1 X219.183 Y99.818 E0.01872
G1 X170.358 Y50.993 E2.17014
G1 X170.310 Y51.479 E0.01537
G1 X219.241 Y100.411 E2.17486
G1 X219.300 Y101.003 E0.01872
G1 X170.262 Y51.966 E2.17958
G1 X170.214 Y52.453 E0.01537
G1 X219.358 Y101.596 E2.18429
G1 X219.416 Y102.189 E0.01872
G1 X170.167 Y52.939 E2.18901
G1 X170.119 Y53.426 E0.01537
G1 X219.474 Y102.782 E2.19372
G1 X219.533 Y103.375 E0.01872
G1 X170.071 Y53.913 E2.19844
G1 X170.023 Y54.399 E0.01537
G1 X219.591 Y103.967 E2.20315
G1 X219.649 Y104.560 E0.01872
G1 X169.975 Y54.886 E2.20787
G1 X169.927 Y55.373 E0.01537
G1 X219.708 Y105.153 E2.21258
G1 X219.730 Y105.386 E0.00736
G1 X219.406 Y105.386 E0.01019
G1 X169.880 Y55.860 E2.20132
G1 X169.832 Y56.346 E0.01537
G1 X218.872 Y105.386 E2.17968
G1 X218.337 Y105.386 E0.01680
G1 X169.784 Y56.833 E2.15805
G1 X169.736 Y57.320 E0.01537
G1 X217.803 Y105.386 E2.13642
G1 X217.268 Y105.386 E0.01680
G1 X169.688 Y57.806 E2.11478
G1 X169.640 Y58.293 E0.01537
G1 X216.733 Y105.386 E2.09315
G1 X216.199 Y105.386 E0.01680
G1 X169.593 Y58.780 E2.07152
M73 P1 R320
G1 X169.545 Y59.267 E0.01537
G1 X215.664 Y105.386 E2.04989
G1 X215.130 Y105.386 E0.01680
G1 X169.497 Y59.753 E2.02825
G1 X169.449 Y60.240 E0.01537
G1 X214.595 Y105.386 E2.00662
G1 X214.061 Y105.386 E0.01680
G1 X169.401 Y60.727 E1.98499
G1 X169.353 Y61.213 E0.01537
G1 X213.526 Y105.386 E1.96335
G1 X212.992 Y105.386 E0.01680
G1 X169.306 Y61.700 E1.94172
G1 X169.258 Y62.187 E0.01537
G1 X212.457 Y105.386 E1.92009
G1 X211.923 Y105.386 E0.01680
G1 X169.210 Y62.674 E1.89846
G1 X169.162 Y63.160 E0.01537
G1 X211.388 Y105.386 E1.87682
G1 X210.854 Y105.386 E0.01680
G1 X169.114 Y63.647 E1.85519
G1 X169.066 Y64.134 E0.01537
G1 X210.319 Y105.386 E1.83356
G1 X209.784 Y105.386 E0.01680
G1 X169.019 Y64.620 E1.81193
M73 P2 R320
G1 X168.971 Y65.107 E0.01537
G1 X209.250 Y105.386 E1.79029
G1 X208.715 Y105.386 E0.01680
G1 X168.923 Y65.594 E1.76866
G1 X168.875 Y66.080 E0.01537
G1 X208.181 Y105.386 E1.74703
G1 X207.646 Y105.386 E0.01680
G1 X168.827 Y66.567 E1.72539
G1 X168.779 Y67.054 E0.01537
G1 X207.112 Y105.386 E1.70376
G1 X206.577 Y105.386 E0.01680
G1 X168.732 Y67.541 E1.68213
G1 X168.684 Y68.027 E0.01537
G1 X206.043 Y105.386 E1.66050
G1 X205.508 Y105.386 E0.01680
G1 X168.636 Y68.514 E1.63886
G1 X168.588 Y69.001 E0.01537
G1 X204.974 Y105.386 E1.61723
M73 P2 R319
G1 X204.439 Y105.386 E0.01680
G1 X168.540 Y69.487 E1.59560
G1 X168.492 Y69.974 E0.01537
G1 X203.904 Y105.386 E1.57397
G1 X203.370 Y105.386 E0.01680
G1 X168.445 Y70.461 E1.55233
G1 X168.397 Y70.948 E0.01537
G1 X202.835 Y105.386 E1.53070
G1 X202.301 Y105.386 E0.01680
G1 X168.349 Y71.434 E1.50907
G1 X168.301 Y71.921 E0.01537
G1 X201.766 Y105.386 E1.48743
G1 X201.232 Y105.386 E0.01680
G1 X168.253 Y72.408 E1.46580
G1 X168.205 Y72.894 E0.01537
G1 X200.697 Y105.386 E1.44417
G1 X200.163 Y105.386 E0.01680
G1 X168.158 Y73.381 E1.42254
G1 X168.110 Y73.868 E0.01537
G1 X199.628 Y105.386 E1.40090
G1 X199.094 Y105.386 E0.01680
G1 X168.062 Y74.354 E1.37927
G1 X168.014 Y74.841 E0.01537
G1 X198.559 Y105.386 E1.35764
G1 X198.025 Y105.386 E0.01680
G1 X167.966 Y75.328 E1.33601
G1 X167.918 Y75.815 E0.01537
G1 X197.490 Y105.386 E1.31437
G1 X196.955 Y105.386 E0.01680
G1 X167.871 Y76.301 E1.29274
G1 X167.823 Y76.788 E0.01537
G1 X196.421 Y105.386 E1.27111
G1 X195.886 Y105.386 E0.01680
G1 X167.775 Y77.275 E1.24947
G1 X167.727 Y77.761 E0.01537
G1 X195.352 Y105.386 E1.22784
G1 X194.817 Y105.386 E0.01680
G1 X167.679 Y78.248 E1.20621
G1 X167.631 Y78.735 E0.01537
G1 X194.283 Y105.386 E1.18458
G1 X193.748 Y105.386 E0.01680
G1 X167.584 Y79.222 E1.16294
G1 X167.536 Y79.708 E0.01537
G1 X193.214 Y105.386 E1.14131
G1 X192.679 Y105.386 E0.01680
G1 X167.488 Y80.195 E1.11968
G1 X167.440 Y80.682 E0.01537
G1 X192.145 Y105.386 E1.09805
G1 X191.610 Y105.386 E0.01680
G1 X167.392 Y81.168 E1.07641
G1 X167.344 Y81.655 E0.01537
G1 X191.076 Y105.386 E1.05478
G1 X190.541 Y105.386 E0.01680
G1 X167.297 Y82.142 E1.03315
G1 X167.249 Y82.628 E0.01537
G1 X190.006 Y105.386 E1.01151
M73 P2 R318
G1 X189.472 Y105.386 E0.01680
G1 X167.201 Y83.115 E0.98988
G1 X167.153 Y83.602 E0.01537
G1 X188.937 Y105.386 E0.96825
G1 X188.403 Y105.386 E0.01680
G1 X167.105 Y84.089 E0.94662
G1 X167.057 Y84.575 E0.01537
G1 X187.868 Y105.386 E0.92498
G1 X187.334 Y105.386 E0.01680
G1 X167.010 Y85.062 E0.90335
G1 X166.962 Y85.549 E0.01537
G1 X186.799 Y105.386 E0.88172
G1 X186.265 Y105.386 E0.01680
G1 X166.914 Y86.035 E0.86008
G1 X166.866 Y86.522 E0.01537
G1 X185.730 Y105.386 E0.83845
G1 X185.196 Y105.386 E0.01680
G1 X166.818 Y87.009 E0.81682
G1 X166.770 Y87.496 E0.01537
G1 X184.661 Y105.386 E0.79519
G1 X184.126 Y105.386 E0.01680
G1 X166.723 Y87.982 E0.77355
G1 X166.675 Y88.469 E0.01537
G1 X183.592 Y105.386 E0.75192
G1 X183.057 Y105.386 E0.01680
G1 X166.627 Y88.956 E0.73029
G1 X166.579 Y89.442 E0.01537
G1 X182.523 Y105.386 E0.70866
G1 X181.988 Y105.386 E0.01680
G1 X166.531 Y89.929 E0.68702
G1 X166.483 Y90.416 E0.01537
G1 X181.454 Y105.386 E0.66539
G1 X180.919 Y105.386 E0.01680
G1 X166.436 Y90.902 E0.64376
G1 X166.388 Y91.389 E0.01537
G1 X180.385 Y105.386 E0.62212
G1 X179.850 Y105.386 E0.01680
G1 X166.340 Y91.876 E0.60049
G1 X166.292 Y92.363 E0.01537
G1 X179.316 Y105.386 E0.57886
G1 X178.781 Y105.386 E0.01680
G1 X166.244 Y92.849 E0.55723
G1 X166.196 Y93.336 E0.01537
G1 X178.247 Y105.386 E0.53559
G1 X177.712 Y105.386 E0.01680
G1 X166.149 Y93.823 E0.51396
G1 X166.101 Y94.309 E0.01537
G1 X177.177 Y105.386 E0.49233
G1 X176.643 Y105.386 E0.01680
G1 X166.053 Y94.796 E0.47070
G1 X166.005 Y95.283 E0.01537
G1 X176.108 Y105.386 E0.44906
G1 X175.574 Y105.386 E0.01680
G1 X165.957 Y95.770 E0.42743
G1 X165.909 Y96.256 E0.01537
G1 X175.039 Y105.386 E0.40580
G1 X174.505 Y105.386 E0.01680
G1 X165.862 Y96.743 E0.38416
G1 X165.814 Y97.230 E0.01537
G1 X173.970 Y105.386 E0.36253
G1 X173.436 Y105.386 E0.01680
G1 X165.766 Y97.716 E0.34090
G1 X165.718 Y98.203 E0.01537
G1 X172.901 Y105.386 E0.31927
G1 X172.367 Y105.386 E0.01680
G1 X165.670 Y98.690 E0.29763
G1 X165.622 Y99.176 E0.01537
G1 X171.832 Y105.386 E0.27600
G1 X171.298 Y105.386 E0.01680
G1 X165.575 Y99.663 E0.25437
G1 X165.527 Y100.150 E0.01537
G1 X170.763 Y105.386 E0.23274
G1 X170.228 Y105.386 E0.01680
G1 X165.479 Y100.637 E0.21110
G1 X165.431 Y101.123 E0.01537
G1 X169.694 Y105.386 E0.18947
G1 X169.159 Y105.386 E0.01680
G1 X165.383 Y101.610 E0.16784
G1 X165.335 Y102.097 E0.01537
G1 X168.625 Y105.386 E0.14620
G1 X168.090 Y105.386 E0.01680
G1 X165.288 Y102.583 E0.12457
G1 X165.240 Y103.070 E0.01537
G1 X167.556 Y105.386 E0.10294
G1 X167.021 Y105.386 E0.01680
G1 X165.192 Y103.557 E0.08131
G1 X165.144 Y104.044 E0.01537
G1 X166.487 Y105.386 E0.05967
G1 X165.952 Y105.386 E0.01680
G1 X165.096 Y104.530 E0.03804
G1 X165.048 Y105.017 E0.01537
G1 X165.587 Y105.556 E0.02395
; stop printing object obelisk.stl id:0 copy 0
; printing object obelisk.stl id:1 copy 0
G1 E-0.80000 F2100.000
G1 Z0.800 F10800.000
G1 X159.148 Y105.169
G1 Z0.200
