; generated by PrusaSlicer 2.2.0+win64 on 2020-07-22 at 19:34:38 UTC

; 

; external perimeters extrusion width = 0.60mm
; perimeters extrusion width = 0.43mm
; infill extrusion width = 0.45mm
; solid infill extrusion width = 0.70mm
; top infill extrusion width = 0.43mm
; first layer extrusion width = 0.42mm

M73 P0 R101
M201 X9000 Y9000 Z500 E10000 ; sets maximum accelerations, mm/sec^2
M203 X500 Y500 Z12 E120 ; sets maximum feedrates, mm/sec
M204 P2000 R1500 T2000 ; sets acceleration (P, T) and retract acceleration (R), mm/sec^2
M205 X10.00 Y10.00 Z0.20 E2.50 ; sets the jerk limits, mm/sec
M205 S0 T0 ; sets the minimum extruding and travel feed rate, mm/sec
M107
M862.3 P "MK2S" ; printer model check
M862.1 P0.4 ; nozzle diameter check
M115 U3.2.3 ; tell printer latest fw version
G90 ; use absolute coordinates
M83 ; extruder relative mode
M204 S2000 T1500 ; MK2 firmware only supports the old M204 format
M104 S215 ; set extruder temp
M140 S60 ; set bed temp
M190 S60 ; wait for bed temp
M109 S215 ; wait for extruder temp
G28 W ; home all without mesh bed level
G80 ; mesh bed leveling
G1 Y-3.0 F1000.0 ; go outside print area
G92 E0.0
G1 X60.0 E9.0  F1000.0 ; intro line
M73 P0 R101
G1 X100.0 E12.5 F1000.0 ; intro line
G92 E0.0
G21 ; set units to millimeters
G90 ; use absolute coordinates
M83 ; use relative distances for extrusion
M900 K0.06 ; Filament gcode LA 1.5
M900 K30 ; Filament gcode LA 1.0
;BEFORE_LAYER_CHANGE
G92 E0.0
;0.2


G1 E-0.80000 F2100.00000
G1 Z0.600 F10800.000
;AFTER_LAYER_CHANGE
;0.2
G1 X69.983 Y67.635
G1 Z0.200
G1 E0.80000 F2100.00000
M204 S1000
G1 F1200.000
G1 X70.305 Y66.990 E0.02260
G1 X70.676 Y66.578 E0.01740
G1 X71.133 Y66.262 E0.01740
G1 X71.650 Y66.061 E0.01740
G1 X72.203 Y65.986 E0.01752
G1 X124.465 Y65.985 E1.63864
G1 X178.214 Y66.079 E1.68526
G1 X178.760 Y66.154 E0.01728
G1 X179.278 Y66.354 E0.01740
G1 X179.735 Y66.668 E0.01740
G1 X180.104 Y67.077 E0.01728
G1 X180.430 Y67.724 E0.02272
G1 X180.545 Y68.444 E0.02284
G1 X180.545 Y141.372 E2.28663
G1 X180.474 Y141.930 E0.01763
G1 X180.276 Y142.452 E0.01752
G1 X179.961 Y142.914 E0.01752
G1 X179.547 Y143.289 E0.01752
G1 X178.896 Y143.616 E0.02284
G1 X178.177 Y143.730 E0.02284
G1 X72.231 Y143.637 E3.32187
G1 X71.673 Y143.567 E0.01763
G1 X71.150 Y143.369 E0.01752
G1 X70.685 Y143.052 E0.01763
G1 X70.310 Y142.639 E0.01752
G1 X69.982 Y141.984 E0.02296
G1 X69.869 Y141.260 E0.02298
G1 X69.869 Y68.347 E2.28613
G1 X69.974 Y67.694 E0.02072
G1 E-0.80000 F2100.00000
G1 Z0.800 F10800.000
G1 X135.897 Y82.249
G1 Z0.200
G1 E0.80000 F2100.00000
G1 F1200.000
G1 X136.835 Y79.157 E0.10129
G1 X138.358 Y76.308 E0.10129
G1 X140.407 Y73.811 E0.10129
G1 X142.905 Y71.761 E0.10129
G1 X145.754 Y70.238 E0.10130
G1 X148.848 Y69.302 E0.10135
G1 X149.569 Y69.243 E0.02268
G1 X152.061 Y69.114 E0.07824
G1 X154.331 Y69.228 E0.07126
G1 X155.273 Y69.301 E0.02964
G1 X158.367 Y70.238 E0.10136
G1 X161.216 Y71.761 E0.10130
G1 X163.714 Y73.811 E0.10129
G1 X165.763 Y76.308 E0.10129
G1 X167.286 Y79.157 E0.10129
G1 X168.224 Y82.249 E0.10129
G1 X168.541 Y85.464 E0.10129
G1 X168.224 Y88.679 E0.10129
G1 X167.286 Y91.770 E0.10129
G1 X165.763 Y94.620 E0.10129
G1 X163.714 Y97.117 E0.10129
G1 X161.216 Y99.166 E0.10129
G1 X158.367 Y100.689 E0.10129
G1 X155.276 Y101.627 E0.10129
G1 X152.061 Y101.944 E0.10129
G1 X148.846 Y101.627 E0.10129
G1 X145.754 Y100.689 E0.10129
G1 X142.905 Y99.166 E0.10129
G1 X140.407 Y97.117 E0.10129
G1 X138.358 Y94.620 E0.10129
G1 X136.835 Y91.770 E0.10129
G1 X135.897 Y88.679 E0.10129
G1 X135.581 Y85.464 E0.10129
G1 X135.891 Y82.308 E0.09941
G1 X135.597 Y81.985 F10800.000
G1 E-0.80000 F2100.00000
G1 Z0.800 F10800.000
G1 X147.744 Y69.242
G1 Z0.200
G1 E0.80000 F2100.00000
G1 F1200.000
G1 X145.609 Y69.888 E0.06993
G1 X142.694 Y71.446 E0.10363
G1 X140.140 Y73.543 E0.10362
G1 X138.043 Y76.097 E0.10362
G1 X136.485 Y79.012 E0.10362
G1 X135.526 Y82.175 E0.10362
G1 X135.202 Y85.464 E0.10362
G1 X135.526 Y88.753 E0.10362
G1 X136.485 Y91.915 E0.10362
G1 X138.043 Y94.830 E0.10362
G1 X140.140 Y97.385 E0.10362
G1 X142.694 Y99.481 E0.10362
G1 X145.609 Y101.039 E0.10362
G1 X148.772 Y101.999 E0.10362
G1 X152.061 Y102.323 E0.10362
G1 X155.350 Y101.999 E0.10362
G1 X158.512 Y101.039 E0.10362
G1 X161.427 Y99.481 E0.10362
G1 X163.982 Y97.385 E0.10362
G1 X166.078 Y94.830 E0.10362
G1 X167.636 Y91.915 E0.10362
G1 X168.596 Y88.753 E0.10362
G1 X168.920 Y85.464 E0.10362
G1 X168.596 Y82.175 E0.10362
G1 X167.636 Y79.012 E0.10362
G1 X166.078 Y76.097 E0.10362
G1 X163.982 Y73.543 E0.10362
G1 X161.427 Y71.446 E0.10362
G1 X158.512 Y69.888 E0.10363
G1 X156.379 Y69.242 E0.06988
G1 X177.381 Y69.243 E0.65850
G1 X177.381 Y102.368 E1.03860
G1 X126.740 Y102.368 E1.58781
G1 X126.740 Y69.243 E1.03860
G1 X147.684 Y69.242 E0.65667
G1 E-0.80000 F2100.00000
G1 Z0.800 F10800.000
G1 X126.363 Y68.866
G1 Z0.200
G1 E0.80000 F2100.00000
G1 F1200.000
G1 X148.831 Y68.865 E0.70445
G1 X149.830 Y68.842 E0.03135
G1 X151.814 Y68.747 E0.06229
G1 X155.291 Y68.865 E0.10906
G1 X177.758 Y68.866 E0.70445
G1 X177.758 Y102.745 E1.06225
G1 X126.363 Y102.745 E1.61145
G1 X126.363 Y68.926 E1.06037
G1 X126.756 Y68.943 F10800.000
G1 E-0.80000 F2100.00000
G1 Z0.800 F10800.000
G1 X145.202 Y69.977
G1 Z0.200
G1 E0.80000 F2100.00000
G1 F1200.000
G1 X144.750 Y69.525 E0.02018
G1 X144.213 Y69.525 E0.01690
G1 X144.727 Y70.039 E0.02291
G1 X144.378 Y70.225 E0.01249
G1 X143.677 Y69.525 E0.03123
G1 X143.141 Y69.525 E0.01690
G1 X144.029 Y70.412 E0.03956
G1 X143.679 Y70.599 E0.01249
G1 X142.605 Y69.525 E0.04788
G1 X142.069 Y69.525 E0.01690
G1 X143.330 Y70.786 E0.05621
G1 X142.981 Y70.972 E0.01249
G1 X141.533 Y69.525 E0.06453
G1 X140.997 Y69.525 E0.01690
G1 X142.631 Y71.159 E0.07285
G1 X142.536 Y71.210 E0.00338
G1 X142.322 Y71.386 E0.00875
G1 X140.461 Y69.525 E0.08296
G1 X139.925 Y69.525 E0.01690
G1 X142.027 Y71.628 E0.09373
G1 X141.733 Y71.869 E0.01201
G1 X139.389 Y69.525 E0.10451
G1 X138.852 Y69.525 E0.01690
G1 X141.438 Y72.111 E0.11528
G1 X141.144 Y72.353 E0.01201
G1 X138.316 Y69.525 E0.12605
G1 X137.780 Y69.525 E0.01690
G1 X140.849 Y72.594 E0.13682
G1 X140.555 Y72.836 E0.01201
G1 X137.244 Y69.525 E0.14759
G1 X136.708 Y69.525 E0.01690
G1 X140.261 Y73.078 E0.15836
G1 X139.966 Y73.319 E0.01201
G1 X136.172 Y69.525 E0.16914
G1 X135.636 Y69.525 E0.01690
G1 X139.719 Y73.609 E0.18204
G1 X139.478 Y73.903 E0.01201
G1 X135.100 Y69.525 E0.19517
G1 X134.564 Y69.525 E0.01690
G1 X139.236 Y74.198 E0.20829
G1 X138.995 Y74.492 E0.01201
G1 X134.028 Y69.525 E0.22142
G1 X133.492 Y69.525 E0.01690
G1 X138.753 Y74.787 E0.23455
G1 X138.511 Y75.081 E0.01201
G1 X132.955 Y69.525 E0.24767
G1 X132.419 Y69.525 E0.01690
G1 X138.270 Y75.376 E0.26080
G1 X138.028 Y75.670 E0.01201
G1 X131.883 Y69.525 E0.27392
G1 X131.347 Y69.525 E0.01690
G1 X137.791 Y75.969 E0.28726
G1 X137.604 Y76.319 E0.01249
G1 X130.811 Y69.525 E0.30283
G1 X130.275 Y69.525 E0.01690
G1 X137.417 Y76.668 E0.31840
G1 X137.231 Y77.017 E0.01249
G1 X129.739 Y69.525 E0.33398
G1 X129.203 Y69.526 E0.01690
G1 X137.044 Y77.367 E0.34955
G1 X136.857 Y77.716 E0.01249
G1 X128.667 Y69.526 E0.36512
G1 X128.131 Y69.526 E0.01690
G1 X136.670 Y78.065 E0.38070
M73 P1 R100
G1 X136.484 Y78.415 E0.01249
G1 X127.594 Y69.526 E0.39627
G1 X127.058 Y69.526 E0.01690
G1 X136.297 Y78.764 E0.41185
G1 X136.222 Y78.903 E0.00498
G1 X136.147 Y79.151 E0.00815
G1 X127.023 Y70.026 E0.40676
G1 X127.023 Y70.563 E0.01690
G1 X136.023 Y79.562 E0.40120
G1 X135.898 Y79.974 E0.01355
G1 X127.023 Y71.099 E0.39563
G1 X127.023 Y71.635 E0.01690
G1 X135.773 Y80.385 E0.39007
G1 X135.648 Y80.796 E0.01355
G1 X127.023 Y72.171 E0.38451
G1 X127.023 Y72.707 E0.01690
G1 X135.524 Y81.208 E0.37895
G1 X135.399 Y81.619 E0.01355
G1 X127.023 Y73.243 E0.37338
G1 X127.023 Y73.779 E0.01690
G1 X135.274 Y82.030 E0.36782
G1 X135.247 Y82.119 E0.00293
G1 X135.209 Y82.502 E0.01211
G1 X127.023 Y74.315 E0.36494
G1 X127.023 Y74.852 E0.01690
G1 X135.161 Y82.990 E0.36279
G1 X135.113 Y83.478 E0.01546
G1 X127.023 Y75.388 E0.36065
G1 X127.023 Y75.924 E0.01690
G1 X135.065 Y83.966 E0.35851
G1 X135.017 Y84.454 E0.01546
G1 X127.023 Y76.460 E0.35637
G1 X127.023 Y76.996 E0.01690
G1 X134.969 Y84.942 E0.35422
G1 X134.921 Y85.430 E0.01546
G1 X127.023 Y77.532 E0.35208
G1 X127.023 Y78.068 E0.01690
G1 X134.972 Y86.017 E0.35436
G1 X135.031 Y86.612 E0.01884
G1 X127.023 Y78.604 E0.35697
G1 X127.023 Y79.141 E0.01690
G1 X135.089 Y87.207 E0.35958
G1 X135.148 Y87.801 E0.01884
G1 X127.023 Y79.677 E0.36220
G1 X127.023 Y80.213 E0.01690
G1 X135.206 Y88.396 E0.36481
G1 X135.247 Y88.808 E0.01305
G1 X135.319 Y89.045 E0.00779
G1 X127.023 Y80.749 E0.36981
G1 X127.023 Y81.285 E0.01690
G1 X135.552 Y89.814 E0.38022
G1 X135.786 Y90.584 E0.02535
G1 X127.023 Y81.821 E0.39063
G1 X127.023 Y82.357 E0.01690
G1 X136.019 Y91.353 E0.40103
G1 X136.222 Y92.024 E0.02210
G1 X136.301 Y92.172 E0.00528
G1 X127.023 Y82.893 E0.41363
G1 X127.023 Y83.430 E0.01690
G1 X136.917 Y93.324 E0.44107
G1 X137.533 Y94.475 E0.04117
G1 X127.023 Y83.966 E0.46851
G1 X127.023 Y84.502 E0.01690
G1 X144.606 Y102.085 E0.78384
G1 X145.142 Y102.085 E0.01690
G1 X143.049 Y99.992 E0.09331
G1 X144.201 Y100.607 E0.04117
G1 X145.678 Y102.085 E0.06587
G1 X146.214 Y102.085 E0.01690
G1 X145.352 Y101.223 E0.03843
G1 X145.500 Y101.302 E0.00528
G1 X146.171 Y101.505 E0.02210
G1 X146.751 Y102.085 E0.02583
G1 X147.287 Y102.085 E0.01690
G1 X146.686 Y101.484 E0.02677
G1 X147.632 Y102.018 F10800.000
G1 F1200.000
G1 X148.008 Y102.074 E0.00741
G1 X148.572 Y102.158 E0.00457
G1 X144.240 Y102.255 F10800.000
G1 F1200.000
G1 X127.023 Y85.038 E0.76750
G1 X127.023 Y85.574 E0.01690
G1 X143.534 Y102.085 E0.73604
G1 X142.998 Y102.085 E0.01690
G1 X127.023 Y86.110 E0.71214
G1 X127.023 Y86.646 E0.01690
G1 X142.462 Y102.085 E0.68824
G1 X141.925 Y102.085 E0.01690
G1 X127.023 Y87.182 E0.66434
G1 X127.023 Y87.719 E0.01690
G1 X141.389 Y102.085 E0.64044
G1 X140.853 Y102.085 E0.01690
G1 X127.023 Y88.255 E0.61654
G1 X127.023 Y88.791 E0.01690
G1 X140.317 Y102.085 E0.59264
G1 X139.781 Y102.085 E0.01690
G1 X127.023 Y89.327 E0.56874
G1 X127.023 Y89.863 E0.01690
G1 X139.245 Y102.085 E0.54484
G1 X138.709 Y102.085 E0.01690
G1 X127.023 Y90.399 E0.52094
G1 X127.023 Y90.935 E0.01690
G1 X138.173 Y102.085 E0.49704
G1 X137.636 Y102.085 E0.01690
G1 X127.023 Y91.471 E0.47314
G1 X127.023 Y92.008 E0.01690
G1 X137.100 Y102.085 E0.44924
G1 X136.564 Y102.085 E0.01690
G1 X127.023 Y92.544 E0.42534
G1 X127.023 Y93.080 E0.01690
G1 X136.028 Y102.085 E0.40144
G1 X135.492 Y102.085 E0.01690
G1 X127.023 Y93.616 E0.37754
G1 X127.023 Y94.152 E0.01690
G1 X134.956 Y102.085 E0.35364
G1 X134.420 Y102.085 E0.01690
G1 X127.023 Y94.688 E0.32974
G1 X127.023 Y95.224 E0.01690
G1 X133.884 Y102.085 E0.30584
G1 X133.347 Y102.085 E0.01690
G1 X127.023 Y95.760 E0.28194
G1 X127.023 Y96.297 E0.01690
G1 X132.811 Y102.085 E0.25804
G1 X132.275 Y102.085 E0.01690
G1 X127.023 Y96.833 E0.23414
G1 X127.023 Y97.369 E0.01690
G1 X131.739 Y102.085 E0.21024
G1 X131.203 Y102.085 E0.01690
G1 X127.023 Y97.905 E0.18634
G1 X127.023 Y98.441 E0.01690
G1 X130.667 Y102.085 E0.16244
G1 X130.131 Y102.085 E0.01690
G1 X127.023 Y98.977 E0.13854
G1 X127.023 Y99.513 E0.01690
G1 X129.595 Y102.085 E0.11464
G1 X129.058 Y102.085 E0.01690
G1 X127.023 Y100.049 E0.09074
G1 X127.023 Y100.586 E0.01690
G1 X128.522 Y102.085 E0.06684
G1 X127.986 Y102.085 E0.01690
G1 X127.023 Y101.122 E0.04294
G1 X127.023 Y101.658 E0.01690
G1 X127.620 Y102.255 E0.02660
G1 E-0.80000 F2100.00000
G1 Z0.800 F10800.000
G1 X155.549 Y102.158
G1 Z0.200
G1 E0.80000 F2100.00000
G1 F1200.000
G1 X155.737 Y102.130 E0.00152
G1 X155.925 Y102.102 E0.00225
G1 X156.113 Y102.074 E0.00298
G1 X156.301 Y102.046 E0.00370
G1 X156.489 Y102.018 E0.00443
G1 X156.823 Y101.670 F10800.000
G1 F1200.000
G1 X157.238 Y102.085 E0.01849
G1 X157.774 Y102.085 E0.01689
G1 X157.370 Y101.681 E0.01799
G1 X157.781 Y101.557 E0.01354
G1 X158.310 Y102.085 E0.02355
G1 X158.846 Y102.085 E0.01689
G1 X158.193 Y101.432 E0.02911
G1 X158.604 Y101.307 E0.01354
G1 X159.382 Y102.085 E0.03467
G1 X159.918 Y102.085 E0.01689
G1 X158.956 Y101.123 E0.04287
G1 X159.305 Y100.936 E0.01248
G1 X160.454 Y102.085 E0.05119
G1 X160.990 Y102.085 E0.01689
G1 X159.654 Y100.750 E0.05952
G1 X160.004 Y100.563 E0.01248
G1 X161.526 Y102.085 E0.06784
G1 X162.062 Y102.085 E0.01689
G1 X160.353 Y100.376 E0.07616
G1 X160.702 Y100.189 E0.01248
G1 X162.598 Y102.085 E0.08448
G1 X163.134 Y102.085 E0.01689
G1 X161.052 Y100.003 E0.09280
G1 X161.401 Y99.816 E0.01248
G1 X163.670 Y102.085 E0.10112
G1 X164.206 Y102.085 E0.01689
G1 X161.724 Y99.603 E0.11060
G1 X162.019 Y99.362 E0.01200
G1 X164.742 Y102.085 E0.12137
G1 X165.278 Y102.085 E0.01689
G1 X162.313 Y99.120 E0.13214
G1 X162.607 Y98.878 E0.01200
G1 X165.814 Y102.085 E0.14291
G1 X166.350 Y102.085 E0.01689
G1 X162.902 Y98.637 E0.15368
G1 X163.196 Y98.395 E0.01200
G1 X166.886 Y102.085 E0.16444
G1 X167.422 Y102.085 E0.01689
G1 X163.491 Y98.154 E0.17521
G1 X163.785 Y97.912 E0.01200
G1 X167.958 Y102.085 E0.18598
G1 X168.494 Y102.085 E0.01689
G1 X164.079 Y97.670 E0.19675
G1 X164.183 Y97.586 E0.00421
G1 X164.340 Y97.395 E0.00780
G1 X169.030 Y102.085 E0.20904
G1 X169.566 Y102.085 E0.01689
G1 X164.581 Y97.100 E0.22217
G1 X164.823 Y96.806 E0.01200
G1 X170.102 Y102.085 E0.23529
G1 X170.638 Y102.085 E0.01689
G1 X165.064 Y96.511 E0.24841
G1 X165.306 Y96.217 E0.01200
G1 X171.174 Y102.085 E0.26153
G1 X171.710 Y102.085 E0.01689
G1 X165.548 Y95.923 E0.27465
G1 X165.789 Y95.628 E0.01200
G1 X172.246 Y102.085 E0.28777
G1 X172.782 Y102.085 E0.01689
G1 X166.031 Y95.334 E0.30089
G1 X166.272 Y95.039 E0.01200
G1 X173.318 Y102.085 E0.31401
G1 X173.854 Y102.085 E0.01689
G1 X166.469 Y94.700 E0.32916
G1 X166.655 Y94.350 E0.01248
G1 X174.390 Y102.085 E0.34472
G1 X174.926 Y102.085 E0.01689
G1 X166.842 Y94.001 E0.36029
G1 X167.029 Y93.652 E0.01248
G1 X175.462 Y102.085 E0.37586
G1 X175.998 Y102.085 E0.01689
G1 X167.216 Y93.302 E0.39143
G1 X167.402 Y92.953 E0.01248
G1 X176.534 Y102.085 E0.40700
G1 X177.070 Y102.085 E0.01689
G1 X167.589 Y92.604 E0.42256
G1 X167.776 Y92.254 E0.01248
G1 X177.098 Y101.577 E0.41550
G1 X177.098 Y101.041 E0.01689
G1 X167.941 Y91.884 E0.40812
G1 X168.066 Y91.473 E0.01354
G1 X177.098 Y100.505 E0.40256
G1 X177.098 Y99.969 E0.01689
G1 X168.191 Y91.062 E0.39700
G1 X168.315 Y90.650 E0.01354
G1 X177.098 Y99.433 E0.39144
G1 X177.098 Y98.897 E0.01689
G1 X168.440 Y90.239 E0.38588
G1 X168.565 Y89.828 E0.01354
G1 X177.098 Y98.361 E0.38032
G1 X177.098 Y97.825 E0.01689
G1 X168.690 Y89.417 E0.37476
G1 X168.815 Y89.005 E0.01354
G1 X177.098 Y97.289 E0.36920
M73 P2 R99
G1 X177.098 Y96.753 E0.01689
G1 X168.899 Y88.554 E0.36542
G1 X168.947 Y88.066 E0.01545
G1 X177.098 Y96.217 E0.36328
G1 X177.098 Y95.681 E0.01689
G1 X168.995 Y87.578 E0.36114
G1 X169.044 Y87.090 E0.01545
G1 X177.098 Y95.145 E0.35899
G1 X177.098 Y94.609 E0.01689
G1 X169.092 Y86.602 E0.35685
G1 X169.140 Y86.114 E0.01545
G1 X177.098 Y94.073 E0.35471
G1 X177.098 Y93.537 E0.01689
G1 X169.188 Y85.626 E0.35257
G1 X169.204 Y85.464 E0.00515
G1 X169.165 Y85.067 E0.01255
G1 X177.098 Y93.001 E0.35359
G1 X177.098 Y92.465 E0.01689
G1 X169.106 Y84.473 E0.35620
G1 X169.048 Y83.878 E0.01883
G1 X177.098 Y91.929 E0.35881
G1 X177.098 Y91.393 E0.01689
G1 X168.989 Y83.284 E0.36142
G1 X168.930 Y82.689 E0.01883
G1 X177.098 Y90.857 E0.36403
G1 X177.098 Y90.321 E0.01689
G1 X168.865 Y82.087 E0.36697
G1 X168.631 Y81.318 E0.02534
G1 X177.098 Y89.785 E0.37737
G1 X177.098 Y89.249 E0.01689
G1 X168.398 Y80.548 E0.38777
G1 X168.164 Y79.779 E0.02534
G1 X177.098 Y88.713 E0.39818
G1 X177.098 Y88.177 E0.01689
G1 X167.931 Y79.010 E0.40858
G1 X167.899 Y78.903 E0.00350
G1 X167.368 Y77.911 E0.03546
G1 X177.098 Y87.641 E0.43366
G1 X177.098 Y87.105 E0.01689
G1 X166.753 Y76.759 E0.46109
G1 X166.315 Y75.940 E0.02930
G1 X165.608 Y75.079 E0.03509
G1 X177.268 Y86.739 E0.51967
G1 E-0.80000 F2100.00000
G1 Z0.800 F10800.000
G1 X177.268 Y70.122
G1 Z0.200
G1 E0.80000 F2100.00000
G1 F1200.000
G1 X176.671 Y69.526 E0.02660
G1 X176.135 Y69.526 E0.01689
G1 X177.098 Y70.489 E0.04292
G1 X177.098 Y71.025 E0.01689
G1 X175.599 Y69.526 E0.06681
G1 X175.063 Y69.526 E0.01689
G1 X177.098 Y71.561 E0.09070
G1 X177.098 Y72.097 E0.01689
G1 X174.527 Y69.525 E0.11460
