; generated by PrusaSlicer 2.1.1+win64 on 2020-04-27 at 16:03:32 UTC

; 

; external perimeters extrusion width = 0.45mm
; perimeters extrusion width = 0.45mm
; infill extrusion width = 0.45mm
; solid infill extrusion width = 0.45mm
; top infill extrusion width = 0.40mm
; first layer extrusion width = 0.42mm

M73 P0 R218
M201 X9000 Y9000 Z500 E10000 ; sets maximum accelerations, mm/sec^2
M203 X500 Y500 Z12 E120 ; sets maximum feedrates, mm/sec
M204 P2000 R1500 T2000 ; sets acceleration (P, T) and retract acceleration (R), mm/sec^2
M205 X10.00 Y10.00 Z0.20 E2.50 ; sets the jerk limits, mm/sec
M205 S0 T0 ; sets the minimum extruding and travel feed rate, mm/sec
M107
M862.3 P "MK2S" ; printer model check
M862.1 P0.4 ; nozzle diameter check
M115 U3.2.3 ; tell printer latest fw version
G90 ; use absolute coordinates
M83 ; extruder relative mode
M204 S2000 T1500 ; MK2 firmware only supports the old M204 format
M104 S215 ; set extruder temp
M140 S60 ; set bed temp
M190 S60 ; wait for bed temp
M109 S215 ; wait for extruder temp
G28 W ; home all without mesh bed level
G80 ; mesh bed leveling
G1 Y-3.0 F1000.0 ; go outside print area
G92 E0.0
G1 X60.0 E9.0  F1000.0 ; intro line
M73 P0 R217
G1 X100.0 E12.5 F1000.0 ; intro line
G92 E0.0
G21 ; set units to millimeters
G90 ; use absolute coordinates
M83 ; use relative distances for extrusion
M900 K30 ; Filament gcode
;BEFORE_LAYER_CHANGE
G92 E0.0
;0.2


G1 E-0.80000 F2100.00000
G1 Z0.600 F10800.000
;AFTER_LAYER_CHANGE
;0.2
G1 X105.155 Y106.097
G1 Z0.200
G1 E0.80000 F2100.00000
M204 S1000
G1 F1200
G1 X88.556 Y106.097 E0.52046
G1 X88.556 Y69.270 E1.15467
G1 X121.755 Y69.270 E1.04093
G1 X121.755 Y106.097 E1.15467
G1 X105.215 Y106.097 E0.51858
G1 X105.155 Y106.474 F10800.000
G1 F1200
G1 X88.179 Y106.474 E0.53229
G1 X88.179 Y68.893 E1.17831
G1 X122.132 Y68.893 E1.06457
G1 X122.132 Y106.474 E1.17831
G1 X105.215 Y106.474 E0.53041
G1 X104.841 Y106.227 F10800.000
G1 E-0.80000 F2100.00000
G1 Z0.800 F10800.000
G1 X89.435 Y105.984
G1 Z0.200
G1 E0.80000 F2100.00000
G1 F1200
G1 X88.839 Y105.387 E0.02656
G1 X88.839 Y104.852 E0.01688
G1 X89.801 Y105.814 E0.04287
G1 X90.337 Y105.814 E0.01688
G1 X88.839 Y104.316 E0.06674
G1 X88.839 Y103.780 E0.01688
G1 X90.873 Y105.814 E0.09060
G1 X91.408 Y105.814 E0.01688
G1 X88.839 Y103.244 E0.11447
G1 X88.839 Y102.709 E0.01688
G1 X91.944 Y105.814 E0.13834
G1 X92.480 Y105.814 E0.01688
G1 X88.839 Y102.173 E0.16221
G1 X88.839 Y101.637 E0.01688
G1 X93.016 Y105.814 E0.18607
G1 X93.551 Y105.814 E0.01688
G1 X88.839 Y101.101 E0.20994
G1 X88.839 Y100.566 E0.01688
G1 X94.087 Y105.814 E0.23381
G1 X94.623 Y105.814 E0.01688
G1 X88.839 Y100.030 E0.25767
G1 X88.839 Y99.494 E0.01688
G1 X95.159 Y105.814 E0.28154
G1 X95.694 Y105.814 E0.01688
G1 X88.839 Y98.958 E0.30541
G1 X88.839 Y98.422 E0.01688
G1 X96.230 Y105.814 E0.32927
G1 X96.766 Y105.814 E0.01688
G1 X88.839 Y97.887 E0.35314
G1 X88.839 Y97.351 E0.01688
G1 X97.302 Y105.814 E0.37701
G1 X97.837 Y105.814 E0.01688
G1 X88.839 Y96.815 E0.40087
G1 X88.839 Y96.279 E0.01688
G1 X98.373 Y105.814 E0.42474
G1 X98.909 Y105.814 E0.01688
G1 X88.839 Y95.744 E0.44861
G1 X88.839 Y95.208 E0.01688
G1 X99.445 Y105.814 E0.47248
G1 X99.980 Y105.814 E0.01688
G1 X88.839 Y94.672 E0.49634
G1 X88.839 Y94.136 E0.01688
G1 X100.516 Y105.814 E0.52021
G1 X101.052 Y105.814 E0.01688
G1 X88.839 Y93.601 E0.54408
G1 X88.839 Y93.065 E0.01688
G1 X101.588 Y105.814 E0.56794
G1 X102.123 Y105.814 E0.01688
G1 X88.839 Y92.529 E0.59181
G1 X88.839 Y91.993 E0.01688
G1 X102.659 Y105.814 E0.61568
G1 X103.195 Y105.814 E0.01688
G1 X88.839 Y91.458 E0.63954
G1 X88.839 Y90.922 E0.01688
G1 X103.731 Y105.814 E0.66341
G1 X104.266 Y105.814 E0.01688
G1 X88.839 Y90.386 E0.68728
G1 X88.839 Y89.850 E0.01688
G1 X104.802 Y105.814 E0.71114
G1 X105.338 Y105.814 E0.01688
G1 X88.839 Y89.315 E0.73501
G1 X88.839 Y88.779 E0.01688
G1 X105.874 Y105.814 E0.75888
G1 X106.409 Y105.814 E0.01688
G1 X88.839 Y88.243 E0.78275
G1 X88.839 Y87.707 E0.01688
G1 X106.945 Y105.814 E0.80661
G1 X107.481 Y105.814 E0.01688
G1 X88.839 Y87.172 E0.83048
G1 X88.839 Y86.636 E0.01688
G1 X108.017 Y105.814 E0.85435
G1 X108.552 Y105.814 E0.01688
G1 X88.839 Y86.100 E0.87821
G1 X88.839 Y85.564 E0.01688
G1 X109.088 Y105.814 E0.90208
G1 X109.624 Y105.814 E0.01688
G1 X88.839 Y85.029 E0.92595
G1 X88.839 Y84.493 E0.01688
G1 X110.160 Y105.814 E0.94981
G1 X110.696 Y105.814 E0.01688
G1 X88.839 Y83.957 E0.97368
G1 X88.839 Y83.421 E0.01688
G1 X111.231 Y105.814 E0.99755
G1 X111.767 Y105.814 E0.01688
G1 X88.839 Y82.886 E1.02141
G1 X88.839 Y82.350 E0.01688
G1 X112.303 Y105.814 E1.04528
G1 X112.839 Y105.814 E0.01688
G1 X88.839 Y81.814 E1.06915
G1 X88.839 Y81.278 E0.01688
G1 X113.374 Y105.814 E1.09302
M73 P0 R216
G1 X113.910 Y105.814 E0.01688
G1 X88.839 Y80.743 E1.11688
G1 X88.839 Y80.207 E0.01688
G1 X114.446 Y105.814 E1.14075
G1 X114.982 Y105.814 E0.01688
G1 X88.839 Y79.671 E1.16462
G1 X88.839 Y79.135 E0.01688
G1 X115.517 Y105.814 E1.18848
G1 X116.053 Y105.814 E0.01688
G1 X88.839 Y78.600 E1.21235
G1 X88.839 Y78.064 E0.01688
G1 X116.589 Y105.814 E1.23622
G1 X117.125 Y105.814 E0.01688
G1 X88.839 Y77.528 E1.26008
G1 X88.839 Y76.992 E0.01688
G1 X117.660 Y105.814 E1.28395
G1 X118.196 Y105.814 E0.01688
G1 X88.839 Y76.457 E1.30782
G1 X88.839 Y75.921 E0.01688
G1 X118.732 Y105.814 E1.33168
G1 X119.268 Y105.814 E0.01688
G1 X88.839 Y75.385 E1.35555
G1 X88.839 Y74.849 E0.01688
G1 X119.803 Y105.814 E1.37942
G1 X120.339 Y105.814 E0.01688
G1 X88.839 Y74.314 E1.40329
G1 X88.839 Y73.778 E0.01688
G1 X120.875 Y105.814 E1.42715
G1 X121.411 Y105.814 E0.01688
G1 X88.839 Y73.242 E1.45102
G1 X88.839 Y72.706 E0.01688
G1 X121.472 Y105.340 E1.45376
G1 X121.472 Y104.804 E0.01688
G1 X88.839 Y72.170 E1.45376
G1 X88.839 Y71.635 E0.01688
G1 X121.472 Y104.268 E1.45376
G1 X121.472 Y103.732 E0.01688
G1 X88.839 Y71.099 E1.45376
G1 X88.839 Y70.563 E0.01688
G1 X121.472 Y103.197 E1.45376
G1 X121.472 Y102.661 E0.01688
G1 X88.839 Y70.027 E1.45376
G1 X88.839 Y69.553 E0.01494
G1 X88.900 Y69.553 E0.00193
G1 X121.472 Y102.125 E1.45102
G1 X121.472 Y101.589 E0.01688
G1 X89.436 Y69.553 E1.42715
G1 X89.972 Y69.553 E0.01688
G1 X121.472 Y101.054 E1.40329
G1 X121.472 Y100.518 E0.01688
G1 X90.507 Y69.553 E1.37942
G1 X91.043 Y69.553 E0.01688
G1 X121.472 Y99.982 E1.35555
G1 X121.472 Y99.446 E0.01688
G1 X91.579 Y69.553 E1.33169
G1 X92.115 Y69.553 E0.01688
G1 X121.472 Y98.910 E1.30782
M73 P0 R215
G1 X121.472 Y98.375 E0.01688
G1 X92.650 Y69.553 E1.28395
G1 X93.186 Y69.553 E0.01688
G1 X121.472 Y97.839 E1.26009
G1 X121.472 Y97.303 E0.01688
G1 X93.722 Y69.553 E1.23622
G1 X94.258 Y69.553 E0.01688
G1 X121.472 Y96.767 E1.21235
G1 X121.472 Y96.232 E0.01688
G1 X94.793 Y69.553 E1.18848
G1 X95.329 Y69.553 E0.01688
G1 X121.472 Y95.696 E1.16462
G1 X121.472 Y95.160 E0.01688
G1 X95.865 Y69.553 E1.14075
G1 X96.401 Y69.553 E0.01688
G1 X121.472 Y94.624 E1.11688
G1 X121.472 Y94.089 E0.01688
G1 X96.936 Y69.553 E1.09302
G1 X97.472 Y69.553 E0.01688
G1 X121.472 Y93.553 E1.06915
G1 X121.472 Y93.017 E0.01688
G1 X98.008 Y69.553 E1.04528
G1 X98.544 Y69.553 E0.01688
G1 X121.472 Y92.481 E1.02142
G1 X121.472 Y91.946 E0.01688
G1 X99.079 Y69.553 E0.99755
G1 X99.615 Y69.553 E0.01688
G1 X121.472 Y91.410 E0.97368
G1 X121.472 Y90.874 E0.01688
G1 X100.151 Y69.553 E0.94982
G1 X100.687 Y69.553 E0.01688
G1 X121.472 Y90.338 E0.92595
G1 X121.472 Y89.803 E0.01688
G1 X101.222 Y69.553 E0.90208
G1 X101.758 Y69.553 E0.01688
G1 X121.472 Y89.267 E0.87821
G1 X121.472 Y88.731 E0.01688
G1 X102.294 Y69.553 E0.85435
G1 X102.830 Y69.553 E0.01688
G1 X121.472 Y88.195 E0.83048
G1 X121.472 Y87.660 E0.01688
G1 X103.365 Y69.553 E0.80661
G1 X103.901 Y69.553 E0.01688
G1 X121.472 Y87.124 E0.78275
G1 X121.472 Y86.588 E0.01688
G1 X104.437 Y69.553 E0.75888
G1 X104.973 Y69.553 E0.01688
G1 X121.472 Y86.052 E0.73501
G1 X121.472 Y85.517 E0.01688
G1 X105.508 Y69.553 E0.71115
G1 X106.044 Y69.553 E0.01688
G1 X121.472 Y84.981 E0.68728
G1 X121.472 Y84.445 E0.01688
G1 X106.580 Y69.553 E0.66341
G1 X107.116 Y69.553 E0.01688
G1 X121.472 Y83.909 E0.63955
G1 X121.472 Y83.374 E0.01688
G1 X107.652 Y69.553 E0.61568
G1 X108.187 Y69.553 E0.01688
G1 X121.472 Y82.838 E0.59181
G1 X121.472 Y82.302 E0.01688
G1 X108.723 Y69.553 E0.56794
G1 X109.259 Y69.553 E0.01688
G1 X121.472 Y81.766 E0.54408
G1 X121.472 Y81.231 E0.01688
G1 X109.795 Y69.553 E0.52021
G1 X110.330 Y69.553 E0.01688
G1 X121.472 Y80.695 E0.49634
G1 X121.472 Y80.159 E0.01688
G1 X110.866 Y69.553 E0.47248
G1 X111.402 Y69.553 E0.01688
G1 X121.472 Y79.623 E0.44861
G1 X121.472 Y79.088 E0.01688
G1 X111.938 Y69.553 E0.42474
G1 X112.473 Y69.553 E0.01688
G1 X121.472 Y78.552 E0.40088
G1 X121.472 Y78.016 E0.01688
G1 X113.009 Y69.553 E0.37701
G1 X113.545 Y69.553 E0.01688
G1 X121.472 Y77.480 E0.35314
G1 X121.472 Y76.945 E0.01688
G1 X114.081 Y69.553 E0.32928
G1 X114.616 Y69.553 E0.01688
G1 X121.472 Y76.409 E0.30541
G1 X121.472 Y75.873 E0.01688
G1 X115.152 Y69.553 E0.28154
G1 X115.688 Y69.553 E0.01688
G1 X121.472 Y75.337 E0.25767
G1 X121.472 Y74.802 E0.01688
G1 X116.224 Y69.553 E0.23381
G1 X116.759 Y69.553 E0.01688
G1 X121.472 Y74.266 E0.20994
G1 X121.472 Y73.730 E0.01688
G1 X117.295 Y69.553 E0.18607
G1 X117.831 Y69.553 E0.01688
G1 X121.472 Y73.194 E0.16221
G1 X121.472 Y72.658 E0.01688
G1 X118.367 Y69.553 E0.13834
G1 X118.902 Y69.553 E0.01688
G1 X121.472 Y72.123 E0.11447
G1 X121.472 Y71.587 E0.01688
G1 X119.438 Y69.553 E0.09061
G1 X119.974 Y69.553 E0.01688
G1 X121.472 Y71.051 E0.06674
G1 X121.472 Y70.515 E0.01688
G1 X120.510 Y69.553 E0.04287
G1 X121.045 Y69.553 E0.01688
G1 X121.642 Y70.149 E0.02656
G1 E-0.80000 F2100.00000
G1 Z0.800 F10800.000
G1 X76.260 Y106.115
G1 Z0.200
G1 E0.80000 F2100.00000
G1 F1200
G1 X71.139 Y106.115 E0.16058
G1 X71.139 Y62.789 E1.35846
M73 P1 R214
G1 X81.382 Y62.789 E0.32117
G1 X81.382 Y106.115 E1.35846
G1 X76.320 Y106.115 E0.15870
G1 X76.260 Y106.492 F10800.000
G1 F1200
G1 X70.761 Y106.492 E0.17241
G1 X70.761 Y62.412 E1.38210
G1 X81.759 Y62.412 E0.34482
G1 X81.759 Y106.492 E1.38210
G1 X76.320 Y106.492 E0.17053
G1 X75.922 Y106.278 F10800.000
G1 E-0.80000 F2100.00000
G1 Z0.800 F10800.000
G1 X71.252 Y105.233
G1 Z0.200
G1 E0.80000 F2100.00000
G1 F1200
G1 X71.850 Y105.832 E0.02674
G1 X72.387 Y105.832 E0.01697
G1 X71.421 Y104.866 E0.04316
G1 X71.421 Y104.329 E0.01697
G1 X72.925 Y105.832 E0.06717
G1 X73.462 Y105.832 E0.01697
G1 X71.421 Y103.791 E0.09117
G1 X71.421 Y103.254 E0.01697
G1 X73.999 Y105.832 E0.11518
G1 X74.537 Y105.832 E0.01697
G1 X71.421 Y102.717 E0.13918
G1 X71.421 Y102.179 E0.01697
G1 X75.074 Y105.832 E0.16319
G1 X75.611 Y105.832 E0.01697
G1 X71.421 Y101.642 E0.18719
G1 X71.421 Y101.105 E0.01697
G1 X76.149 Y105.832 E0.21120
G1 X76.686 Y105.832 E0.01697
G1 X71.421 Y100.567 E0.23520
G1 X71.421 Y100.030 E0.01697
G1 X77.223 Y105.832 E0.25920
G1 X77.760 Y105.832 E0.01697
G1 X71.421 Y99.493 E0.28321
G1 X71.421 Y98.956 E0.01697
G1 X78.298 Y105.832 E0.30721
G1 X78.835 Y105.832 E0.01697
G1 X71.421 Y98.418 E0.33122
G1 X71.421 Y97.881 E0.01697
G1 X79.372 Y105.832 E0.35522
G1 X79.910 Y105.832 E0.01697
G1 X71.421 Y97.344 E0.37923
G1 X71.421 Y96.806 E0.01697
G1 X80.447 Y105.832 E0.40323
G1 X80.984 Y105.832 E0.01697
G1 X71.421 Y96.269 E0.42723
G1 X71.421 Y95.732 E0.01697
G1 X81.099 Y105.410 E0.43236
G1 X81.099 Y104.872 E0.01697
G1 X71.421 Y95.195 E0.43236
G1 X71.421 Y94.657 E0.01697
G1 X81.099 Y104.335 E0.43236
G1 X81.099 Y103.798 E0.01697
G1 X71.421 Y94.120 E0.43236
G1 X71.421 Y93.583 E0.01697
G1 X81.099 Y103.260 E0.43236
G1 X81.099 Y102.723 E0.01697
G1 X71.421 Y93.045 E0.43236
G1 X71.421 Y92.508 E0.01697
G1 X81.099 Y102.186 E0.43236
G1 X81.099 Y101.648 E0.01697
G1 X71.421 Y91.971 E0.43236
G1 X71.421 Y91.433 E0.01697
G1 X81.099 Y101.111 E0.43236
G1 X81.099 Y100.574 E0.01697
G1 X71.421 Y90.896 E0.43236
G1 X71.421 Y90.359 E0.01697
G1 X81.099 Y100.037 E0.43236
G1 X81.099 Y99.499 E0.01697
G1 X71.421 Y89.822 E0.43236
G1 X71.421 Y89.284 E0.01697
G1 X81.099 Y98.962 E0.43236
G1 X81.099 Y98.425 E0.01697
G1 X71.421 Y88.747 E0.43236
G1 X71.421 Y88.210 E0.01697
G1 X81.099 Y97.887 E0.43236
G1 X81.099 Y97.350 E0.01697
G1 X71.421 Y87.672 E0.43236
G1 X71.421 Y87.135 E0.01697
G1 X81.099 Y96.813 E0.43236
G1 X81.099 Y96.275 E0.01697
G1 X71.421 Y86.598 E0.43236
G1 X71.421 Y86.061 E0.01697
G1 X81.099 Y95.738 E0.43236
G1 X81.099 Y95.201 E0.01697
G1 X71.421 Y85.523 E0.43236
G1 X71.421 Y84.986 E0.01697
G1 X81.099 Y94.664 E0.43236
G1 X81.099 Y94.126 E0.01697
G1 X71.421 Y84.449 E0.43236
G1 X71.421 Y83.911 E0.01697
G1 X81.099 Y93.589 E0.43236
G1 X81.099 Y93.052 E0.01697
G1 X71.421 Y83.374 E0.43236
G1 X71.421 Y82.837 E0.01697
G1 X81.099 Y92.514 E0.43236
G1 X81.099 Y91.977 E0.01697
G1 X71.421 Y82.299 E0.43236
G1 X71.421 Y81.762 E0.01697
G1 X81.099 Y91.440 E0.43236
G1 X81.099 Y90.903 E0.01697
G1 X71.421 Y81.225 E0.43236
G1 X71.421 Y80.688 E0.01697
G1 X81.099 Y90.365 E0.43236
G1 X81.099 Y89.828 E0.01697
G1 X71.421 Y80.150 E0.43236
G1 X71.421 Y79.613 E0.01697
G1 X81.099 Y89.291 E0.43236
G1 X81.099 Y88.753 E0.01697
G1 X71.421 Y79.076 E0.43236
G1 X71.421 Y78.538 E0.01697
G1 X81.099 Y88.216 E0.43236
G1 X81.099 Y87.679 E0.01697
G1 X71.421 Y78.001 E0.43236
G1 X71.421 Y77.464 E0.01697
G1 X81.099 Y87.141 E0.43236
G1 X81.099 Y86.604 E0.01697
G1 X71.421 Y76.927 E0.43236
G1 X71.421 Y76.389 E0.01697
G1 X81.099 Y86.067 E0.43236
G1 X81.099 Y85.530 E0.01697
G1 X71.421 Y75.852 E0.43236
G1 X71.421 Y75.315 E0.01697
G1 X81.099 Y84.992 E0.43236
G1 X81.099 Y84.455 E0.01697
G1 X71.421 Y74.777 E0.43236
G1 X71.421 Y74.240 E0.01697
G1 X81.099 Y83.918 E0.43236
G1 X81.099 Y83.380 E0.01697
G1 X71.421 Y73.703 E0.43236
G1 X71.421 Y73.165 E0.01697
G1 X81.099 Y82.843 E0.43236
G1 X81.099 Y82.306 E0.01697
G1 X71.421 Y72.628 E0.43236
G1 X71.421 Y72.091 E0.01697
G1 X81.099 Y81.769 E0.43236
G1 X81.099 Y81.231 E0.01697
G1 X71.421 Y71.554 E0.43236
G1 X71.421 Y71.016 E0.01697
G1 X81.099 Y80.694 E0.43236
G1 X81.099 Y80.157 E0.01697
G1 X71.421 Y70.479 E0.43236
G1 X71.421 Y69.942 E0.01697
G1 X81.099 Y79.619 E0.43236
G1 X81.099 Y79.082 E0.01697
G1 X71.421 Y69.404 E0.43236
G1 X71.421 Y68.867 E0.01697
G1 X81.099 Y78.545 E0.43236
G1 X81.099 Y78.007 E0.01697
G1 X71.421 Y68.330 E0.43236
G1 X71.421 Y67.793 E0.01697
G1 X81.099 Y77.470 E0.43236
G1 X81.099 Y76.933 E0.01697
G1 X71.421 Y67.255 E0.43236
G1 X71.421 Y66.718 E0.01697
G1 X81.099 Y76.396 E0.43236
G1 X81.099 Y75.858 E0.01697
G1 X71.421 Y66.181 E0.43236
G1 X71.421 Y65.643 E0.01697
G1 X81.099 Y75.321 E0.43236
G1 X81.099 Y74.784 E0.01697
G1 X71.421 Y65.106 E0.43236
G1 X71.421 Y64.569 E0.01697
G1 X81.099 Y74.246 E0.43236
G1 X81.099 Y73.709 E0.01697
G1 X71.421 Y64.031 E0.43236
G1 X71.421 Y63.494 E0.01697
G1 X81.099 Y73.172 E0.43236
G1 X81.099 Y72.635 E0.01697
G1 X71.536 Y63.072 E0.42724
M73 P1 R213
G1 X72.073 Y63.072 E0.01697
G1 X81.099 Y72.097 E0.40323
G1 X81.099 Y71.560 E0.01697
G1 X72.611 Y63.072 E0.37923
G1 X73.148 Y63.072 E0.01697
G1 X81.099 Y71.023 E0.35522
G1 X81.099 Y70.485 E0.01697
G1 X73.685 Y63.072 E0.33122
G1 X74.223 Y63.072 E0.01697
G1 X81.099 Y69.948 E0.30722
G1 X81.099 Y69.411 E0.01697
G1 X74.760 Y63.072 E0.28321
G1 X75.297 Y63.072 E0.01697
G1 X81.099 Y68.873 E0.25921
G1 X81.099 Y68.336 E0.01697
G1 X75.834 Y63.072 E0.23520
G1 X76.372 Y63.072 E0.01697
G1 X81.099 Y67.799 E0.21120
G1 X81.099 Y67.262 E0.01697
G1 X76.909 Y63.072 E0.18719
G1 X77.446 Y63.072 E0.01697
G1 X81.099 Y66.724 E0.16319
G1 X81.099 Y66.187 E0.01697
G1 X77.984 Y63.072 E0.13918
G1 X78.521 Y63.072 E0.01697
G1 X81.099 Y65.650 E0.11518
G1 X81.099 Y65.112 E0.01697
G1 X79.058 Y63.072 E0.09118
G1 X79.595 Y63.072 E0.01697
G1 X81.099 Y64.575 E0.06717
G1 X81.099 Y64.038 E0.01697
G1 X80.133 Y63.072 E0.04317
G1 X80.670 Y63.072 E0.01697
G1 X81.269 Y63.670 E0.02674
G1 E-0.80000 F2100.00000
G1 Z0.800 F10800.000
G1 X94.614 Y146.656
G1 Z0.200
G1 E0.80000 F2100.00000
G1 F1200
G1 X75.445 Y135.589 E0.69400
G1 X65.192 Y113.629 E0.75988
G1 X65.488 Y113.491 E0.01023
G1 X75.705 Y135.374 E0.75723
G1 X94.613 Y146.280 E0.68439
G1 X113.216 Y135.528 E0.67369
G1 X123.492 Y113.464 E0.76313
G1 X123.788 Y113.602 E0.01024
G1 X113.598 Y135.684 E0.76253
G1 X94.665 Y146.626 E0.68562
G1 X94.614 Y147.092 F10800.000
G1 F1200
G1 X75.153 Y135.856 E0.70455
G1 X64.691 Y113.447 E0.77543
