; generated by PrusaSlicer 2.1.0+win64 on 2019-12-03 at 19:04:08 UTC

; 

; external perimeters extrusion width = 0.60mm
; perimeters extrusion width = 0.43mm
; infill extrusion width = 0.45mm
; solid infill extrusion width = 0.70mm
; top infill extrusion width = 0.43mm
; first layer extrusion width = 0.42mm

M73 P0 R20
M201 X9000 Y9000 Z500 E10000 ; sets maximum accelerations, mm/sec^2
M203 X500 Y500 Z12 E120 ; sets maximum feedrates, mm/sec
M204 P2000 R1500 T2000 ; sets acceleration (P, T) and retract acceleration (R), mm/sec^2
M205 X10.00 Y10.00 Z0.20 E2.50 ; sets the jerk limits, mm/sec
M205 S0 T0 ; sets the minimum extruding and travel feed rate, mm/sec
M107
M862.3 P "MK2S" ; printer model check
M862.1 P0.4 ; nozzle diameter check
M115 U3.2.3 ; tell printer latest fw version
G90 ; use absolute coordinates
M83 ; extruder relative mode
M204 S2000 T1500 ; MK2 firmware only supports the old M204 format
M104 S215 ; set extruder temp
M140 S60 ; set bed temp
M190 S60 ; wait for bed temp
M109 S215 ; wait for extruder temp
G28 W ; home all without mesh bed level
G80 ; mesh bed leveling
G1 Y-3.0 F1000.0 ; go outside print area
G92 E0.0
G1 X60.0 E9.0  F1000.0 ; intro line
M73 P0 R20
G1 X100.0 E12.5 F1000.0 ; intro line
G92 E0.0
G21 ; set units to millimeters
G90 ; use absolute coordinates
M83 ; use relative distances for extrusion
M900 K30 ; Filament gcode
;BEFORE_LAYER_CHANGE
G92 E0.0
;0.2


G1 E-0.80000 F2100.00000
G1 Z0.600 F10800.000
;AFTER_LAYER_CHANGE
;0.2
G1 X121.403 Y91.354
G1 Z0.200
G1 E0.80000 F2100.00000
M204 S1000
G1 F1200
G1 X121.725 Y90.735 E0.02189
G1 X122.202 Y90.225 E0.02189
G1 X122.799 Y89.862 E0.02189
G1 X123.471 Y89.674 E0.02189
G1 X133.826 Y89.650 E0.32468
G1 X134.758 Y89.827 E0.02973
G1 X135.562 Y90.330 E0.02973
G1 X136.128 Y91.090 E0.02973
G1 X136.379 Y92.005 E0.02973
G1 X136.388 Y117.796 E0.80867
G1 X136.239 Y118.646 E0.02704
G1 X135.908 Y119.278 E0.02238
G1 X135.419 Y119.793 E0.02226
G1 X134.807 Y120.153 E0.02226
G1 X134.120 Y120.332 E0.02226
G1 X123.788 Y120.350 E0.32394
G1 X122.958 Y120.201 E0.02643
G1 X122.297 Y119.849 E0.02349
G1 X121.763 Y119.318 E0.02361
G1 X121.408 Y118.658 E0.02349
G1 X121.258 Y117.924 E0.02349
G1 X121.254 Y92.204 E0.80644
G1 X121.393 Y91.414 E0.02516
G1 X121.760 Y91.479 F10800.000
G1 F1200
G1 X122.040 Y90.942 E0.01898
G1 X122.457 Y90.504 E0.01896
G1 X122.974 Y90.197 E0.01885
G1 X123.559 Y90.043 E0.01896
G1 X133.826 Y90.027 E0.32191
G1 X134.625 Y90.180 E0.02552
G1 X135.316 Y90.617 E0.02563
G1 X135.797 Y91.273 E0.02552
G1 X136.005 Y92.060 E0.02552
G1 X136.011 Y117.795 E0.80690
G1 X135.881 Y118.526 E0.02326
G1 X135.595 Y119.067 E0.01919
G1 X135.171 Y119.508 E0.01919
G1 X134.641 Y119.814 E0.01919
G1 X134.047 Y119.961 E0.01919
G1 X123.798 Y119.973 E0.32135
G1 X123.078 Y119.843 E0.02293
G1 X122.514 Y119.540 E0.02010
G1 X122.059 Y119.083 E0.02021
G1 X121.757 Y118.514 E0.02021
G1 X121.634 Y117.885 E0.02010
G1 X121.631 Y92.205 E0.80518
G1 X121.750 Y91.538 E0.02125
G1 E-0.80000 F2100.00000
G1 Z0.800 F10800.000
G1 X127.786 Y109.560
G1 Z0.200
G1 E0.80000 F2100.00000
G1 F1200
G1 X128.318 Y109.398 E0.01745
G1 X128.867 Y109.344 E0.01729
G1 X129.426 Y109.398 E0.01762
G1 X129.960 Y109.560 E0.01747
G1 X130.451 Y109.822 E0.01746
G1 X130.881 Y110.176 E0.01746
G1 X131.234 Y110.606 E0.01746
G1 X131.497 Y111.097 E0.01746
G1 X131.659 Y111.630 E0.01747
G1 X131.713 Y112.184 E0.01745
G1 X131.659 Y112.738 E0.01746
G1 X131.497 Y113.271 E0.01746
G1 X131.234 Y113.762 E0.01746
G1 X130.881 Y114.193 E0.01746
G1 X130.451 Y114.546 E0.01746
G1 X129.960 Y114.808 E0.01746
G1 X129.427 Y114.970 E0.01746
G1 X128.873 Y115.025 E0.01746
G1 X128.319 Y114.970 E0.01746
G1 X127.786 Y114.808 E0.01746
G1 X127.295 Y114.546 E0.01746
G1 X126.864 Y114.193 E0.01746
G1 X126.511 Y113.762 E0.01746
G1 X126.249 Y113.271 E0.01746
G1 X126.087 Y112.738 E0.01746
G1 X126.032 Y112.184 E0.01746
G1 X126.087 Y111.630 E0.01746
G1 X126.249 Y111.097 E0.01746
G1 X126.511 Y110.606 E0.01746
G1 X126.864 Y110.176 E0.01746
G1 X127.295 Y109.822 E0.01746
G1 X127.733 Y109.588 E0.01558
G1 X127.911 Y109.921 F10800.000
G1 F1200
G1 X128.392 Y109.770 E0.01583
G1 X128.868 Y109.723 E0.01497
G1 X129.353 Y109.770 E0.01528
G1 X129.815 Y109.910 E0.01513
G1 X130.240 Y110.137 E0.01513
G1 X130.613 Y110.444 E0.01513
G1 X130.919 Y110.817 E0.01513
G1 X131.147 Y111.242 E0.01513
G1 X131.287 Y111.704 E0.01514
G1 X131.334 Y112.184 E0.01512
G1 X131.287 Y112.664 E0.01513
G1 X131.147 Y113.126 E0.01513
G1 X130.919 Y113.552 E0.01513
G1 X130.613 Y113.925 E0.01513
G1 X130.240 Y114.231 E0.01513
G1 X129.815 Y114.458 E0.01513
G1 X129.353 Y114.598 E0.01513
G1 X128.873 Y114.646 E0.01513
G1 X128.393 Y114.598 E0.01513
G1 X127.931 Y114.458 E0.01513
G1 X127.505 Y114.231 E0.01513
G1 X127.132 Y113.925 E0.01513
G1 X126.826 Y113.552 E0.01513
G1 X126.599 Y113.126 E0.01513
G1 X126.459 Y112.664 E0.01513
G1 X126.411 Y112.184 E0.01513
G1 X126.459 Y111.704 E0.01513
G1 X126.599 Y111.242 E0.01513
G1 X126.826 Y110.817 E0.01513
G1 X127.132 Y110.444 E0.01513
G1 X127.505 Y110.137 E0.01513
G1 X127.858 Y109.949 E0.01253
G1 X127.960 Y109.524 F10800.000
G1 E-0.80000 F2100.00000
G1 Z0.800 F10800.000
G1 X124.407 Y117.197
G1 Z0.200
G1 E0.80000 F2100.00000
G1 F1200
G1 X124.407 Y92.803 E0.76486
G1 X133.235 Y92.803 E0.27680
G1 X133.235 Y117.197 E0.76486
G1 X124.467 Y117.197 E0.27492
G1 X124.030 Y117.574 F10800.000
G1 F1200
G1 X124.030 Y92.426 E0.78851
G1 X133.612 Y92.426 E0.30044
G1 X133.612 Y117.574 E0.78851
G1 X124.090 Y117.574 E0.29856
G1 X124.078 Y117.177 F10800.000
G1 X124.520 Y116.314
G1 F1200
G1 X125.120 Y116.914 E0.02687
G1 X125.659 Y116.914 E0.01705
G1 X124.690 Y115.945 E0.04338
G1 X124.690 Y115.407 E0.01705
G1 X126.197 Y116.914 E0.06749
G1 X126.736 Y116.914 E0.01705
G1 X124.690 Y114.868 E0.09160
G1 X124.690 Y114.330 E0.01705
G1 X127.274 Y116.914 E0.11571
G1 X127.813 Y116.914 E0.01705
G1 X124.690 Y113.791 E0.13981
G1 X124.690 Y113.253 E0.01705
G1 X128.521 Y117.084 E0.17152
G1 E-0.80000 F2100.00000
G1 Z0.800 F10800.000
G1 X133.122 Y112.532
G1 Z0.200
G1 E0.80000 F2100.00000
G1 F1200
G1 X131.838 Y111.248 E0.05748
G1 X131.937 Y111.575 E0.01082
G1 X131.971 Y111.919 E0.01096
G1 X132.952 Y112.900 E0.04392
G1 X132.952 Y113.439 E0.01705
G1 X131.970 Y112.457 E0.04396
G1 X131.937 Y112.794 E0.01071
G1 X131.898 Y112.923 E0.00428
G1 X132.952 Y113.977 E0.04720
G1 X132.952 Y114.516 E0.01705
G1 X131.773 Y113.336 E0.05281
G1 X131.592 Y113.694 E0.01268
G1 X132.952 Y115.054 E0.06091
G1 X132.952 Y115.593 E0.01705
G1 X131.385 Y114.025 E0.07019
G1 X131.142 Y114.321 E0.01211
G1 X132.952 Y116.131 E0.08105
G1 X132.952 Y116.670 E0.01705
G1 X130.859 Y114.576 E0.09371
G1 X130.555 Y114.811 E0.01215
G1 X132.659 Y116.914 E0.09418
G1 X132.120 Y116.914 E0.01705
G1 X130.204 Y114.998 E0.08578
G1 X130.068 Y115.071 E0.00487
G1 X129.815 Y115.148 E0.00838
G1 X131.582 Y116.914 E0.07909
G1 X131.043 Y116.914 E0.01705
G1 X129.387 Y115.258 E0.07415
G1 X128.897 Y115.306 E0.01559
G1 X130.505 Y116.914 E0.07199
G1 X129.966 Y116.914 E0.01705
G1 X128.305 Y115.253 E0.07439
G1 X127.677 Y115.071 E0.02069
G1 X127.478 Y114.965 E0.00713
G1 X129.428 Y116.914 E0.08729
G1 X128.889 Y116.914 E0.01705
G1 X124.690 Y112.715 E0.18803
G1 X124.690 Y112.176 E0.01705
G1 X126.092 Y113.579 E0.06279
G1 X125.986 Y113.380 E0.00713
G1 X125.804 Y112.752 E0.02069
G1 X124.690 Y111.638 E0.04989
G1 X124.690 Y111.099 E0.01705
G1 X125.751 Y112.160 E0.04749
G1 X125.799 Y111.670 E0.01559
G1 X124.690 Y110.561 E0.04965
G1 X124.690 Y110.022 E0.01705
G1 X125.909 Y111.242 E0.05459
G1 X125.986 Y110.988 E0.00838
G1 X126.059 Y110.853 E0.00487
G1 X124.690 Y109.484 E0.06128
G1 X124.690 Y108.945 E0.01705
G1 X126.246 Y110.502 E0.06968
G1 X126.480 Y110.198 E0.01215
G1 X124.690 Y108.407 E0.08017
G1 X124.690 Y107.869 E0.01705
G1 X126.736 Y109.915 E0.09162
G1 X127.032 Y109.672 E0.01211
G1 X124.690 Y107.330 E0.10486
G1 X124.690 Y106.792 E0.01705
G1 X127.363 Y109.465 E0.11969
G1 X127.721 Y109.284 E0.01268
G1 X124.690 Y106.253 E0.13570
G1 X124.690 Y105.715 E0.01705
G1 X128.134 Y109.159 E0.15420
G1 X128.263 Y109.120 E0.00427
G1 X128.600 Y109.086 E0.01072
G1 X124.690 Y105.176 E0.17505
G1 X124.690 Y104.638 E0.01705
G1 X129.138 Y109.086 E0.19915
G1 X129.482 Y109.119 E0.01094
G1 X129.809 Y109.219 E0.01083
G1 X124.690 Y104.099 E0.22920
G1 X124.690 Y103.561 E0.01705
G1 X132.952 Y111.824 E0.36993
G1 X132.952 Y111.285 E0.01705
G1 X124.690 Y103.023 E0.36993
G1 X124.690 Y102.484 E0.01705
G1 X132.952 Y110.747 E0.36993
G1 X132.952 Y110.208 E0.01705
G1 X124.690 Y101.946 E0.36993
G1 X124.690 Y101.407 E0.01705
G1 X132.952 Y109.670 E0.36993
G1 X132.952 Y109.131 E0.01705
G1 X124.690 Y100.869 E0.36993
G1 X124.690 Y100.330 E0.01705
G1 X132.952 Y108.593 E0.36993
G1 X132.952 Y108.054 E0.01705
G1 X124.690 Y99.792 E0.36993
G1 X124.690 Y99.253 E0.01705
G1 X132.952 Y107.516 E0.36993
G1 X132.952 Y106.978 E0.01705
G1 X124.690 Y98.715 E0.36993
G1 X124.690 Y98.177 E0.01705
G1 X132.952 Y106.439 E0.36993
G1 X132.952 Y105.901 E0.01705
G1 X124.690 Y97.638 E0.36993
G1 X124.690 Y97.100 E0.01705
G1 X132.952 Y105.362 E0.36993
G1 X132.952 Y104.824 E0.01705
G1 X124.690 Y96.561 E0.36993
G1 X124.690 Y96.023 E0.01705
G1 X132.952 Y104.285 E0.36993
G1 X132.952 Y103.747 E0.01705
G1 X124.690 Y95.484 E0.36993
G1 X124.690 Y94.946 E0.01705
G1 X132.952 Y103.208 E0.36993
G1 X132.952 Y102.670 E0.01705
G1 X124.690 Y94.407 E0.36993
G1 X124.690 Y93.869 E0.01705
G1 X132.952 Y102.132 E0.36993
G1 X132.952 Y101.593 E0.01705
G1 X124.690 Y93.331 E0.36993
G1 X124.690 Y93.086 E0.00775
G1 X124.983 Y93.086 E0.00930
G1 X132.952 Y101.055 E0.35678
G1 X132.952 Y100.516 E0.01705
G1 X125.522 Y93.086 E0.33267
G1 X126.060 Y93.086 E0.01705
G1 X132.952 Y99.978 E0.30857
G1 X132.952 Y99.439 E0.01705
G1 X126.599 Y93.086 E0.28446
G1 X127.137 Y93.086 E0.01705
G1 X132.952 Y98.901 E0.26035
G1 X132.952 Y98.362 E0.01705
G1 X127.676 Y93.086 E0.23625
G1 X128.214 Y93.086 E0.01705
G1 X132.952 Y97.824 E0.21214
G1 X132.952 Y97.286 E0.01705
G1 X128.753 Y93.086 E0.18803
G1 X129.291 Y93.086 E0.01705
G1 X132.952 Y96.747 E0.16392
G1 X132.952 Y96.209 E0.01705
G1 X129.829 Y93.086 E0.13982
G1 X130.368 Y93.086 E0.01705
G1 X132.952 Y95.670 E0.11571
G1 X132.952 Y95.132 E0.01705
G1 X130.906 Y93.086 E0.09160
G1 X131.445 Y93.086 E0.01705
G1 X132.952 Y94.593 E0.06750
G1 X132.952 Y94.055 E0.01705
G1 X131.983 Y93.086 E0.04339
G1 X132.522 Y93.086 E0.01705
G1 X133.122 Y93.686 E0.02688
M106 S255
;BEFORE_LAYER_CHANGE
G92 E0.0
;0.55


G1 E-0.80000 F2100.00000
G1 Z0.800 F10800.000
;AFTER_LAYER_CHANGE
;0.55
M104 S210 ; set temperature
G1 X136.128 Y91.090
G1 Z0.550
G1 E0.80000 F2100.00000
G1 F1643
G1 X136.379 Y92.005 E0.04759
G1 X136.388 Y117.796 E1.29436
G1 X136.239 Y118.646 E0.04329
G1 X135.908 Y119.278 E0.03583
G1 X135.419 Y119.793 E0.03563
G1 X134.807 Y120.153 E0.03563
G1 X134.120 Y120.332 E0.03563
G1 X123.788 Y120.350 E0.51851
G1 X122.958 Y120.201 E0.04231
G1 X122.297 Y119.849 E0.03760
G1 X121.763 Y119.318 E0.03779
G1 X121.408 Y118.658 E0.03760
G1 X121.258 Y117.924 E0.03760
G1 X121.254 Y92.204 E1.29079
G1 X121.403 Y91.354 E0.04329
G1 X121.725 Y90.735 E0.03504
G1 X122.202 Y90.225 E0.03504
G1 X122.799 Y89.862 E0.03504
G1 X123.471 Y89.674 E0.03504
G1 X133.826 Y89.650 E0.51968
G1 X134.758 Y89.827 E0.04759
G1 X135.562 Y90.330 E0.04759
G1 X136.092 Y91.042 E0.04458
G1 E-0.80000 F2100.00000
G1 Z1.150 F10800.000
G1 X130.018 Y109.418
G1 Z0.550
G1 E0.80000 F2100.00000
M204 S800
G1 F1500
G1 X130.536 Y109.695 E0.03031
G1 X130.990 Y110.067 E0.03031
G1 X131.362 Y110.521 E0.03031
G1 X131.639 Y111.038 E0.03031
G1 X131.809 Y111.600 E0.03031
G1 X131.867 Y112.184 E0.03031
G1 X131.809 Y112.768 E0.03031
G1 X131.639 Y113.330 E0.03031
G1 X131.362 Y113.847 E0.03031
G1 X130.990 Y114.301 E0.03031
G1 X130.536 Y114.674 E0.03031
G1 X130.018 Y114.950 E0.03031
G1 X129.457 Y115.121 E0.03031
G1 X128.873 Y115.178 E0.03031
G1 X128.289 Y115.121 E0.03031
G1 X127.727 Y114.950 E0.03031
G1 X127.209 Y114.674 E0.03031
G1 X126.756 Y114.301 E0.03031
G1 X126.383 Y113.847 E0.03031
G1 X126.107 Y113.330 E0.03031
G1 X125.936 Y112.768 E0.03031
G1 X125.879 Y112.184 E0.03031
G1 X125.936 Y111.600 E0.03031
G1 X126.107 Y111.038 E0.03031
G1 X126.383 Y110.521 E0.03031
G1 X126.756 Y110.067 E0.03031
G1 X127.209 Y109.695 E0.03031
G1 X127.727 Y109.418 E0.03031
G1 X128.288 Y109.248 E0.03025
G1 X128.851 Y109.191 E0.02926
G1 X129.455 Y109.247 E0.03130
G1 X129.961 Y109.401 E0.02731
M204 S1000
G1 X129.833 Y109.822 F10800.000
M204 S800
G1 F1500
G1 X130.291 Y110.062 E0.03946
G1 X130.677 Y110.380 E0.03821
G1 X130.995 Y110.766 E0.03821
G1 X131.230 Y111.208 E0.03821
G1 X131.376 Y111.686 E0.03821
G1 X131.425 Y112.184 E0.03821
G1 X131.376 Y112.682 E0.03821
G1 X131.230 Y113.161 E0.03821
G1 X130.995 Y113.602 E0.03821
G1 X130.677 Y113.989 E0.03821
G1 X130.291 Y114.306 E0.03821
G1 X129.849 Y114.542 E0.03821
G1 X129.371 Y114.687 E0.03821
G1 X128.873 Y114.736 E0.03821
G1 X128.375 Y114.687 E0.03821
G1 X127.896 Y114.542 E0.03821
G1 X127.455 Y114.306 E0.03821
G1 X127.068 Y113.989 E0.03821
G1 X126.751 Y113.602 E0.03821
G1 X126.515 Y113.161 E0.03821
G1 X126.370 Y112.682 E0.03821
G1 X126.321 Y112.184 E0.03821
G1 X126.370 Y111.686 E0.03821
G1 X126.515 Y111.208 E0.03821
G1 X126.751 Y110.766 E0.03821
G1 X127.068 Y110.380 E0.03821
G1 X127.455 Y110.062 E0.03821
G1 X127.896 Y109.826 E0.03821
G1 X128.374 Y109.681 E0.03818
G1 X128.853 Y109.633 E0.03675
G1 X129.370 Y109.681 E0.03963
G1 X129.776 Y109.804 E0.03241
M204 S1000
G1 X130.149 Y109.576 F10800.000
G1 E-0.80000 F2100.00000
G1 Z1.150 F10800.000
G1 X133.082 Y117.044
G1 Z0.550
G1 E0.80000 F2100.00000
M204 S800
G1 F1643
G1 X124.560 Y117.044 E0.44011
G1 X124.560 Y92.956 E1.24395
G1 X133.082 Y92.956 E0.44011
G1 X133.082 Y116.984 E1.24086
M204 S1000
G1 X133.522 Y117.484 F10800.000
M204 S800
G1 F1643
G1 X124.120 Y117.484 E0.71813
G1 X124.120 Y92.516 E1.90703
G1 X133.522 Y92.516 E0.71813
G1 X133.522 Y117.424 E1.90245
M204 S1000
G1 X133.154 Y117.327 F10800.000
G1 X131.709 Y116.958
M204 S2000
G1 F1643
G1 X132.715 Y115.952 E0.13171
G1 X132.715 Y115.052 E0.08330
G1 X131.090 Y116.677 E0.21270
G1 X130.191 Y116.677 E0.08330
G1 X132.715 Y114.153 E0.33050
G1 X132.715 Y113.253 E0.08330
G1 X129.291 Y116.677 E0.44830
G1 X128.391 Y116.677 E0.08330
G1 X129.610 Y115.458 E0.15956
G1 X129.529 Y115.483 E0.00783
G1 X128.873 Y115.547 E0.06104
G1 X128.643 Y115.525 E0.02133
G1 X127.491 Y116.677 E0.15084
G1 X126.592 Y116.677 E0.08330
G1 X127.886 Y115.382 E0.16948
G1 X127.586 Y115.291 E0.02905
G1 X127.254 Y115.114 E0.03478
G1 X125.692 Y116.677 E0.20459
G1 X124.927 Y116.677 E0.07078
G1 X124.927 Y116.542 E0.01251
G1 X126.721 Y114.748 E0.23484
G1 X126.495 Y114.562 E0.02710
G1 X126.275 Y114.294 E0.03208
G1 X124.927 Y115.642 E0.17643
G1 X124.927 Y114.742 E0.08330
G1 X125.916 Y113.753 E0.12949
G1 X125.766 Y113.471 E0.02960
G1 X125.657 Y113.113 E0.03467
G1 X124.927 Y113.842 E0.09553
G1 X124.927 Y112.943 E0.08330
G1 X125.525 Y112.344 E0.07832
G1 X125.510 Y112.184 E0.01492
G1 X125.574 Y111.528 E0.06104
G1 X125.632 Y111.338 E0.01835
G1 X124.927 Y112.043 E0.09224
G1 X124.927 Y111.143 E0.08330
G1 X132.715 Y103.355 E1.01961
G1 X132.715 Y102.456 E0.08330
G1 X124.927 Y110.243 E1.01961
G1 X124.927 Y109.344 E0.08330
G1 X132.715 Y101.556 E1.01961
M73 P5 R19
G1 X132.715 Y100.656 E0.08330
G1 X124.927 Y108.444 E1.01961
G1 X124.927 Y107.544 E0.08330
G1 X132.715 Y99.756 E1.01961
G1 X132.715 Y98.857 E0.08330
G1 X124.927 Y106.644 E1.01961
G1 X124.927 Y105.745 E0.08330
G1 X132.715 Y97.957 E1.01961
G1 X132.715 Y97.057 E0.08330
G1 X124.927 Y104.845 E1.01961
G1 X124.927 Y103.945 E0.08330
G1 X132.715 Y96.157 E1.01961
G1 X132.715 Y95.258 E0.08330
G1 X124.927 Y103.045 E1.01961
G1 X124.927 Y102.146 E0.08330
G1 X132.715 Y94.358 E1.01961
G1 X132.715 Y93.458 E0.08330
G1 X124.927 Y101.246 E1.01961
G1 X124.927 Y100.346 E0.08330
G1 X131.950 Y93.323 E0.91948
G1 X131.050 Y93.323 E0.08330
G1 X124.927 Y99.446 E0.80168
G1 X124.927 Y98.547 E0.08330
G1 X130.151 Y93.323 E0.68388
G1 X129.251 Y93.323 E0.08330
G1 X124.927 Y97.647 E0.56608
G1 X124.927 Y96.747 E0.08330
G1 X128.351 Y93.323 E0.44828
G1 X127.451 Y93.323 E0.08330
G1 X124.927 Y95.847 E0.33048
G1 X124.927 Y94.948 E0.08330
G1 X126.552 Y93.323 E0.21268
