; generated by PrusaSlicer 2.1.0+win64 on 2019-12-03 at 19:02:21 UTC

; 

; external perimeters extrusion width = 0.60mm
; perimeters extrusion width = 0.43mm
; infill extrusion width = 0.45mm
; solid infill extrusion width = 0.70mm
; top infill extrusion width = 0.43mm
; support material extrusion width = 0.37mm
; first layer extrusion width = 0.42mm

M73 P0 R25
M201 X9000 Y9000 Z500 E10000 ; sets maximum accelerations, mm/sec^2
M203 X500 Y500 Z12 E120 ; sets maximum feedrates, mm/sec
M204 P2000 R1500 T2000 ; sets acceleration (P, T) and retract acceleration (R), mm/sec^2
M205 X10.00 Y10.00 Z0.20 E2.50 ; sets the jerk limits, mm/sec
M205 S0 T0 ; sets the minimum extruding and travel feed rate, mm/sec
M107
M862.3 P "MK2S" ; printer model check
M862.1 P0.4 ; nozzle diameter check
M115 U3.2.3 ; tell printer latest fw version
G90 ; use absolute coordinates
M83 ; extruder relative mode
M204 S2000 T1500 ; MK2 firmware only supports the old M204 format
M104 S215 ; set extruder temp
M140 S60 ; set bed temp
M190 S60 ; wait for bed temp
M109 S215 ; wait for extruder temp
G28 W ; home all without mesh bed level
G80 ; mesh bed leveling
G1 Y-3.0 F1000.0 ; go outside print area
G92 E0.0
G1 X60.0 E9.0  F1000.0 ; intro line
M73 P0 R25
G1 X100.0 E12.5 F1000.0 ; intro line
G92 E0.0
G21 ; set units to millimeters
G90 ; use absolute coordinates
M83 ; use relative distances for extrusion
M900 K30 ; Filament gcode
;BEFORE_LAYER_CHANGE
G92 E0.0
;0.2


G1 E-0.80000 F2100.00000
G1 Z0.600 F10800.000
;AFTER_LAYER_CHANGE
;0.2
G1 X113.139 Y84.999
G1 Z0.200
G1 E0.80000 F2100.00000
M204 S1000
G1 F1200
G1 X113.553 Y84.237 E0.02721
G1 X114.995 Y82.786 E0.06412
G1 X122.572 Y76.232 E0.31412
G1 X123.116 Y75.893 E0.02010
G1 X123.954 Y75.713 E0.02687
G1 X134.550 Y75.713 E0.33225
G1 X135.015 Y75.763 E0.01464
G1 X135.461 Y75.913 E0.01475
G1 X136.203 Y76.470 E0.02911
G1 X137.323 Y77.964 E0.05854
G1 X137.652 Y78.915 E0.03156
G1 X137.734 Y79.401 E0.01544
G1 X137.737 Y131.777 E1.64222
G1 X137.585 Y132.954 E0.03720
G1 X137.286 Y133.565 E0.02134
G1 X136.185 Y134.952 E0.05552
G1 X135.600 Y135.360 E0.02236
G1 X134.915 Y135.559 E0.02236
G1 X116.779 Y135.611 E0.56866
G1 X116.138 Y135.514 E0.02032
G1 X115.353 Y135.080 E0.02810
G1 X113.588 Y133.316 E0.07825
G1 X113.207 Y132.705 E0.02259
G1 X113.045 Y131.999 E0.02270
G1 X113.042 Y85.640 E1.45357
G1 X113.130 Y85.058 E0.01844
G1 E-0.80000 F2100.00000
G1 Z0.800 F10800.000
G1 X127.031 Y84.402
G1 Z0.200
G1 E0.80000 F2100.00000
G1 F1200
G1 X116.471 Y84.402 E0.33110
G1 X115.933 Y84.941 E0.02389
G1 X127.330 Y84.941 E0.35736
G1 X127.869 Y85.479 E0.02389
G1 X115.394 Y85.479 E0.39114
G1 X115.230 Y85.643 E0.00727
G1 X115.230 Y86.018 E0.01175
G1 X128.033 Y86.018 E0.40141
G1 X128.033 Y86.557 E0.01689
G1 X115.230 Y86.557 E0.40141
G1 X115.230 Y87.095 E0.01689
G1 X128.033 Y87.095 E0.40141
G1 X128.033 Y87.634 E0.01689
G1 X115.230 Y87.634 E0.40141
G1 X115.230 Y88.173 E0.01689
G1 X128.033 Y88.173 E0.40141
G1 X128.033 Y88.712 E0.01689
G1 X115.230 Y88.712 E0.40141
G1 X115.230 Y89.250 E0.01689
G1 X128.033 Y89.250 E0.40141
G1 X128.033 Y89.789 E0.01689
G1 X115.230 Y89.789 E0.40141
G1 X115.230 Y90.328 E0.01689
G1 X128.033 Y90.328 E0.40141
G1 X128.033 Y90.866 E0.01689
G1 X115.230 Y90.866 E0.40141
G1 X115.230 Y91.405 E0.01689
G1 X128.033 Y91.405 E0.40141
G1 X128.033 Y91.944 E0.01689
G1 X115.230 Y91.944 E0.40141
G1 X115.230 Y92.482 E0.01689
G1 X128.033 Y92.482 E0.40141
G1 X128.033 Y93.021 E0.01689
G1 X115.230 Y93.021 E0.40141
G1 X115.230 Y93.560 E0.01689
G1 X128.033 Y93.560 E0.40141
G1 X128.033 Y94.098 E0.01689
G1 X115.230 Y94.098 E0.40141
G1 X115.230 Y94.637 E0.01689
G1 X128.033 Y94.637 E0.40141
G1 X128.033 Y95.176 E0.01689
G1 X115.230 Y95.176 E0.40141
G1 X115.230 Y95.714 E0.01689
G1 X128.033 Y95.714 E0.40141
G1 X128.033 Y96.253 E0.01689
G1 X115.230 Y96.253 E0.40141
G1 X115.230 Y96.792 E0.01689
G1 X128.033 Y96.792 E0.40141
G1 X128.033 Y97.331 E0.01689
G1 X115.230 Y97.331 E0.40141
G1 X115.230 Y97.869 E0.01689
G1 X128.033 Y97.869 E0.40141
G1 X128.033 Y98.408 E0.01689
G1 X115.230 Y98.408 E0.40141
G1 X115.230 Y98.947 E0.01689
G1 X128.033 Y98.947 E0.40141
G1 X128.033 Y99.485 E0.01689
G1 X115.230 Y99.485 E0.40141
G1 X115.230 Y100.024 E0.01689
G1 X128.033 Y100.024 E0.40141
G1 X128.033 Y100.563 E0.01689
G1 X115.230 Y100.563 E0.40141
G1 X115.230 Y101.101 E0.01689
G1 X128.033 Y101.101 E0.40141
G1 X128.033 Y101.640 E0.01689
G1 X115.230 Y101.640 E0.40141
G1 X115.230 Y102.179 E0.01689
G1 X128.033 Y102.179 E0.40141
G1 X128.033 Y102.717 E0.01689
G1 X115.230 Y102.717 E0.40141
G1 X115.230 Y103.256 E0.01689
G1 X128.033 Y103.256 E0.40141
G1 X128.033 Y103.795 E0.01689
G1 X115.230 Y103.795 E0.40141
G1 X115.230 Y104.333 E0.01689
G1 X128.033 Y104.333 E0.40141
G1 X128.033 Y104.872 E0.01689
G1 X115.230 Y104.872 E0.40141
G1 X115.230 Y105.411 E0.01689
G1 X128.033 Y105.411 E0.40141
G1 X128.033 Y105.949 E0.01689
G1 X115.230 Y105.949 E0.40141
G1 X115.230 Y106.488 E0.01689
G1 X128.033 Y106.488 E0.40141
G1 X128.033 Y107.027 E0.01689
G1 X115.230 Y107.027 E0.40141
G1 X115.230 Y107.566 E0.01689
G1 X128.033 Y107.566 E0.40141
G1 X128.033 Y108.104 E0.01689
G1 X115.230 Y108.104 E0.40141
G1 X115.230 Y108.643 E0.01689
G1 X128.033 Y108.643 E0.40141
G1 X128.033 Y109.182 E0.01689
G1 X115.230 Y109.182 E0.40141
G1 X115.230 Y109.720 E0.01689
G1 X128.033 Y109.720 E0.40141
G1 X128.033 Y110.259 E0.01689
G1 X115.230 Y110.259 E0.40141
G1 X115.230 Y110.798 E0.01689
G1 X128.033 Y110.798 E0.40141
G1 X128.033 Y111.336 E0.01689
G1 X115.230 Y111.336 E0.40141
G1 X115.230 Y111.875 E0.01689
G1 X128.033 Y111.875 E0.40141
G1 X128.033 Y112.414 E0.01689
G1 X115.230 Y112.414 E0.40141
G1 X115.230 Y112.952 E0.01689
G1 X128.033 Y112.952 E0.40141
G1 X128.033 Y113.491 E0.01689
G1 X115.230 Y113.491 E0.40141
G1 X115.230 Y114.030 E0.01689
G1 X128.033 Y114.030 E0.40141
G1 X128.033 Y114.568 E0.01689
G1 X115.230 Y114.568 E0.40141
G1 X115.230 Y115.107 E0.01689
G1 X128.033 Y115.107 E0.40141
G1 X128.033 Y115.646 E0.01689
G1 X115.230 Y115.646 E0.40141
G1 X115.230 Y116.184 E0.01689
G1 X128.033 Y116.184 E0.40141
G1 X128.033 Y116.723 E0.01689
G1 X115.230 Y116.723 E0.40141
G1 X115.230 Y117.262 E0.01689
G1 X128.033 Y117.262 E0.40141
G1 X128.033 Y117.801 E0.01689
G1 X115.230 Y117.801 E0.40141
G1 X115.230 Y118.339 E0.01689
G1 X128.033 Y118.339 E0.40141
G1 X128.033 Y118.878 E0.01689
G1 X115.230 Y118.878 E0.40141
G1 X115.230 Y119.417 E0.01689
G1 X128.033 Y119.417 E0.40141
G1 X128.033 Y119.955 E0.01689
G1 X115.230 Y119.955 E0.40141
G1 X115.230 Y120.494 E0.01689
G1 X128.033 Y120.494 E0.40141
G1 X128.033 Y121.033 E0.01689
G1 X115.230 Y121.033 E0.40141
G1 X115.230 Y121.571 E0.01689
G1 X128.033 Y121.571 E0.40141
G1 X128.033 Y122.110 E0.01689
G1 X115.230 Y122.110 E0.40141
G1 X115.230 Y122.649 E0.01689
G1 X128.033 Y122.649 E0.40141
M73 P4 R24
G1 X128.033 Y123.187 E0.01689
G1 X115.230 Y123.187 E0.40141
G1 X115.230 Y123.726 E0.01689
G1 X128.033 Y123.726 E0.40141
G1 X128.033 Y124.265 E0.01689
G1 X115.230 Y124.265 E0.40141
G1 X115.230 Y124.803 E0.01689
G1 X128.033 Y124.803 E0.40141
G1 X128.033 Y125.342 E0.01689
G1 X115.230 Y125.342 E0.40141
G1 X115.230 Y125.881 E0.01689
G1 X128.033 Y125.881 E0.40141
G1 X128.033 Y126.419 E0.01689
G1 X115.230 Y126.419 E0.40141
G1 X115.230 Y126.958 E0.01689
G1 X128.033 Y126.958 E0.40141
G1 X128.033 Y127.497 E0.01689
G1 X115.230 Y127.497 E0.40141
G1 X115.230 Y128.036 E0.01689
G1 X128.033 Y128.036 E0.40141
G1 X128.033 Y128.574 E0.01689
G1 X115.230 Y128.574 E0.40141
G1 X115.230 Y129.113 E0.01689
G1 X128.033 Y129.113 E0.40141
G1 X128.033 Y129.652 E0.01689
G1 X115.230 Y129.652 E0.40141
G1 X115.230 Y130.190 E0.01689
G1 X128.033 Y130.190 E0.40141
G1 X128.033 Y130.729 E0.01689
G1 X115.230 Y130.729 E0.40141
G1 X115.230 Y131.268 E0.01689
G1 X128.033 Y131.268 E0.40141
G1 X128.033 Y131.806 E0.01689
G1 X115.230 Y131.806 E0.40141
G1 X115.230 Y131.870 E0.00200
G1 X115.705 Y132.345 E0.02105
G1 X127.558 Y132.345 E0.37164
G1 X127.019 Y132.884 E0.02389
G1 X116.244 Y132.884 E0.33786
G1 X116.782 Y133.422 E0.02389
G1 X126.720 Y133.422 E0.31160
G1 E-0.80000 F2100.00000
G1 Z0.800 F10800.000
G1 X134.656 Y133.386
G1 Z0.200
G1 E0.80000 F2100.00000
G1 F1200
G1 X123.877 Y133.386 E0.33797
G1 X123.339 Y132.847 E0.02389
G1 X134.955 Y132.847 E0.36422
G1 X135.494 Y132.308 E0.02389
G1 X122.800 Y132.308 E0.39800
G1 X122.746 Y132.254 E0.00241
G1 X122.746 Y131.770 E0.01519
G1 X135.548 Y131.770 E0.40141
G1 X135.548 Y131.231 E0.01689
G1 X122.746 Y131.231 E0.40141
G1 X122.746 Y130.692 E0.01689
G1 X135.548 Y130.692 E0.40141
G1 X135.548 Y130.154 E0.01689
G1 X122.746 Y130.154 E0.40141
G1 X122.746 Y129.615 E0.01689
G1 X135.548 Y129.615 E0.40141
G1 X135.548 Y129.076 E0.01689
G1 X122.746 Y129.076 E0.40141
G1 X122.746 Y128.537 E0.01689
G1 X135.548 Y128.537 E0.40141
G1 X135.548 Y127.999 E0.01689
G1 X122.746 Y127.999 E0.40141
G1 X122.746 Y127.460 E0.01689
G1 X135.548 Y127.460 E0.40141
G1 X135.548 Y126.921 E0.01689
G1 X122.746 Y126.921 E0.40141
G1 X122.746 Y126.383 E0.01689
G1 X135.548 Y126.383 E0.40141
G1 X135.548 Y125.844 E0.01689
G1 X122.746 Y125.844 E0.40141
G1 X122.746 Y125.305 E0.01689
G1 X135.548 Y125.305 E0.40141
G1 X135.548 Y124.767 E0.01689
G1 X122.746 Y124.767 E0.40141
G1 X122.746 Y124.228 E0.01689
G1 X135.548 Y124.228 E0.40141
G1 X135.548 Y123.689 E0.01689
G1 X122.746 Y123.689 E0.40141
G1 X122.746 Y123.151 E0.01689
G1 X135.548 Y123.151 E0.40141
G1 X135.548 Y122.612 E0.01689
G1 X122.746 Y122.612 E0.40141
G1 X122.746 Y122.073 E0.01689
G1 X135.548 Y122.073 E0.40141
G1 X135.548 Y121.535 E0.01689
G1 X122.746 Y121.535 E0.40141
G1 X122.746 Y120.996 E0.01689
G1 X135.548 Y120.996 E0.40141
G1 X135.548 Y120.457 E0.01689
G1 X122.746 Y120.457 E0.40141
G1 X122.746 Y119.919 E0.01689
G1 X135.548 Y119.919 E0.40141
G1 X135.548 Y119.380 E0.01689
G1 X122.746 Y119.380 E0.40141
G1 X122.746 Y118.841 E0.01689
G1 X135.548 Y118.841 E0.40141
G1 X135.548 Y118.302 E0.01689
G1 X122.746 Y118.302 E0.40141
G1 X122.746 Y117.764 E0.01689
G1 X135.548 Y117.764 E0.40141
G1 X135.548 Y117.225 E0.01689
G1 X122.746 Y117.225 E0.40141
G1 X122.746 Y116.686 E0.01689
G1 X135.548 Y116.686 E0.40141
G1 X135.548 Y116.148 E0.01689
G1 X122.746 Y116.148 E0.40141
G1 X122.746 Y115.609 E0.01689
G1 X135.548 Y115.609 E0.40141
G1 X135.548 Y115.070 E0.01689
G1 X122.746 Y115.070 E0.40141
G1 X122.746 Y114.532 E0.01689
G1 X135.548 Y114.532 E0.40141
G1 X135.548 Y113.993 E0.01689
G1 X122.746 Y113.993 E0.40141
G1 X122.746 Y113.454 E0.01689
G1 X135.548 Y113.454 E0.40141
G1 X135.548 Y112.916 E0.01689
G1 X122.746 Y112.916 E0.40141
G1 X122.746 Y112.377 E0.01689
G1 X135.548 Y112.377 E0.40141
G1 X135.548 Y111.838 E0.01689
G1 X122.746 Y111.838 E0.40141
G1 X122.746 Y111.300 E0.01689
G1 X135.548 Y111.300 E0.40141
G1 X135.548 Y110.761 E0.01689
G1 X122.746 Y110.761 E0.40141
G1 X122.746 Y110.222 E0.01689
G1 X135.548 Y110.222 E0.40141
G1 X135.548 Y109.683 E0.01689
G1 X122.746 Y109.683 E0.40141
G1 X122.746 Y109.145 E0.01689
G1 X135.548 Y109.145 E0.40141
G1 X135.548 Y108.606 E0.01689
G1 X122.746 Y108.606 E0.40141
G1 X122.746 Y108.067 E0.01689
G1 X135.548 Y108.067 E0.40141
G1 X135.548 Y107.529 E0.01689
G1 X122.746 Y107.529 E0.40141
G1 X122.746 Y106.990 E0.01689
G1 X135.548 Y106.990 E0.40141
G1 X135.548 Y106.451 E0.01689
G1 X122.746 Y106.451 E0.40141
G1 X122.746 Y105.913 E0.01689
G1 X135.548 Y105.913 E0.40141
G1 X135.548 Y105.374 E0.01689
G1 X122.746 Y105.374 E0.40141
G1 X122.746 Y104.835 E0.01689
G1 X135.548 Y104.835 E0.40141
G1 X135.548 Y104.297 E0.01689
G1 X122.746 Y104.297 E0.40141
G1 X122.746 Y103.758 E0.01689
G1 X135.548 Y103.758 E0.40141
G1 X135.548 Y103.219 E0.01689
G1 X122.746 Y103.219 E0.40141
G1 X122.746 Y102.681 E0.01689
G1 X135.548 Y102.681 E0.40141
G1 X135.548 Y102.142 E0.01689
G1 X122.746 Y102.142 E0.40141
G1 X122.746 Y101.603 E0.01689
G1 X135.548 Y101.603 E0.40141
G1 X135.548 Y101.065 E0.01689
G1 X122.746 Y101.065 E0.40141
G1 X122.746 Y100.526 E0.01689
G1 X135.548 Y100.526 E0.40141
G1 X135.548 Y99.987 E0.01689
G1 X122.746 Y99.987 E0.40141
G1 X122.746 Y99.448 E0.01689
G1 X135.548 Y99.448 E0.40141
G1 X135.548 Y98.910 E0.01689
G1 X122.746 Y98.910 E0.40141
G1 X122.746 Y98.371 E0.01689
G1 X135.548 Y98.371 E0.40141
G1 X135.548 Y97.832 E0.01689
G1 X122.746 Y97.832 E0.40141
G1 X122.746 Y97.294 E0.01689
G1 X135.548 Y97.294 E0.40141
G1 X135.548 Y96.755 E0.01689
G1 X122.746 Y96.755 E0.40141
M73 P8 R23
G1 X122.746 Y96.216 E0.01689
G1 X135.548 Y96.216 E0.40141
G1 X135.548 Y95.678 E0.01689
G1 X122.746 Y95.678 E0.40141
G1 X122.746 Y95.139 E0.01689
G1 X135.548 Y95.139 E0.40141
G1 X135.548 Y94.600 E0.01689
G1 X122.746 Y94.600 E0.40141
G1 X122.746 Y94.062 E0.01689
G1 X135.548 Y94.062 E0.40141
G1 X135.548 Y93.523 E0.01689
G1 X122.746 Y93.523 E0.40141
G1 X122.746 Y92.984 E0.01689
G1 X135.548 Y92.984 E0.40141
G1 X135.548 Y92.446 E0.01689
G1 X122.746 Y92.446 E0.40141
G1 X122.746 Y91.907 E0.01689
G1 X135.548 Y91.907 E0.40141
G1 X135.548 Y91.368 E0.01689
G1 X122.746 Y91.368 E0.40141
G1 X122.746 Y90.830 E0.01689
G1 X135.548 Y90.830 E0.40141
G1 X135.548 Y90.291 E0.01689
G1 X122.746 Y90.291 E0.40141
G1 X122.746 Y89.752 E0.01689
G1 X135.548 Y89.752 E0.40141
G1 X135.548 Y89.213 E0.01689
G1 X122.746 Y89.213 E0.40141
G1 X122.746 Y88.675 E0.01689
G1 X135.548 Y88.675 E0.40141
G1 X135.548 Y88.136 E0.01689
G1 X122.746 Y88.136 E0.40141
G1 X122.746 Y87.597 E0.01689
G1 X135.548 Y87.597 E0.40141
G1 X135.548 Y87.059 E0.01689
G1 X122.746 Y87.059 E0.40141
G1 X122.746 Y86.520 E0.01689
G1 X135.548 Y86.520 E0.40141
G1 X135.548 Y85.981 E0.01689
G1 X122.746 Y85.981 E0.40141
G1 X122.746 Y85.443 E0.01689
G1 X135.548 Y85.443 E0.40141
G1 X135.548 Y84.904 E0.01689
G1 X122.746 Y84.904 E0.40141
G1 X122.746 Y84.365 E0.01689
G1 X135.548 Y84.365 E0.40141
G1 X135.548 Y83.827 E0.01689
G1 X122.746 Y83.827 E0.40141
G1 X122.746 Y83.288 E0.01689
G1 X135.548 Y83.288 E0.40141
G1 X135.548 Y82.749 E0.01689
G1 X122.746 Y82.749 E0.40141
G1 X122.746 Y82.211 E0.01689
G1 X135.548 Y82.211 E0.40141
G1 X135.548 Y81.672 E0.01689
G1 X122.746 Y81.672 E0.40141
G1 X122.746 Y81.133 E0.01689
G1 X135.548 Y81.133 E0.40141
G1 X135.548 Y80.594 E0.01689
G1 X122.746 Y80.594 E0.40141
G1 X122.746 Y80.056 E0.01689
G1 X135.548 Y80.056 E0.40141
G1 X135.548 Y79.517 E0.01689
G1 X122.746 Y79.517 E0.40141
G1 X122.746 Y79.142 E0.01175
G1 X122.910 Y78.978 E0.00727
G1 X135.384 Y78.978 E0.39114
G1 X134.846 Y78.440 E0.02389
G1 X123.448 Y78.440 E0.35736
G1 X123.987 Y77.901 E0.02389
G1 X134.547 Y77.901 E0.33110
M106 S255
;BEFORE_LAYER_CHANGE
G92 E0.0
;0.55


G1 E-0.80000 F2100.00000
G1 Z0.800 F10800.000
;AFTER_LAYER_CHANGE
;0.55
M104 S210 ; set temperature
G1 X135.461 Y75.913
G1 Z0.550
G1 E0.80000 F2100.00000
G1 F3000
G1 X136.203 Y76.470 E0.04660
G1 X137.323 Y77.964 E0.09369
G1 X137.652 Y78.915 E0.05051
G1 X137.734 Y79.401 E0.02471
G1 X137.737 Y131.777 E2.62854
G1 X137.585 Y132.954 E0.05954
G1 X137.286 Y133.565 E0.03416
G1 X136.185 Y134.952 E0.08887
G1 X135.600 Y135.360 E0.03579
G1 X134.915 Y135.559 E0.03579
G1 X116.779 Y135.611 E0.91020
G1 X116.138 Y135.514 E0.03253
G1 X115.353 Y135.080 E0.04498
G1 X113.588 Y133.316 E0.12525
G1 X113.207 Y132.705 E0.03615
G1 X113.045 Y131.999 E0.03633
G1 X113.042 Y85.640 E2.32659
G1 X113.139 Y84.999 E0.03253
G1 X113.553 Y84.237 E0.04355
G1 X114.995 Y82.786 E0.10263
G1 X122.572 Y76.232 E0.50279
G1 X123.116 Y75.893 E0.03217
G1 X123.954 Y75.713 E0.04301
G1 X134.550 Y75.713 E0.53180
G1 X135.015 Y75.763 E0.02343
G1 X135.404 Y75.893 E0.02060
G1 E-0.80000 F2100.00000
G1 Z1.150 F10800.000
G1 X124.938 Y130.691
G1 Z0.550
G1 E0.80000 F2100.00000
G1 F3000
G1 X124.938 Y86.955 E1.87671
G1 X124.443 Y86.955 E0.02124
G1 X124.443 Y130.558 E1.87101
G1 X123.948 Y130.558 E0.02124
G1 X123.948 Y86.955 E1.87101
G1 X123.453 Y86.955 E0.02124
G1 X123.453 Y130.558 E1.87101
G1 X122.958 Y130.558 E0.02124
G1 X122.958 Y86.955 E1.87101
G1 X122.463 Y86.955 E0.02124
G1 X122.463 Y130.558 E1.87101
G1 X121.969 Y130.558 E0.02124
G1 X121.969 Y86.955 E1.87101
G1 X121.474 Y86.955 E0.02124
G1 X121.474 Y130.558 E1.87101
G1 X120.979 Y130.558 E0.02124
G1 X120.979 Y86.955 E1.87101
G1 X120.484 Y86.955 E0.02124
G1 X120.484 Y130.558 E1.87101
G1 X119.989 Y130.558 E0.02124
G1 X119.989 Y86.955 E1.87101
