; generated by PrusaSlicer 2.1.0+win64 on 2019-12-03 at 19:03:03 UTC

; 

; external perimeters extrusion width = 0.60mm
; perimeters extrusion width = 0.43mm
; infill extrusion width = 0.45mm
; solid infill extrusion width = 0.70mm
; top infill extrusion width = 0.43mm
; support material extrusion width = 0.37mm
; first layer extrusion width = 0.42mm

M73 P0 R145
M201 X9000 Y9000 Z500 E10000 ; sets maximum accelerations, mm/sec^2
M203 X500 Y500 Z12 E120 ; sets maximum feedrates, mm/sec
M204 P2000 R1500 T2000 ; sets acceleration (P, T) and retract acceleration (R), mm/sec^2
M205 X10.00 Y10.00 Z0.20 E2.50 ; sets the jerk limits, mm/sec
M205 S0 T0 ; sets the minimum extruding and travel feed rate, mm/sec
M107
M862.3 P "MK2S" ; printer model check
M862.1 P0.4 ; nozzle diameter check
M115 U3.2.3 ; tell printer latest fw version
G90 ; use absolute coordinates
M83 ; extruder relative mode
M204 S2000 T1500 ; MK2 firmware only supports the old M204 format
M104 S215 ; set extruder temp
M140 S60 ; set bed temp
M190 S60 ; wait for bed temp
M109 S215 ; wait for extruder temp
G28 W ; home all without mesh bed level
G80 ; mesh bed leveling
G1 Y-3.0 F1000.0 ; go outside print area
G92 E0.0
G1 X60.0 E9.0  F1000.0 ; intro line
M73 P0 R145
G1 X100.0 E12.5 F1000.0 ; intro line
G92 E0.0
G21 ; set units to millimeters
G90 ; use absolute coordinates
M83 ; use relative distances for extrusion
M900 K30 ; Filament gcode
;BEFORE_LAYER_CHANGE
G92 E0.0
;0.2


G1 E-0.80000 F2100.00000
G1 Z0.600 F10800.000
;AFTER_LAYER_CHANGE
;0.2
G1 X187.408 Y71.054
G1 Z0.200
G1 E0.80000 F2100.00000
M204 S1000
G1 F1200
G1 X187.954 Y71.662 E0.02563
G1 X188.187 Y72.200 E0.01839
G1 X188.269 Y72.785 E0.01851
G1 X188.269 Y147.829 E2.35297
G1 X188.193 Y148.378 E0.01737
G1 X187.982 Y148.890 E0.01737
G1 X187.649 Y149.333 E0.01737
G1 X187.213 Y149.680 E0.01749
G1 X186.675 Y149.914 E0.01839
G1 X186.094 Y149.996 E0.01839
G1 X131.048 Y149.996 E1.72591
G1 X93.882 Y149.519 E1.16541
G1 X93.043 Y149.248 E0.02766
G1 X73.398 Y137.906 E0.71125
G1 X72.963 Y137.574 E0.01714
G1 X72.624 Y137.145 E0.01714
G1 X61.902 Y114.202 E0.79404
G1 X61.754 Y113.672 E0.01726
G1 X61.743 Y113.121 E0.01726
G1 X61.870 Y112.586 E0.01726
G1 X62.127 Y112.099 E0.01726
G1 X109.213 Y63.544 E2.12069
G1 X110.558 Y62.205 E0.05950
G1 X118.116 Y55.668 E0.31332
G1 X118.730 Y55.305 E0.02236
G1 X119.428 Y55.158 E0.02236
G1 X130.086 Y55.156 E0.33420
G1 X130.660 Y55.234 E0.01817
G1 X186.680 Y70.689 E1.82208
G1 X187.354 Y71.027 E0.02364
G1 E-0.80000 F2100.00000
G1 Z0.800 F10800.000
G1 X122.567 Y63.845
G1 Z0.200
G1 E0.80000 F2100.00000
G1 F1200
G1 X112.007 Y63.845 E0.33110
G1 X111.468 Y64.384 E0.02389
G1 X122.866 Y64.384 E0.35736
G1 X123.404 Y64.923 E0.02389
G1 X110.930 Y64.923 E0.39114
G1 X110.766 Y65.087 E0.00727
G1 X110.766 Y65.462 E0.01175
G1 X123.568 Y65.462 E0.40141
G1 X123.568 Y66.000 E0.01689
G1 X110.766 Y66.000 E0.40141
G1 X110.766 Y66.539 E0.01689
G1 X123.568 Y66.539 E0.40141
G1 X123.568 Y67.078 E0.01689
G1 X110.766 Y67.078 E0.40141
G1 X110.766 Y67.616 E0.01689
G1 X123.568 Y67.616 E0.40141
G1 X123.568 Y68.155 E0.01689
G1 X110.766 Y68.155 E0.40141
G1 X110.766 Y68.694 E0.01689
G1 X123.568 Y68.694 E0.40141
G1 X123.568 Y69.232 E0.01689
G1 X110.766 Y69.232 E0.40141
G1 X110.766 Y69.771 E0.01689
G1 X123.568 Y69.771 E0.40141
G1 X123.568 Y70.310 E0.01689
G1 X110.766 Y70.310 E0.40141
G1 X110.766 Y70.848 E0.01689
G1 X123.568 Y70.848 E0.40141
G1 X123.568 Y71.387 E0.01689
G1 X110.766 Y71.387 E0.40141
G1 X110.766 Y71.926 E0.01689
G1 X123.568 Y71.926 E0.40141
G1 X123.568 Y72.464 E0.01689
G1 X110.766 Y72.464 E0.40141
G1 X110.766 Y73.003 E0.01689
G1 X123.568 Y73.003 E0.40141
G1 X123.568 Y73.542 E0.01689
G1 X110.766 Y73.542 E0.40141
G1 X110.766 Y74.080 E0.01689
G1 X123.568 Y74.080 E0.40141
G1 X123.568 Y74.619 E0.01689
G1 X110.766 Y74.619 E0.40141
G1 X110.766 Y75.158 E0.01689
G1 X123.568 Y75.158 E0.40141
G1 X123.568 Y75.697 E0.01689
G1 X110.766 Y75.697 E0.40141
G1 X110.766 Y76.235 E0.01689
G1 X123.568 Y76.235 E0.40141
G1 X123.568 Y76.774 E0.01689
G1 X110.766 Y76.774 E0.40141
G1 X110.766 Y77.313 E0.01689
G1 X123.568 Y77.313 E0.40141
G1 X123.568 Y77.851 E0.01689
G1 X110.766 Y77.851 E0.40141
G1 X110.766 Y78.390 E0.01689
G1 X123.568 Y78.390 E0.40141
G1 X123.568 Y78.929 E0.01689
G1 X110.766 Y78.929 E0.40141
G1 X110.766 Y79.467 E0.01689
G1 X123.568 Y79.467 E0.40141
G1 X123.568 Y80.006 E0.01689
G1 X110.766 Y80.006 E0.40141
G1 X110.766 Y80.545 E0.01689
G1 X123.568 Y80.545 E0.40141
G1 X123.568 Y81.083 E0.01689
G1 X110.766 Y81.083 E0.40141
G1 X110.766 Y81.622 E0.01689
G1 X123.568 Y81.622 E0.40141
G1 X123.568 Y82.161 E0.01689
G1 X110.766 Y82.161 E0.40141
G1 X110.766 Y82.699 E0.01689
G1 X123.568 Y82.699 E0.40141
G1 X123.568 Y83.238 E0.01689
G1 X110.766 Y83.238 E0.40141
G1 X110.766 Y83.777 E0.01689
G1 X123.568 Y83.777 E0.40141
G1 X123.568 Y84.315 E0.01689
G1 X110.766 Y84.315 E0.40141
G1 X110.766 Y84.854 E0.01689
G1 X123.568 Y84.854 E0.40141
G1 X123.568 Y85.393 E0.01689
G1 X110.766 Y85.393 E0.40141
G1 X110.766 Y85.932 E0.01689
G1 X123.568 Y85.932 E0.40141
G1 X123.568 Y86.470 E0.01689
G1 X110.766 Y86.470 E0.40141
G1 X110.766 Y87.009 E0.01689
G1 X123.568 Y87.009 E0.40141
G1 X123.568 Y87.548 E0.01689
G1 X110.766 Y87.548 E0.40141
G1 X110.766 Y88.086 E0.01689
G1 X123.568 Y88.086 E0.40141
G1 X123.568 Y88.625 E0.01689
G1 X110.766 Y88.625 E0.40141
G1 X110.766 Y89.164 E0.01689
G1 X123.568 Y89.164 E0.40141
G1 X123.568 Y89.702 E0.01689
G1 X110.766 Y89.702 E0.40141
G1 X110.766 Y90.241 E0.01689
G1 X123.568 Y90.241 E0.40141
G1 X123.568 Y90.780 E0.01689
G1 X110.766 Y90.780 E0.40141
G1 X110.766 Y91.318 E0.01689
G1 X123.568 Y91.318 E0.40141
G1 X123.568 Y91.857 E0.01689
G1 X110.766 Y91.857 E0.40141
G1 X110.766 Y92.396 E0.01689
G1 X123.568 Y92.396 E0.40141
G1 X123.568 Y92.934 E0.01689
G1 X110.766 Y92.934 E0.40141
G1 X110.766 Y93.473 E0.01689
G1 X123.568 Y93.473 E0.40141
M73 P0 R144
G1 X123.568 Y94.012 E0.01689
G1 X110.766 Y94.012 E0.40141
G1 X110.766 Y94.550 E0.01689
G1 X123.568 Y94.550 E0.40141
G1 X123.568 Y95.089 E0.01689
G1 X110.766 Y95.089 E0.40141
G1 X110.766 Y95.628 E0.01689
G1 X123.568 Y95.628 E0.40141
G1 X123.568 Y96.167 E0.01689
G1 X110.766 Y96.167 E0.40141
G1 X110.766 Y96.705 E0.01689
G1 X123.568 Y96.705 E0.40141
G1 X123.568 Y97.244 E0.01689
G1 X110.766 Y97.244 E0.40141
G1 X110.766 Y97.783 E0.01689
G1 X123.568 Y97.783 E0.40141
G1 X123.568 Y98.321 E0.01689
G1 X110.766 Y98.321 E0.40141
G1 X110.766 Y98.860 E0.01689
G1 X123.568 Y98.860 E0.40141
G1 X123.568 Y99.399 E0.01689
G1 X110.766 Y99.399 E0.40141
G1 X110.766 Y99.937 E0.01689
G1 X123.568 Y99.937 E0.40141
G1 X123.568 Y100.476 E0.01689
G1 X110.766 Y100.476 E0.40141
G1 X110.766 Y101.015 E0.01689
G1 X123.568 Y101.015 E0.40141
G1 X123.568 Y101.553 E0.01689
G1 X110.766 Y101.553 E0.40141
G1 X110.766 Y102.092 E0.01689
G1 X123.568 Y102.092 E0.40141
G1 X123.568 Y102.631 E0.01689
G1 X110.766 Y102.631 E0.40141
G1 X110.766 Y103.169 E0.01689
G1 X123.568 Y103.169 E0.40141
G1 X123.568 Y103.708 E0.01689
G1 X110.766 Y103.708 E0.40141
G1 X110.766 Y104.247 E0.01689
G1 X123.568 Y104.247 E0.40141
G1 X123.568 Y104.786 E0.01689
G1 X110.766 Y104.786 E0.40141
G1 X110.766 Y105.324 E0.01689
G1 X123.568 Y105.324 E0.40141
G1 X123.568 Y105.863 E0.01689
G1 X110.766 Y105.863 E0.40141
G1 X110.766 Y106.402 E0.01689
G1 X123.568 Y106.402 E0.40141
G1 X123.568 Y106.940 E0.01689
G1 X110.766 Y106.940 E0.40141
G1 X110.766 Y107.479 E0.01689
G1 X123.568 Y107.479 E0.40141
G1 X123.568 Y108.018 E0.01689
G1 X110.766 Y108.018 E0.40141
G1 X110.766 Y108.556 E0.01689
G1 X123.568 Y108.556 E0.40141
G1 X123.568 Y109.095 E0.01689
G1 X110.766 Y109.095 E0.40141
G1 X110.766 Y109.634 E0.01689
G1 X123.568 Y109.634 E0.40141
G1 X123.568 Y110.172 E0.01689
G1 X110.766 Y110.172 E0.40141
G1 X110.766 Y110.711 E0.01689
G1 X123.568 Y110.711 E0.40141
G1 X123.568 Y111.250 E0.01689
G1 X110.766 Y111.250 E0.40141
G1 X110.766 Y111.314 E0.00200
G1 X111.241 Y111.788 E0.02105
G1 X123.094 Y111.788 E0.37164
G1 X122.555 Y112.327 E0.02389
G1 X111.779 Y112.327 E0.33786
G1 X112.318 Y112.866 E0.02389
G1 X122.256 Y112.866 E0.31160
G1 E-0.80000 F2100.00000
G1 Z0.800 F10800.000
G1 X130.192 Y112.829
G1 Z0.200
G1 E0.80000 F2100.00000
G1 F1200
G1 X119.413 Y112.829 E0.33797
G1 X118.874 Y112.290 E0.02389
G1 X130.491 Y112.290 E0.36422
G1 X131.030 Y111.752 E0.02389
G1 X118.336 Y111.752 E0.39800
G1 X118.281 Y111.697 E0.00241
G1 X118.281 Y111.213 E0.01519
G1 X131.084 Y111.213 E0.40141
G1 X131.084 Y110.674 E0.01689
G1 X118.281 Y110.674 E0.40141
G1 X118.281 Y110.136 E0.01689
G1 X131.084 Y110.136 E0.40141
G1 X131.084 Y109.597 E0.01689
G1 X118.281 Y109.597 E0.40141
G1 X118.281 Y109.058 E0.01689
G1 X131.084 Y109.058 E0.40141
G1 X131.084 Y108.520 E0.01689
G1 X118.281 Y108.520 E0.40141
G1 X118.281 Y107.981 E0.01689
G1 X131.084 Y107.981 E0.40141
G1 X131.084 Y107.442 E0.01689
G1 X118.281 Y107.442 E0.40141
G1 X118.281 Y106.903 E0.01689
G1 X131.084 Y106.903 E0.40141
G1 X131.084 Y106.365 E0.01689
G1 X118.281 Y106.365 E0.40141
G1 X118.281 Y105.826 E0.01689
G1 X131.084 Y105.826 E0.40141
G1 X131.084 Y105.287 E0.01689
G1 X118.281 Y105.287 E0.40141
G1 X118.281 Y104.749 E0.01689
G1 X131.084 Y104.749 E0.40141
G1 X131.084 Y104.210 E0.01689
G1 X118.281 Y104.210 E0.40141
G1 X118.281 Y103.671 E0.01689
G1 X131.084 Y103.671 E0.40141
G1 X131.084 Y103.133 E0.01689
G1 X118.281 Y103.133 E0.40141
G1 X118.281 Y102.594 E0.01689
G1 X131.084 Y102.594 E0.40141
G1 X131.084 Y102.055 E0.01689
G1 X118.281 Y102.055 E0.40141
G1 X118.281 Y101.517 E0.01689
G1 X131.084 Y101.517 E0.40141
G1 X131.084 Y100.978 E0.01689
G1 X118.281 Y100.978 E0.40141
G1 X118.281 Y100.439 E0.01689
G1 X131.084 Y100.439 E0.40141
G1 X131.084 Y99.901 E0.01689
G1 X118.281 Y99.901 E0.40141
G1 X118.281 Y99.362 E0.01689
G1 X131.084 Y99.362 E0.40141
G1 X131.084 Y98.823 E0.01689
G1 X118.281 Y98.823 E0.40141
G1 X118.281 Y98.285 E0.01689
G1 X131.084 Y98.285 E0.40141
G1 X131.084 Y97.746 E0.01689
G1 X118.281 Y97.746 E0.40141
G1 X118.281 Y97.207 E0.01689
G1 X131.084 Y97.207 E0.40141
G1 X131.084 Y96.668 E0.01689
G1 X118.281 Y96.668 E0.40141
G1 X118.281 Y96.130 E0.01689
G1 X131.084 Y96.130 E0.40141
G1 X131.084 Y95.591 E0.01689
G1 X118.281 Y95.591 E0.40141
G1 X118.281 Y95.052 E0.01689
G1 X131.084 Y95.052 E0.40141
G1 X131.084 Y94.514 E0.01689
G1 X118.281 Y94.514 E0.40141
G1 X118.281 Y93.975 E0.01689
G1 X131.084 Y93.975 E0.40141
G1 X131.084 Y93.436 E0.01689
G1 X118.281 Y93.436 E0.40141
G1 X118.281 Y92.898 E0.01689
G1 X131.084 Y92.898 E0.40141
G1 X131.084 Y92.359 E0.01689
G1 X118.281 Y92.359 E0.40141
G1 X118.281 Y91.820 E0.01689
G1 X131.084 Y91.820 E0.40141
G1 X131.084 Y91.282 E0.01689
G1 X118.281 Y91.282 E0.40141
G1 X118.281 Y90.743 E0.01689
G1 X131.084 Y90.743 E0.40141
G1 X131.084 Y90.204 E0.01689
G1 X118.281 Y90.204 E0.40141
G1 X118.281 Y89.666 E0.01689
G1 X131.084 Y89.666 E0.40141
G1 X131.084 Y89.127 E0.01689
G1 X118.281 Y89.127 E0.40141
G1 X118.281 Y88.588 E0.01689
G1 X131.084 Y88.588 E0.40141
G1 X131.084 Y88.050 E0.01689
G1 X118.281 Y88.050 E0.40141
G1 X118.281 Y87.511 E0.01689
G1 X131.084 Y87.511 E0.40141
G1 X131.084 Y86.972 E0.01689
G1 X118.281 Y86.972 E0.40141
G1 X118.281 Y86.433 E0.01689
G1 X131.084 Y86.433 E0.40141
G1 X131.084 Y85.895 E0.01689
G1 X118.281 Y85.895 E0.40141
G1 X118.281 Y85.356 E0.01689
G1 X131.084 Y85.356 E0.40141
G1 X131.084 Y84.817 E0.01689
G1 X118.281 Y84.817 E0.40141
M73 P1 R143
G1 X118.281 Y84.279 E0.01689
G1 X131.084 Y84.279 E0.40141
G1 X131.084 Y83.740 E0.01689
G1 X118.281 Y83.740 E0.40141
G1 X118.281 Y83.201 E0.01689
G1 X131.084 Y83.201 E0.40141
G1 X131.084 Y82.663 E0.01689
G1 X118.281 Y82.663 E0.40141
G1 X118.281 Y82.124 E0.01689
G1 X131.084 Y82.124 E0.40141
G1 X131.084 Y81.585 E0.01689
G1 X118.281 Y81.585 E0.40141
G1 X118.281 Y81.047 E0.01689
G1 X131.084 Y81.047 E0.40141
G1 X131.084 Y80.508 E0.01689
G1 X118.281 Y80.508 E0.40141
G1 X118.281 Y79.969 E0.01689
G1 X131.084 Y79.969 E0.40141
G1 X131.084 Y79.431 E0.01689
G1 X118.281 Y79.431 E0.40141
G1 X118.281 Y78.892 E0.01689
G1 X131.084 Y78.892 E0.40141
G1 X131.084 Y78.353 E0.01689
G1 X118.281 Y78.353 E0.40141
G1 X118.281 Y77.814 E0.01689
G1 X131.084 Y77.814 E0.40141
G1 X131.084 Y77.276 E0.01689
G1 X118.281 Y77.276 E0.40141
G1 X118.281 Y76.737 E0.01689
G1 X131.084 Y76.737 E0.40141
G1 X131.084 Y76.198 E0.01689
G1 X118.281 Y76.198 E0.40141
G1 X118.281 Y75.660 E0.01689
G1 X131.084 Y75.660 E0.40141
G1 X131.084 Y75.121 E0.01689
G1 X118.281 Y75.121 E0.40141
G1 X118.281 Y74.582 E0.01689
G1 X131.084 Y74.582 E0.40141
G1 X131.084 Y74.044 E0.01689
G1 X118.281 Y74.044 E0.40141
G1 X118.281 Y73.505 E0.01689
G1 X131.084 Y73.505 E0.40141
G1 X131.084 Y72.966 E0.01689
G1 X118.281 Y72.966 E0.40141
G1 X118.281 Y72.428 E0.01689
G1 X131.084 Y72.428 E0.40141
G1 X131.084 Y71.889 E0.01689
G1 X118.281 Y71.889 E0.40141
G1 X118.281 Y71.350 E0.01689
G1 X131.084 Y71.350 E0.40141
G1 X131.084 Y70.812 E0.01689
G1 X118.281 Y70.812 E0.40141
G1 X118.281 Y70.273 E0.01689
G1 X131.084 Y70.273 E0.40141
G1 X131.084 Y69.734 E0.01689
G1 X118.281 Y69.734 E0.40141
G1 X118.281 Y69.196 E0.01689
G1 X131.084 Y69.196 E0.40141
G1 X131.084 Y68.657 E0.01689
G1 X118.281 Y68.657 E0.40141
G1 X118.281 Y68.118 E0.01689
G1 X131.084 Y68.118 E0.40141
G1 X131.084 Y67.579 E0.01689
G1 X118.281 Y67.579 E0.40141
G1 X118.281 Y67.041 E0.01689
G1 X131.084 Y67.041 E0.40141
G1 X131.084 Y66.502 E0.01689
G1 X118.281 Y66.502 E0.40141
G1 X118.281 Y65.963 E0.01689
G1 X131.084 Y65.963 E0.40141
G1 X131.084 Y65.425 E0.01689
G1 X118.281 Y65.425 E0.40141
G1 X118.281 Y64.886 E0.01689
G1 X131.084 Y64.886 E0.40141
G1 X131.084 Y64.347 E0.01689
G1 X118.281 Y64.347 E0.40141
G1 X118.281 Y63.809 E0.01689
G1 X131.084 Y63.809 E0.40141
G1 X131.084 Y63.270 E0.01689
G1 X118.281 Y63.270 E0.40141
G1 X118.281 Y62.731 E0.01689
G1 X131.084 Y62.731 E0.40141
G1 X131.084 Y62.193 E0.01689
G1 X118.281 Y62.193 E0.40141
G1 X118.281 Y61.654 E0.01689
G1 X131.084 Y61.654 E0.40141
G1 X131.084 Y61.115 E0.01689
G1 X118.281 Y61.115 E0.40141
G1 X118.281 Y60.577 E0.01689
G1 X131.084 Y60.577 E0.40141
G1 X131.084 Y60.038 E0.01689
G1 X118.281 Y60.038 E0.40141
G1 X118.281 Y59.499 E0.01689
G1 X131.084 Y59.499 E0.40141
G1 X131.084 Y58.961 E0.01689
G1 X118.281 Y58.961 E0.40141
G1 X118.281 Y58.586 E0.01175
G1 X118.445 Y58.422 E0.00727
G1 X130.920 Y58.422 E0.39114
G1 X130.381 Y57.883 E0.02389
G1 X118.984 Y57.883 E0.35736
G1 X119.523 Y57.344 E0.02389
G1 X130.083 Y57.344 E0.33110
G1 E-0.80000 F2100.00000
G1 Z0.800 F10800.000
G1 X122.999 Y113.473
G1 Z0.200
G1 E0.80000 F2100.00000
G1 F1200
G1 X123.295 Y113.611 E0.01024
G1 X113.105 Y135.693 E0.76253
G1 X94.121 Y146.665 E0.68750
G1 X74.952 Y135.598 E0.69400
G1 X64.700 Y113.638 E0.75988
G1 X64.995 Y113.500 E0.01023
G1 X75.212 Y135.384 E0.75723
G1 X94.121 Y146.289 E0.68439
G1 X112.723 Y135.537 E0.67369
G1 X122.974 Y113.528 E0.76125
G1 E-0.80000 F2100.00000
G1 Z0.800 F10800.000
G1 X94.120 Y145.853
G1 Z0.200
G1 E0.80000 F2100.00000
G1 F1200
G1 X112.432 Y135.270 E0.66314
G1 X122.817 Y112.972 E0.77123
G1 X123.795 Y113.428 E0.03384
G1 X113.397 Y135.960 E0.77806
G1 X94.121 Y147.101 E0.69808
G1 X74.661 Y135.865 E0.70455
G1 X64.199 Y113.456 E0.77543
G1 X65.178 Y112.999 E0.03388
G1 X75.504 Y135.116 E0.76533
G1 X94.068 Y145.823 E0.67196
G1 X94.343 Y146.186 F10800.000
G1 E-0.80000 F2100.00000
G1 Z0.800 F10800.000
G1 X165.143 Y128.782
G1 Z0.200
G1 E0.80000 F2100.00000
G1 F1200
G1 X165.143 Y131.896 E0.09764
G1 X161.517 Y131.896 E0.11369
G1 X161.150 Y132.581 E0.02438
G1 X160.642 Y133.201 E0.02514
G1 X160.022 Y133.710 E0.02514
G1 X159.314 Y134.088 E0.02514
G1 X158.547 Y134.321 E0.02514
G1 X157.749 Y134.399 E0.02514
G1 X156.951 Y134.321 E0.02514
G1 X156.184 Y134.088 E0.02514
G1 X155.476 Y133.710 E0.02514
G1 X154.857 Y133.201 E0.02514
G1 X154.348 Y132.581 E0.02514
G1 X153.970 Y131.874 E0.02514
G1 X153.737 Y131.107 E0.02514
G1 X153.658 Y130.309 E0.02514
G1 X153.737 Y129.511 E0.02514
G1 X153.970 Y128.743 E0.02514
G1 X154.348 Y128.036 E0.02514
G1 X154.857 Y127.416 E0.02514
G1 X155.476 Y126.908 E0.02514
G1 X156.184 Y126.530 E0.02514
G1 X156.951 Y126.297 E0.02514
G1 X157.725 Y126.221 E0.02439
G1 X158.545 Y126.296 E0.02582
G1 X159.314 Y126.530 E0.02520
