; generated by PrusaSlicer 2.1.1+win64 on 2020-06-09 at 22:13:02 UTC

; 

; external perimeters extrusion width = 0.45mm
; perimeters extrusion width = 0.45mm
; infill extrusion width = 0.45mm
; solid infill extrusion width = 0.45mm
; top infill extrusion width = 0.40mm
; support material extrusion width = 0.35mm
; first layer extrusion width = 0.42mm

M73 P0 R20
M201 X9000 Y9000 Z500 E10000 ; sets maximum accelerations, mm/sec^2
M203 X500 Y500 Z12 E120 ; sets maximum feedrates, mm/sec
M204 P2000 R1500 T2000 ; sets acceleration (P, T) and retract acceleration (R), mm/sec^2
M205 X10.00 Y10.00 Z0.20 E2.50 ; sets the jerk limits, mm/sec
M205 S0 T0 ; sets the minimum extruding and travel feed rate, mm/sec
M107
M862.3 P "MK2S" ; printer model check
M862.1 P0.4 ; nozzle diameter check
M115 U3.2.3 ; tell printer latest fw version
G90 ; use absolute coordinates
M83 ; extruder relative mode
M204 S2000 T1500 ; MK2 firmware only supports the old M204 format
M104 S215 ; set extruder temp
M140 S60 ; set bed temp
M190 S60 ; wait for bed temp
M109 S215 ; wait for extruder temp
G28 W ; home all without mesh bed level
G80 ; mesh bed leveling
G1 Y-3.0 F1000.0 ; go outside print area
G92 E0.0
G1 X60.0 E9.0  F1000.0 ; intro line
M73 P0 R20
G1 X100.0 E12.5 F1000.0 ; intro line
G92 E0.0
G21 ; set units to millimeters
G90 ; use absolute coordinates
M83 ; use relative distances for extrusion
M900 K30 ; Filament gcode
;BEFORE_LAYER_CHANGE
G92 E0.0
;0.2


G1 E-0.80000 F2100.00000
G1 Z0.600 F10800.000
;AFTER_LAYER_CHANGE
;0.2
G1 X149.347 Y124.381
G1 Z0.200
G1 E0.80000 F2100.00000
M204 S1000
G1 F1200
G1 X149.347 Y102.433 E0.68814
G1 X147.813 Y100.919 E0.06760
G1 X102.187 Y100.919 E1.43057
G1 X100.653 Y102.433 E0.06760
G1 X100.653 Y124.381 E0.68814
G1 X85.652 Y124.381 E0.47035
G1 X85.652 Y85.619 E1.21533
G1 X164.348 Y85.619 E2.46747
G1 X164.348 Y124.381 E1.21533
G1 X149.407 Y124.381 E0.46847
G1 X148.970 Y124.758 F10800.000
G1 F1200
G1 X148.970 Y102.591 E0.69502
G1 X147.658 Y101.296 E0.05780
G1 X102.342 Y101.296 E1.42086
G1 X101.030 Y102.591 E0.05780
G1 X101.030 Y124.758 E0.69502
G1 X85.275 Y124.758 E0.49400
G1 X85.275 Y85.242 E1.23897
G1 X164.725 Y85.242 E2.49112
G1 X164.725 Y124.758 E1.23898
G1 X149.030 Y124.758 E0.49212
G1 X149.020 Y124.361 F10800.000
G1 X150.148 Y124.267
G1 F1200
G1 X149.630 Y123.749 E0.02305
G1 X149.630 Y123.214 E0.01680
G1 X150.513 Y124.098 E0.03927
G1 X151.048 Y124.098 E0.01680
G1 X149.630 Y122.680 E0.06304
G1 X149.630 Y122.145 E0.01680
G1 X151.582 Y124.098 E0.08680
G1 X152.117 Y124.098 E0.01680
G1 X149.630 Y121.610 E0.11057
G1 X149.630 Y121.076 E0.01680
G1 X152.652 Y124.098 E0.13434
G1 X153.186 Y124.098 E0.01680
G1 X149.630 Y120.541 E0.15810
G1 X149.630 Y120.007 E0.01680
G1 X153.721 Y124.098 E0.18187
G1 X154.256 Y124.098 E0.01680
G1 X149.630 Y119.472 E0.20563
G1 X149.630 Y118.937 E0.01680
G1 X154.790 Y124.098 E0.22940
G1 X155.325 Y124.098 E0.01680
G1 X149.630 Y118.403 E0.25316
G1 X149.630 Y117.868 E0.01680
G1 X155.859 Y124.098 E0.27693
G1 X156.394 Y124.098 E0.01680
G1 X149.630 Y117.334 E0.30069
G1 X149.630 Y116.799 E0.01680
G1 X156.929 Y124.098 E0.32446
G1 X157.463 Y124.098 E0.01680
G1 X149.630 Y116.264 E0.34822
G1 X149.630 Y115.730 E0.01680
G1 X157.998 Y124.098 E0.37199
G1 X158.532 Y124.098 E0.01680
G1 X149.630 Y115.195 E0.39575
G1 X149.630 Y114.660 E0.01680
G1 X159.067 Y124.098 E0.41952
G1 X159.602 Y124.098 E0.01680
G1 X149.630 Y114.126 E0.44328
G1 X149.630 Y113.591 E0.01680
G1 X160.136 Y124.098 E0.46705
G1 X160.671 Y124.098 E0.01680
G1 X149.630 Y113.057 E0.49082
G1 X149.630 Y112.522 E0.01680
G1 X161.206 Y124.098 E0.51458
G1 X161.740 Y124.098 E0.01680
G1 X149.630 Y111.987 E0.53835
G1 X149.630 Y111.453 E0.01680
G1 X162.275 Y124.098 E0.56211
G1 X162.809 Y124.098 E0.01680
G1 X149.630 Y110.918 E0.58588
G1 X149.630 Y110.384 E0.01680
G1 X163.344 Y124.098 E0.60964
G1 X163.879 Y124.098 E0.01680
G1 X149.630 Y109.849 E0.63341
G1 X149.630 Y109.314 E0.01680
G1 X164.065 Y123.750 E0.64171
G1 X164.065 Y123.215 E0.01680
G1 X149.630 Y108.780 E0.64171
G1 X149.630 Y108.245 E0.01680
G1 X164.065 Y122.681 E0.64171
G1 X164.065 Y122.146 E0.01680
G1 X149.630 Y107.711 E0.64171
G1 X149.630 Y107.176 E0.01680
G1 X164.065 Y121.612 E0.64171
G1 X164.065 Y121.077 E0.01680
G1 X149.630 Y106.641 E0.64171
G1 X149.630 Y106.107 E0.01680
G1 X164.065 Y120.542 E0.64171
G1 X164.065 Y120.008 E0.01680
G1 X149.630 Y105.572 E0.64171
G1 X149.630 Y105.037 E0.01680
G1 X164.065 Y119.473 E0.64171
G1 X164.065 Y118.939 E0.01680
G1 X149.630 Y104.503 E0.64171
G1 X149.630 Y103.968 E0.01680
G1 X164.065 Y118.404 E0.64171
G1 X164.065 Y117.869 E0.01680
G1 X149.630 Y103.434 E0.64171
G1 X149.630 Y102.899 E0.01680
G1 X164.065 Y117.335 E0.64171
M73 P5 R19
G1 X164.065 Y116.800 E0.01680
G1 X133.168 Y85.902 E1.37351
G1 X133.702 Y85.902 E0.01680
G1 X164.065 Y116.265 E1.34975
G1 X164.065 Y115.731 E0.01680
G1 X134.237 Y85.902 E1.32598
G1 X134.771 Y85.902 E0.01680
G1 X164.065 Y115.196 E1.30222
G1 X164.065 Y114.662 E0.01680
G1 X135.306 Y85.902 E1.27845
G1 X135.841 Y85.902 E0.01680
G1 X164.065 Y114.127 E1.25469
G1 X164.065 Y113.592 E0.01680
G1 X136.375 Y85.902 E1.23092
G1 X136.910 Y85.902 E0.01680
G1 X164.065 Y113.058 E1.20716
G1 X164.065 Y112.523 E0.01680
G1 X137.444 Y85.902 E1.18339
G1 X137.979 Y85.902 E0.01680
G1 X164.065 Y111.989 E1.15963
G1 X164.065 Y111.454 E0.01680
G1 X138.514 Y85.902 E1.13586
G1 X139.048 Y85.902 E0.01680
G1 X164.065 Y110.919 E1.11210
G1 X164.065 Y110.385 E0.01680
G1 X139.583 Y85.902 E1.08833
G1 X140.118 Y85.902 E0.01680
G1 X164.065 Y109.850 E1.06456
G1 X164.065 Y109.315 E0.01680
G1 X140.652 Y85.902 E1.04080
G1 X141.187 Y85.902 E0.01680
G1 X164.065 Y108.781 E1.01703
G1 X164.065 Y108.246 E0.01680
G1 X141.721 Y85.902 E0.99327
G1 X142.256 Y85.902 E0.01680
G1 X164.065 Y107.712 E0.96950
G1 X164.065 Y107.177 E0.01680
G1 X142.791 Y85.902 E0.94574
G1 X143.325 Y85.902 E0.01680
G1 X164.065 Y106.642 E0.92197
G1 X164.065 Y106.108 E0.01680
G1 X143.860 Y85.902 E0.89821
G1 X144.394 Y85.902 E0.01680
G1 X164.065 Y105.573 E0.87444
G1 X164.065 Y105.039 E0.01680
G1 X144.929 Y85.902 E0.85068
G1 X145.464 Y85.902 E0.01680
G1 X164.065 Y104.504 E0.82691
G1 X164.065 Y103.969 E0.01680
G1 X145.998 Y85.902 E0.80315
G1 X146.533 Y85.902 E0.01680
G1 X164.065 Y103.435 E0.77938
G1 X164.065 Y102.900 E0.01680
G1 X147.068 Y85.902 E0.75561
G1 X147.602 Y85.902 E0.01680
G1 X164.065 Y102.366 E0.73185
G1 X164.065 Y101.831 E0.01680
G1 X148.137 Y85.902 E0.70808
G1 X148.671 Y85.902 E0.01680
G1 X164.065 Y101.296 E0.68432
G1 X164.065 Y100.762 E0.01680
G1 X149.206 Y85.902 E0.66055
G1 X149.741 Y85.902 E0.01680
G1 X164.065 Y100.227 E0.63679
G1 X164.065 Y99.692 E0.01680
G1 X150.275 Y85.902 E0.61302
G1 X150.810 Y85.902 E0.01680
G1 X164.065 Y99.158 E0.58926
G1 X164.065 Y98.623 E0.01680
G1 X151.344 Y85.902 E0.56549
G1 X151.879 Y85.902 E0.01680
G1 X164.065 Y98.089 E0.54173
G1 X164.065 Y97.554 E0.01680
G1 X152.414 Y85.902 E0.51796
G1 X152.948 Y85.902 E0.01680
G1 X164.065 Y97.019 E0.49420
G1 X164.065 Y96.485 E0.01680
G1 X153.483 Y85.902 E0.47043
G1 X154.017 Y85.902 E0.01680
G1 X164.065 Y95.950 E0.44667
G1 X164.065 Y95.416 E0.01680
G1 X154.552 Y85.902 E0.42290
G1 X155.087 Y85.902 E0.01680
G1 X164.065 Y94.881 E0.39913
M73 P10 R18
G1 X164.065 Y94.346 E0.01680
G1 X155.621 Y85.902 E0.37537
G1 X156.156 Y85.902 E0.01680
G1 X164.065 Y93.812 E0.35160
G1 X164.065 Y93.277 E0.01680
G1 X156.691 Y85.902 E0.32784
G1 X157.225 Y85.902 E0.01680
G1 X164.065 Y92.742 E0.30407
G1 X164.065 Y92.208 E0.01680
G1 X157.760 Y85.902 E0.28031
G1 X158.294 Y85.902 E0.01680
G1 X164.065 Y91.673 E0.25654
G1 X164.065 Y91.139 E0.01680
G1 X158.829 Y85.902 E0.23278
G1 X159.364 Y85.902 E0.01680
G1 X164.065 Y90.604 E0.20901
G1 X164.065 Y90.069 E0.01680
G1 X159.898 Y85.902 E0.18525
G1 X160.433 Y85.902 E0.01680
G1 X164.065 Y89.535 E0.16148
G1 X164.065 Y89.000 E0.01680
G1 X160.967 Y85.902 E0.13772
G1 X161.502 Y85.902 E0.01680
G1 X164.065 Y88.466 E0.11395
G1 X164.065 Y87.931 E0.01680
G1 X162.037 Y85.902 E0.09018
G1 X162.571 Y85.902 E0.01680
G1 X164.065 Y87.396 E0.06642
G1 X164.065 Y86.862 E0.01680
G1 X163.106 Y85.902 E0.04265
G1 X163.641 Y85.902 E0.01680
G1 X164.235 Y86.497 E0.02643
G1 E-0.80000 F2100.00000
G1 Z0.800 F10800.000
G1 X147.536 Y100.805
G1 Z0.200
G1 E0.80000 F2100.00000
G1 F1200
G1 X132.633 Y85.902 E0.66250
G1 X132.098 Y85.902 E0.01680
G1 X146.832 Y100.636 E0.65496
G1 X146.297 Y100.636 E0.01680
G1 X131.564 Y85.902 E0.65496
G1 X131.029 Y85.902 E0.01680
G1 X145.763 Y100.636 E0.65496
G1 X145.228 Y100.636 E0.01680
G1 X130.494 Y85.902 E0.65496
G1 X129.960 Y85.902 E0.01680
G1 X144.693 Y100.636 E0.65496
G1 X144.159 Y100.636 E0.01680
G1 X129.425 Y85.902 E0.65496
G1 X128.891 Y85.902 E0.01680
G1 X143.624 Y100.636 E0.65496
G1 X143.090 Y100.636 E0.01680
G1 X128.356 Y85.902 E0.65496
G1 X127.821 Y85.902 E0.01680
G1 X142.555 Y100.636 E0.65496
G1 X142.020 Y100.636 E0.01680
G1 X127.287 Y85.902 E0.65496
G1 X126.752 Y85.902 E0.01680
G1 X141.486 Y100.636 E0.65496
G1 X140.951 Y100.636 E0.01680
G1 X126.218 Y85.902 E0.65496
G1 X125.683 Y85.902 E0.01680
G1 X140.417 Y100.636 E0.65496
G1 X139.882 Y100.636 E0.01680
G1 X125.148 Y85.902 E0.65496
G1 X124.614 Y85.902 E0.01680
G1 X139.347 Y100.636 E0.65496
G1 X138.813 Y100.636 E0.01680
G1 X124.079 Y85.902 E0.65496
G1 X123.545 Y85.902 E0.01680
G1 X138.278 Y100.636 E0.65496
G1 X137.743 Y100.636 E0.01680
G1 X123.010 Y85.902 E0.65496
G1 X122.475 Y85.902 E0.01680
G1 X137.209 Y100.636 E0.65496
G1 X136.674 Y100.636 E0.01680
G1 X121.941 Y85.902 E0.65496
G1 X121.406 Y85.902 E0.01680
G1 X136.140 Y100.636 E0.65496
G1 X135.605 Y100.636 E0.01680
G1 X120.871 Y85.902 E0.65496
G1 X120.337 Y85.902 E0.01680
G1 X135.070 Y100.636 E0.65496
G1 X134.536 Y100.636 E0.01680
G1 X119.802 Y85.902 E0.65496
G1 X119.268 Y85.902 E0.01680
G1 X134.001 Y100.636 E0.65496
G1 X133.467 Y100.636 E0.01680
G1 X118.733 Y85.902 E0.65496
G1 X118.198 Y85.902 E0.01680
G1 X132.932 Y100.636 E0.65496
G1 X132.397 Y100.636 E0.01680
G1 X117.664 Y85.902 E0.65496
G1 X117.129 Y85.902 E0.01680
G1 X131.863 Y100.636 E0.65496
G1 X131.328 Y100.636 E0.01680
G1 X116.595 Y85.902 E0.65496
G1 X116.060 Y85.902 E0.01680
G1 X130.794 Y100.636 E0.65496
G1 X130.259 Y100.636 E0.01680
G1 X115.525 Y85.902 E0.65496
G1 X114.991 Y85.902 E0.01680
G1 X129.724 Y100.636 E0.65496
G1 X129.190 Y100.636 E0.01680
G1 X114.456 Y85.902 E0.65496
G1 X113.921 Y85.902 E0.01680
G1 X128.655 Y100.636 E0.65496
G1 X128.120 Y100.636 E0.01680
G1 X113.387 Y85.902 E0.65496
G1 X112.852 Y85.902 E0.01680
G1 X127.586 Y100.636 E0.65496
G1 X127.051 Y100.636 E0.01680
G1 X112.318 Y85.902 E0.65496
G1 X111.783 Y85.902 E0.01680
G1 X126.517 Y100.636 E0.65496
G1 X125.982 Y100.636 E0.01680
G1 X111.248 Y85.902 E0.65496
G1 X110.714 Y85.902 E0.01680
G1 X125.447 Y100.636 E0.65496
G1 X124.913 Y100.636 E0.01680
G1 X110.179 Y85.902 E0.65496
G1 X109.645 Y85.902 E0.01680
G1 X124.378 Y100.636 E0.65496
G1 X123.844 Y100.636 E0.01680
G1 X109.110 Y85.902 E0.65496
G1 X108.575 Y85.902 E0.01680
G1 X123.309 Y100.636 E0.65496
G1 X122.774 Y100.636 E0.01680
G1 X108.041 Y85.902 E0.65496
G1 X107.506 Y85.902 E0.01680
G1 X122.240 Y100.636 E0.65496
G1 X121.705 Y100.636 E0.01680
G1 X106.971 Y85.902 E0.65496
G1 X106.437 Y85.902 E0.01680
G1 X121.170 Y100.636 E0.65496
G1 X120.636 Y100.636 E0.01680
G1 X105.902 Y85.902 E0.65496
M73 P15 R17
G1 X105.368 Y85.902 E0.01680
G1 X120.101 Y100.636 E0.65496
G1 X119.567 Y100.636 E0.01680
G1 X104.833 Y85.902 E0.65496
G1 X104.298 Y85.902 E0.01680
G1 X119.032 Y100.636 E0.65496
G1 X118.497 Y100.636 E0.01680
G1 X103.764 Y85.902 E0.65496
G1 X103.229 Y85.902 E0.01680
G1 X117.963 Y100.636 E0.65496
G1 X117.428 Y100.636 E0.01680
G1 X102.695 Y85.902 E0.65496
G1 X102.160 Y85.902 E0.01680
G1 X116.894 Y100.636 E0.65496
G1 X116.359 Y100.636 E0.01680
G1 X101.625 Y85.902 E0.65496
G1 X101.091 Y85.902 E0.01680
G1 X115.824 Y100.636 E0.65496
G1 X115.290 Y100.636 E0.01680
G1 X100.556 Y85.902 E0.65496
G1 X100.022 Y85.902 E0.01680
G1 X114.755 Y100.636 E0.65496
G1 X114.220 Y100.636 E0.01680
G1 X99.487 Y85.902 E0.65496
G1 X98.952 Y85.902 E0.01680
G1 X113.686 Y100.636 E0.65496
G1 X113.151 Y100.636 E0.01680
G1 X98.418 Y85.902 E0.65496
G1 X97.883 Y85.902 E0.01680
G1 X112.617 Y100.636 E0.65496
G1 X112.082 Y100.636 E0.01680
G1 X97.348 Y85.902 E0.65496
G1 X96.814 Y85.902 E0.01680
G1 X111.547 Y100.636 E0.65496
G1 X111.013 Y100.636 E0.01680
G1 X96.279 Y85.902 E0.65496
G1 X95.745 Y85.902 E0.01680
G1 X110.478 Y100.636 E0.65496
G1 X109.944 Y100.636 E0.01680
G1 X95.210 Y85.902 E0.65496
G1 X94.675 Y85.902 E0.01680
G1 X109.409 Y100.636 E0.65496
G1 X108.874 Y100.636 E0.01680
G1 X94.141 Y85.902 E0.65496
G1 X93.606 Y85.902 E0.01680
G1 X108.340 Y100.636 E0.65496
G1 X107.805 Y100.636 E0.01680
G1 X93.072 Y85.902 E0.65496
G1 X92.537 Y85.902 E0.01680
G1 X107.271 Y100.636 E0.65496
G1 X106.736 Y100.636 E0.01680
G1 X92.002 Y85.902 E0.65496
G1 X91.468 Y85.902 E0.01680
G1 X106.201 Y100.636 E0.65496
G1 X105.667 Y100.636 E0.01680
G1 X90.933 Y85.902 E0.65496
G1 X90.398 Y85.902 E0.01680
G1 X105.132 Y100.636 E0.65496
G1 X104.597 Y100.636 E0.01680
G1 X89.864 Y85.902 E0.65496
G1 X89.329 Y85.902 E0.01680
G1 X104.063 Y100.636 E0.65496
G1 X103.528 Y100.636 E0.01680
G1 X88.795 Y85.902 E0.65496
G1 X88.260 Y85.902 E0.01680
G1 X102.994 Y100.636 E0.65496
G1 X102.459 Y100.636 E0.01680
G1 X87.725 Y85.902 E0.65496
G1 X87.191 Y85.902 E0.01680
G1 X101.997 Y100.709 E0.65820
G1 X101.728 Y100.974 E0.01188
G1 X86.656 Y85.902 E0.67000
G1 X86.122 Y85.902 E0.01680
G1 X101.459 Y101.240 E0.68181
G1 X101.190 Y101.505 E0.01188
G1 X85.935 Y86.250 E0.67817
G1 X85.935 Y86.784 E0.01680
G1 X100.921 Y101.771 E0.66621
G1 X100.652 Y102.037 E0.01188
G1 X85.935 Y87.319 E0.65425
G1 X85.935 Y87.854 E0.01680
G1 X100.383 Y102.302 E0.64229
G1 X100.370 Y102.315 E0.00058
G1 X100.370 Y102.824 E0.01599
G1 X85.935 Y88.388 E0.64171
G1 X85.935 Y88.923 E0.01680
G1 X100.370 Y103.359 E0.64171
G1 X100.370 Y103.893 E0.01680
G1 X85.935 Y89.457 E0.64171
G1 X85.935 Y89.992 E0.01680
G1 X100.370 Y104.428 E0.64171
G1 X100.370 Y104.962 E0.01680
G1 X85.935 Y90.527 E0.64171
G1 X85.935 Y91.061 E0.01680
G1 X100.370 Y105.497 E0.64171
G1 X100.370 Y106.032 E0.01680
G1 X85.935 Y91.596 E0.64171
G1 X85.935 Y92.131 E0.01680
G1 X100.370 Y106.566 E0.64171
G1 X100.370 Y107.101 E0.01680
G1 X85.935 Y92.665 E0.64171
G1 X85.935 Y93.200 E0.01680
G1 X100.370 Y107.635 E0.64171
G1 X100.370 Y108.170 E0.01680
G1 X85.935 Y93.734 E0.64171
G1 X85.935 Y94.269 E0.01680
G1 X100.370 Y108.705 E0.64171
G1 X100.370 Y109.239 E0.01680
G1 X85.935 Y94.804 E0.64171
G1 X85.935 Y95.338 E0.01680
G1 X100.370 Y109.774 E0.64171
G1 X100.370 Y110.309 E0.01680
G1 X85.935 Y95.873 E0.64171
G1 X85.935 Y96.407 E0.01680
M73 P20 R16
G1 X100.370 Y110.843 E0.64171
G1 X100.370 Y111.378 E0.01680
G1 X85.935 Y96.942 E0.64171
G1 X85.935 Y97.477 E0.01680
G1 X100.370 Y111.912 E0.64171
G1 X100.370 Y112.447 E0.01680
G1 X85.935 Y98.011 E0.64171
G1 X85.935 Y98.546 E0.01680
G1 X100.370 Y112.982 E0.64171
G1 X100.370 Y113.516 E0.01680
G1 X85.935 Y99.081 E0.64171
G1 X85.935 Y99.615 E0.01680
G1 X100.370 Y114.051 E0.64171
G1 X100.370 Y114.585 E0.01680
G1 X85.935 Y100.150 E0.64171
G1 X85.935 Y100.684 E0.01680
G1 X100.370 Y115.120 E0.64171
G1 X100.370 Y115.655 E0.01680
G1 X85.935 Y101.219 E0.64171
G1 X85.935 Y101.754 E0.01680
G1 X100.370 Y116.189 E0.64171
G1 X100.370 Y116.724 E0.01680
G1 X85.935 Y102.288 E0.64171
G1 X85.935 Y102.823 E0.01680
G1 X100.370 Y117.259 E0.64171
G1 X100.370 Y117.793 E0.01680
G1 X85.935 Y103.357 E0.64171
G1 X85.935 Y103.892 E0.01680
G1 X100.370 Y118.328 E0.64171
G1 X100.370 Y118.862 E0.01680
G1 X85.935 Y104.427 E0.64171
G1 X85.935 Y104.961 E0.01680
G1 X100.370 Y119.397 E0.64171
G1 X100.370 Y119.932 E0.01680
G1 X85.935 Y105.496 E0.64171
G1 X85.935 Y106.031 E0.01680
G1 X100.370 Y120.466 E0.64171
G1 X100.370 Y121.001 E0.01680
G1 X85.935 Y106.565 E0.64171
G1 X85.935 Y107.100 E0.01680
G1 X100.370 Y121.535 E0.64171
G1 X100.370 Y122.070 E0.01680
G1 X85.935 Y107.634 E0.64171
G1 X85.935 Y108.169 E0.01680
G1 X100.370 Y122.605 E0.64171
G1 X100.370 Y123.139 E0.01680
G1 X85.935 Y108.704 E0.64171
G1 X85.935 Y109.238 E0.01680
G1 X100.370 Y123.674 E0.64171
G1 X100.370 Y124.098 E0.01332
