; generated by PrusaSlicer 2.1.1+win64 on 2020-03-16 at 21:25:21 UTC

; 

; external perimeters extrusion width = 0.45mm
; perimeters extrusion width = 0.45mm
; infill extrusion width = 0.45mm
; solid infill extrusion width = 0.45mm
; top infill extrusion width = 0.40mm
; support material extrusion width = 0.35mm
; first layer extrusion width = 0.42mm

M73 P0 R66
M201 X9000 Y9000 Z500 E10000 ; sets maximum accelerations, mm/sec^2
M203 X500 Y500 Z12 E120 ; sets maximum feedrates, mm/sec
M204 P2000 R1500 T2000 ; sets acceleration (P, T) and retract acceleration (R), mm/sec^2
M205 X10.00 Y10.00 Z0.20 E2.50 ; sets the jerk limits, mm/sec
M205 S0 T0 ; sets the minimum extruding and travel feed rate, mm/sec
M107
M862.3 P "MK2S" ; printer model check
M862.1 P0.4 ; nozzle diameter check
M115 U3.2.3 ; tell printer latest fw version
G90 ; use absolute coordinates
M83 ; extruder relative mode
M204 S2000 T1500 ; MK2 firmware only supports the old M204 format
M104 S215 ; set extruder temp
M140 S60 ; set bed temp
M190 S60 ; wait for bed temp
M109 S215 ; wait for extruder temp
G28 W ; home all without mesh bed level
G80 ; mesh bed leveling
G1 Y-3.0 F1000.0 ; go outside print area
G92 E0.0
G1 X60.0 E9.0  F1000.0 ; intro line
M73 P0 R65
G1 X100.0 E12.5 F1000.0 ; intro line
G92 E0.0
G21 ; set units to millimeters
G90 ; use absolute coordinates
M83 ; use relative distances for extrusion
M900 K30 ; Filament gcode
;BEFORE_LAYER_CHANGE
G92 E0.0
;0.2


G1 E-0.80000 F2100.00000
G1 Z0.600 F10800.000
;AFTER_LAYER_CHANGE
;0.2
G1 X114.843 Y99.711
G1 Z0.200
G1 E0.80000 F2100.00000
M204 S1000
G1 F1200
G1 X109.809 Y104.745 E0.22323
G1 X110.342 Y105.278 E0.02365
G1 X114.674 Y100.947 E0.19206
G1 X114.674 Y102.013 E0.03344
G1 X110.875 Y105.812 E0.16842
G1 X111.409 Y106.345 E0.02365
G1 X114.674 Y103.080 E0.14477
G1 X114.674 Y103.938 E0.02690
G1 X114.778 Y104.042 E0.00463
G1 X111.942 Y106.878 E0.12575
G1 X112.475 Y107.411 E0.02365
G1 X115.641 Y104.246 E0.14036
G1 X116.707 Y104.246 E0.03344
G1 X111.377 Y109.576 E0.23635
G1 X111.910 Y110.109 E0.02365
G1 X117.774 Y104.246 E0.25999
G1 X118.840 Y104.246 E0.03344
G1 X112.444 Y110.643 E0.28364
G1 X112.977 Y111.176 E0.02365
G1 X119.907 Y104.246 E0.30728
G1 X120.973 Y104.246 E0.03344
G1 X113.510 Y111.709 E0.33093
G1 X114.044 Y112.242 E0.02365
G1 X122.040 Y104.246 E0.35458
G1 X123.107 Y104.246 E0.03344
G1 X114.577 Y112.776 E0.37822
G1 X115.110 Y113.309 E0.02365
G1 X124.173 Y104.246 E0.40187
G1 X125.240 Y104.246 E0.03344
G1 X115.643 Y113.842 E0.42551
G1 X116.177 Y114.375 E0.02365
G1 X126.306 Y104.246 E0.44916
G1 X127.373 Y104.246 E0.03344
G1 X116.710 Y114.909 E0.47281
G1 X117.243 Y115.442 E0.02365
G1 X128.439 Y104.246 E0.49645
G1 X129.506 Y104.246 E0.03344
G1 X117.776 Y115.975 E0.52010
G1 X118.310 Y116.509 E0.02365
G1 X130.572 Y104.246 E0.54375
G1 X131.639 Y104.246 E0.03344
G1 X118.843 Y117.042 E0.56739
G1 X119.376 Y117.575 E0.02365
G1 X132.705 Y104.246 E0.59104
G1 X133.772 Y104.246 E0.03344
G1 X119.790 Y118.228 E0.62000
G1 E-0.80000 F2100.00000
G1 Z0.800 F10800.000
G1 X127.852 Y119.765
G1 Z0.200
G1 E0.80000 F2100.00000
G1 F1200
G1 X138.690 Y108.927 E0.48059
G1 X138.157 Y108.393 E0.02365
G1 X127.438 Y119.112 E0.47527
G1 X126.905 Y118.579 E0.02365
G1 X137.624 Y107.860 E0.47527
G1 X137.338 Y107.574 E0.01268
G1 X140.600 Y104.311 E0.14467
G1 X140.353 Y104.064 E0.01096
G1 X124.740 Y119.677 E0.69228
G1 X124.207 Y119.143 E0.02365
G1 X139.820 Y103.531 E0.69228
G1 X139.286 Y102.998 E0.02365
G1 X123.674 Y118.610 E0.69228
G1 X123.356 Y118.293 E0.01408
G1 X121.725 Y119.924 E0.07234
G1 X121.509 Y119.708 E0.00957
G1 X138.753 Y102.464 E0.76462
G1 X138.220 Y101.931 E0.02365
G1 X120.976 Y119.175 E0.76462
G1 X120.443 Y118.642 E0.02365
G1 X137.687 Y101.398 E0.76462
G1 X137.153 Y100.865 E0.02365
G1 X135.326 Y102.691 E0.08101
G1 X135.326 Y101.625 E0.03344
G1 X136.620 Y100.331 E0.05736
G1 X136.087 Y99.798 E0.02365
G1 X135.326 Y100.558 E0.03372
G1 X135.326 Y99.492 E0.03344
G1 X135.674 Y99.145 E0.01539
G1 E-0.80000 F2100.00000
G1 Z0.800 F10800.000
G1 X129.784 Y101.834
G1 Z0.200
G1 E0.80000 F2100.00000
G1 F1200
G1 X129.974 Y101.644 E0.00842
G1 X129.974 Y101.246 E0.01249
G1 X129.306 Y101.246 E0.02095
G1 X128.718 Y101.834 E0.02609
G1 X127.651 Y101.834 F10800.000
G1 F1200
G1 X127.993 Y101.492 E0.01516
G1 X127.460 Y100.959 E0.02365
G1 X126.754 Y101.665 E0.03129
G1 X125.688 Y101.665 E0.03344
G1 X127.047 Y100.306 E0.06025
G1 X124.452 Y101.834 F10800.000
G1 F1200
G1 X124.762 Y101.524 E0.01377
G1 X124.229 Y100.991 E0.02365
G1 X123.555 Y101.665 E0.02989
G1 X122.488 Y101.665 E0.03344
G1 X123.815 Y100.337 E0.05885
G1 X121.252 Y101.834 F10800.000
G1 F1200
G1 X121.531 Y101.555 E0.01237
G1 X121.221 Y101.246 E0.01372
G1 X120.774 Y101.246 E0.01403
G1 X120.185 Y101.834 E0.02609
G1 X125.000 Y102.778 F10800.000
G1 F1200
G1 X118.913 Y102.778 E0.19086
G1 X118.913 Y97.097 E0.17813
G1 X131.087 Y97.097 E0.38172
G1 X131.087 Y102.778 E0.17813
G1 X125.060 Y102.778 E0.18898
G1 X125.000 Y102.401 F10800.000
G1 F1200
G1 X119.290 Y102.401 E0.17904
G1 X119.290 Y97.474 E0.15448
G1 X130.710 Y97.474 E0.35808
G1 X130.710 Y102.401 E0.15448
G1 X125.060 Y102.401 E0.17716
G1 X124.887 Y102.784 F10800.000
G1 X125.000 Y103.133
G1 F1200
G1 X115.787 Y103.133 E0.28888
G1 X115.787 Y96.742 E0.20039
G1 X134.213 Y96.742 E0.57775
G1 X134.213 Y103.133 E0.20039
G1 X125.060 Y103.133 E0.28699
G1 X125.000 Y103.510 F10800.000
G1 F1200
G1 X115.410 Y103.510 E0.30070
G1 X115.410 Y96.365 E0.22403
G1 X134.590 Y96.365 E0.60140
G1 X134.590 Y103.510 E0.22403
G1 X125.060 Y103.510 E0.29882
G1 X124.731 Y103.214 F10800.000
G1 E-0.80000 F2100.00000
G1 Z0.800 F10800.000
G1 X131.200 Y102.251
G1 Z0.200
G1 E0.80000 F2100.00000
G1 F1200
G1 X131.799 Y102.850 E0.02678
G1 X132.337 Y102.850 E0.01700
G1 X131.370 Y101.883 E0.04323
G1 X131.370 Y101.345 E0.01700
G1 X132.875 Y102.850 E0.06727
G1 X133.412 Y102.850 E0.01700
G1 X131.370 Y100.808 E0.09130
G1 X131.370 Y100.270 E0.01700
G1 X133.930 Y102.831 E0.11447
G1 X133.930 Y102.293 E0.01700
G1 X131.370 Y99.732 E0.11447
G1 X131.370 Y99.195 E0.01700
G1 X133.930 Y101.755 E0.11447
G1 X133.930 Y101.218 E0.01700
G1 X131.370 Y98.657 E0.11447
G1 X131.370 Y98.119 E0.01700
G1 X133.930 Y100.680 E0.11447
G1 X133.930 Y100.142 E0.01700
G1 X131.370 Y97.582 E0.11447
G1 X131.370 Y97.044 E0.01700
G1 X133.930 Y99.605 E0.11447
G1 X133.930 Y99.067 E0.01700
G1 X131.888 Y97.025 E0.09131
G1 X132.426 Y97.025 E0.01700
G1 X133.930 Y98.529 E0.06727
G1 X133.930 Y97.992 E0.01700
G1 X132.963 Y97.025 E0.04324
G1 X133.501 Y97.025 E0.01700
G1 X134.100 Y97.624 E0.02679
G1 E-0.80000 F2100.00000
G1 Z0.800 F10800.000
G1 X118.800 Y97.624
G1 Z0.200
G1 E0.80000 F2100.00000
G1 F1200
G1 X118.200 Y97.025 E0.02679
G1 X117.663 Y97.025 E0.01700
G1 X118.630 Y97.992 E0.04324
G1 X118.630 Y98.529 E0.01700
G1 X117.125 Y97.025 E0.06727
G1 X116.588 Y97.025 E0.01700
G1 X118.630 Y99.067 E0.09131
G1 X118.630 Y99.605 E0.01700
G1 X116.070 Y97.044 E0.11447
G1 X116.070 Y97.582 E0.01700
G1 X118.630 Y100.142 E0.11447
G1 X118.630 Y100.680 E0.01700
G1 X116.070 Y98.119 E0.11447
G1 X116.070 Y98.657 E0.01700
G1 X118.630 Y101.218 E0.11447
G1 X118.630 Y101.755 E0.01700
G1 X116.070 Y99.195 E0.11447
G1 X116.070 Y99.732 E0.01700
G1 X118.630 Y102.293 E0.11447
G1 X118.630 Y102.831 E0.01700
G1 X116.070 Y100.270 E0.11447
G1 X116.070 Y100.808 E0.01700
G1 X118.112 Y102.850 E0.09130
G1 X117.574 Y102.850 E0.01700
G1 X116.070 Y101.345 E0.06727
G1 X116.070 Y101.883 E0.01700
G1 X117.036 Y102.850 E0.04323
G1 X116.499 Y102.850 E0.01700
G1 X115.900 Y102.251 E0.02678
M106 S255
;BEFORE_LAYER_CHANGE
G92 E0.0
;0.4


G1 E-0.80000 F2100.00000
G1 Z0.800 F10800.000
;AFTER_LAYER_CHANGE
;0.4
M104 S210 ; set temperature
G1 X125.000 Y102.823
G1 Z0.400
G1 E0.80000 F2100.00000
M204 S800
G1 F900
G1 X118.868 Y102.823 E0.20757
G1 X118.868 Y97.052 E0.19534
G1 X131.132 Y97.052 E0.41514
G1 X131.132 Y102.823 E0.19534
G1 X125.060 Y102.823 E0.20554
M204 S1000
G1 X125.000 Y102.416 F10800.000
M204 S800
G1 F900
G1 X119.275 Y102.416 E0.19379
G1 X119.275 Y97.459 E0.16779
G1 X130.725 Y97.459 E0.38758
G1 X130.725 Y102.416 E0.16779
G1 X125.060 Y102.416 E0.19176
M204 S1000
G1 X124.887 Y102.800 F10800.000
G1 X125.000 Y103.088
M204 S800
G1 F900
G1 X115.832 Y103.088 E0.31034
G1 X115.832 Y96.787 E0.21328
G1 X134.168 Y96.787 E0.62067
G1 X134.168 Y103.088 E0.21328
G1 X125.060 Y103.088 E0.30830
M204 S1000
G1 X125.000 Y103.495 F10800.000
M204 S800
G1 F900
G1 X115.425 Y103.495 E0.32411
G1 X115.425 Y96.380 E0.24084
G1 X134.575 Y96.380 E0.64823
G1 X134.575 Y103.495 E0.24084
G1 X125.060 Y103.495 E0.32208
M204 S1000
G1 X124.731 Y103.199 F10800.000
G1 E-0.80000 F2100.00000
G1 Z1.000 F10800.000
G1 X117.893 Y102.966
G1 Z0.400
G1 E0.80000 F2100.00000
M204 S2000
G1 F900
G1 X118.562 Y102.297 E0.03313
G1 X118.562 Y101.701 E0.02084
G1 X117.481 Y102.783 E0.05353
G1 X116.886 Y102.783 E0.02084
G1 X118.562 Y101.106 E0.08300
G1 X118.562 Y100.511 E0.02084
G1 X116.290 Y102.783 E0.11247
G1 X116.137 Y102.783 E0.00537
G1 X116.137 Y102.341 E0.01547
G1 X118.562 Y99.915 E0.12006
G1 X118.562 Y99.320 E0.02084
G1 X116.137 Y101.745 E0.12006
G1 X116.137 Y101.150 E0.02084
G1 X118.562 Y98.724 E0.12006
G1 X118.562 Y98.129 E0.02084
G1 X116.137 Y100.555 E0.12006
G1 X116.137 Y99.959 E0.02084
G1 X118.562 Y97.534 E0.12006
G1 X118.562 Y97.092 E0.01546
G1 X118.409 Y97.092 E0.00537
G1 X116.137 Y99.364 E0.11246
G1 X116.137 Y98.769 E0.02084
G1 X117.814 Y97.092 E0.08299
G1 X117.218 Y97.092 E0.02084
G1 X116.137 Y98.173 E0.05352
G1 X116.137 Y97.578 E0.02084
G1 X116.806 Y96.909 E0.03312
M204 S1000
G1 E-0.80000 F2100.00000
G1 Z1.000 F10800.000
G1 X132.107 Y96.909
G1 Z0.400
G1 E0.80000 F2100.00000
M204 S2000
G1 F900
G1 X131.438 Y97.578 E0.03312
M73 P1 R64
G1 X131.438 Y98.173 E0.02084
G1 X132.519 Y97.092 E0.05352
G1 X133.114 Y97.092 E0.02084
G1 X131.438 Y98.769 E0.08299
G1 X131.438 Y99.364 E0.02084
G1 X133.709 Y97.092 E0.11246
G1 X133.863 Y97.092 E0.00537
G1 X133.863 Y97.534 E0.01546
G1 X131.438 Y99.959 E0.12006
G1 X131.438 Y100.555 E0.02084
G1 X133.863 Y98.129 E0.12006
G1 X133.863 Y98.725 E0.02084
G1 X131.438 Y101.150 E0.12006
G1 X131.438 Y101.745 E0.02084
G1 X133.863 Y99.320 E0.12006
G1 X133.863 Y99.915 E0.02084
G1 X131.438 Y102.341 E0.12006
G1 X131.438 Y102.783 E0.01547
G1 X131.591 Y102.783 E0.00537
G1 X133.863 Y100.511 E0.11247
G1 X133.863 Y101.106 E0.02084
G1 X132.186 Y102.783 E0.08300
G1 X132.782 Y102.783 E0.02084
G1 X133.863 Y101.701 E0.05353
G1 X133.863 Y102.297 E0.02084
G1 X133.194 Y102.966 E0.03313
M204 S1000
;BEFORE_LAYER_CHANGE
G92 E0.0
;0.445003


G1 E-0.80000 F2100.00000
G1 Z1.000 F10800.000
;AFTER_LAYER_CHANGE
;0.445003
G1 X128.153 Y115.829
G1 Z0.445
G1 E0.80000 F2100.00000
G1 F900
G1 X134.776 Y109.205 E0.28376
G1 X133.145 Y107.574 E0.06989
G1 X136.407 Y104.311 E0.13979
G1 X124.988 Y115.731 E0.48926
G1 X123.356 Y114.100 E0.06989
G1 X121.725 Y115.731 E0.06989
G1 X133.245 Y104.211 E0.49357
G1 X129.982 Y104.211 E0.09885
G1 X120.094 Y114.100 E0.42367
G1 X118.462 Y112.468 E0.06989
G1 X126.619 Y104.311 E0.34947
G1 X124.988 Y105.943 E0.06989
G1 X123.356 Y104.311 E0.06989
G1 X116.831 Y110.837 E0.27958
G1 X115.200 Y109.205 E0.06989
G1 X120.094 Y104.311 E0.20968
G1 X119.993 Y104.211 E0.00431
G1 X116.932 Y104.211 E0.09276
G1 X115.200 Y105.943 E0.07420
G1 X113.568 Y104.311 E0.06989
G1 X114.847 Y103.033 E0.05478
;BEFORE_LAYER_CHANGE
G92 E0.0
;0.6


G1 E-0.80000 F2100.00000
G1 Z1.045 F10800.000
;AFTER_LAYER_CHANGE
;0.6
G1 X125.000 Y102.823
G1 Z0.600
G1 E0.80000 F2100.00000
M204 S800
G1 F900
G1 X118.868 Y102.823 E0.20757
G1 X118.868 Y97.052 E0.19534
G1 X131.132 Y97.052 E0.41514
G1 X131.132 Y102.823 E0.19534
G1 X125.060 Y102.823 E0.20554
M204 S1000
G1 X125.000 Y102.416 F10800.000
M204 S800
G1 F900
G1 X119.275 Y102.416 E0.19379
G1 X119.275 Y97.459 E0.16779
G1 X130.725 Y97.459 E0.38758
G1 X130.725 Y102.416 E0.16779
G1 X125.060 Y102.416 E0.19176
M204 S1000
G1 X124.887 Y102.800 F10800.000
G1 X125.000 Y103.088
M204 S800
G1 F900
G1 X115.832 Y103.088 E0.31034
G1 X115.832 Y96.787 E0.21328
G1 X134.168 Y96.787 E0.62067
G1 X134.168 Y103.088 E0.21328
G1 X125.060 Y103.088 E0.30830
M204 S1000
G1 X125.000 Y103.495 F10800.000
M204 S800
G1 F900
G1 X115.425 Y103.495 E0.32411
G1 X115.425 Y96.380 E0.24084
G1 X134.575 Y96.380 E0.64823
G1 X134.575 Y103.495 E0.24084
G1 X125.060 Y103.495 E0.32208
M204 S1000
G1 X124.731 Y103.199 F10800.000
G1 E-0.80000 F2100.00000
G1 Z1.200 F10800.000
G1 X131.254 Y102.113
G1 Z0.600
G1 E0.80000 F2100.00000
M204 S2000
G1 F900
G1 X131.923 Y102.783 E0.03312
G1 X132.519 Y102.783 E0.02084
G1 X131.438 Y101.701 E0.05352
G1 X131.438 Y101.106 E0.02084
G1 X133.114 Y102.783 E0.08299
G1 X133.709 Y102.783 E0.02084
G1 X131.438 Y100.511 E0.11246
G1 X131.438 Y99.915 E0.02084
G1 X133.863 Y102.341 E0.12006
G1 X133.863 Y101.745 E0.02084
G1 X131.438 Y99.320 E0.12006
G1 X131.438 Y98.725 E0.02084
G1 X133.863 Y101.150 E0.12006
G1 X133.863 Y100.555 E0.02084
G1 X131.438 Y98.129 E0.12006
G1 X131.438 Y97.534 E0.02084
G1 X133.863 Y99.959 E0.12006
G1 X133.863 Y99.364 E0.02084
G1 X131.591 Y97.092 E0.11247
G1 X132.186 Y97.092 E0.02084
G1 X133.863 Y98.769 E0.08300
G1 X133.863 Y98.173 E0.02084
G1 X132.782 Y97.092 E0.05353
G1 X133.377 Y97.092 E0.02084
G1 X134.046 Y97.761 E0.03313
M204 S1000
G1 E-0.80000 F2100.00000
G1 Z1.200 F10800.000
G1 X118.746 Y97.761
G1 Z0.600
G1 E0.80000 F2100.00000
M204 S2000
G1 F900
G1 X118.076 Y97.092 E0.03313
G1 X117.481 Y97.092 E0.02084
G1 X118.562 Y98.173 E0.05353
G1 X118.562 Y98.769 E0.02084
G1 X116.886 Y97.092 E0.08300
G1 X116.290 Y97.092 E0.02084
G1 X118.562 Y99.364 E0.11247
G1 X118.562 Y99.959 E0.02084
G1 X116.137 Y97.534 E0.12006
G1 X116.137 Y98.129 E0.02084
G1 X118.562 Y100.555 E0.12006
G1 X118.562 Y101.150 E0.02084
G1 X116.137 Y98.725 E0.12006
G1 X116.137 Y99.320 E0.02084
G1 X118.562 Y101.745 E0.12006
G1 X118.562 Y102.341 E0.02084
G1 X116.137 Y99.915 E0.12006
G1 X116.137 Y100.511 E0.02084
G1 X118.409 Y102.783 E0.11246
G1 X117.814 Y102.783 E0.02084
G1 X116.137 Y101.106 E0.08299
G1 X116.137 Y101.701 E0.02084
G1 X117.218 Y102.783 E0.05352
G1 X116.623 Y102.783 E0.02084
G1 X115.954 Y102.113 E0.03312
M204 S1000
;BEFORE_LAYER_CHANGE
G92 E0.0
;0.690007


G1 E-0.80000 F2100.00000
G1 Z1.200 F10800.000
;AFTER_LAYER_CHANGE
;0.690007
G1 X115.102 Y109.108
G1 Z0.690
G1 E0.80000 F2100.00000
G1 F900
G1 X121.725 Y115.731 E0.28376
G1 X123.356 Y114.100 E0.06989
G1 X124.988 Y115.731 E0.06989
G1 X113.568 Y104.311 E0.48926
G1 X114.709 Y103.171 E0.04886
G1 X114.709 Y103.923 E0.02279
G1 X114.996 Y104.211 E0.01232
G1 X116.730 Y104.211 E0.05254
G1 X128.250 Y115.731 E0.49357
G1 X129.882 Y114.100 E0.06989
G1 X119.993 Y104.211 E0.42367
G1 X121.725 Y105.943 E0.07420
G1 X123.356 Y104.311 E0.06989
G1 X131.513 Y112.468 E0.34947
G1 X133.145 Y110.837 E0.06989
G1 X126.619 Y104.311 E0.27958
G1 X128.250 Y105.943 E0.06989
G1 X129.882 Y104.311 E0.06989
G1 X134.776 Y109.205 E0.20968
G1 X133.145 Y107.574 E0.06989
G1 X134.776 Y105.943 E0.06989
G1 X133.044 Y104.211 E0.07420
G1 X135.004 Y104.211 E0.05937
G1 X135.291 Y103.923 E0.01232
G1 X135.291 Y103.196 E0.02204
G1 X136.505 Y104.409 E0.05199
;BEFORE_LAYER_CHANGE
G92 E0.0
;0.8


G1 E-0.80000 F2100.00000
G1 Z1.290 F10800.000
;AFTER_LAYER_CHANGE
;0.8
G1 X125.000 Y102.823
G1 Z0.800
G1 E0.80000 F2100.00000
M204 S800
G1 F900
G1 X118.868 Y102.823 E0.20757
G1 X118.868 Y97.052 E0.19534
G1 X131.132 Y97.052 E0.41514
G1 X131.132 Y102.823 E0.19534
G1 X125.060 Y102.823 E0.20554
M204 S1000
G1 X125.000 Y102.416 F10800.000
M204 S800
G1 F900
G1 X119.275 Y102.416 E0.19379
G1 X119.275 Y97.459 E0.16779
G1 X130.725 Y97.459 E0.38758
G1 X130.725 Y102.416 E0.16779
G1 X125.060 Y102.416 E0.19176
M204 S1000
G1 X124.887 Y102.800 F10800.000
G1 X125.000 Y103.088
M204 S800
G1 F900
G1 X115.832 Y103.088 E0.31034
G1 X115.832 Y96.787 E0.21328
G1 X134.168 Y96.787 E0.62067
G1 X134.168 Y103.088 E0.21328
G1 X125.060 Y103.088 E0.30830
M204 S1000
G1 X125.000 Y103.495 F10800.000
M204 S800
G1 F900
G1 X115.425 Y103.495 E0.32411
G1 X115.425 Y96.380 E0.24084
G1 X134.575 Y96.380 E0.64823
G1 X134.575 Y103.495 E0.24084
G1 X125.060 Y103.495 E0.32208
M204 S1000
G1 X124.731 Y103.199 F10800.000
G1 E-0.80000 F2100.00000
G1 Z1.400 F10800.000
