; generated by PrusaSlicer 2.2.0+win64 on 2020-08-26 at 17:22:07 UTC

; 

; external perimeters extrusion width = 0.45mm
; perimeters extrusion width = 0.45mm
; infill extrusion width = 0.45mm
; solid infill extrusion width = 0.45mm
; top infill extrusion width = 0.40mm
; first layer extrusion width = 0.42mm

M73 P0 R80
M201 X9000 Y9000 Z500 E10000 ; sets maximum accelerations, mm/sec^2
M203 X500 Y500 Z12 E120 ; sets maximum feedrates, mm/sec
M204 P2000 R1500 T2000 ; sets acceleration (P, T) and retract acceleration (R), mm/sec^2
M205 X10.00 Y10.00 Z0.20 E2.50 ; sets the jerk limits, mm/sec
M205 S0 T0 ; sets the minimum extruding and travel feed rate, mm/sec
M107
M862.3 P "MK2S" ; printer model check
M862.1 P0.4 ; nozzle diameter check
M115 U3.2.3 ; tell printer latest fw version
G90 ; use absolute coordinates
M83 ; extruder relative mode
M204 S2000 T1500 ; MK2 firmware only supports the old M204 format
M104 S215 ; set extruder temp
M140 S60 ; set bed temp
M190 S60 ; wait for bed temp
M109 S215 ; wait for extruder temp
G28 W ; home all without mesh bed level
G80 ; mesh bed leveling
G1 Y-3.0 F1000.0 ; go outside print area
G92 E0.0
G1 X60.0 E9.0  F1000.0 ; intro line
M73 P0 R80
G1 X100.0 E12.5 F1000.0 ; intro line
G92 E0.0
G21 ; set units to millimeters
G90 ; use absolute coordinates
M83 ; use relative distances for extrusion
M900 K0.06 ; Filament gcode LA 1.5
M900 K30 ; Filament gcode LA 1.0
;BEFORE_LAYER_CHANGE
G92 E0.0
;0.2


G1 E-0.80000 F2100.00000
G1 Z0.600 F10800.000
;AFTER_LAYER_CHANGE
;0.2
G1 X125.000 Y110.159
G1 Z0.200
G1 E0.80000 F2100.00000
M204 S1000
G1 F1200.000
G1 X131.087 Y110.159 E0.19086
G1 X131.087 Y115.841 E0.17813
G1 X118.913 Y115.841 E0.38172
G1 X118.913 Y110.159 E0.17813
G1 X124.940 Y110.159 E0.18898
G1 E-0.80000 F2100.00000
G1 Z0.800 F10800.000
G1 X125.000 Y115.463
G1 Z0.200
G1 E0.80000 F2100.00000
G1 F1200.000
G1 X119.290 Y115.463 E0.17904
G1 X119.290 Y110.537 E0.15448
G1 X130.710 Y110.537 E0.35808
G1 X130.710 Y115.463 E0.15448
G1 X125.060 Y115.463 E0.17716
G1 X124.887 Y115.847 F10800.000
G1 X125.000 Y116.196
G1 F1200.000
G1 X115.787 Y116.196 E0.28887
G1 X115.787 Y109.277 E0.21693
G1 X116.503 Y105.770 E0.11222
G1 X122.043 Y105.770 E0.17368
G1 X122.729 Y106.158 E0.02472
G1 X123.142 Y106.328 E0.01399
G1 X123.615 Y106.476 E0.01554
G1 X124.057 Y106.573 E0.01419
G1 X124.534 Y106.635 E0.01511
G1 X125.000 Y106.655 E0.01461
G1 X125.465 Y106.635 E0.01461
G1 X125.943 Y106.573 E0.01511
G1 X126.385 Y106.476 E0.01419
G1 X126.858 Y106.328 E0.01554
G1 X127.266 Y106.160 E0.01384
G1 X127.720 Y105.926 E0.01599
G1 X127.961 Y105.770 E0.00901
G1 X133.509 Y105.770 E0.17396
G1 X134.213 Y109.216 E0.11027
G1 X134.213 Y116.196 E0.21884
G1 X125.060 Y116.196 E0.28700
G1 X125.000 Y116.573 F10800.000
G1 F1200.000
G1 X115.410 Y116.573 E0.30070
G1 X115.410 Y109.239 E0.22995
G1 X116.196 Y105.393 E0.12306
G1 X122.152 Y105.393 E0.18675
G1 X122.892 Y105.818 E0.02675
G1 X123.270 Y105.973 E0.01282
G1 X123.712 Y106.111 E0.01451
G1 X124.122 Y106.201 E0.01316
G1 X124.567 Y106.259 E0.01409
G1 X125.000 Y106.278 E0.01359
G1 X125.433 Y106.259 E0.01359
G1 X125.878 Y106.201 E0.01409
G1 X126.288 Y106.111 E0.01316
G1 X126.730 Y105.973 E0.01451
G1 X127.108 Y105.817 E0.01281
G1 X127.530 Y105.600 E0.01490
G1 X127.850 Y105.393 E0.01192
G1 X133.817 Y105.393 E0.18710
G1 X134.590 Y109.178 E0.12112
G1 X134.590 Y116.573 E0.23186
G1 X125.060 Y116.573 E0.29882
G1 X124.730 Y116.278 F10800.000
G1 E-0.80000 F2100.00000
G1 Z0.800 F10800.000
G1 X131.200 Y115.656
G1 Z0.200
G1 E0.80000 F2100.00000
G1 F1200.000
G1 X131.457 Y115.913 E0.01139
G1 X131.991 Y115.913 E0.01679
G1 X131.370 Y115.292 E0.02759
G1 X131.370 Y114.757 E0.01679
G1 X132.525 Y115.913 E0.05134
G1 X133.060 Y115.913 E0.01679
G1 X131.370 Y114.223 E0.07508
G1 X131.370 Y113.689 E0.01679
G1 X133.594 Y115.913 E0.09883
G1 X133.931 Y115.913 E0.01057
G1 X133.931 Y115.715 E0.00622
G1 X131.370 Y113.154 E0.11377
G1 X131.370 Y112.620 E0.01679
G1 X133.931 Y115.180 E0.11377
G1 X133.931 Y114.646 E0.01679
G1 X131.370 Y112.085 E0.11377
G1 X131.370 Y111.551 E0.01679
G1 X133.931 Y114.112 E0.11377
G1 X133.931 Y113.577 E0.01679
G1 X131.370 Y111.017 E0.11377
G1 X131.370 Y110.482 E0.01679
G1 X134.100 Y113.212 E0.12131
G1 E-0.80000 F2100.00000
G1 Z0.800 F10800.000
G1 X133.614 Y106.848
G1 Z0.200
G1 E0.80000 F2100.00000
G1 F1200.000
G1 X132.819 Y106.053 E0.03532
G1 X132.285 Y106.053 E0.01679
G1 X133.533 Y107.302 E0.05549
G1 X133.671 Y107.974 E0.02154
G1 X131.750 Y106.053 E0.08533
G1 X131.216 Y106.053 E0.01679
G1 X133.808 Y108.645 E0.11518
G1 X133.931 Y109.302 E0.02099
G1 X130.682 Y106.053 E0.14437
G1 X130.147 Y106.053 E0.01679
G1 X133.931 Y109.836 E0.16811
G1 X133.931 Y110.371 E0.01679
G1 X129.613 Y106.053 E0.19185
G1 X129.078 Y106.053 E0.01679
G1 X133.931 Y110.905 E0.21560
G1 X133.931 Y111.440 E0.01679
G1 X128.544 Y106.053 E0.23934
G1 X128.044 Y106.053 E0.01570
G1 X128.023 Y106.067 E0.00079
G1 X133.931 Y111.974 E0.26248
G1 X133.931 Y112.508 E0.01679
G1 X127.685 Y106.262 E0.27753
G1 X127.328 Y106.440 E0.01252
G1 X130.764 Y109.877 E0.15269
G1 X130.230 Y109.877 E0.01679
G1 X126.949 Y106.596 E0.14579
G1 X126.542 Y106.723 E0.01340
G1 X129.696 Y109.877 E0.14014
G1 X129.161 Y109.877 E0.01679
G1 X126.110 Y106.825 E0.13558
G1 X125.647 Y106.897 E0.01473
G1 X128.627 Y109.877 E0.13242
G1 X128.093 Y109.877 E0.01679
G1 X125.148 Y106.932 E0.13086
G1 X124.602 Y106.921 E0.01713
G1 X127.558 Y109.877 E0.13133
G1 X127.024 Y109.877 E0.01679
G1 X123.996 Y106.849 E0.13454
G1 X123.542 Y106.749 E0.01460
G1 X123.280 Y106.667 E0.00863
G1 X126.489 Y109.877 E0.14261
G1 X125.955 Y109.877 E0.01679
G1 X122.354 Y106.275 E0.16002
G1 X121.961 Y106.053 E0.01418
G1 X121.597 Y106.053 E0.01144
G1 X125.421 Y109.877 E0.16990
G1 X124.886 Y109.877 E0.01679
G1 X121.063 Y106.053 E0.16990
G1 X120.528 Y106.053 E0.01679
G1 X124.352 Y109.877 E0.16990
G1 X123.817 Y109.877 E0.01679
G1 X119.994 Y106.053 E0.16990
G1 X119.460 Y106.053 E0.01679
G1 X123.283 Y109.877 E0.16990
G1 X122.749 Y109.877 E0.01679
G1 X118.925 Y106.053 E0.16990
G1 X118.391 Y106.053 E0.01679
G1 X122.214 Y109.877 E0.16990
G1 X121.680 Y109.877 E0.01679
G1 X117.856 Y106.053 E0.16990
G1 X117.322 Y106.053 E0.01679
G1 X121.146 Y109.877 E0.16990
G1 X120.611 Y109.877 E0.01679
G1 X116.788 Y106.053 E0.16990
G1 X116.734 Y106.053 E0.00168
G1 X116.653 Y106.452 E0.01281
G1 X120.077 Y109.877 E0.15215
G1 X119.542 Y109.877 E0.01679
G1 X116.562 Y106.896 E0.13244
G1 X116.471 Y107.340 E0.01423
G1 X119.008 Y109.877 E0.11272
G1 X118.630 Y109.877 E0.01188
G1 X118.630 Y110.033 E0.00491
G1 X116.381 Y107.784 E0.09995
G1 X116.290 Y108.227 E0.01423
G1 X118.630 Y110.567 E0.10398
G1 X118.630 Y111.102 E0.01679
G1 X116.199 Y108.671 E0.10801
G1 X116.108 Y109.115 E0.01423
G1 X118.630 Y111.636 E0.11204
G1 X118.630 Y112.170 E0.01679
G1 X116.069 Y109.610 E0.11377
G1 X116.069 Y110.144 E0.01679
G1 X118.630 Y112.705 E0.11377
G1 X118.630 Y113.239 E0.01679
G1 X116.069 Y110.679 E0.11377
G1 X116.069 Y111.213 E0.01679
G1 X118.630 Y113.774 E0.11377
G1 X118.630 Y114.308 E0.01679
G1 X116.070 Y111.748 E0.11377
G1 X116.070 Y112.282 E0.01679
G1 X118.630 Y114.842 E0.11377
G1 X118.630 Y115.377 E0.01679
G1 X116.070 Y112.816 E0.11377
G1 X116.070 Y113.351 E0.01679
G1 X118.630 Y115.911 E0.11377
G1 X118.097 Y115.913 E0.01674
G1 X116.070 Y113.885 E0.09009
G1 X116.070 Y114.420 E0.01679
G1 X117.563 Y115.913 E0.06635
G1 X117.028 Y115.913 E0.01679
G1 X116.070 Y114.954 E0.04260
G1 X116.070 Y115.488 E0.01679
G1 X116.664 Y116.082 E0.02640
M106 S255
;BEFORE_LAYER_CHANGE
G92 E0.0
;0.4


G1 E-0.80000 F2100.00000
G1 Z0.800 F10800.000
;AFTER_LAYER_CHANGE
;0.4
M104 S210 ; set temperature
G1 X125.000 Y115.886
G1 Z0.400
G1 E0.80000 F2100.00000
M204 S800
G1 F1329
G1 X118.868 Y115.886 E0.20757
G1 X118.868 Y110.114 E0.19534
G1 X131.132 Y110.114 E0.41514
G1 X131.132 Y115.886 E0.19534
G1 X125.060 Y115.886 E0.20554
M204 S1000
G1 X125.000 Y115.478 F10800.000
M204 S800
G1 F1329
G1 X119.275 Y115.478 E0.19379
G1 X119.275 Y110.522 E0.16779
G1 X130.725 Y110.522 E0.38758
G1 X130.725 Y115.478 E0.16779
G1 X125.060 Y115.478 E0.19176
M204 S1000
G1 X124.887 Y115.862 F10800.000
G1 X125.000 Y116.151
M204 S800
G1 F1329
G1 X115.832 Y116.151 E0.31033
G1 X115.832 Y109.281 E0.23251
G1 X116.554 Y105.747 E0.12211
G1 X121.940 Y105.747 E0.18230
G1 X122.247 Y105.960 E0.01267
G1 X122.719 Y106.203 E0.01796
G1 X123.127 Y106.370 E0.01491
G1 X123.606 Y106.520 E0.01698
G1 X124.049 Y106.617 E0.01537
G1 X124.533 Y106.680 E0.01653
G1 X125.000 Y106.700 E0.01582
G1 X125.474 Y106.679 E0.01607
G1 X125.951 Y106.617 E0.01628
G1 X126.402 Y106.518 E0.01561
G1 X126.874 Y106.370 E0.01674
G1 X127.288 Y106.200 E0.01516
G1 X127.747 Y105.963 E0.01747
G1 X128.070 Y105.747 E0.01315
G1 X133.458 Y105.747 E0.18241
G1 X134.168 Y109.220 E0.12001
G1 X134.168 Y116.151 E0.23457
G1 X125.060 Y116.151 E0.30831
M204 S1000
G1 X125.000 Y116.558 F10800.000
M204 S800
G1 F1329
G1 X115.425 Y116.558 E0.32411
G1 X115.425 Y109.240 E0.24769
G1 X116.222 Y105.340 E0.13475
G1 X122.057 Y105.340 E0.19753
G1 X122.458 Y105.611 E0.01638
G1 X122.890 Y105.833 E0.01643
G1 X123.265 Y105.987 E0.01372
G1 X123.710 Y106.126 E0.01579
G1 X124.119 Y106.216 E0.01417
G1 X124.568 Y106.274 E0.01533
G1 X125.000 Y106.293 E0.01463
G1 X125.439 Y106.273 E0.01488
G1 X125.881 Y106.216 E0.01509
G1 X126.297 Y106.124 E0.01442
G1 X126.735 Y105.987 E0.01554
G1 X127.117 Y105.830 E0.01396
G1 X127.539 Y105.612 E0.01610
G1 X127.946 Y105.340 E0.01655
G1 X133.791 Y105.340 E0.19784
G1 X134.575 Y109.179 E0.13265
G1 X134.575 Y116.558 E0.24975
G1 X125.060 Y116.558 E0.32208
M204 S1000
G1 X124.730 Y116.263 F10800.000
G1 E-0.80000 F2100.00000
G1 Z1.000 F10800.000
G1 X118.746 Y115.203
G1 Z0.400
G1 E0.80000 F2100.00000
M204 S2000
G1 F1329
G1 X118.104 Y115.845 E0.03137
G1 X117.516 Y115.845 E0.02032
G1 X118.562 Y114.799 E0.05115
G1 X118.562 Y114.211 E0.02032
G1 X116.928 Y115.845 E0.07989
G1 X116.340 Y115.845 E0.02032
G1 X118.562 Y113.623 E0.10862
G1 X118.562 Y113.035 E0.02032
G1 X116.137 Y115.461 E0.11856
G1 X116.137 Y114.873 E0.02032
G1 X118.562 Y112.447 E0.11856
G1 X118.562 Y111.859 E0.02032
G1 X116.137 Y114.285 E0.11856
G1 X116.137 Y113.697 E0.02032
G1 X118.562 Y111.272 E0.11856
G1 X118.562 Y110.684 E0.02032
G1 X116.137 Y113.109 E0.11856
G1 X116.137 Y112.521 E0.02032
G1 X122.318 Y106.340 E0.30215
G1 X122.715 Y106.531 E0.01522
G1 X119.437 Y109.809 E0.16023
G1 X120.025 Y109.809 E0.02032
G1 X123.140 Y106.694 E0.15227
G1 X123.593 Y106.829 E0.01633
G1 X120.613 Y109.809 E0.14566
G1 X121.201 Y109.809 E0.02032
G1 X124.081 Y106.929 E0.14079
G1 X124.609 Y106.989 E0.01837
G1 X121.788 Y109.809 E0.13786
G1 X122.376 Y109.809 E0.02032
G1 X125.188 Y106.997 E0.13744
G1 X125.501 Y106.984 E0.01083
G1 X125.833 Y106.940 E0.01157
G1 X122.964 Y109.809 E0.14023
G1 X123.552 Y109.809 E0.02032
G1 X126.579 Y106.782 E0.14797
G1 X126.978 Y106.657 E0.01443
G1 X127.532 Y106.417 E0.02087
G1 X124.140 Y109.809 E0.16579
G1 X124.728 Y109.809 E0.02032
G1 X128.485 Y106.052 E0.18364
G1 X129.073 Y106.052 E0.02032
G1 X125.316 Y109.809 E0.18364
G1 X125.903 Y109.809 E0.02032
G1 X129.660 Y106.052 E0.18364
G1 X130.248 Y106.052 E0.02032
G1 X126.491 Y109.809 E0.18364
G1 X127.079 Y109.809 E0.02032
G1 X130.836 Y106.052 E0.18364
G1 X131.424 Y106.052 E0.02032
G1 X127.667 Y109.809 E0.18364
G1 X128.255 Y109.809 E0.02032
G1 X132.012 Y106.052 E0.18364
G1 X132.600 Y106.052 E0.02032
G1 X128.843 Y109.809 E0.18364
G1 X129.431 Y109.809 E0.02032
G1 X133.188 Y106.052 E0.18364
G1 X133.209 Y106.052 E0.00075
G1 X133.305 Y106.522 E0.01659
G1 X130.019 Y109.809 E0.16066
G1 X130.606 Y109.809 E0.02032
G1 X133.405 Y107.010 E0.13680
G1 X133.505 Y107.499 E0.01722
G1 X131.194 Y109.809 E0.11294
G1 X131.438 Y109.809 E0.00841
G1 X131.438 Y110.154 E0.01191
G1 X133.605 Y107.987 E0.10592
G1 X133.704 Y108.475 E0.01722
G1 X131.438 Y110.742 E0.11080
G1 X131.438 Y111.329 E0.02032
G1 X133.804 Y108.963 E0.11567
G1 X133.863 Y109.251 E0.01018
G1 X133.863 Y109.492 E0.00831
G1 X131.438 Y111.917 E0.11856
G1 X131.438 Y112.505 E0.02032
G1 X133.863 Y110.080 E0.11856
G1 X133.863 Y110.668 E0.02032
G1 X131.438 Y113.093 E0.11856
G1 X131.438 Y113.681 E0.02032
G1 X133.863 Y111.255 E0.11856
G1 X133.863 Y111.843 E0.02032
G1 X131.438 Y114.269 E0.11856
G1 X131.438 Y114.857 E0.02032
G1 X133.863 Y112.431 E0.11856
G1 X133.863 Y113.019 E0.02032
G1 X131.438 Y115.444 E0.11856
G1 X131.438 Y115.845 E0.01385
G1 X131.625 Y115.845 E0.00646
G1 X133.863 Y113.607 E0.10941
G1 X133.863 Y114.195 E0.02032
G1 X132.213 Y115.845 E0.08068
G1 X132.800 Y115.845 E0.02032
G1 X133.863 Y114.783 E0.05194
G1 X133.863 Y115.370 E0.02032
G1 X133.205 Y116.028 E0.03216
M204 S1000
G1 E-0.80000 F2100.00000
G1 Z1.000 F10800.000
G1 X115.954 Y112.117
G1 Z0.400
G1 E0.80000 F2100.00000
M204 S2000
G1 F1329
G1 X121.947 Y106.123 E0.29296
G1 X121.844 Y106.052 E0.00432
G1 X121.430 Y106.052 E0.01431
G1 X116.137 Y111.346 E0.25874
G1 X116.137 Y110.758 E0.02032
G1 X120.842 Y106.052 E0.23001
G1 X120.255 Y106.052 E0.02032
G1 X116.137 Y110.170 E0.20127
G1 X116.137 Y109.582 E0.02032
G1 X119.667 Y106.052 E0.17254
G1 X119.079 Y106.052 E0.02032
G1 X116.219 Y108.912 E0.13981
G1 X116.370 Y108.174 E0.02607
G1 X118.491 Y106.052 E0.10369
G1 X117.903 Y106.052 E0.02032
G1 X116.521 Y107.435 E0.06758
G1 X116.672 Y106.696 E0.02607
G1 X117.498 Y105.869 E0.04041
M204 S1000
;BEFORE_LAYER_CHANGE
G92 E0.0
;0.6


G1 E-0.80000 F2100.00000
G1 Z1.000 F10800.000
;AFTER_LAYER_CHANGE
;0.6
G1 X125.000 Y115.886
G1 Z0.600
G1 E0.80000 F2100.00000
M204 S800
G1 F1341
G1 X118.868 Y115.886 E0.20757
G1 X118.868 Y110.114 E0.19534
G1 X131.132 Y110.114 E0.41514
G1 X131.132 Y115.886 E0.19534
G1 X125.060 Y115.886 E0.20554
M204 S1000
G1 X125.000 Y115.478 F10800.000
M204 S800
G1 F1341
G1 X119.275 Y115.478 E0.19379
G1 X119.275 Y110.522 E0.16779
G1 X130.725 Y110.522 E0.38758
G1 X130.725 Y115.478 E0.16779
G1 X125.060 Y115.478 E0.19176
M204 S1000
G1 X124.887 Y115.862 F10800.000
G1 X125.000 Y116.151
M204 S800
G1 F1341
G1 X115.832 Y116.151 E0.31033
G1 X115.832 Y109.281 E0.23251
G1 X116.568 Y105.679 E0.12447
G1 X121.846 Y105.679 E0.17864
G1 X122.248 Y105.960 E0.01661
G1 X122.721 Y106.204 E0.01803
G1 X123.127 Y106.370 E0.01484
G1 X123.608 Y106.520 E0.01706
G1 X124.049 Y106.617 E0.01529
G1 X124.536 Y106.680 E0.01660
G1 X125.000 Y106.700 E0.01575
G1 X125.477 Y106.679 E0.01615
G1 X125.951 Y106.617 E0.01618
G1 X126.392 Y106.520 E0.01528
G1 X126.874 Y106.370 E0.01707
G1 X127.290 Y106.198 E0.01526
G1 X127.750 Y105.961 E0.01749
G1 X128.163 Y105.679 E0.01696
G1 X133.444 Y105.679 E0.17877
G1 X134.168 Y109.220 E0.12237
G1 X134.168 Y116.151 E0.23457
G1 X125.060 Y116.151 E0.30831
M204 S1000
G1 X125.000 Y116.558 F10800.000
M204 S800
G1 F1341
G1 X115.425 Y116.558 E0.32411
G1 X115.425 Y109.240 E0.24769
G1 X116.236 Y105.272 E0.13711
G1 X121.967 Y105.272 E0.19401
G1 X122.458 Y105.611 E0.02020
G1 X122.892 Y105.834 E0.01650
G1 X123.265 Y105.987 E0.01364
G1 X123.712 Y106.126 E0.01586
G1 X124.119 Y106.216 E0.01410
G1 X124.571 Y106.274 E0.01541
G1 X125.000 Y106.293 E0.01455
G1 X125.442 Y106.273 E0.01496
G1 X125.881 Y106.216 E0.01500
G1 X126.288 Y106.126 E0.01409
G1 X126.735 Y105.987 E0.01587
G1 X127.119 Y105.829 E0.01405
G1 X127.540 Y105.611 E0.01605
G1 X128.037 Y105.272 E0.02037
G1 X133.777 Y105.272 E0.19428
G1 X134.575 Y109.179 E0.13501
G1 X134.575 Y116.558 E0.24975
G1 X125.060 Y116.558 E0.32208
M204 S1000
G1 X124.730 Y116.263 F10800.000
G1 E-0.80000 F2100.00000
G1 Z1.200 F10800.000
G1 X131.781 Y116.028
G1 Z0.600
G1 E0.80000 F2100.00000
M204 S2000
G1 F1341
G1 X131.438 Y115.685 E0.01646
G1 X131.438 Y115.108 E0.01958
G1 X132.175 Y115.845 E0.03536
G1 X132.752 Y115.845 E0.01958
G1 X131.438 Y114.531 E0.06304
G1 X131.438 Y113.954 E0.01958
G1 X133.329 Y115.845 E0.09073
G1 X133.863 Y115.845 E0.01813
G1 X133.863 Y115.803 E0.00144
G1 X131.438 Y113.377 E0.11637
G1 X131.438 Y112.800 E0.01958
G1 X133.863 Y115.226 E0.11637
G1 X133.863 Y114.649 E0.01958
G1 X131.438 Y112.223 E0.11637
M73 P1 R79
G1 X131.438 Y111.646 E0.01958
G1 X133.863 Y114.072 E0.11637
G1 X133.863 Y113.495 E0.01958
G1 X131.438 Y111.069 E0.11637
G1 X131.438 Y110.492 E0.01958
G1 X133.863 Y112.918 E0.11637
G1 X133.863 Y112.341 E0.01958
