; G-Code generated by Simplify3D(R) Version 4.0.0
; Sep 26, 2017 at 2:16:45 PM
; Settings Summary
;   processName,Process1
;   applyToModels,crossbow 3-9-17
;   profileName,Prusa Research Original Prusa i3 MK2 (modified)
;   profileVersion,2017-09-22 14:42:29
;   baseProfile,
;   printMaterial,PLA
;   printQuality,Medium
;   printExtruders,
;   extruderName,Primary Extruder
;   extruderToolheadNumber,0
;   extruderDiameter,0.4
;   extruderAutoWidth,0
;   extruderWidth,0.4
;   extrusionMultiplier,1
;   extruderUseRetract,1
;   extruderRetractionDistance,1.5
;   extruderExtraRestartDistance,0
;   extruderRetractionZLift,0
;   extruderRetractionSpeed,1800
;   extruderUseCoasting,1
;   extruderCoastingDistance,0.2
;   extruderUseWipe,1
;   extruderWipeDistance,2
;   primaryExtruder,0
;   layerHeight,0.2
;   topSolidLayers,3
;   bottomSolidLayers,3
;   perimeterOutlines,2
;   printPerimetersInsideOut,1
;   startPointOption,3
;   startPointOriginX,250
;   startPointOriginY,210
;   sequentialIslands,0
;   spiralVaseMode,0
;   firstLayerHeightPercentage,100
;   firstLayerWidthPercentage,115
;   firstLayerUnderspeed,0.6
;   useRaft,0
;   raftExtruder,0
;   raftTopLayers,2
;   raftBaseLayers,1
;   raftOffset,2
;   raftSeparationDistance,0.14
;   raftTopInfill,100
;   aboveRaftSpeedMultiplier,0.3
;   useSkirt,0
;   skirtExtruder,0
;   skirtLayers,1
;   skirtOutlines,1
;   skirtOffset,4
;   usePrimePillar,0
;   primePillarExtruder,999
;   primePillarWidth,12
;   primePillarLocation,7
;   primePillarSpeedMultiplier,1
;   useOozeShield,0
;   oozeShieldExtruder,999
;   oozeShieldOffset,2
;   oozeShieldOutlines,1
;   oozeShieldSidewallShape,1
;   oozeShieldSidewallAngle,30
;   oozeShieldSpeedMultiplier,1
;   infillExtruder,0
;   internalInfillPattern,Rectilinear
;   externalInfillPattern,Rectilinear
;   infillPercentage,15
;   outlineOverlapPercentage,30
;   infillExtrusionWidthPercentage,125
;   minInfillLength,1
;   infillLayerInterval,1
;   internalInfillAngles,45,-45
;   overlapInternalInfillAngles,0
;   externalInfillAngles,45,-45
;   generateSupport,0
;   supportExtruder,0
;   supportInfillPercentage,30
;   supportExtraInflation,0.3
;   supportBaseLayers,0
;   denseSupportExtruder,0
;   denseSupportLayers,0
;   denseSupportInfillPercentage,70
;   supportLayerInterval,1
;   supportHorizontalPartOffset,0.2
;   supportUpperSeparationLayers,1
;   supportLowerSeparationLayers,1
;   supportType,0
;   supportGridSpacing,4
;   maxOverhangAngle,45
;   supportAngles,0
;   temperatureName,Primary Extruder,Heated Bed
;   temperatureNumber,0,0
;   temperatureSetpointCount,1,1
;   temperatureSetpointLayers,1,1
;   temperatureSetpointTemperatures,220,55
;   temperatureStabilizeAtStartup,1,1
;   temperatureHeatedBed,0,1
;   temperatureRelayBetweenLayers,1,1
;   temperatureRelayBetweenLoops,0,0
;   fanLayers,1,2
;   fanSpeeds,0,100
;   blipFanToFullPower,0
;   adjustSpeedForCooling,1
;   minSpeedLayerTime,15
;   minCoolingSpeedSlowdown,40
;   increaseFanForCooling,1
;   minFanLayerTime,45
;   maxCoolingFanSpeed,100
;   increaseFanForBridging,1
;   bridgingFanSpeed,100
;   use5D,1
;   relativeEdistances,0
;   allowEaxisZeroing,1
;   independentExtruderAxes,0
;   includeM10123,0
;   stickySupport,1
;   applyToolheadOffsets,0
;   gcodeXoffset,0
;   gcodeYoffset,0
;   gcodeZoffset,0
;   overrideMachineDefinition,1
;   machineTypeOverride,0
;   strokeXoverride,250
;   strokeYoverride,210
;   strokeZoverride,200
;   originOffsetXoverride,0
;   originOffsetYoverride,0
;   originOffsetZoverride,0
;   homeXdirOverride,-1
;   homeYdirOverride,-1
;   homeZdirOverride,-1
;   flipXoverride,1
;   flipYoverride,-1
;   flipZoverride,1
;   toolheadOffsets,0,0|0,0|0,0|0,0|0,0|0,0
;   overrideFirmwareConfiguration,1
;   firmwareTypeOverride,RepRap (Marlin/Repetier/Sprinter)
;   GPXconfigOverride,r2
;   baudRateOverride,250000
;   overridePrinterModels,1
;   printerModelsOverride
;   startingGcode,M115 U3.0.7 ; use the latest firmware version,G28 W ; home all axes without mesh bed leveling,G80 ; run mesh bed leveling routine,G1 Y-3.0 F1000.0 ; prepare to prime,G92 E0 ; reset extrusion distance,G1 X60.0 E9.0  F1000.0 ; priming,G1 X100.0 E12.5  F1000.0 ; priming
;   layerChangeGcode,
;   retractionGcode,
;   toolChangeGcode,
;   endingGcode,M106 S0 ; turn off cooling fan,M104 S0 ; turn off extruder,M140 S0 ; turn off bed,G1 X0 Y200 ; part removal,M84 ; disable motors
;   exportFileFormat,gcode
;   celebration,0
;   celebrationSong,Random Song
;   postProcessing,
;   defaultSpeed,2400
;   outlineUnderspeed,0.8
;   solidInfillUnderspeed,0.8
;   supportUnderspeed,0.8
;   rapidXYspeed,4800
;   rapidZspeed,1002
;   minBridgingArea,50
;   bridgingExtraInflation,0
;   bridgingExtrusionMultiplier,1
;   bridgingSpeedMultiplier,1
;   useFixedBridgingAngle,0
;   fixedBridgingAngle,0
;   applyBridgingToPerimeters,0
;   filamentDiameters,1.75|1.75|1.75|1.75|1.75|1.75
;   filamentPricesPerKg,46|46|46|46|46|46
;   filamentDensities,1.25|1.25|1.25|1.25|1.25|1.25
;   useMinPrintHeight,0
;   minPrintHeight,10.34
;   useMaxPrintHeight,0
;   maxPrintHeight,0
;   useDiaphragm,0
;   diaphragmLayerInterval,20
;   robustSlicing,1
;   mergeAllIntoSolid,0
;   onlyRetractWhenCrossingOutline,1
;   retractBetweenLayers,0
;   useRetractionMinTravel,1
;   retractionMinTravel,3
;   retractWhileWiping,1
;   onlyWipeOutlines,1
;   avoidCrossingOutline,1
;   maxMovementDetourFactor,3
;   toolChangeRetractionDistance,12
;   toolChangeExtraRestartDistance,-0.5
;   toolChangeRetractionSpeed,600
;   externalThinWallType,0
;   internalThinWallType,1
;   thinWallAllowedOverlapPercentage,30
;   singleExtrusionMinLength,1
;   singleExtrusionMinPrintingWidthPercentage,50
;   singleExtrusionMaxPrintingWidthPercentage,200
;   singleExtrusionEndpointExtension,0.2
;   horizontalSizeCompensation,0
G90
M82
M106 S0
M140 S55
M190 S55
M104 S220 T0
M109 S220 T0
M115 U3.0.7 ; use the latest firmware version
G28 W ; home all axes without mesh bed leveling
G80 ; run mesh bed leveling routine
G1 Y-3.0 F1000.0 ; prepare to prime
G92 E0 ; reset extrusion distance
G1 X60.0 E9.0  F1000.0 ; priming
G1 X100.0 E12.5  F1000.0 ; priming
G92 E0
G1 E-1.5000 F1800
G1 Z0.200 F1002
; process Process1
; layer 1, Z = 0.200
M105
M105
T0
; tool H0.200 W0.460
; inner perimeter
G1 X194.782 Y107.144 F4800
G1 E0.0000 F540
G92 E0
G1 X159.764 Y106.952 E1.3394 F1296
G1 X139.860 Y106.860 E2.1008
G1 X138.236 Y108.099 E2.1789
G1 X137.801 Y106.806 E2.2311
G1 X138.020 Y106.806 E2.2395
G1 X138.020 Y103.150 E2.3793
G1 X137.819 Y103.150 E2.3870
G1 X138.235 Y101.905 E2.4372
G1 X139.860 Y103.147 E2.5155
G1 X160.476 Y103.044 E3.3040
G1 X160.473 Y102.960 E3.3073
G1 X194.782 Y102.781 E4.6196
G1 X194.782 Y106.944 E4.7788
G1 X194.782 Y107.144 F1296
G1 X161.821 Y102.488 F4800
G1 X159.992 Y102.498 F4800
G1 X159.995 Y102.582 F4800
G1 X140.016 Y102.682 F4800
G1 X134.762 Y98.667 F4800
G1 X133.824 Y98.534 F4800
G92 E0
G1 X133.630 Y98.790 E0.0123 F1296
G1 X81.325 Y59.466 E2.5152
G1 X77.597 Y56.734 E2.6920
G1 X76.856 Y57.081 E2.7233
G1 X74.065 Y102.026 E4.4457
G1 X73.989 Y103.162 E4.4893
G1 X59.777 Y103.164 E5.0328
G1 X59.777 Y98.201 E5.2227
G1 X54.700 Y98.174 E5.4169
G1 X54.973 Y93.258 E5.6052
G1 X55.685 Y87.473 E5.8281
G1 X56.898 Y81.756 E6.0517
G1 X58.147 Y77.299 E6.2287
G1 X60.413 Y70.600 E6.4992
G1 X62.695 Y65.222 E6.7227
G1 X65.307 Y60.017 E6.9454
G1 X68.168 Y55.704 E7.1434
G1 X67.311 Y54.832 E7.1901
G1 X67.116 Y54.602 E7.2017
G1 X66.933 Y54.363 E7.2132
G1 X66.588 Y53.837 E7.2373
G1 X66.300 Y53.287 E7.2610
G1 X66.067 Y52.712 E7.2847
G1 X66.011 Y52.521 E7.2923
G1 X66.291 Y52.416 E7.3038
G1 X66.392 Y52.634 E7.3130
G1 X66.636 Y52.969 E7.3288
G1 X66.941 Y53.250 E7.3447
G1 X67.295 Y53.466 E7.3606
G1 X67.684 Y53.609 E7.3764
G1 X68.093 Y53.674 E7.3923
G1 X68.508 Y53.657 E7.4081
G1 X68.911 Y53.560 E7.4240
G1 X69.287 Y53.386 E7.4398
G1 X69.622 Y53.142 E7.4557
G1 X69.903 Y52.837 E7.4716
G1 X70.119 Y52.483 E7.4874
G1 X70.262 Y52.094 E7.5033
G1 X70.326 Y51.684 E7.5191
G1 X70.310 Y51.270 E7.5350
G1 X70.212 Y50.867 E7.5508
G1 X70.038 Y50.491 E7.5667
G1 X69.794 Y50.156 E7.5825
G1 X69.489 Y49.875 E7.5984
G1 X69.136 Y49.659 E7.6143
G1 X68.747 Y49.516 E7.6301
G1 X68.337 Y49.452 E7.6460
G1 X67.923 Y49.468 E7.6618
G1 X67.520 Y49.566 E7.6777
G1 X67.144 Y49.740 E7.6935
G1 X66.809 Y49.984 E7.7094
G1 X66.533 Y50.283 E7.7249
G1 X66.367 Y50.540 E7.7367
G1 X66.303 Y50.666 E7.7421
G1 X66.168 Y51.031 E7.7570
G1 X66.104 Y51.441 E7.7728
G1 X66.112 Y51.643 E7.7806
G1 X65.807 Y51.670 E7.7923
G1 X65.740 Y51.190 E7.8108
G1 X65.720 Y50.889 E7.8224
G1 X65.716 Y50.588 E7.8339
G1 X65.752 Y49.960 E7.8580
G1 X65.848 Y49.347 E7.8817
G1 X66.004 Y48.746 E7.9054
G1 X66.221 Y48.156 E7.9295
G1 X66.342 Y47.889 E7.9407
G1 X66.647 Y47.329 E7.9651
G1 X66.811 Y47.076 E7.9766
G1 X66.987 Y46.830 E7.9882
G1 X67.395 Y46.341 E8.0125
G1 X67.599 Y46.131 E8.0238
G1 X68.069 Y45.712 E8.0478
G1 X68.571 Y45.347 E8.0715
G1 X69.105 Y45.033 E8.0953
G1 X69.668 Y44.772 E8.1190
G1 X70.252 Y44.569 E8.1426
G1 X70.371 Y44.843 E8.1541
G1 X69.926 Y45.076 E8.1733
G1 X69.604 Y45.336 E8.1891
G1 X69.338 Y45.655 E8.2050
G1 X69.139 Y46.018 E8.2208
G1 X69.016 Y46.414 E8.2367
G1 X68.971 Y46.826 E8.2526
G1 X69.008 Y47.239 E8.2684
G1 X69.123 Y47.629 E8.2839
G1 X69.268 Y47.923 E8.2965
G1 X69.507 Y48.251 E8.3120
G1 X69.812 Y48.532 E8.3279
G1 X70.165 Y48.748 E8.3437
G1 X70.555 Y48.891 E8.3596
G1 X70.964 Y48.956 E8.3754
G1 X71.378 Y48.939 E8.3913
G1 X71.781 Y48.842 E8.4072
G1 X72.158 Y48.667 E8.4230
G1 X72.493 Y48.423 E8.4389
G1 X72.774 Y48.119 E8.4547
G1 X72.990 Y47.765 E8.4706
G1 X73.133 Y47.376 E8.4864
G1 X73.197 Y46.966 E8.5023
G1 X73.180 Y46.552 E8.5181
G1 X73.083 Y46.149 E8.5340
G1 X72.909 Y45.772 E8.5499
G1 X72.677 Y45.455 E8.5649
G1 X72.574 Y45.346 E8.5706
G1 X72.276 Y45.096 E8.5855
G1 X71.912 Y44.898 E8.6014
G1 X71.516 Y44.774 E8.6172
G1 X71.104 Y44.730 E8.6331
G1 X70.708 Y44.765 E8.6483
G1 X70.659 Y44.470 E8.6597
G1 X70.866 Y44.420 E8.6679
G1 X71.163 Y44.371 E8.6794
G1 X71.463 Y44.337 E8.6910
G1 X72.092 Y44.312 E8.7150
G1 X72.711 Y44.347 E8.7387
G1 X73.324 Y44.444 E8.7625
G1 X73.933 Y44.602 E8.7865
G1 X74.211 Y44.696 E8.7978
G1 X74.789 Y44.942 E8.8218
G1 X75.341 Y45.243 E8.8459
G1 X75.588 Y45.402 E8.8571
G1 X76.090 Y45.781 E8.8811
G1 X76.546 Y46.201 E8.9049
G1 X76.964 Y46.671 E8.9289
G1 X77.143 Y46.904 E8.9402
G1 X77.494 Y47.437 E8.9645
G1 X77.636 Y47.693 E8.9758
G1 X77.901 Y48.264 E8.9998
G1 X78.106 Y48.849 E9.0236
G1 X78.255 Y49.460 E9.0476
G1 X78.302 Y49.747 E9.0587
G1 X78.355 Y50.383 E9.0831
G1 X78.360 Y50.679 E9.0944
G1 X78.323 Y51.307 E9.1185
G1 X78.227 Y51.920 E9.1422
G1 X78.069 Y52.528 E9.1663
G1 X77.975 Y52.806 E9.1775
G1 X77.726 Y53.393 E9.2019
G1 X77.588 Y53.661 E9.2134
G1 X77.436 Y53.924 E9.2250
G1 X76.754 Y54.935 E9.2717
G1 X80.917 Y58.100 E9.4717
G1 X133.665 Y98.413 E12.0110
G1 X133.824 Y98.534 F1296
G92 E0
G1 E-1.5000 F1800
G1 X133.729 Y99.445 F4800
G1 X137.596 Y102.352 F4800
G1 X137.493 Y102.660 F4800
G1 X133.395 Y102.660 F4800
G1 X132.407 Y112.165 F4800
G1 E0.0000 F1800
G92 E0
G1 X132.601 Y112.420 E0.0123 F1296
G1 X76.912 Y155.260 E2.6997
G1 X77.437 Y156.079 E2.7369
G1 X77.737 Y156.631 E2.7609
G1 X77.980 Y157.211 E2.7850
G1 X78.077 Y157.497 E2.7965
G1 X78.159 Y157.787 E2.8081
G1 X78.285 Y158.404 E2.8321
G1 X78.350 Y159.029 E2.8562
G1 X78.359 Y159.323 E2.8674
G1 X78.336 Y159.907 E2.8898
G1 X78.300 Y160.243 E2.9027
G1 X78.251 Y160.539 E2.9142
G1 X78.101 Y161.158 E2.9385
G1 X78.011 Y161.438 E2.9498
G1 X77.775 Y162.021 E2.9738
G1 X77.484 Y162.578 E2.9979
G1 X77.329 Y162.827 E3.0091
G1 X76.954 Y163.341 E3.0334
G1 X76.752 Y163.579 E3.0454
G1 X76.304 Y164.032 E3.0698
G1 X76.076 Y164.231 E3.0813
G1 X75.839 Y164.418 E3.0928
G1 X75.318 Y164.770 E3.1169
G1 X74.766 Y165.070 E3.1410
G1 X74.498 Y165.190 E3.1522
G1 X73.899 Y165.408 E3.1765
G1 X73.617 Y165.488 E3.1878
G1 X72.993 Y165.616 E3.2121
G1 X72.702 Y165.654 E3.2234
G1 X72.065 Y165.689 E3.2477
G1 X71.764 Y165.683 E3.2593
G1 X71.462 Y165.662 E3.2708
G1 X70.746 Y165.560 E3.2985
G1 X70.766 Y165.262 E3.3100
G1 X71.305 Y165.259 E3.3306
G1 X71.711 Y165.176 E3.3465
G1 X72.093 Y165.015 E3.3623
G1 X72.437 Y164.782 E3.3782
G1 X72.728 Y164.488 E3.3940
G1 X72.957 Y164.142 E3.4099
G1 X73.113 Y163.758 E3.4257
G1 X73.192 Y163.351 E3.4416
G1 X73.189 Y162.936 E3.4574
G1 X73.106 Y162.530 E3.4733
G1 X72.945 Y162.148 E3.4892
G1 X72.713 Y161.805 E3.5050
G1 X72.418 Y161.513 E3.5209
G1 X72.072 Y161.285 E3.5367
G1 X71.688 Y161.129 E3.5526
G1 X71.281 Y161.050 E3.5684
G1 X70.867 Y161.052 E3.5843
G1 X70.461 Y161.136 E3.6001
G1 X70.078 Y161.296 E3.6160
G1 X69.735 Y161.529 E3.6319
G1 X69.449 Y161.818 E3.6474
G1 X69.274 Y162.070 E3.6592
G1 X69.205 Y162.194 E3.6646
G1 X69.059 Y162.553 E3.6794
G1 X68.980 Y162.960 E3.6953
G1 X68.983 Y163.375 E3.7111
G1 X69.066 Y163.781 E3.7270
G1 X69.227 Y164.163 E3.7428
G1 X69.459 Y164.506 E3.7587
G1 X69.754 Y164.798 E3.7745
G1 X70.100 Y165.026 E3.7904
G1 X70.440 Y165.165 E3.8044
G1 X70.328 Y165.458 E3.8164
G1 X69.644 Y165.218 E3.8442
G1 X69.375 Y165.101 E3.8554
G1 X68.811 Y164.803 E3.8798
G1 X68.563 Y164.648 E3.8910
G1 X68.055 Y164.276 E3.9150
G1 X67.587 Y163.857 E3.9391
G1 X67.384 Y163.645 E3.9503
G1 X66.982 Y163.162 E3.9744
G1 X66.630 Y162.641 E3.9984
G1 X66.479 Y162.379 E4.0100
G1 X66.342 Y162.110 E4.0215
G1 X66.095 Y161.523 E4.0459
G1 X66.001 Y161.245 E4.0571
G1 X65.845 Y160.636 E4.0812
G1 X65.749 Y160.014 E4.1052
G1 X65.725 Y159.713 E4.1168
G1 X65.716 Y159.411 E4.1283
G1 X65.744 Y158.775 E4.1527
G1 X65.778 Y158.483 E4.1639
G1 X65.811 Y158.315 E4.1705
G1 X66.088 Y158.327 E4.1811
G1 X66.144 Y158.862 E4.2017
G1 X66.264 Y159.250 E4.2172
G1 X66.404 Y159.524 E4.2290
G1 X66.481 Y159.643 E4.2344
G1 X66.729 Y159.941 E4.2492
G1 X67.051 Y160.202 E4.2651
G1 X67.417 Y160.396 E4.2809
G1 X67.815 Y160.514 E4.2968
G1 X68.227 Y160.552 E4.3127
G1 X68.640 Y160.509 E4.3285
G1 X69.036 Y160.386 E4.3444
G1 X69.400 Y160.189 E4.3602
G1 X69.719 Y159.924 E4.3761
G1 X69.980 Y159.602 E4.3919
G1 X70.174 Y159.235 E4.4078
G1 X70.292 Y158.838 E4.4236
G1 X70.330 Y158.425 E4.4395
G1 X70.287 Y158.013 E4.4554
G1 X70.164 Y157.617 E4.4712
G1 X69.967 Y157.252 E4.4871
G1 X69.702 Y156.934 E4.5029
G1 X69.380 Y156.672 E4.5188
G1 X69.013 Y156.479 E4.5346
G1 X68.616 Y156.361 E4.5505
G1 X68.203 Y156.323 E4.5663
G1 X67.791 Y156.366 E4.5822
G1 X67.395 Y156.488 E4.5981
G1 X67.030 Y156.686 E4.6139
G1 X66.712 Y156.951 E4.6298
G1 X66.450 Y157.273 E4.6456
G1 X66.281 Y157.595 E4.6595
G1 X66.010 Y157.485 E4.6707
G1 X66.076 Y157.263 E4.6795
G1 X66.183 Y156.981 E4.6911
G1 X66.304 Y156.704 E4.7026
G1 X66.597 Y156.148 E4.7267
G1 X66.943 Y155.623 E4.7507
G1 X67.128 Y155.384 E4.7623
G1 X67.324 Y155.154 E4.7739
G1 X68.166 Y154.299 E4.8197
G1 X65.308 Y149.983 E5.0178
G1 X62.695 Y144.778 E5.2405
G1 X60.413 Y139.400 E5.4639
G1 X58.144 Y132.689 E5.7349
G1 X56.898 Y128.244 E5.9115
G1 X55.685 Y122.527 E6.1350
G1 X54.973 Y116.742 E6.3580
G1 X54.700 Y111.826 E6.5463
G1 X59.777 Y111.799 E6.7405
G1 X59.777 Y106.842 E6.9301
G1 X73.986 Y106.835 E7.4736
G1 X74.067 Y107.986 E7.5177
G1 X76.996 Y153.142 E9.2485
G1 X77.737 Y153.487 E9.2798
G1 X81.415 Y150.780 E9.4545
G1 X132.247 Y112.286 E11.8934
G1 X132.407 Y112.165 F1296
; outer perimeter
G1 X133.829 Y112.062 F4800
G1 X136.361 Y110.115 F4800
G1 X140.016 Y107.325 F4800
G1 X159.762 Y107.416 F4800
G1 X195.183 Y107.611 F4800
G1 X195.242 Y107.606 F4800
G92 E0
G1 X159.762 Y107.412 E1.3571 F1152
G1 X140.014 Y107.320 E2.1125
G1 X136.358 Y110.111 E2.2884
G1 X77.527 Y155.367 E5.1274
G1 X77.833 Y155.844 E5.1491
G1 X78.152 Y156.432 E5.1746
G1 X78.411 Y157.048 E5.2002
G1 X78.516 Y157.361 E5.2128
G1 X78.606 Y157.679 E5.2254
G1 X78.740 Y158.333 E5.2510
G1 X78.810 Y158.998 E5.2766
G1 X78.820 Y159.325 E5.2891
G1 X78.795 Y159.941 E5.3127
G1 X78.756 Y160.306 E5.3267
G1 X78.702 Y160.630 E5.3393
G1 X78.544 Y161.283 E5.3650
G1 X78.444 Y161.594 E5.3775
G1 X78.193 Y162.214 E5.4030
G1 X77.883 Y162.806 E5.4286
G1 X77.711 Y163.084 E5.4411
G1 X77.316 Y163.627 E5.4668
G1 X77.091 Y163.890 E5.4801
G1 X76.619 Y164.368 E5.5057
G1 X76.370 Y164.585 E5.5183
G1 X76.111 Y164.789 E5.5310
