; generated by PrusaSlicer 2.0.0+ on 2019-08-26 at 10:26:09

; 

; external perimeters extrusion width = 0.45mm
; perimeters extrusion width = 0.45mm
; infill extrusion width = 0.45mm
; solid infill extrusion width = 0.45mm
; top infill extrusion width = 0.40mm
; first layer extrusion width = 0.42mm

M73 P0 R118
M201 X9000 Y9000 Z500 E10000 ; sets maximum accelerations, mm/sec^2
M203 X500 Y500 Z12 E120 ; sets maximum feedrates, mm/sec
M204 P2000 R1500 T2000 ; sets acceleration (P, T) and retract acceleration (R), mm/sec^2
M205 X10.00 Y10.00 Z0.20 E2.50 ; sets the jerk limits, mm/sec
M205 S0 T0 ; sets the minimum extruding and travel feed rate, mm/sec
M107
M115 U3.2.3 ; tell printer latest fw version
G90 ; use absolute coordinates
M83 ; extruder relative mode
M204 S2000 T1500 ; MK2 firmware only supports the old M204 format
M104 S215 ; set extruder temp
M140 S60 ; set bed temp
M190 S60 ; wait for bed temp
M109 S215 ; wait for extruder temp
G28 W ; home all without mesh bed level
G80 ; mesh bed leveling
G1 Y-3.0 F1000.0 ; go outside print area
G92 E0.0
G1 X60.0 E9.0  F1000.0 ; intro line
M73 P0 R118
G1 X100.0 E12.5 F1000.0 ; intro line
G92 E0.0
M900 K30 ; Filament gcode
G21 ; set units to millimeters
G90 ; use absolute coordinates
M83 ; use relative distances for extrusion
;BEFORE_LAYER_CHANGE
G92 E0.0
;0.2


G1 E-0.80000 F2100.00000
G1 Z0.600 F10800.000
;AFTER_LAYER_CHANGE
;0.2
G1 X53.811 Y77.196
G1 Z0.200
G1 E0.80000 F2100.00000
M204 S1000
G1 F1200
G1 X54.596 Y77.049 E0.02507
G1 X193.957 Y77.049 E4.36956
G1 X195.653 Y77.063 E0.05317
G1 X196.497 Y77.343 E0.02788
G1 X196.932 Y77.674 E0.01714
G1 X197.274 Y78.105 E0.01726
G1 X197.497 Y78.608 E0.01726
G1 X197.588 Y79.151 E0.01726
G1 X197.589 Y130.821 E1.62007
G1 X197.478 Y131.452 E0.02010
G1 X197.189 Y132.025 E0.02010
G1 X196.747 Y132.488 E0.02010
G1 X196.189 Y132.804 E0.02010
G1 X195.403 Y132.951 E0.02507
G1 X54.580 Y132.951 E4.41541
G1 X53.940 Y132.850 E0.02032
G1 X53.355 Y132.563 E0.02044
G1 X52.880 Y132.117 E0.02044
G1 X52.557 Y131.551 E0.02044
G1 X52.410 Y130.768 E0.02496
G1 X52.411 Y79.186 E1.61732
G1 X52.521 Y78.551 E0.02021
G1 X52.808 Y77.978 E0.02010
G1 X53.250 Y77.514 E0.02010
G1 X53.758 Y77.225 E0.01833
G1 F8640
G1 X54.596 Y77.049 E-0.19777
G1 X57.031 Y77.049 E-0.56223
G1 E-0.04000 F2100.00000
G1 Z0.800 F10800.000
G1 X125.000 Y129.850
G1 Z0.200
G1 E0.80000 F2100.00000
G1 F1200
G1 X55.515 Y129.850 E2.17864
G1 X55.515 Y81.660 E1.51097
G1 X194.485 Y81.660 E4.35728
G1 X194.485 Y129.850 E1.51097
G1 X125.060 Y129.850 E2.17676
G1 X125.000 Y129.473 F10800.000
G1 F1200
G1 X55.893 Y129.473 E2.16682
G1 X55.893 Y82.037 E1.48733
G1 X194.107 Y82.037 E4.33363
G1 X194.107 Y129.473 E1.48733
G1 X125.060 Y129.473 E2.16493
M73 P0 R117
G1 X124.873 Y129.853 F10800.000
G1 X125.000 Y130.176
G1 F1200
G1 X55.186 Y130.176 E2.18898
G1 X55.186 Y79.824 E1.57872
G1 X194.814 Y79.824 E4.37795
G1 X194.814 Y130.176 E1.57872
G1 X125.060 Y130.176 E2.18710
G1 X125.000 Y130.553 F10800.000
G1 F1200
G1 X54.809 Y130.553 E2.20080
G1 X54.809 Y79.447 E1.60237
G1 X195.191 Y79.447 E4.40160
G1 X195.191 Y130.553 E1.60237
G1 X125.060 Y130.553 E2.19892
G1 X124.732 Y130.255 F10800.000
G1 F8640
G1 X121.769 Y130.553 E-0.76000
G1 E-0.04000 F2100.00000
G1 Z0.800 F10800.000
G1 X56.063 Y81.547
G1 Z0.200
G1 E0.80000 F2100.00000
G1 F1200
G1 X55.469 Y80.953 E0.02641
G1 X55.469 Y80.418 E0.01679
G1 X56.428 Y81.377 E0.04261
G1 X56.962 Y81.377 E0.01679
G1 X55.692 Y80.107 E0.05643
G1 X56.226 Y80.107 E0.01679
G1 X57.496 Y81.377 E0.05643
G1 X58.031 Y81.377 E0.01679
G1 X56.761 Y80.107 E0.05643
G1 X57.295 Y80.107 E0.01679
G1 X58.565 Y81.377 E0.05643
G1 X59.100 Y81.377 E0.01679
G1 X57.830 Y80.107 E0.05643
G1 X58.364 Y80.107 E0.01679
G1 X59.634 Y81.377 E0.05643
G1 X60.168 Y81.377 E0.01679
G1 X58.899 Y80.107 E0.05643
G1 X59.433 Y80.107 E0.01679
G1 X60.703 Y81.377 E0.05643
G1 X61.237 Y81.377 E0.01679
G1 X59.967 Y80.107 E0.05643
G1 X60.502 Y80.107 E0.01679
G1 X61.772 Y81.377 E0.05643
G1 X62.306 Y81.377 E0.01679
G1 X61.036 Y80.107 E0.05643
G1 X61.571 Y80.107 E0.01679
G1 X62.841 Y81.377 E0.05643
G1 X63.375 Y81.377 E0.01679
G1 X62.105 Y80.107 E0.05643
G1 X62.640 Y80.107 E0.01679
G1 X63.909 Y81.377 E0.05643
G1 X64.444 Y81.377 E0.01679
G1 X63.174 Y80.107 E0.05643
G1 X63.708 Y80.107 E0.01679
G1 X64.978 Y81.377 E0.05643
G1 X65.513 Y81.377 E0.01679
G1 X64.243 Y80.107 E0.05643
G1 X64.777 Y80.107 E0.01679
G1 X66.047 Y81.377 E0.05643
G1 X66.581 Y81.377 E0.01679
G1 X65.312 Y80.107 E0.05643
G1 X65.846 Y80.107 E0.01679
G1 X67.116 Y81.377 E0.05643
G1 X67.650 Y81.377 E0.01679
G1 X66.380 Y80.107 E0.05643
G1 X66.915 Y80.107 E0.01679
G1 X68.185 Y81.377 E0.05643
G1 X68.719 Y81.377 E0.01679
G1 X67.449 Y80.107 E0.05643
G1 X67.984 Y80.107 E0.01679
G1 X69.254 Y81.377 E0.05643
G1 X69.788 Y81.377 E0.01679
G1 X68.518 Y80.107 E0.05643
G1 X69.053 Y80.107 E0.01679
G1 X70.322 Y81.377 E0.05643
G1 X70.857 Y81.377 E0.01679
G1 X69.587 Y80.107 E0.05643
G1 X70.121 Y80.107 E0.01679
G1 X71.391 Y81.377 E0.05643
G1 X71.926 Y81.377 E0.01679
G1 X70.656 Y80.107 E0.05643
G1 X71.190 Y80.107 E0.01679
G1 X72.460 Y81.377 E0.05643
G1 X72.995 Y81.377 E0.01679
G1 X71.725 Y80.107 E0.05643
G1 X72.259 Y80.107 E0.01679
G1 X73.529 Y81.377 E0.05643
G1 X74.063 Y81.377 E0.01679
G1 X72.793 Y80.107 E0.05643
G1 X73.328 Y80.107 E0.01679
G1 X74.598 Y81.377 E0.05643
G1 X75.132 Y81.377 E0.01679
G1 X73.862 Y80.107 E0.05643
G1 X74.397 Y80.107 E0.01679
G1 X75.667 Y81.377 E0.05643
G1 X76.201 Y81.377 E0.01679
G1 X74.931 Y80.107 E0.05643
G1 X75.466 Y80.107 E0.01679
G1 X76.735 Y81.377 E0.05643
G1 X77.270 Y81.377 E0.01679
G1 X76.000 Y80.107 E0.05643
G1 X76.534 Y80.107 E0.01679
G1 X77.804 Y81.377 E0.05643
G1 X78.339 Y81.377 E0.01679
G1 X77.069 Y80.107 E0.05643
G1 X77.603 Y80.107 E0.01679
G1 X78.873 Y81.377 E0.05643
G1 X79.408 Y81.377 E0.01679
G1 X78.138 Y80.107 E0.05643
G1 X78.672 Y80.107 E0.01679
G1 X79.942 Y81.377 E0.05643
G1 X80.476 Y81.377 E0.01679
G1 X79.207 Y80.107 E0.05643
G1 X79.741 Y80.107 E0.01679
G1 X81.011 Y81.377 E0.05643
G1 X81.545 Y81.377 E0.01679
G1 X80.275 Y80.107 E0.05643
G1 X80.810 Y80.107 E0.01679
G1 X82.080 Y81.377 E0.05643
G1 X82.614 Y81.377 E0.01679
G1 X81.344 Y80.107 E0.05643
G1 X81.879 Y80.107 E0.01679
G1 X83.149 Y81.377 E0.05643
G1 X83.683 Y81.377 E0.01679
G1 X82.413 Y80.107 E0.05643
G1 X82.947 Y80.107 E0.01679
G1 X84.217 Y81.377 E0.05643
G1 X84.752 Y81.377 E0.01679
G1 X83.482 Y80.107 E0.05643
G1 X84.016 Y80.107 E0.01679
G1 X85.286 Y81.377 E0.05643
G1 X85.821 Y81.377 E0.01679
G1 X84.551 Y80.107 E0.05643
G1 X85.085 Y80.107 E0.01679
G1 X86.355 Y81.377 E0.05643
G1 X86.889 Y81.377 E0.01679
G1 X85.620 Y80.107 E0.05643
G1 X86.154 Y80.107 E0.01679
G1 X87.424 Y81.377 E0.05643
G1 X87.958 Y81.377 E0.01679
G1 X86.688 Y80.107 E0.05643
G1 X87.223 Y80.107 E0.01679
G1 X88.493 Y81.377 E0.05643
G1 X89.027 Y81.377 E0.01679
G1 X87.757 Y80.107 E0.05643
G1 X88.292 Y80.107 E0.01679
G1 X89.562 Y81.377 E0.05643
G1 X90.096 Y81.377 E0.01679
G1 X88.826 Y80.107 E0.05643
G1 X89.361 Y80.107 E0.01679
G1 X90.630 Y81.377 E0.05643
G1 X91.165 Y81.377 E0.01679
G1 X89.895 Y80.107 E0.05643
G1 X90.429 Y80.107 E0.01679
G1 X91.699 Y81.377 E0.05643
G1 X92.234 Y81.377 E0.01679
G1 X90.964 Y80.107 E0.05643
G1 X91.498 Y80.107 E0.01679
G1 X92.768 Y81.377 E0.05643
G1 X93.302 Y81.377 E0.01679
G1 X92.033 Y80.107 E0.05643
G1 X92.567 Y80.107 E0.01679
G1 X93.837 Y81.377 E0.05643
G1 X94.371 Y81.377 E0.01679
G1 X93.101 Y80.107 E0.05643
G1 X93.636 Y80.107 E0.01679
G1 X94.906 Y81.377 E0.05643
G1 X95.440 Y81.377 E0.01679
G1 X94.170 Y80.107 E0.05643
G1 X94.705 Y80.107 E0.01679
G1 X95.975 Y81.377 E0.05643
G1 X96.509 Y81.377 E0.01679
G1 X95.239 Y80.107 E0.05643
G1 X95.774 Y80.107 E0.01679
G1 X97.043 Y81.377 E0.05643
G1 X97.578 Y81.377 E0.01679
G1 X96.308 Y80.107 E0.05643
G1 X96.842 Y80.107 E0.01679
G1 X98.112 Y81.377 E0.05643
G1 X98.647 Y81.377 E0.01679
G1 X97.377 Y80.107 E0.05643
G1 X97.911 Y80.107 E0.01679
G1 X99.181 Y81.377 E0.05643
G1 X99.716 Y81.377 E0.01679
G1 X98.446 Y80.107 E0.05643
G1 X98.980 Y80.107 E0.01679
G1 X100.250 Y81.377 E0.05643
G1 X100.784 Y81.377 E0.01679
G1 X99.514 Y80.107 E0.05643
G1 X100.049 Y80.107 E0.01679
G1 X101.319 Y81.377 E0.05643
G1 X101.853 Y81.377 E0.01679
G1 X100.583 Y80.107 E0.05643
G1 X101.118 Y80.107 E0.01679
G1 X102.388 Y81.377 E0.05643
G1 X102.922 Y81.377 E0.01679
G1 X101.652 Y80.107 E0.05643
G1 X102.187 Y80.107 E0.01679
G1 X103.456 Y81.377 E0.05643
G1 X103.991 Y81.377 E0.01679
G1 X102.721 Y80.107 E0.05643
G1 X103.255 Y80.107 E0.01679
G1 X104.525 Y81.377 E0.05643
G1 X105.060 Y81.377 E0.01679
G1 X103.790 Y80.107 E0.05643
G1 X104.324 Y80.107 E0.01679
G1 X105.594 Y81.377 E0.05643
G1 X106.129 Y81.377 E0.01679
G1 X104.859 Y80.107 E0.05643
G1 X105.393 Y80.107 E0.01679
G1 X106.663 Y81.377 E0.05643
G1 X107.197 Y81.377 E0.01679
G1 X105.928 Y80.107 E0.05643
G1 X106.462 Y80.107 E0.01679
G1 X107.732 Y81.377 E0.05643
G1 X108.266 Y81.377 E0.01679
G1 X106.996 Y80.107 E0.05643
G1 X107.531 Y80.107 E0.01679
G1 X108.801 Y81.377 E0.05643
G1 X109.335 Y81.377 E0.01679
G1 X108.065 Y80.107 E0.05643
G1 X108.600 Y80.107 E0.01679
G1 X109.870 Y81.377 E0.05643
G1 X110.404 Y81.377 E0.01679
G1 X109.134 Y80.107 E0.05643
G1 X109.668 Y80.107 E0.01679
G1 X110.938 Y81.377 E0.05643
G1 X111.473 Y81.377 E0.01679
G1 X110.203 Y80.107 E0.05643
G1 X110.737 Y80.107 E0.01679
G1 X112.007 Y81.377 E0.05643
G1 X112.542 Y81.377 E0.01679
G1 X111.272 Y80.107 E0.05643
G1 X111.806 Y80.107 E0.01679
G1 X113.076 Y81.377 E0.05643
G1 X113.610 Y81.377 E0.01679
G1 X112.341 Y80.107 E0.05643
G1 X112.875 Y80.107 E0.01679
G1 X114.145 Y81.377 E0.05643
G1 X114.679 Y81.377 E0.01679
G1 X113.409 Y80.107 E0.05643
G1 X113.944 Y80.107 E0.01679
G1 X115.214 Y81.377 E0.05643
G1 X115.748 Y81.377 E0.01679
G1 X114.478 Y80.107 E0.05643
G1 X115.013 Y80.107 E0.01679
G1 X116.283 Y81.377 E0.05643
G1 X116.817 Y81.377 E0.01679
G1 X115.547 Y80.107 E0.05643
G1 X116.082 Y80.107 E0.01679
G1 X117.351 Y81.377 E0.05643
G1 X117.886 Y81.377 E0.01679
G1 X116.616 Y80.107 E0.05643
G1 X117.150 Y80.107 E0.01679
G1 X118.420 Y81.377 E0.05643
G1 X118.955 Y81.377 E0.01679
G1 X117.685 Y80.107 E0.05643
G1 X118.219 Y80.107 E0.01679
G1 X119.489 Y81.377 E0.05643
G1 X120.023 Y81.377 E0.01679
G1 X118.754 Y80.107 E0.05643
G1 X119.288 Y80.107 E0.01679
G1 X120.558 Y81.377 E0.05643
G1 X121.092 Y81.377 E0.01679
G1 X119.822 Y80.107 E0.05643
G1 X120.357 Y80.107 E0.01679
G1 X121.627 Y81.377 E0.05643
G1 X122.161 Y81.377 E0.01679
G1 X120.891 Y80.107 E0.05643
G1 X121.426 Y80.107 E0.01679
G1 X122.696 Y81.377 E0.05643
G1 X123.230 Y81.377 E0.01679
G1 X121.960 Y80.107 E0.05643
G1 X122.495 Y80.107 E0.01679
G1 X123.764 Y81.377 E0.05643
G1 X124.299 Y81.377 E0.01679
G1 X123.029 Y80.107 E0.05643
G1 X123.563 Y80.107 E0.01679
G1 X124.833 Y81.377 E0.05643
G1 X125.368 Y81.377 E0.01679
G1 X124.098 Y80.107 E0.05643
G1 X124.632 Y80.107 E0.01679
G1 X125.902 Y81.377 E0.05643
G1 X126.437 Y81.377 E0.01679
G1 X125.167 Y80.107 E0.05643
G1 X125.701 Y80.107 E0.01679
G1 X126.971 Y81.377 E0.05643
G1 X127.505 Y81.377 E0.01679
G1 X126.235 Y80.107 E0.05643
G1 X126.770 Y80.107 E0.01679
G1 X128.040 Y81.377 E0.05643
G1 X128.574 Y81.377 E0.01679
G1 X127.304 Y80.107 E0.05643
G1 X127.839 Y80.107 E0.01679
G1 X129.109 Y81.377 E0.05643
G1 X129.643 Y81.377 E0.01679
G1 X128.373 Y80.107 E0.05643
G1 X128.908 Y80.107 E0.01679
G1 X130.177 Y81.377 E0.05643
G1 X130.712 Y81.377 E0.01679
G1 X129.442 Y80.107 E0.05643
G1 X129.976 Y80.107 E0.01679
G1 X131.246 Y81.377 E0.05643
G1 X131.781 Y81.377 E0.01679
G1 X130.511 Y80.107 E0.05643
G1 X131.045 Y80.107 E0.01679
G1 X132.315 Y81.377 E0.05643
G1 X132.850 Y81.377 E0.01679
G1 X131.580 Y80.107 E0.05643
G1 X132.114 Y80.107 E0.01679
G1 X133.384 Y81.377 E0.05643
G1 X133.918 Y81.377 E0.01679
G1 X132.649 Y80.107 E0.05643
G1 X133.183 Y80.107 E0.01679
G1 X134.453 Y81.377 E0.05643
G1 X134.987 Y81.377 E0.01679
G1 X133.717 Y80.107 E0.05643
G1 X134.252 Y80.107 E0.01679
G1 X135.522 Y81.377 E0.05643
G1 X136.056 Y81.377 E0.01679
G1 X134.786 Y80.107 E0.05643
G1 X135.321 Y80.107 E0.01679
G1 X136.591 Y81.377 E0.05643
G1 X137.125 Y81.377 E0.01679
G1 X135.855 Y80.107 E0.05643
G1 X136.389 Y80.107 E0.01679
G1 X137.659 Y81.377 E0.05643
G1 X138.194 Y81.377 E0.01679
G1 X136.924 Y80.107 E0.05643
G1 X137.458 Y80.107 E0.01679
G1 X138.728 Y81.377 E0.05643
G1 X139.263 Y81.377 E0.01679
G1 X137.993 Y80.107 E0.05643
G1 X138.527 Y80.107 E0.01679
G1 X139.797 Y81.377 E0.05643
G1 X140.331 Y81.377 E0.01679
G1 X139.062 Y80.107 E0.05643
G1 X139.596 Y80.107 E0.01679
G1 X140.866 Y81.377 E0.05643
G1 X141.400 Y81.377 E0.01679
G1 X140.130 Y80.107 E0.05643
G1 X140.665 Y80.107 E0.01679
G1 X141.935 Y81.377 E0.05643
G1 X142.469 Y81.377 E0.01679
G1 X141.199 Y80.107 E0.05643
G1 X141.734 Y80.107 E0.01679
G1 X143.004 Y81.377 E0.05643
G1 X143.538 Y81.377 E0.01679
G1 X142.268 Y80.107 E0.05643
G1 X142.803 Y80.107 E0.01679
G1 X144.072 Y81.377 E0.05643
G1 X144.607 Y81.377 E0.01679
G1 X143.337 Y80.107 E0.05643
G1 X143.871 Y80.107 E0.01679
G1 X145.141 Y81.377 E0.05643
G1 X145.676 Y81.377 E0.01679
G1 X144.406 Y80.107 E0.05643
G1 X144.940 Y80.107 E0.01679
G1 X146.210 Y81.377 E0.05643
M73 P1 R116
G1 X146.744 Y81.377 E0.01679
G1 X145.475 Y80.107 E0.05643
G1 X146.009 Y80.107 E0.01679
G1 X147.279 Y81.377 E0.05643
G1 X147.813 Y81.377 E0.01679
G1 X146.543 Y80.107 E0.05643
G1 X147.078 Y80.107 E0.01679
G1 X148.348 Y81.377 E0.05643
G1 X148.882 Y81.377 E0.01679
G1 X147.612 Y80.107 E0.05643
G1 X148.147 Y80.107 E0.01679
G1 X149.417 Y81.377 E0.05643
G1 X149.951 Y81.377 E0.01679
G1 X148.681 Y80.107 E0.05643
G1 X149.216 Y80.107 E0.01679
G1 X150.485 Y81.377 E0.05643
G1 X151.020 Y81.377 E0.01679
G1 X149.750 Y80.107 E0.05643
G1 X150.284 Y80.107 E0.01679
G1 X151.554 Y81.377 E0.05643
G1 X152.089 Y81.377 E0.01679
G1 X150.819 Y80.107 E0.05643
G1 X151.353 Y80.107 E0.01679
G1 X152.623 Y81.377 E0.05643
G1 X153.158 Y81.377 E0.01679
G1 X151.888 Y80.107 E0.05643
G1 X152.422 Y80.107 E0.01679
G1 X153.692 Y81.377 E0.05643
G1 X154.226 Y81.377 E0.01679
G1 X152.956 Y80.107 E0.05643
G1 X153.491 Y80.107 E0.01679
G1 X154.761 Y81.377 E0.05643
G1 X155.295 Y81.377 E0.01679
G1 X154.025 Y80.107 E0.05643
G1 X154.560 Y80.107 E0.01679
G1 X155.830 Y81.377 E0.05643
G1 X156.364 Y81.377 E0.01679
G1 X155.094 Y80.107 E0.05643
G1 X155.629 Y80.107 E0.01679
G1 X156.898 Y81.377 E0.05643
G1 X157.433 Y81.377 E0.01679
G1 X156.163 Y80.107 E0.05643
G1 X156.697 Y80.107 E0.01679
G1 X157.967 Y81.377 E0.05643
G1 X158.502 Y81.377 E0.01679
G1 X157.232 Y80.107 E0.05643
G1 X157.766 Y80.107 E0.01679
G1 X159.036 Y81.377 E0.05643
G1 X159.571 Y81.377 E0.01679
G1 X158.301 Y80.107 E0.05643
G1 X158.835 Y80.107 E0.01679
G1 X160.105 Y81.377 E0.05643
G1 X160.639 Y81.377 E0.01679
G1 X159.370 Y80.107 E0.05643
G1 X159.904 Y80.107 E0.01679
G1 X161.174 Y81.377 E0.05643
G1 X161.708 Y81.377 E0.01679
G1 X160.438 Y80.107 E0.05643
G1 X160.973 Y80.107 E0.01679
G1 X162.243 Y81.377 E0.05643
G1 X162.777 Y81.377 E0.01679
G1 X161.507 Y80.107 E0.05643
G1 X162.042 Y80.107 E0.01679
G1 X163.312 Y81.377 E0.05643
G1 X163.846 Y81.377 E0.01679
G1 X162.576 Y80.107 E0.05643
G1 X163.110 Y80.107 E0.01679
G1 X164.380 Y81.377 E0.05643
G1 X164.915 Y81.377 E0.01679
G1 X163.645 Y80.107 E0.05643
G1 X164.179 Y80.107 E0.01679
G1 X165.449 Y81.377 E0.05643
G1 X165.984 Y81.377 E0.01679
G1 X164.714 Y80.107 E0.05643
G1 X165.248 Y80.107 E0.01679
G1 X166.518 Y81.377 E0.05643
G1 X167.052 Y81.377 E0.01679
G1 X165.783 Y80.107 E0.05643
G1 X166.317 Y80.107 E0.01679
G1 X167.587 Y81.377 E0.05643
G1 X168.121 Y81.377 E0.01679
G1 X166.851 Y80.107 E0.05643
G1 X167.386 Y80.107 E0.01679
G1 X168.656 Y81.377 E0.05643
G1 X169.190 Y81.377 E0.01679
G1 X167.920 Y80.107 E0.05643
G1 X168.455 Y80.107 E0.01679
G1 X169.725 Y81.377 E0.05643
G1 X170.259 Y81.377 E0.01679
G1 X168.989 Y80.107 E0.05643
G1 X169.524 Y80.107 E0.01679
G1 X170.793 Y81.377 E0.05643
G1 X171.328 Y81.377 E0.01679
G1 X170.058 Y80.107 E0.05643
G1 X170.592 Y80.107 E0.01679
G1 X171.862 Y81.377 E0.05643
G1 X172.397 Y81.377 E0.01679
G1 X171.127 Y80.107 E0.05643
G1 X171.661 Y80.107 E0.01679
G1 X172.931 Y81.377 E0.05643
G1 X173.465 Y81.377 E0.01679
G1 X172.196 Y80.107 E0.05643
G1 X172.730 Y80.107 E0.01679
G1 X174.000 Y81.377 E0.05643
