; G-Code generated by Simplify3D(R) Version 4.0.0
; Apr 23, 2018 at 10:08:12 AM
; Settings Summary
;   processName,Process1
;   applyToModels,key cover Bottom,key cover Top
;   profileName,Prusa Research Original Prusa i3 MK2 (modified)
;   profileVersion,2018-04-19 11:10:56
;   baseProfile,
;   printMaterial,PLA
;   printQuality,Medium
;   printExtruders,
;   extruderName,Primary Extruder
;   extruderToolheadNumber,0
;   extruderDiameter,0.4
;   extruderAutoWidth,1
;   extruderWidth,0.48
;   extrusionMultiplier,1
;   extruderUseRetract,1
;   extruderRetractionDistance,1.5
;   extruderExtraRestartDistance,0
;   extruderRetractionZLift,0
;   extruderRetractionSpeed,1800
;   extruderUseCoasting,1
;   extruderCoastingDistance,0.2
;   extruderUseWipe,1
;   extruderWipeDistance,2
;   primaryExtruder,0
;   layerHeight,0.2
;   topSolidLayers,3
;   bottomSolidLayers,3
;   perimeterOutlines,2
;   printPerimetersInsideOut,0
;   startPointOption,3
;   startPointOriginX,0
;   startPointOriginY,0
;   sequentialIslands,0
;   spiralVaseMode,0
;   firstLayerHeightPercentage,150
;   firstLayerWidthPercentage,100
;   firstLayerUnderspeed,0.5
;   useRaft,0
;   raftExtruder,0
;   raftTopLayers,3
;   raftBaseLayers,2
;   raftOffset,3
;   raftSeparationDistance,0.14
;   raftTopInfill,100
;   aboveRaftSpeedMultiplier,0.3
;   useSkirt,0
;   skirtExtruder,0
;   skirtLayers,1
;   skirtOutlines,4
;   skirtOffset,0
;   usePrimePillar,0
;   primePillarExtruder,999
;   primePillarWidth,12
;   primePillarLocation,7
;   primePillarSpeedMultiplier,1
;   useOozeShield,0
;   oozeShieldExtruder,999
;   oozeShieldOffset,2
;   oozeShieldOutlines,1
;   oozeShieldSidewallShape,1
;   oozeShieldSidewallAngle,30
;   oozeShieldSpeedMultiplier,1
;   infillExtruder,0
;   internalInfillPattern,Rectilinear
;   externalInfillPattern,Rectilinear
;   infillPercentage,20
;   outlineOverlapPercentage,20
;   infillExtrusionWidthPercentage,100
;   minInfillLength,5
;   infillLayerInterval,1
;   internalInfillAngles,45,-45
;   overlapInternalInfillAngles,0
;   externalInfillAngles,45,-45
;   generateSupport,0
;   supportExtruder,0
;   supportInfillPercentage,30
;   supportExtraInflation,0.2
;   supportBaseLayers,0
;   denseSupportExtruder,0
;   denseSupportLayers,0
;   denseSupportInfillPercentage,70
;   supportLayerInterval,1
;   supportHorizontalPartOffset,0.2
;   supportUpperSeparationLayers,1
;   supportLowerSeparationLayers,1
;   supportType,0
;   supportGridSpacing,4
;   maxOverhangAngle,45
;   supportAngles,0
;   temperatureName,Primary Extruder,Heated Bed
;   temperatureNumber,0,0
;   temperatureSetpointCount,1,1
;   temperatureSetpointLayers,1,1
;   temperatureSetpointTemperatures,215,60
;   temperatureStabilizeAtStartup,1,1
;   temperatureHeatedBed,0,1
;   temperatureRelayBetweenLayers,0,0
;   temperatureRelayBetweenLoops,0,0
;   fanLayers,1,2
;   fanSpeeds,0,100
;   blipFanToFullPower,0
;   adjustSpeedForCooling,1
;   minSpeedLayerTime,15
;   minCoolingSpeedSlowdown,20
;   increaseFanForCooling,0
;   minFanLayerTime,45
;   maxCoolingFanSpeed,100
;   increaseFanForBridging,0
;   bridgingFanSpeed,100
;   use5D,1
;   relativeEdistances,0
;   allowEaxisZeroing,1
;   independentExtruderAxes,0
;   includeM10123,0
;   stickySupport,1
;   applyToolheadOffsets,0
;   gcodeXoffset,0
;   gcodeYoffset,0
;   gcodeZoffset,0
;   overrideMachineDefinition,1
;   machineTypeOverride,0
;   strokeXoverride,250
;   strokeYoverride,210
;   strokeZoverride,200
;   originOffsetXoverride,0
;   originOffsetYoverride,0
;   originOffsetZoverride,0
;   homeXdirOverride,-1
;   homeYdirOverride,-1
;   homeZdirOverride,-1
;   flipXoverride,1
;   flipYoverride,-1
;   flipZoverride,1
;   toolheadOffsets,0,0|0,0|0,0|0,0|0,0|0,0
;   overrideFirmwareConfiguration,1
;   firmwareTypeOverride,RepRap (Marlin/Repetier/Sprinter)
;   GPXconfigOverride,r2
;   baudRateOverride,250000
;   overridePrinterModels,1
;   printerModelsOverride
;   startingGcode,M115 U3.0.7 ; use the latest firmware version,G28 W ; home all axes without mesh bed leveling,G80 ; run mesh bed leveling routine,G1 Y-3.0 F1000.0 ; prepare to prime,G92 E0 ; reset extrusion distance,G1 X60.0 E9.0  F1000.0 ; priming,G1 X100.0 E12.5  F1000.0 ; priming
;   layerChangeGcode,
;   retractionGcode,
;   toolChangeGcode,
;   endingGcode,M106 S0 ; turn off cooling fan,M104 S0 ; turn off extruder,M140 S0 ; turn off bed,G1 X0 Y200 ; part removal,M84 ; disable motors
;   exportFileFormat,gcode
;   celebration,0
;   celebrationSong,Random Song
;   postProcessing,
;   defaultSpeed,2400
;   outlineUnderspeed,0.8
;   solidInfillUnderspeed,0.8
;   supportUnderspeed,0.8
;   rapidXYspeed,4800
;   rapidZspeed,1002
;   minBridgingArea,50
;   bridgingExtraInflation,0
;   bridgingExtrusionMultiplier,1
;   bridgingSpeedMultiplier,1
;   useFixedBridgingAngle,0
;   fixedBridgingAngle,0
;   applyBridgingToPerimeters,0
;   filamentDiameters,1.75|1.75|1.75|1.75|1.75|1.75
;   filamentPricesPerKg,46|46|46|46|46|46
;   filamentDensities,1.25|1.25|1.25|1.25|1.25|1.25
;   useMinPrintHeight,0
;   minPrintHeight,0
;   useMaxPrintHeight,0
;   maxPrintHeight,0
;   useDiaphragm,0
;   diaphragmLayerInterval,20
;   robustSlicing,1
;   mergeAllIntoSolid,0
;   onlyRetractWhenCrossingOutline,1
;   retractBetweenLayers,1
;   useRetractionMinTravel,0
;   retractionMinTravel,3
;   retractWhileWiping,1
;   onlyWipeOutlines,1
;   avoidCrossingOutline,0
;   maxMovementDetourFactor,3
;   toolChangeRetractionDistance,12
;   toolChangeExtraRestartDistance,-0.5
;   toolChangeRetractionSpeed,600
;   externalThinWallType,0
;   internalThinWallType,0
;   thinWallAllowedOverlapPercentage,25
;   singleExtrusionMinLength,1
;   singleExtrusionMinPrintingWidthPercentage,50
;   singleExtrusionMaxPrintingWidthPercentage,200
;   singleExtrusionEndpointExtension,0.2
;   horizontalSizeCompensation,0
G90
M82
M106 S0
M140 S60
M190 S60
M104 S215 T0
M109 S215 T0
M115 U3.0.7 ; use the latest firmware version
G28 W ; home all axes without mesh bed leveling
G80 ; run mesh bed leveling routine
G1 Y-3.0 F1000.0 ; prepare to prime
G92 E0 ; reset extrusion distance
G1 X60.0 E9.0  F1000.0 ; priming
G1 X100.0 E12.5  F1000.0 ; priming
G92 E0
G1 E-1.5000 F1800
G1 Z0.300 F1002
; process Process1
; layer 1, Z = 0.300
T0
; tool H0.300 W0.480
; outer perimeter
G1 X112.702 Y79.261 F4800
G1 E0.0000 F540
G92 E0
G1 X114.541 Y77.020 E0.1736 F960
G1 X116.783 Y75.180 E0.3472
G1 X119.340 Y73.813 E0.5208
G1 X120.679 Y73.407 E0.6046
G1 X129.321 Y73.407 E1.1219
G1 X130.660 Y73.813 E1.2057
G1 X133.217 Y75.180 E1.3793
G1 X135.459 Y77.020 E1.5529
G1 X137.298 Y79.261 E1.7265
G1 X138.665 Y81.818 E1.9001
G1 X139.507 Y84.593 E2.0737
G1 X139.791 Y87.478 E2.2473
G1 X139.507 Y90.364 E2.4209
G1 X138.665 Y93.139 E2.5945
G1 X137.298 Y95.696 E2.7680
G1 X135.459 Y97.937 E2.9416
G1 X133.217 Y99.777 E3.1152
G1 X130.660 Y101.143 E3.2888
G1 X127.886 Y101.985 E3.4624
G1 X125.000 Y102.269 E3.6360
G1 X122.114 Y101.985 E3.8096
G1 X119.340 Y101.143 E3.9832
G1 X116.783 Y99.777 E4.1568
G1 X114.541 Y97.937 E4.3304
G1 X112.702 Y95.696 E4.5039
G1 X111.335 Y93.139 E4.6775
G1 X110.493 Y90.364 E4.8511
G1 X110.209 Y87.478 E5.0247
G1 X110.493 Y84.593 E5.1983
G1 X111.335 Y81.818 E5.3719
G1 X112.607 Y79.437 E5.5335
G1 X112.702 Y79.261 F960
G1 X113.971 Y77.715 F2400
; inner perimeter
G1 X113.103 Y79.529 F4800
G92 E0
G1 X114.882 Y77.361 E0.1679 F1080
G1 X117.051 Y75.581 E0.3359
G1 X119.524 Y74.259 E0.5038
G1 X120.751 Y73.887 E0.5805
G1 X129.249 Y73.887 E1.0893
G1 X130.476 Y74.259 E1.1660
G1 X132.949 Y75.581 E1.3340
G1 X135.118 Y77.361 E1.5019
G1 X136.897 Y79.529 E1.6698
G1 X138.219 Y82.003 E1.8378
G1 X139.034 Y84.687 E2.0057
G1 X139.309 Y87.478 E2.1736
G1 X139.034 Y90.270 E2.3415
G1 X138.219 Y92.954 E2.5095
G1 X136.897 Y95.428 E2.6774
G1 X135.118 Y97.596 E2.8453
G1 X132.949 Y99.376 E3.0133
G1 X130.476 Y100.698 E3.1812
G1 X127.791 Y101.512 E3.3491
G1 X125.000 Y101.787 E3.5171
G1 X122.209 Y101.512 E3.6850
G1 X119.524 Y100.698 E3.8529
G1 X117.051 Y99.376 E4.0208
G1 X114.882 Y97.596 E4.1888
G1 X113.103 Y95.428 E4.3567
G1 X111.781 Y92.954 E4.5246
G1 X110.966 Y90.270 E4.6926
G1 X110.691 Y87.478 E4.8605
G1 X110.966 Y84.687 E5.0284
G1 X111.781 Y82.003 E5.1964
G1 X113.008 Y79.705 E5.3523
G1 X113.103 Y79.529 F1080
; solid layer
G1 X114.552 Y96.588 F4800
G92 E0
G1 X115.890 Y97.926 E0.1133 F960
G1 X117.265 Y99.055 E0.2198
G1 X118.193 Y99.551 E0.2828
G1 X112.927 Y94.285 E0.7287
G1 X112.148 Y92.827 E0.8277
G1 X119.652 Y100.331 E1.4630
G1 X119.672 Y100.341 E1.4644
G1 X120.633 Y100.633 E1.5245
G1 X111.846 Y91.846 E2.2685
G1 X111.550 Y90.871 E2.3294
G1 X121.607 Y100.928 E3.1809
G1 X122.284 Y101.134 E3.2233
G1 X122.514 Y101.156 E3.2371
G1 X111.322 Y89.964 E4.1847
G1 X111.248 Y89.211 E4.2300
G1 X123.267 Y101.230 E5.2476
G1 X124.020 Y101.305 E5.2929
G1 X111.174 Y88.458 E6.3806
G1 X111.100 Y87.705 E6.4259
G1 X124.773 Y101.379 E7.5835
G1 X125.000 Y101.401 E7.5972
G1 X125.432 Y101.359 E7.6232
G1 X111.120 Y87.047 E8.8349
G1 X111.181 Y86.429 E8.8721
G1 X126.050 Y101.298 E10.1310
G1 X126.668 Y101.237 E10.1682
G1 X111.241 Y85.811 E11.4742
G1 X111.302 Y85.193 E11.5114
G1 X127.285 Y101.176 E12.8646
G1 X127.716 Y101.134 E12.8905
G1 X127.874 Y101.086 E12.9004
G1 X111.393 Y84.604 E14.2958
G1 X111.551 Y84.084 E14.3284
G1 X128.395 Y100.928 E15.7546
G1 X128.916 Y100.770 E15.7872
G1 X111.709 Y83.563 E17.2440
G1 X111.867 Y83.042 E17.2766
G1 X129.436 Y100.612 E18.7642
G1 X129.957 Y100.454 E18.7968
G1 X112.025 Y82.521 E20.3151
G1 X112.137 Y82.150 E20.3383
G1 X112.205 Y82.023 E20.3469
G1 X130.456 Y100.273 E21.8921
G1 X130.898 Y100.037 E21.9222
G1 X112.442 Y81.580 E23.4848
G1 X112.678 Y81.138 E23.5148
G1 X131.340 Y99.800 E25.0949
G1 X131.783 Y99.564 E25.1249
G1 X112.915 Y80.696 E26.7224
G1 X113.151 Y80.253 E26.7524
G1 X132.225 Y99.327 E28.3674
G1 X132.667 Y99.091 E28.3974
G1 X113.387 Y79.811 E30.0298
G1 X113.424 Y79.743 E30.0344
G1 X113.683 Y79.427 E30.0588
G1 X133.051 Y98.796 E31.6987
G1 X133.424 Y98.490 E31.7275
G1 X113.989 Y79.055 E33.3730
G1 X114.295 Y78.682 E33.4019
G1 X133.797 Y98.184 E35.0531
G1 X134.169 Y97.878 E35.0819
G1 X114.601 Y78.309 E36.7387
G1 X114.907 Y77.936 E36.7676
G1 X134.542 Y97.572 E38.4301
G1 X134.845 Y97.323 E38.4535
G1 X134.903 Y97.253 E38.4590
G1 X115.225 Y77.576 E40.1250
G1 X115.598 Y77.270 E40.1539
G1 X135.208 Y96.880 E41.8142
G1 X135.514 Y96.507 E41.8431
G1 X115.971 Y76.964 E43.4978
G1 X116.344 Y76.658 E43.5266
G1 X135.820 Y96.135 E45.1757
G1 X136.126 Y95.762 E45.2045
G1 X116.717 Y76.352 E46.8479
G1 X117.089 Y76.046 E46.8768
G1 X136.432 Y95.389 E48.5145
G1 X136.576 Y95.213 E48.5281
G1 X136.702 Y94.979 E48.5440
G1 X117.499 Y75.777 E50.1698
G1 X117.941 Y75.540 E50.1998
G1 X136.938 Y94.537 E51.8082
G1 X137.174 Y94.095 E51.8382
G1 X118.384 Y75.304 E53.4291
G1 X118.826 Y75.067 E53.4592
G1 X137.411 Y93.652 E55.0327
G1 X137.647 Y93.210 E55.0627
G1 X119.269 Y74.831 E56.6188
G1 X119.672 Y74.615 E56.6461
G1 X119.718 Y74.601 E56.6490
G1 X137.877 Y92.760 E58.1865
G1 X138.035 Y92.240 E58.2191
G1 X120.239 Y74.443 E59.7258
G1 X120.760 Y74.285 E59.7584
G1 X138.193 Y91.719 E61.2344
G1 X138.351 Y91.198 E61.2670
G1 X121.424 Y74.271 E62.7001
G1 X122.103 Y74.271 E62.7408
G1 X138.509 Y90.677 E64.1298
G1 X138.655 Y90.194 E64.1600
G1 X138.660 Y90.149 E64.1628
G1 X122.781 Y74.271 E65.5071
G1 X123.460 Y74.271 E65.5478
G1 X138.721 Y89.531 E66.8398
G1 X138.781 Y88.913 E66.8770
G1 X124.139 Y74.271 E68.1167
G1 X124.818 Y74.271 E68.1573
G1 X138.842 Y88.295 E69.3447
G1 X138.903 Y87.677 E69.3819
G1 X125.497 Y74.271 E70.5170
G1 X126.176 Y74.271 E70.5576
G1 X138.873 Y86.968 E71.6326
G1 X138.798 Y86.215 E71.6779
G1 X126.854 Y74.271 E72.6892
G1 X127.533 Y74.271 E72.7298
G1 X138.724 Y85.462 E73.6773
G1 X138.655 Y84.762 E73.7194
G1 X138.634 Y84.693 E73.7237
G1 X128.212 Y74.271 E74.6062
G1 X128.891 Y74.271 E74.6468
G1 X138.339 Y83.719 E75.4467
G1 X138.043 Y82.744 E75.5077
G1 X129.734 Y74.435 E76.2112
G1 X130.328 Y74.615 E76.2484
G1 X130.897 Y74.920 E76.2870
G1 X137.559 Y81.581 E76.8510
G1 X136.779 Y80.123 E76.9500
G1 X132.497 Y75.840 E77.3126
G1 X132.355 Y75.699 F960
G92 E0
G1 E-1.5000 F1800
; outer perimeter
G1 X114.538 Y111.361 F4800
G1 E0.0000 F1800
G92 E0
G1 X116.778 Y109.522 E0.1735 F960
G1 X119.333 Y108.157 E0.3469
G1 X120.672 Y107.751 E0.4307
G1 X129.307 Y107.751 E0.9476
G1 X130.645 Y108.157 E1.0314
G1 X133.201 Y109.522 E1.2049
G1 X135.440 Y111.361 E1.3783
G1 X137.279 Y113.600 E1.5518
G1 X138.644 Y116.156 E1.7252
G1 X139.485 Y118.928 E1.8987
G1 X139.769 Y121.812 E2.0722
G1 X139.485 Y124.695 E2.2456
G1 X138.644 Y127.468 E2.4191
G1 X137.279 Y130.023 E2.5926
G1 X135.440 Y132.263 E2.7660
G1 X133.201 Y134.101 E2.9395
G1 X130.645 Y135.467 E3.1130
G1 X127.873 Y136.308 E3.2864
G1 X124.989 Y136.592 E3.4599
G1 X122.106 Y136.308 E3.6333
G1 X119.333 Y135.467 E3.8068
G1 X116.778 Y134.101 E3.9803
G1 X114.538 Y132.263 E4.1537
G1 X112.700 Y130.023 E4.3272
G1 X111.334 Y127.468 E4.5007
G1 X110.493 Y124.695 E4.6741
G1 X110.209 Y121.812 E4.8476
G1 X110.493 Y118.928 E5.0211
G1 X111.334 Y116.156 E5.1945
G1 X112.700 Y113.600 E5.3680
G1 X114.411 Y111.515 E5.5295
G1 X114.538 Y111.361 F960
G1 X116.084 Y110.092 F2400
; inner perimeter
G1 X114.879 Y111.702 F4800
G92 E0
G1 X117.046 Y109.923 E0.1678 F1080
G1 X119.518 Y108.602 E0.3356
G1 X120.743 Y108.231 E0.4123
G1 X129.236 Y108.231 E0.9207
G1 X130.461 Y108.602 E0.9974
G1 X132.933 Y109.923 E1.1652
G1 X135.099 Y111.702 E1.3330
G1 X136.877 Y113.868 E1.5008
G1 X138.199 Y116.340 E1.6686
G1 X139.012 Y119.022 E1.8364
G1 X139.287 Y121.812 E2.0042
G1 X139.012 Y124.601 E2.1720
G1 X138.199 Y127.283 E2.3398
G1 X136.878 Y129.755 E2.5076
G1 X135.099 Y131.922 E2.6754
G1 X132.933 Y133.700 E2.8432
G1 X130.461 Y135.021 E3.0110
G1 X127.779 Y135.835 E3.1788
G1 X124.989 Y136.110 E3.3466
G1 X122.200 Y135.835 E3.5144
G1 X119.518 Y135.021 E3.6822
G1 X117.046 Y133.700 E3.8500
G1 X114.879 Y131.922 E4.0178
G1 X113.101 Y129.755 E4.1856
G1 X111.780 Y127.283 E4.3534
G1 X110.966 Y124.601 E4.5212
G1 X110.691 Y121.812 E4.6890
G1 X110.966 Y119.022 E4.8568
G1 X111.780 Y116.340 E5.0246
G1 X113.101 Y113.868 E5.1924
G1 X114.752 Y111.856 E5.3483
G1 X114.879 Y111.702 F1080
; solid layer
G1 X113.259 Y129.237 F4800
G92 E0
G1 X117.564 Y133.542 E0.3645 F960
G1 X119.022 Y134.321 E0.4635
G1 X112.480 Y127.779 E1.0174
G1 X112.136 Y127.136 E1.0610
G1 X111.971 Y126.591 E1.0951
G1 X120.210 Y134.830 E1.7927
G1 X121.184 Y135.126 E1.8537
G1 X111.675 Y125.616 E2.6588
G1 X111.380 Y124.642 E2.7197
G1 X122.159 Y135.421 E3.6324
G1 X122.275 Y135.456 E3.6396
G1 X122.938 Y135.522 E3.6795
G1 X111.279 Y123.863 E4.6667
G1 X111.205 Y123.110 E4.7120
G1 X123.691 Y135.596 E5.7691
G1 X124.444 Y135.670 E5.8144
G1 X111.131 Y122.357 E6.9416
G1 X111.077 Y121.812 E6.9744
G1 X111.094 Y121.641 E6.9847
G1 X125.160 Y135.707 E8.1756
G1 X125.778 Y135.646 E8.2128
G1 X111.155 Y121.023 E9.4508
G1 X111.216 Y120.405 E9.4880
G1 X126.396 Y135.585 E10.7733
G1 X127.014 Y135.524 E10.8104
G1 X111.277 Y119.787 E12.1429
G1 X111.337 Y119.169 E12.1800
G1 X127.632 Y135.463 E13.5596
G1 X127.703 Y135.456 E13.5639
G1 X128.164 Y135.317 E13.5927
G1 X111.484 Y118.637 E15.0049
G1 X111.642 Y118.116 E15.0375
G1 X128.685 Y135.159 E16.4805
G1 X129.206 Y135.001 E16.5130
G1 X111.800 Y117.595 E17.9867
G1 X111.958 Y117.075 E18.0193
G1 X129.726 Y134.843 E19.5236
G1 X130.247 Y134.685 E19.5562
G1 X112.116 Y116.554 E21.0913
G1 X112.136 Y116.488 E21.0954
G1 X112.343 Y116.101 E21.1217
G1 X130.699 Y134.458 E22.6759
G1 X131.142 Y134.222 E22.7059
G1 X112.579 Y115.659 E24.2775
G1 X112.816 Y115.217 E24.3076
G1 X131.584 Y133.985 E25.8966
G1 X132.027 Y133.749 E25.9267
G1 X113.052 Y114.774 E27.5332
G1 X113.288 Y114.332 E27.5632
G1 X132.469 Y133.512 E29.1872
G1 X132.718 Y133.379 E29.2041
G1 X132.881 Y133.246 E29.2167
G1 X113.555 Y113.920 E30.8529
G1 X113.861 Y113.547 E30.8818
G1 X133.254 Y132.940 E32.5237
G1 X133.627 Y132.634 E32.5526
G1 X114.167 Y113.174 E34.2001
G1 X114.473 Y112.801 E34.2290
G1 X134.000 Y132.328 E35.8822
G1 X134.372 Y132.022 E35.9111
G1 X114.779 Y112.429 E37.5700
G1 X115.085 Y112.056 E37.5989
G1 X134.745 Y131.716 E39.2634
G1 X134.826 Y131.649 E39.2697
