; generated by PrusaSlicer 2.0.0+ on 2019-07-25 at 15:29:05

; 

; external perimeters extrusion width = 0.45mm
; perimeters extrusion width = 0.45mm
; infill extrusion width = 0.45mm
; solid infill extrusion width = 0.45mm
; top infill extrusion width = 0.40mm
; first layer extrusion width = 0.42mm

M73 P0 R4
M201 X9000 Y9000 Z500 E10000 ; sets maximum accelerations, mm/sec^2
M203 X500 Y500 Z12 E120 ; sets maximum feedrates, mm/sec
M204 P2000 R1500 T2000 ; sets acceleration (P, T) and retract acceleration (R), mm/sec^2
M205 X10.00 Y10.00 Z0.20 E2.50 ; sets the jerk limits, mm/sec
M205 S0 T0 ; sets the minimum extruding and travel feed rate, mm/sec
M107
M115 U3.2.3 ; tell printer latest fw version
G90 ; use absolute coordinates
M83 ; extruder relative mode
M204 S2000 T1500 ; MK2 firmware only supports the old M204 format
M104 S215 ; set extruder temp
M140 S60 ; set bed temp
M190 S60 ; wait for bed temp
M109 S215 ; wait for extruder temp
G28 W ; home all without mesh bed level
G80 ; mesh bed leveling
G1 Y-3.0 F1000.0 ; go outside print area
G92 E0.0
G1 X60.0 E9.0  F1000.0 ; intro line
M73 P1 R4
G1 X100.0 E12.5 F1000.0 ; intro line
G92 E0.0
M900 K30 ; Filament gcode
G21 ; set units to millimeters
G90 ; use absolute coordinates
M83 ; use relative distances for extrusion
;BEFORE_LAYER_CHANGE
G92 E0.0
;0.2


G1 E-0.80000 F2100.00000
G1 Z0.600 F10800.000
;AFTER_LAYER_CHANGE
;0.2
G1 X107.119 Y95.375
G1 Z0.200
G1 E0.80000 F2100.00000
M204 S1000
G1 F1200
G1 X108.560 Y94.103 E0.06027
G1 X109.804 Y93.346 E0.04566
G1 X110.923 Y92.853 E0.03832
G1 X112.282 Y92.467 E0.04432
G1 X113.654 Y92.287 E0.04339
G1 X135.750 Y92.266 E0.69279
G1 X137.402 Y92.409 E0.05200
G1 X138.978 Y92.819 E0.05106
G1 X140.507 Y93.512 E0.05264
G1 X141.712 Y94.310 E0.04530
G1 X142.857 Y95.353 E0.04857
G1 X143.910 Y96.698 E0.05356
G1 X144.695 Y98.165 E0.05218
G1 X145.223 Y99.765 E0.05283
G1 X145.402 Y100.764 E0.03179
G1 X145.484 Y101.987 E0.03846
G1 X145.481 Y108.252 E0.19642
G1 X145.240 Y110.153 E0.06009
G1 X144.712 Y111.800 E0.05422
G1 X143.871 Y113.368 E0.05579
G1 X142.772 Y114.739 E0.05510
G1 X141.456 Y115.884 E0.05469
G1 X140.202 Y116.651 E0.04608
G1 X139.071 Y117.149 E0.03877
G1 X137.704 Y117.536 E0.04454
G1 X136.309 Y117.716 E0.04409
G1 X113.718 Y117.718 E0.70833
G1 X112.555 Y117.584 E0.03670
G1 X111.472 Y117.323 E0.03494
G1 X110.498 Y116.980 E0.03237
G1 X109.505 Y116.494 E0.03466
G1 X108.646 Y115.955 E0.03179
G1 X107.744 Y115.237 E0.03615
G1 X107.076 Y114.572 E0.02954
G1 X106.353 Y113.690 E0.03575
G1 X105.785 Y112.799 E0.03315
G1 X105.239 Y111.676 E0.03913
G1 X104.838 Y110.472 E0.03980
G1 X104.618 Y109.394 E0.03450
G1 X104.516 Y108.027 E0.04299
G1 X104.516 Y101.914 E0.19168
G1 X104.591 Y100.825 E0.03422
G1 X104.759 Y99.854 E0.03089
G1 X105.069 Y98.771 E0.03532
G1 X105.414 Y97.918 E0.02887
G1 X105.904 Y96.992 E0.03283
G1 X106.428 Y96.209 E0.02954
G1 X107.081 Y95.421 E0.03208
G1 X107.387 Y95.654 F10800.000
G1 F1200
G1 X107.442 Y95.581 E0.00287
G1 X108.854 Y94.356 E0.05861
G1 X110.037 Y93.649 E0.04322
G1 X111.102 Y93.190 E0.03636
G1 X112.396 Y92.828 E0.04213
G1 X113.714 Y92.661 E0.04164
G1 X135.750 Y92.643 E0.69094
G1 X137.345 Y92.782 E0.05020
G1 X138.865 Y93.179 E0.04926
G1 X140.334 Y93.848 E0.05061
G1 X141.493 Y94.617 E0.04362
G1 X142.592 Y95.623 E0.04670
G1 X143.607 Y96.923 E0.05171
G1 X144.359 Y98.338 E0.05025
G1 X144.868 Y99.899 E0.05147
G1 X145.031 Y100.841 E0.02998
G1 X145.107 Y102.000 E0.03643
G1 X145.104 Y108.239 E0.19562
G1 X144.870 Y110.077 E0.05810
G1 X144.354 Y111.677 E0.05270
G1 X143.531 Y113.198 E0.05422
G1 X142.460 Y114.519 E0.05331
G1 X141.165 Y115.628 E0.05347
G1 X139.975 Y116.344 E0.04354
G1 X138.898 Y116.810 E0.03680
G1 X137.590 Y117.174 E0.04257
G1 X136.257 Y117.341 E0.04213
G1 X113.730 Y117.341 E0.70633
G1 X112.607 Y117.210 E0.03546
G1 X111.548 Y116.952 E0.03416
G1 X110.613 Y116.619 E0.03111
G1 X109.644 Y116.140 E0.03389
G1 X108.825 Y115.620 E0.03042
G1 X107.947 Y114.912 E0.03537
G1 X107.309 Y114.268 E0.02844
G1 X106.605 Y113.394 E0.03518
G1 X106.084 Y112.559 E0.03086
G1 X105.566 Y111.477 E0.03761
G1 X105.188 Y110.324 E0.03805
G1 X104.985 Y109.290 E0.03306
G1 X104.893 Y108.015 E0.04007
G1 X104.893 Y101.916 E0.19124
G1 X104.970 Y100.830 E0.03414
G1 X105.135 Y99.902 E0.02954
G1 X105.439 Y98.854 E0.03422
G1 X106.258 Y97.135 E0.05970
G1 X107.350 Y95.702 E0.05649
G1 F8640
G1 X107.442 Y95.581 E-0.03502
G1 X108.854 Y94.356 E-0.43160
G1 X109.944 Y93.705 E-0.29338
G1 E-0.04000 F2100.00000
G1 Z0.800 F10800.000
G1 X124.999 Y96.751
G1 Z0.200
G1 E0.80000 F2100.00000
G1 F1200
G1 X125.859 Y95.692 E0.04279
G1 X127.220 Y94.561 E0.05548
G1 X128.810 Y93.705 E0.05662
G1 X130.297 Y93.235 E0.04889
G1 X131.763 Y93.033 E0.04641
G1 X133.384 Y93.096 E0.05084
G1 X133.958 Y93.212 E0.01836
G1 X134.222 Y93.149 E0.00853
G1 X135.347 Y93.028 E0.03548
G1 X136.964 Y93.102 E0.05075
G1 X139.185 Y93.703 E0.07215
G1 X140.682 Y94.495 E0.05308
G1 X141.894 Y95.451 E0.04841
G1 X143.329 Y97.177 E0.07036
G1 X143.987 Y98.423 E0.04419
G1 X144.455 Y99.785 E0.04516
G1 X144.724 Y101.669 E0.05965
G1 X144.576 Y103.656 E0.06248
G1 X144.187 Y105.003 E0.04398
G1 X144.597 Y106.457 E0.04735
G1 X144.729 Y108.077 E0.05095
G1 X144.575 Y109.664 E0.05000
G1 X144.063 Y111.396 E0.05663
G1 X143.099 Y113.161 E0.06306
G1 X142.130 Y114.320 E0.04737
G1 X140.978 Y115.302 E0.04745
G1 X139.549 Y116.138 E0.05191
G1 X137.703 Y116.765 E0.06113
G1 X135.763 Y116.980 E0.06121
G1 X134.379 Y116.876 E0.04352
G1 X134.008 Y116.791 E0.01193
G1 X133.685 Y116.863 E0.01036
G1 X131.942 Y116.976 E0.05476
G1 X130.443 Y116.796 E0.04735
G1 X128.989 Y116.367 E0.04752
G1 X127.561 Y115.659 E0.04997
G1 X126.261 Y114.692 E0.05079
G1 X124.976 Y113.294 E0.05956
G1 X124.288 Y114.157 E0.03461
G1 X122.790 Y115.432 E0.06167
G1 X121.055 Y116.349 E0.06154
G1 X119.360 Y116.834 E0.05526
G1 X117.660 Y116.980 E0.05350
G1 X116.266 Y116.857 E0.04387
G1 X116.002 Y116.797 E0.00849
G1 X115.755 Y116.852 E0.00794
G1 X114.297 Y116.980 E0.04591
G1 X112.506 Y116.809 E0.05641
G1 X110.819 Y116.299 E0.05524
G1 X109.286 Y115.484 E0.05443
G1 X108.022 Y114.469 E0.05083
G1 X106.778 Y112.981 E0.06082
G1 X105.949 Y111.424 E0.05531
G1 X105.441 Y109.745 E0.05498
G1 X105.271 Y107.868 E0.05911
G1 X105.427 Y106.325 E0.04863
G1 X105.814 Y105.001 E0.04325
G1 X105.425 Y103.660 E0.04378
G1 X105.270 Y102.001 E0.05224
G1 X105.465 Y100.139 E0.05872
G1 X105.961 Y98.546 E0.05231
G1 X106.799 Y96.988 E0.05546
G1 X107.907 Y95.643 E0.05464
G1 X109.206 Y94.570 E0.05282
G1 X110.613 Y93.790 E0.05043
G1 X112.141 Y93.268 E0.05064
G1 X114.553 Y93.022 E0.07601
G1 X116.016 Y93.195 E0.04621
G1 X116.176 Y93.159 E0.00514
G1 X117.482 Y93.023 E0.04117
G1 X119.112 Y93.126 E0.05120
G1 X121.011 Y93.634 E0.06161
G1 X122.676 Y94.492 E0.05874
G1 X124.041 Y95.592 E0.05498
G1 X124.961 Y96.705 E0.04527
G1 X125.002 Y97.350 F10800.000
G1 F1200
G1 X126.115 Y95.970 E0.05559
G1 X127.447 Y94.863 E0.05428
G1 X128.973 Y94.046 E0.05427
G1 X130.395 Y93.600 E0.04673
G1 X131.798 Y93.408 E0.04440
G1 X133.352 Y93.472 E0.04879
G1 X133.964 Y93.599 E0.01960
G1 X134.276 Y93.523 E0.01005
G1 X135.374 Y93.404 E0.03463
G1 X136.886 Y93.471 E0.04746
G1 X139.066 Y94.062 E0.07083
G1 X140.462 Y94.803 E0.04955
G1 X141.618 Y95.708 E0.04603
G1 X143.004 Y97.371 E0.06788
G1 X143.646 Y98.586 E0.04310
G1 X144.092 Y99.890 E0.04321
G1 X144.347 Y101.701 E0.05733
G1 X144.201 Y103.607 E0.05995
G1 X143.795 Y105.002 E0.04556
G1 X144.222 Y106.506 E0.04904
G1 X144.352 Y108.090 E0.04983
G1 X144.201 Y109.609 E0.04784
G1 X143.723 Y111.234 E0.05311
G1 X142.798 Y112.934 E0.06068
G1 X141.851 Y114.065 E0.04627
G1 X140.747 Y115.004 E0.04542
G1 X139.376 Y115.802 E0.04975
G1 X137.641 Y116.392 E0.05745
G1 X135.739 Y116.603 E0.06000
G1 X134.423 Y116.502 E0.04139
G1 X134.008 Y116.404 E0.01336
G1 X133.644 Y116.488 E0.01173
G1 X131.970 Y116.599 E0.05261
G1 X130.504 Y116.424 E0.04629
G1 X129.113 Y116.010 E0.04550
G1 X127.745 Y115.329 E0.04791
G1 X126.502 Y114.401 E0.04865
G1 X125.363 Y113.158 E0.05284
G1 X125.032 Y112.613 E0.02000
G1 X124.029 Y113.883 E0.05074
G1 X122.595 Y115.108 E0.05913
G1 X120.896 Y116.006 E0.06026
G1 X119.310 Y116.460 E0.05174
G1 X117.677 Y116.603 E0.05139
G1 X116.314 Y116.482 E0.04290
G1 X116.003 Y116.409 E0.01003
G1 X115.708 Y116.478 E0.00947
G1 X114.281 Y116.603 E0.04492
G1 X112.561 Y116.435 E0.05419
G1 X110.947 Y115.943 E0.05292
G1 X109.508 Y115.178 E0.05110
G1 X108.298 Y114.212 E0.04853
G1 X107.101 Y112.785 E0.05840
G1 X106.304 Y111.297 E0.05294
G1 X105.808 Y109.655 E0.05378
G1 X105.648 Y107.888 E0.05562
G1 X105.800 Y106.381 E0.04750
G1 X106.207 Y105.001 E0.04509
G1 X105.799 Y103.607 E0.04556
G1 X105.647 Y101.985 E0.05108
G1 X105.831 Y100.232 E0.05525
G1 X106.302 Y98.708 E0.05002
G1 X107.122 Y97.183 E0.05429
G1 X108.186 Y95.898 E0.05232
G1 X109.432 Y94.873 E0.05059
G1 X110.780 Y94.128 E0.04828
G1 X112.242 Y93.632 E0.04841
G1 X114.532 Y93.399 E0.07216
G1 X115.831 Y93.544 E0.04098
G1 X116.007 Y93.585 E0.00567
G1 X116.229 Y93.532 E0.00716
G1 X117.475 Y93.401 E0.03927
G1 X119.069 Y93.502 E0.05010
G1 X120.893 Y93.992 E0.05922
G1 X122.454 Y94.797 E0.05507
G1 X123.789 Y95.873 E0.05377
G1 X124.964 Y97.303 E0.05803
G1 X124.999 Y98.194 F10800.000
G1 F1200
G1 X125.356 Y97.512 E0.02414
G1 X126.371 Y96.247 E0.05083
G1 X127.673 Y95.166 E0.05307
G1 X129.134 Y94.387 E0.05192
G1 X130.462 Y93.971 E0.04363
G1 X131.799 Y93.786 E0.04233
G1 X133.321 Y93.848 E0.04774
G1 X133.972 Y93.986 E0.02087
G1 X134.330 Y93.896 E0.01158
G1 X135.400 Y93.780 E0.03374
G1 X136.848 Y93.847 E0.04544
G1 X138.947 Y94.420 E0.06822
G1 X140.244 Y95.110 E0.04607
G1 X141.342 Y95.966 E0.04366
G1 X142.680 Y97.565 E0.06537
G1 X143.306 Y98.749 E0.04199
G1 X143.729 Y99.994 E0.04124
G1 X143.971 Y101.732 E0.05501
G1 X143.827 Y103.557 E0.05741
G1 X143.402 Y105.001 E0.04718
G1 X143.848 Y106.556 E0.05073
G1 X143.975 Y108.104 E0.04869
G1 X143.828 Y109.553 E0.04568
G1 X143.381 Y111.072 E0.04963
G1 X142.496 Y112.706 E0.05828
G1 X141.572 Y113.811 E0.04516
G1 X140.516 Y114.705 E0.04338
G1 X139.203 Y115.467 E0.04761
G1 X137.579 Y116.020 E0.05379
G1 X135.715 Y116.226 E0.05879
G1 X134.468 Y116.127 E0.03922
G1 X134.009 Y116.015 E0.01483
G1 X133.602 Y116.113 E0.01313
G1 X131.996 Y116.223 E0.05046
G1 X130.595 Y116.058 E0.04422
G1 X129.236 Y115.654 E0.04447
G1 X127.929 Y115.000 E0.04582
G1 X126.742 Y114.110 E0.04650
G1 X125.656 Y112.919 E0.05055
G1 X125.004 Y111.823 E0.03999
G1 X124.612 Y112.537 E0.02553
G1 X123.769 Y113.609 E0.04277
G1 X122.400 Y114.785 E0.05657
G1 X120.737 Y115.664 E0.05898
G1 X119.258 Y116.086 E0.04823
G1 X117.693 Y116.226 E0.04926
G1 X116.362 Y116.108 E0.04191
G1 X116.003 Y116.021 E0.01159
G1 X115.661 Y116.104 E0.01103
G1 X114.266 Y116.226 E0.04389
G1 X112.618 Y116.062 E0.05194
G1 X111.075 Y115.588 E0.05060
G1 X109.729 Y114.872 E0.04781
G1 X108.574 Y113.954 E0.04624
G1 X107.424 Y112.590 E0.05596
G1 X106.646 Y111.135 E0.05172
G1 X106.175 Y109.565 E0.05142
G1 X106.025 Y107.908 E0.05215
G1 X106.174 Y106.437 E0.04638
G1 X106.601 Y105.002 E0.04694
G1 X106.173 Y103.553 E0.04736
G1 X106.024 Y101.968 E0.04991
G1 X106.197 Y100.325 E0.05180
G1 X106.643 Y98.870 E0.04772
G1 X107.445 Y97.379 E0.05311
G1 X108.464 Y96.153 E0.04998
G1 X109.657 Y95.176 E0.04835
G1 X110.947 Y94.467 E0.04613
G1 X112.342 Y93.996 E0.04618
G1 X114.510 Y93.776 E0.06831
G1 X115.776 Y93.917 E0.03994
G1 X116.007 Y93.974 E0.00745
G1 X116.282 Y93.906 E0.00890
G1 X117.498 Y93.777 E0.03834
G1 X119.026 Y93.877 E0.04799
G1 X120.775 Y94.351 E0.05683
G1 X122.232 Y95.103 E0.05142
G1 X123.537 Y96.155 E0.05255
G1 X124.630 Y97.491 E0.05413
G1 X124.971 Y98.141 E0.02300
G1 X124.999 Y99.027 F10800.000
G1 F1200
G1 X125.663 Y97.732 E0.04561
G1 X126.653 Y96.498 E0.04960
G1 X127.898 Y95.469 E0.05066
G1 X129.295 Y94.728 E0.04958
G1 X130.530 Y94.342 E0.04057
G1 X131.801 Y94.163 E0.04025
G1 X133.289 Y94.224 E0.04668
G1 X133.979 Y94.373 E0.02215
G1 X134.384 Y94.269 E0.01312
G1 X135.426 Y94.157 E0.03284
G1 X136.809 Y94.223 E0.04341
G1 X138.826 Y94.778 E0.06561
G1 X140.025 Y95.418 E0.04263
G1 X141.066 Y96.224 E0.04129
G1 X142.357 Y97.759 E0.06287
G1 X142.954 Y98.885 E0.03994
G1 X143.367 Y100.098 E0.04019
G1 X143.595 Y101.762 E0.05266
G1 X143.453 Y103.507 E0.05487
G1 X143.009 Y104.999 E0.04883
G1 X143.474 Y106.606 E0.05245
G1 X143.598 Y108.117 E0.04754
G1 X143.455 Y109.497 E0.04350
G1 X143.040 Y110.910 E0.04618
G1 X142.195 Y112.479 E0.05587
G1 X141.293 Y113.556 E0.04404
G1 X140.286 Y114.406 E0.04132
G1 X139.030 Y115.131 E0.04547
G1 X137.517 Y115.647 E0.05014
G1 X135.692 Y115.849 E0.05756
G1 X134.515 Y115.753 E0.03702
G1 X134.009 Y115.627 E0.01637
G1 X133.558 Y115.738 E0.01456
G1 X132.022 Y115.846 E0.04827
G1 X130.656 Y115.685 E0.04314
G1 X129.360 Y115.297 E0.04242
G1 X128.142 Y114.688 E0.04271
G1 X126.983 Y113.819 E0.04540
G1 X125.948 Y112.680 E0.04825
G1 X124.990 Y111.054 E0.05919
G1 X124.305 Y112.317 E0.04504
G1 X123.484 Y113.362 E0.04167
G1 X122.172 Y114.484 E0.05415
G1 X120.579 Y115.321 E0.05640
G1 X119.206 Y115.712 E0.04477
G1 X117.710 Y115.849 E0.04712
G1 X116.410 Y115.734 E0.04089
G1 X116.002 Y115.632 E0.01318
G1 X115.612 Y115.729 E0.01261
G1 X114.251 Y115.849 E0.04284
G1 X112.675 Y115.689 E0.04968
G1 X111.203 Y115.234 E0.04829
G1 X109.949 Y114.566 E0.04455
G1 X108.850 Y113.696 E0.04396
G1 X107.747 Y112.394 E0.05349
G1 X106.987 Y110.975 E0.05048
G1 X106.541 Y109.475 E0.04904
G1 X106.402 Y107.928 E0.04871
G1 X106.547 Y106.493 E0.04524
G1 X106.995 Y105.002 E0.04880
G1 X106.546 Y103.499 E0.04917
G1 X106.402 Y101.952 E0.04873
G1 X106.563 Y100.418 E0.04837
G1 X106.984 Y99.032 E0.04540
G1 X107.768 Y97.574 E0.05191
G1 X108.742 Y96.409 E0.04761
G1 X109.882 Y95.479 E0.04612
G1 X111.113 Y94.806 E0.04399
G1 X112.442 Y94.360 E0.04396
G1 X114.488 Y94.153 E0.06448
G1 X115.720 Y94.290 E0.03888
G1 X116.006 Y94.363 E0.00925
G1 X116.336 Y94.279 E0.01067
G1 X117.522 Y94.154 E0.03738
G1 X118.982 Y94.251 E0.04588
G1 X120.620 Y94.695 E0.05321
G1 X122.042 Y95.429 E0.05018
G1 X123.285 Y96.435 E0.05013
G1 X124.325 Y97.713 E0.05166
G1 X124.972 Y98.974 E0.04443
G1 X124.861 Y99.773 F10800.000
G1 F1200
G1 X125.143 Y99.773 E0.00883
G1 X125.276 Y99.318 E0.01485
G1 X125.969 Y97.953 E0.04802
G1 X126.935 Y96.750 E0.04836
G1 X128.122 Y95.772 E0.04823
G1 X129.455 Y95.070 E0.04724
G1 X130.598 Y94.713 E0.03755
G1 X131.803 Y94.541 E0.03816
G1 X133.256 Y94.600 E0.04559
G1 X133.987 Y94.762 E0.02346
G1 X134.439 Y94.643 E0.01467
G1 X135.451 Y94.533 E0.03191
G1 X136.769 Y94.598 E0.04136
G1 X138.705 Y95.136 E0.06300
G1 X139.808 Y95.726 E0.03924
G1 X140.792 Y96.483 E0.03892
G1 X142.033 Y97.954 E0.06034
G1 X142.614 Y99.048 E0.03882
G1 X143.003 Y100.201 E0.03819
G1 X143.218 Y101.792 E0.05032
G1 X143.079 Y103.456 E0.05235
G1 X142.692 Y104.761 E0.04267
G1 X142.580 Y104.999 E0.00826
G1 X142.690 Y105.233 E0.00809
G1 X143.099 Y106.655 E0.04642
G1 X143.220 Y108.130 E0.04639
G1 X143.081 Y109.440 E0.04132
G1 X142.699 Y110.749 E0.04275
G1 X141.872 Y112.283 E0.05463
G1 X141.016 Y113.301 E0.04170
G1 X140.057 Y114.106 E0.03927
G1 X138.858 Y114.795 E0.04334
G1 X137.455 Y115.275 E0.04651
G1 X135.669 Y115.472 E0.05633
G1 X134.564 Y115.378 E0.03479
G1 X134.009 Y115.237 E0.01795
G1 X133.513 Y115.363 E0.01603
G1 X132.048 Y115.470 E0.04607
G1 X130.747 Y115.319 E0.04105
G1 X129.513 Y114.952 E0.04038
G1 X128.353 Y114.375 E0.04061
G1 X127.249 Y113.552 E0.04319
G1 X126.263 Y112.472 E0.04585
G1 X125.444 Y111.082 E0.05059
G1 X125.140 Y110.169 E0.03014
G1 X124.867 Y110.170 E0.00855
G1 X124.608 Y110.965 E0.02621
G1 X123.998 Y112.097 E0.04031
G1 X123.199 Y113.114 E0.04055
G1 X121.944 Y114.183 E0.05171
G1 X120.422 Y114.977 E0.05380
G1 X119.121 Y115.345 E0.04241
G1 X117.726 Y115.472 E0.04391
G1 X116.460 Y115.359 E0.03987
G1 X116.002 Y115.242 E0.01480
G1 X115.563 Y115.355 E0.01421
G1 X114.236 Y115.471 E0.04177
G1 X112.733 Y115.316 E0.04740
G1 X111.333 Y114.879 E0.04597
G1 X110.169 Y114.259 E0.04135
G1 X109.124 Y113.437 E0.04168
G1 X108.070 Y112.198 E0.05100
G1 X107.329 Y110.814 E0.04923
G1 X106.908 Y109.387 E0.04665
G1 X106.779 Y107.947 E0.04531
G1 X106.914 Y106.583 E0.04298
G1 X107.344 Y105.150 E0.04694
G1 X107.417 Y104.992 E0.00545
G1 X107.297 Y104.734 E0.00893
