; generated by PrusaSlicer 2.1.1+win64 on 2019-12-18 at 22:54:21 UTC

; 

; external perimeters extrusion width = 0.45mm
; perimeters extrusion width = 0.45mm
; infill extrusion width = 0.45mm
; solid infill extrusion width = 0.45mm
; top infill extrusion width = 0.40mm
; support material extrusion width = 0.35mm
; first layer extrusion width = 0.42mm

M73 P0 R43
M201 X9000 Y9000 Z500 E10000 ; sets maximum accelerations, mm/sec^2
M203 X500 Y500 Z12 E120 ; sets maximum feedrates, mm/sec
M204 P2000 R1500 T2000 ; sets acceleration (P, T) and retract acceleration (R), mm/sec^2
M205 X10.00 Y10.00 Z0.20 E2.50 ; sets the jerk limits, mm/sec
M205 S0 T0 ; sets the minimum extruding and travel feed rate, mm/sec
M107
M862.3 P "MK2S" ; printer model check
M862.1 P0.4 ; nozzle diameter check
M115 U3.2.3 ; tell printer latest fw version
G90 ; use absolute coordinates
M83 ; extruder relative mode
M204 S2000 T1500 ; MK2 firmware only supports the old M204 format
M104 S215 ; set extruder temp
M140 S60 ; set bed temp
M190 S60 ; wait for bed temp
M109 S215 ; wait for extruder temp
G28 W ; home all without mesh bed level
G80 ; mesh bed leveling
G1 Y-3.0 F1000.0 ; go outside print area
G92 E0.0
G1 X60.0 E9.0  F1000.0 ; intro line
M73 P0 R43
G1 X100.0 E12.5 F1000.0 ; intro line
G92 E0.0
G21 ; set units to millimeters
G90 ; use absolute coordinates
M83 ; use relative distances for extrusion
M900 K30 ; Filament gcode
;BEFORE_LAYER_CHANGE
G92 E0.0
;0.2


G1 E-0.80000 F2100.00000
G1 Z0.600 F10800.000
;AFTER_LAYER_CHANGE
;0.2
G1 X106.638 Y58.812
G1 Z0.200
G1 E0.80000 F2100.00000
M204 S1000
G1 F1200
G1 X107.488 Y58.636 E0.02721
G1 X142.500 Y58.635 E1.09778
G1 X143.374 Y58.818 E0.02799
G1 X145.554 Y59.968 E0.07727
G1 X149.600 Y62.245 E0.14557
G1 X151.615 Y63.513 E0.07467
G1 X153.560 Y64.878 E0.07451
G1 X155.423 Y66.329 E0.07403
G1 X157.207 Y67.867 E0.07384
G1 X158.901 Y69.479 E0.07332
G1 X160.537 Y71.197 E0.07439
G1 X162.074 Y72.979 E0.07381
G1 X163.523 Y74.835 E0.07380
G1 X164.877 Y76.758 E0.07374
G1 X166.137 Y78.749 E0.07388
G1 X167.298 Y80.797 E0.07381
G1 X168.356 Y82.899 E0.07380
G1 X169.301 Y85.031 E0.07312
G1 X170.157 Y87.248 E0.07451
G1 X170.895 Y89.483 E0.07381
G1 X171.523 Y91.750 E0.07374
G1 X172.039 Y94.046 E0.07381
G1 X172.441 Y96.368 E0.07388
G1 X172.729 Y98.704 E0.07381
G1 X172.902 Y101.052 E0.07380
G1 X172.960 Y103.405 E0.07381
G1 X172.902 Y105.759 E0.07382
G1 X172.729 Y108.106 E0.07381
G1 X172.441 Y110.442 E0.07380
G1 X172.039 Y112.762 E0.07381
G1 X171.523 Y115.059 E0.07382
G1 X170.895 Y117.327 E0.07381
G1 X170.156 Y119.562 E0.07380
G1 X169.319 Y121.735 E0.07300
G1 X168.357 Y123.908 E0.07451
G1 X167.297 Y126.013 E0.07392
G1 X166.136 Y128.061 E0.07380
G1 X164.877 Y130.050 E0.07381
G1 X163.521 Y131.975 E0.07382
G1 X162.073 Y133.831 E0.07381
G1 X160.537 Y135.611 E0.07374
G1 X158.914 Y137.316 E0.07380
G1 X157.207 Y138.941 E0.07388
G1 X155.425 Y140.479 E0.07381
G1 X153.569 Y141.927 E0.07380
G1 X151.646 Y143.281 E0.07374
G1 X149.655 Y144.542 E0.07388
G1 X147.607 Y145.702 E0.07381
G1 X145.505 Y146.760 E0.07380
G1 X143.356 Y147.713 E0.07369
G1 X141.156 Y148.561 E0.07393
G1 X138.921 Y149.299 E0.07381
G1 X136.652 Y149.927 E0.07380
G1 X134.356 Y150.443 E0.07381
G1 X132.036 Y150.845 E0.07382
G1 X129.700 Y151.133 E0.07381
G1 X127.352 Y151.307 E0.07380
G1 X125.001 Y151.364 E0.07374
G1 X122.646 Y151.307 E0.07388
G1 X120.298 Y151.133 E0.07381
G1 X117.964 Y150.845 E0.07374
G1 X115.643 Y150.443 E0.07387
G1 X113.345 Y149.927 E0.07382
G1 X111.077 Y149.299 E0.07381
G1 X108.844 Y148.561 E0.07374
G1 X106.669 Y147.723 E0.07307
G1 X104.493 Y146.759 E0.07462
G1 X102.391 Y145.701 E0.07381
G1 X100.343 Y144.540 E0.07380
G1 X98.356 Y143.282 E0.07374
G1 X96.429 Y141.925 E0.07388
G1 X94.574 Y140.477 E0.07381
G1 X92.791 Y138.940 E0.07380
G1 X91.086 Y137.317 E0.07381
G1 X89.463 Y135.611 E0.07382
G1 X87.926 Y133.829 E0.07381
G1 X86.477 Y131.973 E0.07380
G1 X85.123 Y130.050 E0.07374
G1 X83.863 Y128.060 E0.07388
G1 X82.702 Y126.011 E0.07381
G1 X81.645 Y123.911 E0.07374
G1 X80.692 Y121.762 E0.07369
G1 X79.843 Y119.560 E0.07400
G1 X79.105 Y117.325 E0.07381
G1 X78.477 Y115.057 E0.07380
G1 X77.961 Y112.760 E0.07381
G1 X77.559 Y110.440 E0.07382
G1 X77.271 Y108.104 E0.07381
G1 X77.097 Y105.756 E0.07380
G1 X77.040 Y103.403 E0.07381
G1 X77.098 Y101.050 E0.07382
G1 X77.271 Y98.702 E0.07381
G1 X77.559 Y96.366 E0.07380
G1 X77.961 Y94.049 E0.07374
G1 X78.477 Y91.750 E0.07388
G1 X79.105 Y89.481 E0.07381
G1 X79.844 Y87.246 E0.07380
G1 X80.681 Y85.073 E0.07300
G1 X81.645 Y82.897 E0.07462
G1 X82.702 Y80.798 E0.07369
G1 X83.863 Y78.749 E0.07385
G1 X85.123 Y76.758 E0.07387
G1 X86.479 Y74.833 E0.07382
G1 X87.927 Y72.978 E0.07381
G1 X89.463 Y71.197 E0.07374
G1 X91.077 Y69.501 E0.07341
G1 X92.793 Y67.867 E0.07428
G1 X94.578 Y66.329 E0.07389
G1 X96.439 Y64.879 E0.07395
G1 X98.348 Y63.538 E0.07318
G1 X102.392 Y61.091 E0.14817
G1 X106.585 Y58.841 E0.14924
G1 E-0.80000 F2100.00000
G1 Z0.800 F10800.000
G1 X107.856 Y69.525
G1 Z0.200
G1 E0.80000 F2100.00000
G1 F1200
G1 X108.307 Y69.074 E0.02000
G1 X108.841 Y69.607 E0.02365
G1 X108.026 Y70.422 E0.03612
G1 X108.026 Y71.488 E0.03344
G1 X109.374 Y70.140 E0.05977
G1 X109.907 Y70.674 E0.02365
G1 X108.026 Y72.555 E0.08341
G1 X108.026 Y73.621 E0.03344
G1 X110.440 Y71.207 E0.10706
G1 X110.974 Y71.740 E0.02365
G1 X95.432 Y87.282 E0.68916
G1 X94.550 Y89.003 E0.06060
G1 X94.369 Y89.411 E0.01403
G1 X111.507 Y72.273 E0.75993
G1 X112.040 Y72.807 E0.02365
G1 X93.596 Y91.251 E0.81786
G1 X93.285 Y92.056 E0.02706
G1 X93.003 Y92.910 E0.02819
G1 X112.574 Y73.340 E0.86778
G1 X112.997 Y73.763 E0.01878
G1 X112.073 Y74.688 E0.04098
G1 X112.183 Y74.797 E0.00487
G1 X92.542 Y94.438 E0.87089
G1 X92.326 Y95.220 E0.02543
G1 X92.181 Y95.866 E0.02077
G1 X112.716 Y75.331 E0.91057
G1 X112.997 Y75.612 E0.01247
G1 X101.906 Y86.703 E0.49179
G1 X102.158 Y86.955 E0.01118
G1 X91.897 Y97.216 E0.45500
G1 X91.676 Y98.504 E0.04097
G1 X102.691 Y87.488 E0.48846
G1 X102.830 Y87.627 E0.00616
G1 X100.058 Y90.400 E0.12295
G1 X100.452 Y90.794 E0.01749
G1 X91.526 Y99.721 E0.39581
G1 X91.479 Y100.103 E0.01207
G1 X91.420 Y100.892 E0.02484
G1 X99.137 Y93.176 E0.34216
G1 X99.670 Y93.709 E0.02365
G1 X91.350 Y102.029 E0.36892
G1 X91.323 Y103.123 E0.03430
G1 X98.355 Y96.091 E0.31180
G1 X98.888 Y96.624 E0.02365
G1 X91.335 Y104.177 E0.33491
G1 X91.368 Y105.211 E0.03242
G1 X98.497 Y98.082 E0.31611
G1 X99.030 Y98.615 E0.02365
G1 X91.441 Y106.204 E0.33650
G1 X91.536 Y107.176 E0.03061
G1 X97.715 Y100.997 E0.27397
G1 X98.209 Y101.491 E0.02190
G1 X97.285 Y102.415 E0.04098
G1 X97.324 Y102.454 E0.00174
G1 X91.654 Y108.125 E0.25145
G1 X91.802 Y109.043 E0.02917
G1 X97.857 Y102.988 E0.26852
G1 X98.209 Y103.339 E0.01559
G1 X97.285 Y104.263 E0.04098
G1 X97.466 Y104.445 E0.00805
G1 X91.959 Y109.952 E0.24420
G1 X92.154 Y110.824 E0.02801
G1 X98.000 Y104.978 E0.25921
G1 X98.209 Y105.188 E0.00928
G1 X97.285 Y106.112 E0.04098
G1 X97.609 Y106.436 E0.01436
G1 X92.354 Y111.691 E0.23301
G1 X92.585 Y112.526 E0.02718
G1 X98.142 Y106.969 E0.24640
G1 X98.675 Y107.502 E0.02365
G1 X92.824 Y113.354 E0.25948
G1 X93.088 Y114.156 E0.02647
G1 X98.284 Y108.960 E0.23040
G1 X98.818 Y109.493 E0.02365
G1 X93.361 Y114.949 E0.24194
G1 X93.658 Y115.719 E0.02587
G1 X98.427 Y110.951 E0.21144
G1 X98.960 Y111.484 E0.02365
G1 X93.963 Y116.481 E0.22158
G1 X94.291 Y117.220 E0.02534
G1 X99.493 Y112.017 E0.23070
G1 X100.026 Y112.551 E0.02365
G1 X94.624 Y117.953 E0.23954
G1 X94.981 Y118.662 E0.02490
G1 X99.635 Y114.008 E0.20637
G1 X100.169 Y114.541 E0.02365
G1 X95.342 Y119.368 E0.21402
G1 X95.728 Y120.049 E0.02454
G1 X100.702 Y115.075 E0.22057
G1 X100.982 Y115.354 E0.01241
G1 X100.058 Y116.279 E0.04098
G1 X100.311 Y116.532 E0.01124
G1 X96.114 Y120.729 E0.18611
G1 X96.527 Y121.382 E0.02424
G1 X100.844 Y117.065 E0.19143
G1 X101.378 Y117.599 E0.02365
G1 X96.941 Y122.036 E0.19674
G1 X97.378 Y122.665 E0.02403
G1 X101.911 Y118.132 E0.20099
G1 X102.444 Y118.665 E0.02365
G1 X97.819 Y123.290 E0.20509
G1 X98.279 Y123.897 E0.02387
G1 X102.053 Y120.123 E0.16737
G1 X102.586 Y120.656 E0.02365
G1 X98.746 Y124.496 E0.17028
G1 X99.228 Y125.081 E0.02376
G1 X103.120 Y121.189 E0.17257
G1 X103.653 Y121.723 E0.02365
G1 X99.722 Y125.654 E0.17431
G1 X100.225 Y126.217 E0.02368
G1 X104.186 Y122.256 E0.17565
G1 X104.720 Y122.789 E0.02365
G1 X100.745 Y126.763 E0.17623
G1 X101.269 Y127.306 E0.02365
G1 X105.253 Y123.322 E0.17663
G1 X105.786 Y123.856 E0.02365
G1 X101.816 Y127.826 E0.17604
G1 X102.362 Y128.346 E0.02365
G1 X106.319 Y124.389 E0.17546
G1 X106.853 Y124.922 E0.02365
G1 X102.934 Y128.841 E0.17375
G1 X103.507 Y129.335 E0.02371
G1 X107.386 Y125.455 E0.17201
G1 X107.919 Y125.989 E0.02365
G1 X104.100 Y129.808 E0.16935
G1 X104.699 Y130.275 E0.02383
G1 X108.452 Y126.522 E0.16643
G1 X108.804 Y126.874 E0.01559
G1 X109.728 Y125.949 E0.04098
G1 X109.910 Y126.131 E0.00806
G1 X105.314 Y130.727 E0.20378
G1 X105.940 Y131.167 E0.02400
G1 X110.443 Y126.664 E0.19968
G1 X110.976 Y127.198 E0.02365
G1 X106.578 Y131.596 E0.19503
G1 X107.231 Y132.009 E0.02424
G1 X111.510 Y127.731 E0.18972
G1 X112.043 Y128.264 E0.02365
G1 X107.893 Y132.414 E0.18403
G1 X108.574 Y132.800 E0.02454
G1 X113.501 Y127.873 E0.21847
G1 X114.034 Y128.406 E0.02365
G1 X109.260 Y133.180 E0.21168
G1 X109.969 Y133.537 E0.02490
G1 X114.567 Y128.940 E0.20387
G1 X115.100 Y129.473 E0.02365
G1 X110.682 Y133.891 E0.19591
G1 X111.421 Y134.219 E0.02534
G1 X116.558 Y129.082 E0.22777
G1 X117.091 Y129.615 E0.02365
G1 X112.162 Y134.544 E0.21856
G1 X112.932 Y134.841 E0.02587
G1 X117.624 Y130.148 E0.20808
G1 X118.046 Y130.571 E0.01871
G1 X118.971 Y129.646 E0.04098
G1 X119.082 Y129.758 E0.00493
G1 X113.704 Y135.136 E0.23848
G1 X114.505 Y135.401 E0.02647
G1 X119.615 Y130.291 E0.22658
G1 X119.895 Y130.571 E0.01240
G1 X120.819 Y129.646 E0.04098
G1 X121.073 Y129.900 E0.01124
G1 X115.311 Y135.662 E0.25550
G1 X116.146 Y135.893 E0.02718
G1 X121.606 Y130.433 E0.24211
G1 X121.743 Y130.571 E0.00609
G1 X122.668 Y129.646 E0.04098
G1 X123.063 Y130.042 E0.01755
G1 X116.988 Y136.117 E0.26938
G1 X117.859 Y136.313 E0.02799
G1 X124.521 Y129.651 E0.29539
G1 X125.054 Y130.184 E0.02365
G1 X118.743 Y136.495 E0.27984
G1 X119.652 Y136.653 E0.02892
G1 X126.512 Y129.793 E0.30417
G1 X127.045 Y130.327 E0.02365
G1 X120.584 Y136.788 E0.28651
G1 X121.533 Y136.905 E0.03000
G1 X128.503 Y129.936 E0.30904
G1 X129.036 Y130.469 E0.02365
G1 X122.519 Y136.986 E0.28898
G1 X123.520 Y137.052 E0.03146
G1 X130.493 Y130.078 E0.30922
G1 X130.986 Y130.571 E0.02184
G1 X132.834 Y128.722 E0.08197
G1 X132.875 Y128.763 E0.00181
G1 X124.561 Y137.077 E0.36867
G1 X125.000 Y137.088 E0.01378
G1 X125.632 Y137.072 E0.01982
G1 X133.408 Y129.296 E0.34482
G1 X133.759 Y129.646 E0.01553
G1 X135.607 Y127.798 E0.08197
G1 X135.790 Y127.981 E0.00812
G1 X126.729 Y137.042 E0.40177
M73 P2 R42
G1 X127.881 Y136.957 E0.03620
G1 X136.323 Y128.514 E0.37436
G1 X136.531 Y128.722 E0.00922
G1 X138.380 Y126.874 E0.08197
G1 X138.705 Y127.199 E0.01443
G1 X129.074 Y136.830 E0.42708
G1 X129.943 Y136.723 E0.02745
G1 X130.311 Y136.659 E0.01174
G1 X139.238 Y127.732 E0.39584
G1 X139.304 Y127.798 E0.00291
G1 X143.001 Y124.101 E0.16393
G1 X143.469 Y124.568 E0.02074
G1 X131.393 Y136.644 E0.53544
G1 X144.290 Y131.213 F10800.000
G1 F1200
G1 X152.107 Y123.396 E0.34659
G1 X153.007 Y122.118 E0.04904
G1 X153.892 Y120.721 E0.05184
G1 X154.122 Y120.315 E0.01464
G1 X141.911 Y132.526 E0.54145
G1 X140.878 Y133.110 E0.03720
G1 X139.632 Y133.738 E0.04376
G1 X155.334 Y118.036 E0.69625
G1 X156.189 Y116.114 E0.06597
G1 X137.710 Y134.594 E0.81942
G1 X136.348 Y135.119 E0.04577
G1 X136.005 Y135.232 E0.01133
G1 X156.828 Y114.409 E0.92335
G1 X157.233 Y113.182 E0.04051
G1 X157.327 Y112.843 E0.01102
G1 X134.439 Y135.731 E1.01489
G1 X132.979 Y136.125 E0.04741
G1 X157.720 Y111.383 E1.09707
G1 X158.029 Y110.008 E0.04420
G1 X146.670 Y121.368 E0.50371
G1 X146.202 Y120.900 E0.02074
G1 X148.975 Y118.127 E0.12295
G1 X148.909 Y118.062 E0.00291
G1 X158.255 Y108.715 E0.41442
G1 X158.319 Y108.347 E0.01174
G1 X158.426 Y107.478 E0.02745
G1 X148.376 Y117.528 E0.44566
G1 X148.050 Y117.203 E0.01443
G1 X150.823 Y114.430 E0.12295
G1 X150.615 Y114.222 E0.00922
G1 X158.553 Y106.285 E0.35195
G1 X158.638 Y105.133 E0.03620
G1 X150.082 Y113.689 E0.37937
G1 X149.899 Y113.506 E0.00812
G1 X151.747 Y111.657 E0.08197
G1 X151.397 Y111.307 E0.01553
G1 X158.668 Y104.036 E0.32241
G1 X158.684 Y103.404 E0.01982
G1 X158.673 Y102.965 E0.01378
G1 X150.864 Y110.774 E0.34627
G1 X150.823 Y110.733 E0.00181
G1 X151.747 Y109.809 E0.04098
G1 X151.255 Y109.316 E0.02184
G1 X158.647 Y101.924 E0.32780
G1 X158.582 Y100.923 E0.03146
G1 X152.570 Y106.935 E0.26658
G1 X152.037 Y106.401 E0.02365
G1 X158.501 Y99.937 E0.28663
G1 X158.384 Y98.988 E0.03000
G1 X152.428 Y104.944 E0.26411
G1 X151.895 Y104.411 E0.02365
G1 X158.249 Y98.056 E0.28176
G1 X158.091 Y97.147 E0.02892
G1 X152.286 Y102.953 E0.25743
G1 X151.752 Y102.420 E0.02365
G1 X157.909 Y96.263 E0.27299
G1 X157.713 Y95.392 E0.02799
G1 X152.143 Y100.962 E0.24698
G1 X151.747 Y100.567 E0.01755
G1 X152.672 Y99.642 E0.04098
G1 X152.534 Y99.505 E0.00609
G1 X157.489 Y94.550 E0.21970
G1 X157.258 Y93.715 E0.02718
G1 X152.001 Y98.972 E0.23310
G1 X151.468 Y98.438 E0.02365
G1 X156.997 Y92.909 E0.24516
G1 X156.732 Y92.108 E0.02647
G1 X150.934 Y97.905 E0.25706
G1 X150.823 Y97.794 E0.00493
G1 X151.747 Y96.870 E0.04098
G1 X151.325 Y96.448 E0.01871
G1 X156.437 Y91.336 E0.22665
G1 X156.140 Y90.566 E0.02587
G1 X151.716 Y94.990 E0.19615
G1 X151.183 Y94.457 E0.02365
G1 X155.815 Y89.825 E0.20537
G1 X155.487 Y89.086 E0.02534
G1 X150.650 Y93.923 E0.21449
G1 X150.117 Y93.390 E0.02365
G1 X155.133 Y88.374 E0.22244
G1 X154.776 Y87.664 E0.02490
G1 X150.508 Y91.933 E0.18927
G1 X149.974 Y91.399 E0.02365
G1 X154.396 Y86.978 E0.19606
G1 X154.010 Y86.297 E0.02454
G1 X149.441 Y90.866 E0.20261
G1 X148.908 Y90.333 E0.02365
G1 X153.605 Y85.635 E0.20830
G1 X153.192 Y84.982 E0.02424
G1 X148.374 Y89.800 E0.21361
G1 X148.050 Y89.476 E0.01437
G1 X148.975 Y88.551 E0.04098
G1 X148.765 Y88.342 E0.00928
G1 X152.763 Y84.344 E0.17727
G1 X152.323 Y83.718 E0.02400
G1 X148.232 Y87.809 E0.18137
G1 X147.699 Y87.276 E0.02365
G1 X151.871 Y83.103 E0.18500
G1 X151.404 Y82.504 E0.02383
G1 X147.166 Y86.742 E0.18792
G1 X146.632 Y86.209 E0.02365
G1 X150.930 Y81.911 E0.19058
G1 X150.436 Y81.338 E0.02371
G1 X146.099 Y85.676 E0.19232
G1 X145.566 Y85.142 E0.02365
G1 X149.941 Y80.767 E0.19401
G1 X149.421 Y80.221 E0.02365
G1 X145.957 Y83.685 E0.15361
G1 X145.423 Y83.152 E0.02365
G1 X148.900 Y79.675 E0.15417
G1 X148.356 Y79.152 E0.02365
G1 X144.890 Y82.618 E0.15370
G1 X144.357 Y82.085 E0.02365
G1 X147.810 Y78.632 E0.15312
G1 X147.249 Y78.127 E0.02368
G1 X142.899 Y82.476 E0.19286
G1 X142.366 Y81.943 E0.02365
G1 X146.682 Y77.627 E0.19137
G1 X146.106 Y77.137 E0.02372
G1 X141.833 Y81.410 E0.18946
G1 X141.300 Y80.876 E0.02365
G1 X145.521 Y76.654 E0.18720
G1 X144.926 Y76.183 E0.02381
G1 X140.766 Y80.343 E0.18444
G1 X140.233 Y79.810 E0.02365
G1 X144.325 Y75.718 E0.18143
G1 X143.708 Y75.268 E0.02393
G1 X139.700 Y79.276 E0.17774
G1 X139.167 Y78.743 E0.02365
G1 X143.072 Y74.838 E0.17316
G1 X142.399 Y74.444 E0.02444
G1 X138.633 Y78.210 E0.16700
G1 X138.100 Y77.677 E0.02365
G1 X141.974 Y73.803 E0.17178
G1 X141.974 Y72.736 E0.03344
G1 X137.567 Y77.143 E0.19542
G1 X137.033 Y76.610 E0.02365
G1 X141.974 Y71.670 E0.21907
G1 X141.974 Y70.603 E0.03344
G1 X137.304 Y75.273 E0.20705
G1 E-0.80000 F2100.00000
G1 Z0.800 F10800.000
G1 X107.074 Y74.573
G1 Z0.200
G1 E0.80000 F2100.00000
G1 F1200
G1 X96.507 Y85.140 E0.46854
G1 E-0.80000 F2100.00000
G1 Z0.800 F10800.000
G1 X125.000 Y148.589
G1 Z0.200
G1 E0.80000 F2100.00000
G1 F1200
G1 X122.783 Y148.534 E0.06954
G1 X120.571 Y148.371 E0.06954
G1 X118.370 Y148.100 E0.06954
G1 X116.185 Y147.721 E0.06953
G1 X114.021 Y147.234 E0.06954
G1 X111.884 Y146.643 E0.06954
G1 X109.778 Y145.947 E0.06954
G1 X107.709 Y145.149 E0.06953
G1 X105.681 Y144.250 E0.06954
G1 X103.700 Y143.253 E0.06954
G1 X101.771 Y142.160 E0.06954
G1 X99.897 Y140.974 E0.06954
G1 X98.084 Y139.697 E0.06954
G1 X96.335 Y138.332 E0.06954
G1 X94.656 Y136.884 E0.06954
G1 X93.050 Y135.354 E0.06953
G1 X91.521 Y133.748 E0.06954
