; generated by PrusaSlicer 2.3.1+win64 on 2021-09-23 at 20:24:49 UTC

; 

; external perimeters extrusion width = 0.45mm
; perimeters extrusion width = 0.45mm
; infill extrusion width = 0.45mm
; solid infill extrusion width = 0.45mm
; top infill extrusion width = 0.40mm
; first layer extrusion width = 0.42mm

M73 P0 R41
M201 X9000 Y9000 Z500 E10000 ; sets maximum accelerations, mm/sec^2
M203 X500 Y500 Z12 E120 ; sets maximum feedrates, mm/sec
M204 P2000 R1500 T2000 ; sets acceleration (P, T) and retract acceleration (R), mm/sec^2
M205 X10.00 Y10.00 Z0.20 E2.50 ; sets the jerk limits, mm/sec
M205 S0 T0 ; sets the minimum extruding and travel feed rate, mm/sec
M107
;TYPE:Custom
M862.3 P "MK2S" ; printer model check
M862.1 P0.4 ; nozzle diameter check
M115 U3.2.3 ; tell printer latest fw version
G90 ; use absolute coordinates
M83 ; extruder relative mode
M204 S2000 T1500 ; MK2 firmware only supports the old M204 format
M104 S215 ; set extruder temp
M140 S60 ; set bed temp
M190 S60 ; wait for bed temp
M109 S215 ; wait for extruder temp
G28 W ; home all without mesh bed level
G80 ; mesh bed leveling
G1 Y-3.0 F1000.0 ; go outside print area
G92 E0.0
G1 X60.0 E9.0  F1000.0 ; intro line
G1 X100.0 E12.5 F1000.0 ; intro line
G92 E0.0
G21 ; set units to millimeters
G90 ; use absolute coordinates
M83 ; use relative distances for extrusion
M900 K0.05 ; Filament gcode LA 1.5
M900 K30 ; Filament gcode LA 1.0
;LAYER_CHANGE
;Z:0.2
;HEIGHT:0.2
;BEFORE_LAYER_CHANGE
G92 E0.0
;0.2


G1 E-0.80000 F2100.000
G1 Z0.600 F10800.000
;AFTER_LAYER_CHANGE
;0.2
G1 X108.300 Y92.887
G1 Z0.200
G1 E0.80000 F2100.000
M204 S1000
;TYPE:Perimeter
;WIDTH:0.42
G1 F1200.000
G1 X120.413 Y92.887 E0.37979
G1 X120.413 Y117.013 E0.75645
G1 X96.187 Y117.013 E0.75958
G1 X96.187 Y92.887 E0.75645
G1 X108.240 Y92.887 E0.37791
G1 E-0.80000 F2100.000
G1 Z0.800 F10800.000
G1 X108.300 Y117.390
G1 Z0.200
G1 E0.80000 F2100.000
;TYPE:External perimeter
G1 F1200.000
G1 X95.810 Y117.390 E0.39162
G1 X95.810 Y92.510 E0.78009
G1 X120.790 Y92.510 E0.78323
G1 X120.790 Y117.390 E0.78009
G1 X108.360 Y117.390 E0.38973
G1 X107.989 Y117.139 F10800.000
G1 E-0.80000 F2100.000
G1 Z0.800 F10800.000
G1 X120.300 Y93.771
G1 Z0.200
G1 E0.80000 F2100.000
;TYPE:Solid infill
;WIDTH:0.424079
G1 F1200.000
G1 X119.699 Y93.170 E0.02695
G1 X119.160 Y93.170 E0.01708
G1 X120.130 Y94.140 E0.04350
G1 X120.130 Y94.680 E0.01708
G1 X118.620 Y93.170 E0.06766
G1 X118.081 Y93.170 E0.01708
G1 X120.130 Y95.219 E0.09182
G1 X120.130 Y95.758 E0.01708
G1 X117.542 Y93.170 E0.11598
G1 X117.003 Y93.170 E0.01708
G1 X120.130 Y96.297 E0.14015
G1 X120.130 Y96.836 E0.01708
G1 X116.464 Y93.170 E0.16431
G1 X115.925 Y93.170 E0.01708
G1 X120.130 Y97.375 E0.18847
G1 X120.130 Y97.914 E0.01708
G1 X115.386 Y93.170 E0.21263
G1 X114.847 Y93.170 E0.01708
G1 X120.130 Y98.453 E0.23679
G1 X120.130 Y98.992 E0.01708
G1 X114.308 Y93.170 E0.26095
G1 X113.769 Y93.170 E0.01708
G1 X120.130 Y99.531 E0.28511
G1 X120.130 Y100.070 E0.01708
G1 X113.230 Y93.170 E0.30927
G1 X112.691 Y93.170 E0.01708
G1 X120.130 Y100.609 E0.33343
G1 X120.130 Y101.148 E0.01708
G1 X112.152 Y93.170 E0.35759
G1 X111.613 Y93.170 E0.01708
G1 X120.130 Y101.687 E0.38175
G1 X120.130 Y102.226 E0.01708
G1 X111.074 Y93.170 E0.40591
G1 X110.535 Y93.170 E0.01708
G1 X120.130 Y102.765 E0.43007
M73 P1 R41
G1 X120.130 Y103.304 E0.01708
G1 X109.996 Y93.170 E0.45423
G1 X109.457 Y93.170 E0.01708
G1 X120.130 Y103.843 E0.47839
G1 X120.130 Y104.382 E0.01708
G1 X108.918 Y93.170 E0.50255
G1 X108.379 Y93.170 E0.01708
G1 X120.130 Y104.921 E0.52671
G1 X120.130 Y105.460 E0.01708
G1 X107.840 Y93.170 E0.55087
G1 X107.301 Y93.170 E0.01708
G1 X120.130 Y105.999 E0.57503
G1 X120.130 Y106.538 E0.01708
G1 X106.762 Y93.170 E0.59920
G1 X106.223 Y93.170 E0.01708
G1 X120.130 Y107.077 E0.62336
G1 X120.130 Y107.616 E0.01708
G1 X105.684 Y93.170 E0.64752
G1 X105.144 Y93.170 E0.01708
G1 X120.130 Y108.156 E0.67168
G1 X120.130 Y108.695 E0.01708
G1 X104.605 Y93.170 E0.69584
G1 X104.066 Y93.170 E0.01708
G1 X120.130 Y109.234 E0.72000
G1 X120.130 Y109.773 E0.01708
G1 X103.527 Y93.170 E0.74416
G1 X102.988 Y93.170 E0.01708
G1 X120.130 Y110.312 E0.76832
G1 X120.130 Y110.851 E0.01708
G1 X102.449 Y93.170 E0.79248
G1 X101.910 Y93.170 E0.01708
G1 X120.130 Y111.390 E0.81664
G1 X120.130 Y111.929 E0.01708
G1 X101.371 Y93.170 E0.84080
G1 X100.832 Y93.170 E0.01708
G1 X120.130 Y112.468 E0.86496
G1 X120.130 Y113.007 E0.01708
G1 X100.293 Y93.170 E0.88912
M73 P1 R40
G1 X99.754 Y93.170 E0.01708
G1 X120.130 Y113.546 E0.91328
G1 X120.130 Y114.085 E0.01708
G1 X99.215 Y93.170 E0.93744
G1 X98.676 Y93.170 E0.01708
G1 X120.130 Y114.624 E0.96160
M73 P2 R40
G1 X120.130 Y115.163 E0.01708
G1 X98.137 Y93.170 E0.98576
G1 X97.598 Y93.170 E0.01708
G1 X120.130 Y115.702 E1.00992
G1 X120.130 Y116.241 E0.01708
G1 X97.059 Y93.170 E1.03408
G1 X96.520 Y93.170 E0.01708
G1 X120.080 Y116.730 E1.05600
G1 X119.541 Y116.730 E0.01708
G1 X96.470 Y93.659 E1.03408
G1 X96.470 Y94.198 E0.01708
G1 X119.002 Y116.730 E1.00992
G1 X118.463 Y116.730 E0.01708
G1 X96.470 Y94.737 E0.98576
G1 X96.470 Y95.276 E0.01708
G1 X117.924 Y116.730 E0.96160
G1 X117.385 Y116.730 E0.01708
G1 X96.470 Y95.815 E0.93744
G1 X96.470 Y96.354 E0.01708
G1 X116.846 Y116.730 E0.91328
G1 X116.307 Y116.730 E0.01708
G1 X96.470 Y96.893 E0.88912
G1 X96.470 Y97.432 E0.01708
G1 X115.768 Y116.730 E0.86496
G1 X115.229 Y116.730 E0.01708
G1 X96.470 Y97.971 E0.84080
G1 X96.470 Y98.510 E0.01708
G1 X114.690 Y116.730 E0.81664
G1 X114.151 Y116.730 E0.01708
G1 X96.470 Y99.049 E0.79248
G1 X96.470 Y99.588 E0.01708
G1 X113.612 Y116.730 E0.76831
M73 P3 R40
G1 X113.073 Y116.730 E0.01708
G1 X96.470 Y100.127 E0.74415
G1 X96.470 Y100.666 E0.01708
G1 X112.534 Y116.730 E0.71999
G1 X111.994 Y116.730 E0.01708
G1 X96.470 Y101.206 E0.69583
G1 X96.470 Y101.745 E0.01708
G1 X111.455 Y116.730 E0.67167
G1 X110.916 Y116.730 E0.01708
G1 X96.470 Y102.284 E0.64751
G1 X96.470 Y102.823 E0.01708
G1 X110.377 Y116.730 E0.62335
G1 X109.838 Y116.730 E0.01708
G1 X96.470 Y103.362 E0.59919
G1 X96.470 Y103.901 E0.01708
G1 X109.299 Y116.730 E0.57503
G1 X108.760 Y116.730 E0.01708
G1 X96.470 Y104.440 E0.55087
G1 X96.470 Y104.979 E0.01708
G1 X108.221 Y116.730 E0.52671
G1 X107.682 Y116.730 E0.01708
G1 X96.470 Y105.518 E0.50255
G1 X96.470 Y106.057 E0.01708
G1 X107.143 Y116.730 E0.47839
G1 X106.604 Y116.730 E0.01708
G1 X96.470 Y106.596 E0.45423
G1 X96.470 Y107.135 E0.01708
G1 X106.065 Y116.730 E0.43007
G1 X105.526 Y116.730 E0.01708
G1 X96.470 Y107.674 E0.40591
G1 X96.470 Y108.213 E0.01708
G1 X104.987 Y116.730 E0.38175
G1 X104.448 Y116.730 E0.01708
G1 X96.470 Y108.752 E0.35759
G1 X96.470 Y109.291 E0.01708
G1 X103.909 Y116.730 E0.33343
G1 X103.370 Y116.730 E0.01708
G1 X96.470 Y109.830 E0.30926
G1 X96.470 Y110.369 E0.01708
G1 X102.831 Y116.730 E0.28510
G1 X102.292 Y116.730 E0.01708
G1 X96.470 Y110.908 E0.26094
G1 X96.470 Y111.447 E0.01708
G1 X101.753 Y116.730 E0.23678
G1 X101.214 Y116.730 E0.01708
G1 X96.470 Y111.986 E0.21262
G1 X96.470 Y112.525 E0.01708
G1 X100.675 Y116.730 E0.18846
G1 X100.136 Y116.730 E0.01708
G1 X96.470 Y113.064 E0.16430
G1 X96.470 Y113.603 E0.01708
G1 X99.597 Y116.730 E0.14014
G1 X99.058 Y116.730 E0.01708
G1 X96.470 Y114.143 E0.11598
G1 X96.470 Y114.682 E0.01708
G1 X98.518 Y116.730 E0.09182
G1 X97.979 Y116.730 E0.01708
G1 X96.470 Y115.221 E0.06766
G1 X96.470 Y115.760 E0.01708
G1 X97.440 Y116.730 E0.04350
G1 X96.901 Y116.730 E0.01708
G1 X96.300 Y116.129 E0.02694
G1 E-0.80000 F2100.000
G1 Z0.800 F10800.000
G1 X141.700 Y117.113
G1 Z0.200
G1 E0.80000 F2100.000
;TYPE:Perimeter
;WIDTH:0.42
G1 F1200.000
G1 X129.587 Y117.113 E0.37979
G1 X129.587 Y92.987 E0.75645
G1 X153.813 Y92.987 E0.75958
G1 X153.813 Y117.113 E0.75645
G1 X141.760 Y117.113 E0.37791
M73 P4 R40
G1 X141.700 Y117.490 F10800.000
;TYPE:External perimeter
G1 F1200.000
G1 X129.210 Y117.490 E0.39162
G1 X129.210 Y92.610 E0.78009
G1 X154.190 Y92.610 E0.78323
G1 X154.190 Y117.490 E0.78009
G1 X141.760 Y117.490 E0.38973
G1 X141.389 Y117.239 F10800.000
G1 E-0.80000 F2100.000
G1 Z0.800 F10800.000
G1 X153.700 Y93.871
M73 P4 R39
G1 Z0.200
G1 E0.80000 F2100.000
;TYPE:Solid infill
;WIDTH:0.424079
G1 F1200.000
G1 X153.099 Y93.270 E0.02695
G1 X152.560 Y93.270 E0.01708
G1 X153.530 Y94.240 E0.04350
G1 X153.530 Y94.780 E0.01708
G1 X152.020 Y93.270 E0.06766
G1 X151.481 Y93.270 E0.01708
G1 X153.530 Y95.319 E0.09182
G1 X153.530 Y95.858 E0.01708
G1 X150.942 Y93.270 E0.11598
G1 X150.403 Y93.270 E0.01708
G1 X153.530 Y96.397 E0.14015
G1 X153.530 Y96.936 E0.01708
G1 X149.864 Y93.270 E0.16431
G1 X149.325 Y93.270 E0.01708
G1 X153.530 Y97.475 E0.18847
G1 X153.530 Y98.014 E0.01708
G1 X148.786 Y93.270 E0.21263
G1 X148.247 Y93.270 E0.01708
G1 X153.530 Y98.553 E0.23679
G1 X153.530 Y99.092 E0.01708
G1 X147.708 Y93.270 E0.26095
G1 X147.169 Y93.270 E0.01708
G1 X153.530 Y99.631 E0.28511
G1 X153.530 Y100.170 E0.01708
G1 X146.630 Y93.270 E0.30927
G1 X146.091 Y93.270 E0.01708
G1 X153.530 Y100.709 E0.33343
G1 X153.530 Y101.248 E0.01708
G1 X145.552 Y93.270 E0.35759
G1 X145.013 Y93.270 E0.01708
G1 X153.530 Y101.787 E0.38175
G1 X153.530 Y102.326 E0.01708
G1 X144.474 Y93.270 E0.40591
G1 X143.935 Y93.270 E0.01708
G1 X153.530 Y102.865 E0.43007
G1 X153.530 Y103.404 E0.01708
G1 X143.396 Y93.270 E0.45423
G1 X142.857 Y93.270 E0.01708
G1 X153.530 Y103.943 E0.47839
G1 X153.530 Y104.482 E0.01708
G1 X142.318 Y93.270 E0.50255
G1 X141.779 Y93.270 E0.01708
G1 X153.530 Y105.021 E0.52671
G1 X153.530 Y105.560 E0.01708
G1 X141.240 Y93.270 E0.55087
G1 X140.701 Y93.270 E0.01708
G1 X153.530 Y106.099 E0.57503
G1 X153.530 Y106.638 E0.01708
G1 X140.162 Y93.270 E0.59920
G1 X139.623 Y93.270 E0.01708
G1 X153.530 Y107.177 E0.62336
G1 X153.530 Y107.716 E0.01708
G1 X139.084 Y93.270 E0.64752
G1 X138.544 Y93.270 E0.01708
G1 X153.530 Y108.256 E0.67168
G1 X153.530 Y108.795 E0.01708
G1 X138.005 Y93.270 E0.69584
G1 X137.466 Y93.270 E0.01708
G1 X153.530 Y109.334 E0.72000
G1 X153.530 Y109.873 E0.01708
G1 X136.927 Y93.270 E0.74416
M73 P5 R39
G1 X136.388 Y93.270 E0.01708
G1 X153.530 Y110.412 E0.76832
G1 X153.530 Y110.951 E0.01708
G1 X135.849 Y93.270 E0.79248
G1 X135.310 Y93.270 E0.01708
G1 X153.530 Y111.490 E0.81664
G1 X153.530 Y112.029 E0.01708
G1 X134.771 Y93.270 E0.84080
G1 X134.232 Y93.270 E0.01708
G1 X153.530 Y112.568 E0.86496
G1 X153.530 Y113.107 E0.01708
G1 X133.693 Y93.270 E0.88912
G1 X133.154 Y93.270 E0.01708
G1 X153.530 Y113.646 E0.91328
G1 X153.530 Y114.185 E0.01708
G1 X132.615 Y93.270 E0.93744
G1 X132.076 Y93.270 E0.01708
G1 X153.530 Y114.724 E0.96160
G1 X153.530 Y115.263 E0.01708
G1 X131.537 Y93.270 E0.98576
G1 X130.998 Y93.270 E0.01708
G1 X153.530 Y115.802 E1.00992
G1 X153.530 Y116.341 E0.01708
G1 X130.459 Y93.270 E1.03408
G1 X129.920 Y93.270 E0.01708
G1 X153.480 Y116.830 E1.05600
G1 X152.941 Y116.830 E0.01708
G1 X129.870 Y93.759 E1.03408
G1 X129.870 Y94.298 E0.01708
G1 X152.402 Y116.830 E1.00992
G1 X151.863 Y116.830 E0.01708
G1 X129.870 Y94.837 E0.98576
M73 P6 R39
G1 X129.870 Y95.376 E0.01708
G1 X151.324 Y116.830 E0.96160
G1 X150.785 Y116.830 E0.01708
G1 X129.870 Y95.915 E0.93744
G1 X129.870 Y96.454 E0.01708
G1 X150.246 Y116.830 E0.91328
G1 X149.707 Y116.830 E0.01708
G1 X129.870 Y96.993 E0.88912
G1 X129.870 Y97.532 E0.01708
G1 X149.168 Y116.830 E0.86496
G1 X148.629 Y116.830 E0.01708
G1 X129.870 Y98.071 E0.84080
G1 X129.870 Y98.610 E0.01708
G1 X148.090 Y116.830 E0.81664
G1 X147.551 Y116.830 E0.01708
G1 X129.870 Y99.149 E0.79248
G1 X129.870 Y99.688 E0.01708
G1 X147.012 Y116.830 E0.76831
G1 X146.473 Y116.830 E0.01708
G1 X129.870 Y100.227 E0.74415
G1 X129.870 Y100.766 E0.01708
G1 X145.934 Y116.830 E0.71999
G1 X145.394 Y116.830 E0.01708
G1 X129.870 Y101.306 E0.69583
G1 X129.870 Y101.845 E0.01708
G1 X144.855 Y116.830 E0.67167
M73 P6 R38
G1 X144.316 Y116.830 E0.01708
G1 X129.870 Y102.384 E0.64751
G1 X129.870 Y102.923 E0.01708
G1 X143.777 Y116.830 E0.62335
G1 X143.238 Y116.830 E0.01708
G1 X129.870 Y103.462 E0.59919
G1 X129.870 Y104.001 E0.01708
G1 X142.699 Y116.830 E0.57503
G1 X142.160 Y116.830 E0.01708
G1 X129.870 Y104.540 E0.55087
G1 X129.870 Y105.079 E0.01708
G1 X141.621 Y116.830 E0.52671
G1 X141.082 Y116.830 E0.01708
G1 X129.870 Y105.618 E0.50255
G1 X129.870 Y106.157 E0.01708
G1 X140.543 Y116.830 E0.47839
M73 P7 R38
G1 X140.004 Y116.830 E0.01708
G1 X129.870 Y106.696 E0.45423
G1 X129.870 Y107.235 E0.01708
G1 X139.465 Y116.830 E0.43007
G1 X138.926 Y116.830 E0.01708
G1 X129.870 Y107.774 E0.40591
G1 X129.870 Y108.313 E0.01708
G1 X138.387 Y116.830 E0.38175
G1 X137.848 Y116.830 E0.01708
G1 X129.870 Y108.852 E0.35759
G1 X129.870 Y109.391 E0.01708
G1 X137.309 Y116.830 E0.33343
G1 X136.770 Y116.830 E0.01708
G1 X129.870 Y109.930 E0.30926
G1 X129.870 Y110.469 E0.01708
G1 X136.231 Y116.830 E0.28510
G1 X135.692 Y116.830 E0.01708
G1 X129.870 Y111.008 E0.26094
G1 X129.870 Y111.547 E0.01708
G1 X135.153 Y116.830 E0.23678
G1 X134.614 Y116.830 E0.01708
G1 X129.870 Y112.086 E0.21262
G1 X129.870 Y112.625 E0.01708
G1 X134.075 Y116.830 E0.18846
G1 X133.536 Y116.830 E0.01708
G1 X129.870 Y113.164 E0.16430
G1 X129.870 Y113.703 E0.01708
G1 X132.997 Y116.830 E0.14014
G1 X132.457 Y116.830 E0.01708
G1 X129.870 Y114.242 E0.11598
G1 X129.870 Y114.782 E0.01708
G1 X131.918 Y116.830 E0.09182
G1 X131.379 Y116.830 E0.01708
G1 X129.870 Y115.321 E0.06766
G1 X129.870 Y115.860 E0.01708
G1 X130.840 Y116.830 E0.04350
G1 X130.301 Y116.830 E0.01708
G1 X129.700 Y116.229 E0.02694
M106 S84.15
;LAYER_CHANGE
;Z:0.4
;HEIGHT:0.2
;BEFORE_LAYER_CHANGE
G92 E0.0
;0.4


G1 E-0.80000 F2100.000
G1 Z0.800 F10800.000
;AFTER_LAYER_CHANGE
;0.4
M104 S210 ; set temperature
G1 X108.300 Y116.768
G1 Z0.400
G1 E0.80000 F2100.000
M204 S800
;TYPE:Perimeter
;WIDTH:0.45
G1 F3000.000
G1 X96.232 Y116.768 E0.40848
G1 X96.232 Y92.932 E0.80681
G1 X120.368 Y92.932 E0.81697
G1 X120.368 Y116.768 E0.80681
G1 X108.360 Y116.768 E0.40645
M204 S1000
G1 X108.300 Y117.175 F10800.000
M204 S800
;TYPE:External perimeter
G1 F2400.000
G1 X95.825 Y117.175 E0.42226
G1 X95.825 Y92.525 E0.83437
G1 X120.775 Y92.525 E0.84453
G1 X120.775 Y117.175 E0.83437
G1 X108.360 Y117.175 E0.42023
M204 S1000
G1 X107.989 Y116.924 F10800.000
G1 E-0.80000 F2100.000
G1 Z1.000 F10800.000
G1 X96.354 Y93.884
G1 Z0.400
G1 E0.80000 F2100.000
M204 S2000
;TYPE:Solid infill
;WIDTH:0.453081
G1 F3000.000
G1 X97.000 Y93.237 E0.03117
G1 X97.580 Y93.237 E0.01978
G1 X96.537 Y94.280 E0.05031
G1 X96.537 Y94.861 E0.01978
G1 X98.161 Y93.237 E0.07829
G1 X98.741 Y93.237 E0.01978
G1 X96.537 Y95.441 E0.10626
G1 X96.537 Y96.021 E0.01978
G1 X99.321 Y93.237 E0.13424
G1 X99.901 Y93.237 E0.01978
G1 X96.537 Y96.601 E0.16222
G1 X96.537 Y97.181 E0.01978
G1 X100.481 Y93.237 E0.19019
G1 X101.061 Y93.237 E0.01978
G1 X96.537 Y97.761 E0.21817
G1 X96.537 Y98.341 E0.01978
G1 X101.641 Y93.237 E0.24615
G1 X102.221 Y93.237 E0.01978
G1 X96.537 Y98.921 E0.27413
G1 X96.537 Y99.501 E0.01978
G1 X102.801 Y93.237 E0.30210
G1 X103.381 Y93.237 E0.01978
G1 X96.537 Y100.081 E0.33008
G1 X96.537 Y100.661 E0.01978
G1 X103.961 Y93.237 E0.35806
G1 X104.541 Y93.237 E0.01978
G1 X96.537 Y101.241 E0.38603
G1 X96.537 Y101.821 E0.01978
G1 X105.121 Y93.237 E0.41401
G1 X105.701 Y93.237 E0.01978
G1 X96.537 Y102.401 E0.44199
G1 X96.537 Y102.981 E0.01978
G1 X106.281 Y93.237 E0.46997
G1 X106.861 Y93.237 E0.01978
G1 X96.537 Y103.561 E0.49794
G1 X96.537 Y104.141 E0.01978
G1 X107.441 Y93.237 E0.52592
G1 X108.021 Y93.237 E0.01978
G1 X96.537 Y104.721 E0.55390
G1 X96.537 Y105.302 E0.01978
G1 X108.602 Y93.237 E0.58187
G1 X109.182 Y93.237 E0.01978
G1 X96.537 Y105.882 E0.60985
G1 X96.537 Y106.462 E0.01978
G1 X109.762 Y93.237 E0.63783
G1 X110.342 Y93.237 E0.01978
G1 X96.537 Y107.042 E0.66581
G1 X96.537 Y107.622 E0.01978
G1 X110.922 Y93.237 E0.69378
G1 X111.502 Y93.237 E0.01978
G1 X96.537 Y108.202 E0.72176
G1 X96.537 Y108.782 E0.01978
G1 X112.082 Y93.237 E0.74974
G1 X112.662 Y93.237 E0.01978
G1 X96.537 Y109.362 E0.77771
G1 X96.537 Y109.942 E0.01978
G1 X113.242 Y93.237 E0.80569
G1 X113.822 Y93.237 E0.01978
G1 X96.537 Y110.522 E0.83367
G1 X96.537 Y111.102 E0.01978
G1 X114.402 Y93.237 E0.86165
G1 X114.982 Y93.237 E0.01978
G1 X96.537 Y111.682 E0.88962
G1 X96.537 Y112.262 E0.01978
G1 X115.562 Y93.237 E0.91760
