; generated by PrusaSlicer 2.1.1+win64 on 2020-04-21 at 23:36:21 UTC

; 

; external perimeters extrusion width = 0.45mm
; perimeters extrusion width = 0.45mm
; infill extrusion width = 0.45mm
; solid infill extrusion width = 0.45mm
; top infill extrusion width = 0.40mm
; support material extrusion width = 0.35mm
; first layer extrusion width = 0.42mm

M73 P0 R15
M201 X9000 Y9000 Z500 E10000 ; sets maximum accelerations, mm/sec^2
M203 X500 Y500 Z12 E120 ; sets maximum feedrates, mm/sec
M204 P2000 R1500 T2000 ; sets acceleration (P, T) and retract acceleration (R), mm/sec^2
M205 X10.00 Y10.00 Z0.20 E2.50 ; sets the jerk limits, mm/sec
M205 S0 T0 ; sets the minimum extruding and travel feed rate, mm/sec
M107
M862.3 P "MK2S" ; printer model check
M862.1 P0.4 ; nozzle diameter check
M115 U3.2.3 ; tell printer latest fw version
G90 ; use absolute coordinates
M83 ; extruder relative mode
M204 S2000 T1500 ; MK2 firmware only supports the old M204 format
M104 S215 ; set extruder temp
M140 S60 ; set bed temp
M190 S60 ; wait for bed temp
M109 S215 ; wait for extruder temp
G28 W ; home all without mesh bed level
G80 ; mesh bed leveling
G1 Y-3.0 F1000.0 ; go outside print area
G92 E0.0
G1 X60.0 E9.0  F1000.0 ; intro line
M73 P0 R15
G1 X100.0 E12.5 F1000.0 ; intro line
G92 E0.0
G21 ; set units to millimeters
G90 ; use absolute coordinates
M83 ; use relative distances for extrusion
M900 K30 ; Filament gcode
;BEFORE_LAYER_CHANGE
G92 E0.0
;0.2


G1 E-0.80000 F2100.00000
G1 Z0.600 F10800.000
;AFTER_LAYER_CHANGE
;0.2
G1 X128.061 Y75.846
G1 Z0.200
G1 E0.80000 F2100.00000
M204 S1000
G1 F1200
G1 X133.359 Y70.547 E0.23494
G1 X133.893 Y71.081 E0.02365
G1 X128.231 Y76.743 E0.25106
G1 X128.231 Y77.265 E0.01637
G1 X128.371 Y77.044 E0.00820
G1 X128.677 Y76.654 E0.01555
G1 X129.020 Y76.294 E0.01560
G1 X129.399 Y75.969 E0.01565
G1 X129.808 Y75.681 E0.01570
G1 X130.272 Y75.416 E0.01673
G1 X130.404 Y75.381 E0.00430
G1 X130.659 Y75.381 E0.00800
G1 X134.426 Y71.614 E0.16702
G1 X134.959 Y72.147 E0.02365
G1 X131.215 Y75.891 E0.16601
G1 X131.215 Y76.958 E0.03344
G1 X135.492 Y72.681 E0.18965
G1 X136.026 Y73.214 E0.02365
G1 X131.046 Y78.194 E0.22082
G1 X133.082 Y79.357 F10800.000
G1 F1200
G1 X134.111 Y78.328 E0.04562
G1 X134.111 Y77.262 E0.03344
G1 X132.185 Y79.187 E0.08539
G1 X131.215 Y79.187 E0.03041
G1 X131.215 Y79.091 E0.00303
G1 X134.111 Y76.195 E0.12840
G1 X134.111 Y75.689 E0.01587
G1 X134.419 Y75.381 E0.01366
G1 X134.925 Y75.381 E0.01585
G1 X136.559 Y73.747 E0.07246
G1 X137.092 Y74.280 E0.02365
G1 X135.621 Y75.752 E0.06525
G1 X135.927 Y75.968 E0.01176
G1 X136.220 Y76.219 E0.01209
G1 X137.625 Y74.814 E0.06234
G1 X138.159 Y75.347 E0.02365
G1 X136.618 Y76.888 E0.06831
G1 E-0.80000 F2100.00000
G1 Z0.800 F10800.000
G1 X132.763 Y133.481
G1 Z0.200
G1 E0.80000 F2100.00000
G1 F1200
G1 X132.267 Y133.467 E0.01553
G1 X131.872 Y133.412 E0.01252
G1 X131.479 Y133.319 E0.01265
G1 X131.102 Y133.190 E0.01250
G1 X130.740 Y133.026 E0.01246
G1 X130.396 Y132.830 E0.01240
G1 X130.075 Y132.603 E0.01233
G1 X129.780 Y132.348 E0.01225
G1 X129.512 Y132.067 E0.01216
G1 X129.276 Y131.763 E0.01208
G1 X129.072 Y131.439 E0.01200
G1 X128.903 Y131.098 E0.01193
G1 X128.770 Y130.743 E0.01187
G1 X128.674 Y130.379 E0.01182
G1 X128.616 Y130.007 E0.01179
G1 X128.596 Y129.617 E0.01225
G1 X128.596 Y79.842 E1.56065
G1 X128.622 Y79.409 E0.01361
G1 X128.674 Y79.078 E0.01051
G1 X128.770 Y78.713 E0.01182
G1 X128.902 Y78.362 E0.01178
G1 X129.097 Y77.977 E0.01352
G1 X129.276 Y77.694 E0.01050
G1 X129.512 Y77.390 E0.01208
G1 X129.777 Y77.112 E0.01204
G1 X130.102 Y76.838 E0.01332
G1 X130.102 Y80.300 E0.10855
G1 X135.224 Y80.300 E0.16059
G1 X135.224 Y76.830 E0.10879
G1 X135.546 Y77.109 E0.01335
G1 X135.814 Y77.390 E0.01216
G1 X136.050 Y77.694 E0.01208
G1 X136.254 Y78.018 E0.01200
G1 X136.423 Y78.359 E0.01193
G1 X136.556 Y78.713 E0.01187
G1 X136.652 Y79.078 E0.01182
G1 X136.710 Y79.450 E0.01179
G1 X136.730 Y79.840 E0.01225
G1 X136.730 Y129.617 E1.56073
G1 X136.710 Y130.007 E0.01225
G1 X136.652 Y130.379 E0.01179
G1 X136.557 Y130.741 E0.01173
G1 X136.403 Y131.139 E0.01338
G1 X136.254 Y131.439 E0.01051
G1 X136.050 Y131.763 E0.01200
G1 X135.814 Y132.067 E0.01208
G1 X135.546 Y132.348 E0.01216
G1 X135.251 Y132.603 E0.01224
G1 X134.930 Y132.830 E0.01233
G1 X134.586 Y133.026 E0.01240
G1 X134.224 Y133.190 E0.01246
G1 X133.847 Y133.319 E0.01250
G1 X133.454 Y133.412 E0.01265
G1 X133.054 Y133.468 E0.01268
G1 X132.822 Y133.479 E0.00726
G1 X132.766 Y133.859 F10800.000
G1 F1200
G1 X132.236 Y133.844 E0.01663
G1 X131.802 Y133.783 E0.01373
G1 X131.375 Y133.681 E0.01377
G1 X130.963 Y133.541 E0.01363
G1 X130.568 Y133.363 E0.01359
G1 X130.193 Y133.149 E0.01353
G1 X129.843 Y132.901 E0.01347
G1 X129.519 Y132.621 E0.01340
G1 X129.226 Y132.313 E0.01333
G1 X128.967 Y131.980 E0.01326
G1 X128.743 Y131.624 E0.01319
G1 X128.557 Y131.248 E0.01313
G1 X128.410 Y130.858 E0.01308
G1 X128.304 Y130.456 E0.01304
G1 X128.240 Y130.046 E0.01301
G1 X128.219 Y129.627 E0.01316
G1 X128.219 Y79.831 E1.56131
G1 X128.247 Y79.369 E0.01452
G1 X128.304 Y79.001 E0.01167
G1 X128.410 Y78.599 E0.01304
G1 X128.556 Y78.209 E0.01304
G1 X128.769 Y77.791 E0.01472
G1 X128.967 Y77.477 E0.01163
G1 X129.226 Y77.144 E0.01326
G1 X129.518 Y76.837 E0.01328
G1 X129.901 Y76.515 E0.01568
G1 X130.193 Y76.308 E0.01122
G1 X130.479 Y76.145 E0.01032
G1 X130.479 Y79.923 E0.11847
G1 X134.847 Y79.923 E0.13695
G1 X134.847 Y76.145 E0.11846
G1 X135.133 Y76.308 E0.01031
G1 X135.483 Y76.556 E0.01347
G1 X135.807 Y76.835 E0.01340
G1 X136.100 Y77.144 E0.01333
G1 X136.359 Y77.477 E0.01326
G1 X136.583 Y77.833 E0.01319
G1 X136.770 Y78.208 E0.01313
G1 X136.916 Y78.599 E0.01308
G1 X137.022 Y79.001 E0.01303
G1 X137.086 Y79.411 E0.01301
G1 X137.107 Y79.830 E0.01316
G1 X137.107 Y129.627 E1.56134
G1 X137.086 Y130.046 E0.01316
G1 X137.022 Y130.456 E0.01301
G1 X136.916 Y130.857 E0.01300
G1 X136.749 Y131.291 E0.01458
G1 X136.583 Y131.623 E0.01165
G1 X136.359 Y131.980 E0.01319
G1 X136.100 Y132.313 E0.01326
G1 X135.807 Y132.621 E0.01333
G1 X135.483 Y132.901 E0.01340
G1 X135.133 Y133.149 E0.01347
G1 X134.758 Y133.363 E0.01353
G1 X134.363 Y133.541 E0.01359
G1 X133.951 Y133.681 E0.01363
G1 X133.524 Y133.783 E0.01377
G1 X133.089 Y133.844 E0.01379
G1 X132.826 Y133.856 E0.00825
G1 X132.561 Y133.515 F10800.000
G1 X130.717 Y132.883
G1 F1200
G1 X129.125 Y131.291 E0.07119
G1 X128.805 Y130.434 F10800.000
G1 F1200
G1 X131.346 Y132.974 E0.11356
G1 X131.558 Y133.047 E0.00708
G1 X132.062 Y133.153 E0.01629
G1 X128.900 Y129.990 E0.14136
G1 X128.879 Y129.432 E0.01766
G1 X132.642 Y133.195 E0.16821
G1 X133.153 Y133.169 E0.01618
G1 X128.879 Y128.894 E0.19106
G1 X128.879 Y128.357 E0.01699
G1 X133.607 Y133.085 E0.21135
G1 X134.020 Y132.961 E0.01364
G1 X128.879 Y127.819 E0.22982
G1 X128.879 Y127.282 E0.01699
G1 X134.398 Y132.801 E0.24672
G1 X134.745 Y132.610 E0.01251
G1 X128.879 Y126.744 E0.26222
G1 X128.879 Y126.206 E0.01699
G1 X135.062 Y132.390 E0.27641
G1 X135.352 Y132.142 E0.01205
G1 X128.879 Y125.669 E0.28936
G1 X128.879 Y125.131 E0.01699
G1 X135.612 Y131.865 E0.30100
G1 X135.844 Y131.559 E0.01213
G1 X128.879 Y124.594 E0.31136
G1 X128.879 Y124.056 E0.01699
G1 X136.046 Y131.223 E0.32036
G1 X136.211 Y130.851 E0.01287
G1 X128.879 Y123.519 E0.32777
G1 X128.879 Y122.981 E0.01699
G1 X136.343 Y130.445 E0.33363
G1 X136.426 Y129.991 E0.01458
G1 X128.879 Y122.443 E0.33739
G1 X128.879 Y121.906 E0.01699
G1 X136.447 Y129.474 E0.33832
G1 X136.447 Y128.937 E0.01699
G1 X128.879 Y121.368 E0.33832
G1 X128.879 Y120.831 E0.01699
G1 X136.447 Y128.399 E0.33832
G1 X136.447 Y127.862 E0.01699
G1 X128.879 Y120.293 E0.33832
G1 X128.879 Y119.755 E0.01699
G1 X136.447 Y127.324 E0.33832
G1 X136.447 Y126.787 E0.01699
G1 X128.879 Y119.218 E0.33832
G1 X128.879 Y118.680 E0.01699
G1 X136.447 Y126.249 E0.33832
G1 X136.447 Y125.711 E0.01699
G1 X128.879 Y118.143 E0.33832
G1 X128.879 Y117.605 E0.01699
G1 X136.447 Y125.174 E0.33832
G1 X136.447 Y124.636 E0.01699
G1 X128.879 Y117.067 E0.33832
G1 X128.879 Y116.530 E0.01699
G1 X136.447 Y124.099 E0.33832
G1 X136.447 Y123.561 E0.01699
G1 X128.879 Y115.992 E0.33832
G1 X128.879 Y115.455 E0.01699
G1 X136.447 Y123.023 E0.33832
G1 X136.447 Y122.486 E0.01699
G1 X128.879 Y114.917 E0.33832
G1 X128.879 Y114.380 E0.01699
G1 X136.447 Y121.948 E0.33832
G1 X136.447 Y121.411 E0.01699
G1 X128.879 Y113.842 E0.33832
G1 X128.879 Y113.304 E0.01699
G1 X136.447 Y120.873 E0.33832
G1 X136.447 Y120.335 E0.01699
G1 X128.879 Y112.767 E0.33832
G1 X128.879 Y112.229 E0.01699
G1 X136.447 Y119.798 E0.33832
G1 X136.447 Y119.260 E0.01699
G1 X128.879 Y111.692 E0.33832
G1 X128.879 Y111.154 E0.01699
G1 X136.447 Y118.723 E0.33832
G1 X136.447 Y118.185 E0.01699
G1 X128.879 Y110.616 E0.33832
G1 X128.879 Y110.079 E0.01699
G1 X136.447 Y117.648 E0.33832
G1 X136.447 Y117.110 E0.01699
G1 X128.879 Y109.541 E0.33832
G1 X128.879 Y109.004 E0.01699
G1 X136.447 Y116.572 E0.33832
G1 X136.447 Y116.035 E0.01699
G1 X128.879 Y108.466 E0.33832
G1 X128.879 Y107.929 E0.01699
G1 X136.447 Y115.497 E0.33832
G1 X136.447 Y114.960 E0.01699
G1 X128.879 Y107.391 E0.33832
G1 X128.879 Y106.853 E0.01699
G1 X136.447 Y114.422 E0.33832
G1 X136.447 Y113.884 E0.01699
G1 X128.879 Y106.316 E0.33832
G1 X128.879 Y105.778 E0.01699
G1 X136.447 Y113.347 E0.33832
G1 X136.447 Y112.809 E0.01699
G1 X128.879 Y105.241 E0.33832
G1 X128.879 Y104.703 E0.01699
G1 X136.447 Y112.272 E0.33832
G1 X136.447 Y111.734 E0.01699
G1 X128.879 Y104.165 E0.33832
G1 X128.879 Y103.628 E0.01699
G1 X136.447 Y111.197 E0.33832
G1 X136.447 Y110.659 E0.01699
G1 X128.879 Y103.090 E0.33832
G1 X128.879 Y102.553 E0.01699
G1 X136.447 Y110.121 E0.33832
G1 X136.447 Y109.584 E0.01699
G1 X128.879 Y102.015 E0.33832
G1 X128.879 Y101.477 E0.01699
G1 X136.447 Y109.046 E0.33832
G1 X136.447 Y108.509 E0.01699
G1 X128.879 Y100.940 E0.33832
G1 X128.879 Y100.402 E0.01699
G1 X136.447 Y107.971 E0.33832
G1 X136.447 Y107.433 E0.01699
G1 X128.879 Y99.865 E0.33832
G1 X128.879 Y99.327 E0.01699
G1 X136.447 Y106.896 E0.33832
G1 X136.447 Y106.358 E0.01699
G1 X128.879 Y98.790 E0.33832
G1 X128.879 Y98.252 E0.01699
G1 X136.447 Y105.821 E0.33832
G1 X136.447 Y105.283 E0.01699
G1 X128.879 Y97.714 E0.33832
G1 X128.879 Y97.177 E0.01699
G1 X136.447 Y104.745 E0.33832
G1 X136.447 Y104.208 E0.01699
G1 X128.879 Y96.639 E0.33832
G1 X128.879 Y96.102 E0.01699
G1 X136.447 Y103.670 E0.33832
G1 X136.447 Y103.133 E0.01699
G1 X128.879 Y95.564 E0.33832
G1 X128.879 Y95.026 E0.01699
G1 X136.447 Y102.595 E0.33832
G1 X136.447 Y102.058 E0.01699
G1 X128.879 Y94.489 E0.33832
G1 X128.879 Y93.951 E0.01699
G1 X136.447 Y101.520 E0.33832
G1 X136.447 Y100.982 E0.01699
G1 X128.879 Y93.414 E0.33832
G1 X128.879 Y92.876 E0.01699
G1 X136.447 Y100.445 E0.33832
G1 X136.447 Y99.907 E0.01699
G1 X128.879 Y92.339 E0.33832
G1 X128.879 Y91.801 E0.01699
G1 X136.447 Y99.370 E0.33832
M73 P7 R14
G1 X136.447 Y98.832 E0.01699
G1 X128.879 Y91.263 E0.33832
G1 X128.879 Y90.726 E0.01699
G1 X136.447 Y98.294 E0.33832
G1 X136.447 Y97.757 E0.01699
G1 X128.879 Y90.188 E0.33832
G1 X128.879 Y89.651 E0.01699
G1 X136.447 Y97.219 E0.33832
G1 X136.447 Y96.682 E0.01699
G1 X128.879 Y89.113 E0.33832
G1 X128.879 Y88.575 E0.01699
G1 X136.447 Y96.144 E0.33832
G1 X136.447 Y95.607 E0.01699
G1 X128.879 Y88.038 E0.33832
G1 X128.879 Y87.500 E0.01699
G1 X136.447 Y95.069 E0.33832
G1 X136.447 Y94.531 E0.01699
G1 X128.879 Y86.963 E0.33832
G1 X128.879 Y86.425 E0.01699
G1 X136.447 Y93.994 E0.33832
G1 X136.447 Y93.456 E0.01699
G1 X128.879 Y85.887 E0.33832
G1 X128.879 Y85.350 E0.01699
G1 X136.447 Y92.919 E0.33832
G1 X136.447 Y92.381 E0.01699
G1 X128.879 Y84.812 E0.33832
G1 X128.879 Y84.275 E0.01699
G1 X136.447 Y91.843 E0.33832
G1 X136.447 Y91.306 E0.01699
G1 X128.879 Y83.737 E0.33832
G1 X128.879 Y83.200 E0.01699
G1 X136.447 Y90.768 E0.33832
G1 X136.447 Y90.231 E0.01699
G1 X128.879 Y82.662 E0.33832
G1 X128.879 Y82.124 E0.01699
G1 X136.447 Y89.693 E0.33832
G1 X136.447 Y89.155 E0.01699
G1 X128.879 Y81.587 E0.33832
G1 X128.879 Y81.049 E0.01699
G1 X136.447 Y88.618 E0.33832
G1 X136.447 Y88.080 E0.01699
G1 X128.879 Y80.512 E0.33832
G1 X128.879 Y79.974 E0.01699
G1 X136.447 Y87.543 E0.33832
G1 X136.447 Y87.005 E0.01699
G1 X128.903 Y79.460 E0.33726
G1 X128.985 Y79.005 E0.01461
G1 X129.819 Y79.840 E0.03728
G1 X129.819 Y79.302 E0.01699
G1 X129.115 Y78.598 E0.03148
G1 X129.286 Y78.231 E0.01279
G1 X129.819 Y78.764 E0.02385
G1 X129.819 Y78.227 E0.01699
G1 X129.485 Y77.892 E0.01495
G1 X129.717 Y77.587 E0.01213
G1 X129.989 Y77.859 E0.01215
G1 X130.393 Y80.413 F10800.000
G1 F1200
G1 X136.447 Y86.468 E0.27062
G1 X136.447 Y85.930 E0.01699
G1 X131.101 Y80.583 E0.23901
G1 X131.638 Y80.583 E0.01699
G1 X136.447 Y85.392 E0.21498
G1 X136.447 Y84.855 E0.01699
G1 X132.176 Y80.583 E0.19095
G1 X132.713 Y80.583 E0.01699
G1 X136.447 Y84.317 E0.16692
G1 X136.447 Y83.780 E0.01699
G1 X133.251 Y80.583 E0.14289
G1 X133.788 Y80.583 E0.01699
G1 X136.447 Y83.242 E0.11886
G1 X136.447 Y82.704 E0.01699
G1 X134.326 Y80.583 E0.09483
G1 X134.864 Y80.583 E0.01699
G1 X136.447 Y82.167 E0.07080
G1 X136.447 Y81.629 E0.01699
G1 X135.401 Y80.583 E0.04677
G1 X135.507 Y80.583 E0.00334
G1 X135.507 Y80.151 E0.01365
G1 X136.447 Y81.092 E0.04204
G1 X136.447 Y80.554 E0.01699
G1 X135.507 Y79.614 E0.04204
G1 X135.507 Y79.076 E0.01699
G1 X136.447 Y80.017 E0.04204
G1 X136.425 Y79.456 E0.01772
G1 X135.507 Y78.538 E0.04104
G1 X135.507 Y78.001 E0.01699
G1 X136.518 Y79.012 E0.04519
G1 E-0.80000 F2100.00000
G1 Z0.800 F10800.000
G1 X121.315 Y76.888
G1 Z0.200
G1 E0.80000 F2100.00000
G1 F1200
G1 X122.855 Y75.347 E0.06831
G1 X122.322 Y74.814 E0.02365
G1 X120.916 Y76.219 E0.06234
G1 X120.624 Y75.968 E0.01209
G1 X120.317 Y75.752 E0.01176
G1 X121.789 Y74.280 E0.06525
G1 X121.255 Y73.747 E0.02365
G1 X119.621 Y75.381 E0.07246
G1 X119.116 Y75.381 E0.01585
G1 X118.807 Y75.689 E0.01366
G1 X118.807 Y76.195 E0.01587
G1 X115.912 Y79.091 E0.12840
G1 X115.912 Y79.187 E0.00303
G1 X116.882 Y79.187 E0.03041
G1 X118.807 Y77.262 E0.08539
G1 X118.807 Y78.328 E0.03344
G1 X117.779 Y79.357 E0.04562
G1 X115.742 Y78.194 F10800.000
G1 F1200
G1 X120.722 Y73.214 E0.22082
G1 X120.189 Y72.681 E0.02365
G1 X115.912 Y76.958 E0.18965
G1 X115.912 Y75.891 E0.03344
G1 X119.656 Y72.147 E0.16601
G1 X119.122 Y71.614 E0.02365
G1 X115.356 Y75.381 E0.16702
G1 X115.101 Y75.381 E0.00800
G1 X114.968 Y75.416 E0.00430
G1 X114.505 Y75.681 E0.01673
G1 X114.095 Y75.969 E0.01570
G1 X113.717 Y76.294 E0.01565
G1 X113.373 Y76.654 E0.01560
G1 X113.067 Y77.044 E0.01555
G1 X112.927 Y77.265 E0.00820
G1 X112.927 Y76.743 E0.01637
G1 X118.589 Y71.081 E0.25106
G1 X118.056 Y70.547 E0.02365
G1 X112.757 Y75.846 E0.23494
G1 E-0.80000 F2100.00000
G1 Z0.800 F10800.000
G1 X117.459 Y133.481
G1 Z0.200
G1 E0.80000 F2100.00000
G1 F1200
G1 X116.964 Y133.467 E0.01553
G1 X116.568 Y133.412 E0.01252
G1 X116.176 Y133.319 E0.01265
G1 X115.798 Y133.190 E0.01250
G1 X115.436 Y133.026 E0.01246
G1 X115.093 Y132.830 E0.01240
G1 X114.772 Y132.603 E0.01233
G1 X114.476 Y132.348 E0.01225
G1 X114.209 Y132.067 E0.01216
G1 X113.972 Y131.763 E0.01208
G1 X113.768 Y131.439 E0.01200
G1 X113.599 Y131.098 E0.01193
G1 X113.466 Y130.743 E0.01187
G1 X113.370 Y130.379 E0.01182
G1 X113.312 Y130.007 E0.01179
G1 X113.292 Y129.617 E0.01225
G1 X113.292 Y79.842 E1.56065
G1 X113.319 Y79.409 E0.01361
G1 X113.370 Y79.078 E0.01051
G1 X113.466 Y78.713 E0.01182
G1 X113.598 Y78.362 E0.01178
G1 X113.794 Y77.977 E0.01352
G1 X113.972 Y77.694 E0.01050
G1 X114.209 Y77.390 E0.01208
G1 X114.473 Y77.112 E0.01204
G1 X114.799 Y76.838 E0.01332
G1 X114.799 Y80.300 E0.10855
G1 X119.920 Y80.300 E0.16059
G1 X119.921 Y76.830 E0.10879
G1 X120.243 Y77.109 E0.01335
G1 X120.510 Y77.390 E0.01216
G1 X120.747 Y77.694 E0.01208
G1 X120.950 Y78.018 E0.01200
G1 X121.120 Y78.359 E0.01193
G1 X121.253 Y78.713 E0.01187
G1 X121.349 Y79.078 E0.01182
G1 X121.406 Y79.450 E0.01179
G1 X121.427 Y79.840 E0.01225
G1 X121.427 Y129.617 E1.56073
G1 X121.406 Y130.007 E0.01225
G1 X121.349 Y130.379 E0.01179
G1 X121.254 Y130.741 E0.01173
G1 X121.100 Y131.139 E0.01338
G1 X120.950 Y131.439 E0.01051
G1 X120.747 Y131.763 E0.01200
G1 X120.510 Y132.067 E0.01208
G1 X120.243 Y132.348 E0.01216
G1 X119.947 Y132.603 E0.01224
G1 X119.626 Y132.830 E0.01233
