; generated by PrusaSlicer 2.2.0+win64 on 2020-12-15 at 00:21:21 UTC

; 

; external perimeters extrusion width = 0.45mm
; perimeters extrusion width = 0.45mm
; infill extrusion width = 0.45mm
; solid infill extrusion width = 0.45mm
; top infill extrusion width = 0.45mm
; support material extrusion width = 0.35mm
; first layer extrusion width = 0.42mm

M73 P0 R24
M201 X9000 Y9000 Z500 E10000 ; sets maximum accelerations, mm/sec^2
M203 X500 Y500 Z12 E120 ; sets maximum feedrates, mm/sec
M204 P2000 R1500 T2000 ; sets acceleration (P, T) and retract acceleration (R), mm/sec^2
M205 X10.00 Y10.00 Z0.20 E2.50 ; sets the jerk limits, mm/sec
M205 S0 T0 ; sets the minimum extruding and travel feed rate, mm/sec
M107
M862.3 P "MK2S" ; printer model check
M862.1 P0.4 ; nozzle diameter check
M115 U3.2.3 ; tell printer latest fw version
G90 ; use absolute coordinates
M83 ; extruder relative mode
M204 S2000 T1500 ; MK2 firmware only supports the old M204 format
M104 S215 ; set extruder temp
M140 S60 ; set bed temp
M190 S60 ; wait for bed temp
M109 S215 ; wait for extruder temp
G28 W ; home all without mesh bed level
G80 ; mesh bed leveling
G1 Y-3.0 F1000.0 ; go outside print area
G92 E0.0
G1 X60.0 E9.0  F1000.0 ; intro line
M73 P0 R24
G1 X100.0 E12.5 F1000.0 ; intro line
G92 E0.0
G21 ; set units to millimeters
G90 ; use absolute coordinates
M83 ; use relative distances for extrusion
M900 K0.05 ; Filament gcode LA 1.5
M900 K30 ; Filament gcode LA 1.0
;BEFORE_LAYER_CHANGE
G92 E0.0
;0.2


G1 E-0.80000 F2100.00000
G1 Z0.600 F10800.000
;AFTER_LAYER_CHANGE
;0.2
G1 X109.983 Y70.600
G1 Z0.200
G1 E0.80000 F2100.00000
M204 S1000
G1 F1200.000
G1 X110.446 Y69.994 E0.02390
G1 X111.079 Y69.563 E0.02402
G1 X111.813 Y69.357 E0.02390
G1 X127.388 Y69.342 E0.48833
G1 X138.322 Y69.542 E0.34288
G1 X139.008 Y69.764 E0.02260
G1 X139.593 Y70.178 E0.02249
G1 X140.030 Y70.752 E0.02260
G1 X140.274 Y71.426 E0.02249
G1 X140.319 Y80.871 E0.29614
G1 X139.694 Y129.666 E1.53008
G1 X139.572 Y130.895 E0.03870
G1 X139.349 Y131.737 E0.02731
G1 X138.854 Y132.864 E0.03862
G1 X138.415 Y133.550 E0.02552
G1 X137.623 Y134.464 E0.03790
G1 X136.996 Y135.000 E0.02588
G1 X135.955 Y135.656 E0.03858
G1 X135.226 Y135.980 E0.02503
G1 X134.100 Y136.305 E0.03673
G1 X132.668 Y136.448 E0.04512
G1 X117.327 Y136.448 E0.48101
G1 X116.063 Y136.333 E0.03979
G1 X114.807 Y135.984 E0.04086
G1 X114.012 Y135.626 E0.02735
G1 X112.946 Y134.939 E0.03977
G1 X112.036 Y134.083 E0.03917
G1 X111.492 Y133.386 E0.02772
G1 X110.886 Y132.293 E0.03920
G1 X110.496 Y131.103 E0.03924
G1 X110.362 Y130.297 E0.02562
G1 X109.703 Y80.675 E1.55600
G1 X109.736 Y71.325 E0.29318
G1 X109.964 Y70.657 E0.02214
G1 E-0.80000 F2100.00000
G1 Z0.800 F10800.000
G1 X122.639 Y80.844
G1 Z0.200
G1 E0.80000 F2100.00000
G1 F1200.000
G1 X122.639 Y71.889 E0.28079
G1 X121.884 Y71.889 E0.02365
G1 X121.884 Y77.649 E0.18061
G1 X121.561 Y77.111 E0.01969
G1 X121.276 Y76.745 E0.01455
G1 X121.130 Y76.590 E0.00665
G1 X121.130 Y71.889 E0.14740
G1 X120.376 Y71.889 E0.02365
G1 X120.376 Y75.931 E0.12675
G1 X120.156 Y75.777 E0.00844
G1 X119.708 Y75.521 E0.01616
G1 X119.622 Y75.498 E0.00281
G1 X119.622 Y71.889 E0.11316
G1 X118.868 Y71.889 E0.02365
G1 X118.868 Y79.300 E0.23236
G1 X118.114 Y79.300 E0.02365
G1 X118.114 Y71.889 E0.23236
G1 X117.359 Y71.889 E0.02365
G1 X117.359 Y79.300 E0.23236
G1 X116.605 Y79.300 E0.02365
G1 X116.605 Y71.889 E0.23236
G1 X115.851 Y71.889 E0.02365
G1 X115.851 Y79.300 E0.23236
G1 X115.799 Y79.300 E0.00163
G1 X115.799 Y75.735 E0.11176
G1 X115.557 Y75.493 E0.01074
G1 X115.097 Y75.498 E0.01442
G1 X115.097 Y71.889 E0.11316
G1 X114.343 Y71.889 E0.02365
G1 X114.343 Y75.931 E0.12675
G1 X114.147 Y76.071 E0.00755
G1 X113.792 Y76.377 E0.01468
G1 X113.589 Y76.590 E0.00923
G1 X113.589 Y71.889 E0.14740
G1 X112.835 Y71.889 E0.02365
G1 X112.835 Y77.649 E0.18060
G1 X112.677 Y77.969 E0.01120
G1 X112.515 Y78.400 E0.01441
G1 X112.388 Y78.884 E0.01569
G1 X112.315 Y79.357 E0.01502
G1 X112.292 Y79.819 E0.01450
G1 X112.292 Y80.528 E0.02223
G1 X112.080 Y80.649 E0.00763
G1 X112.080 Y71.719 E0.27998
G1 E-0.80000 F2100.00000
G1 Z0.800 F10800.000
G1 X114.626 Y77.243
G1 Z0.200
G1 E0.80000 F2100.00000
G1 F1200.000
G1 X114.604 Y77.616 E0.01171
G1 X114.597 Y80.500 E0.09043
G1 X120.121 Y80.500 E0.17320
G1 X120.117 Y77.793 E0.08489
G1 X120.086 Y77.237 E0.01744
G1 X120.358 Y77.520 E0.01232
G1 X120.583 Y77.809 E0.01146
G1 X120.776 Y78.116 E0.01137
G1 X120.936 Y78.439 E0.01130
G1 X121.062 Y78.774 E0.01123
G1 X121.153 Y79.119 E0.01118
G1 X121.207 Y79.470 E0.01115
G1 X121.227 Y79.845 E0.01176
G1 X121.227 Y129.612 E1.56041
G1 X121.207 Y129.987 E0.01176
G1 X121.153 Y130.338 E0.01115
G1 X121.062 Y130.683 E0.01118
G1 X120.936 Y131.018 E0.01123
G1 X120.776 Y131.341 E0.01130
G1 X120.583 Y131.648 E0.01137
G1 X120.358 Y131.936 E0.01146
G1 X120.105 Y132.203 E0.01154
G1 X119.824 Y132.446 E0.01163
G1 X119.518 Y132.661 E0.01172
G1 X119.192 Y132.848 E0.01180
G1 X118.847 Y133.004 E0.01187
G1 X118.488 Y133.126 E0.01189
G1 X118.113 Y133.215 E0.01207
G1 X117.732 Y133.269 E0.01207
G1 X117.452 Y133.281 E0.00880
G1 X116.981 Y133.268 E0.01476
G1 X116.605 Y133.215 E0.01190
G1 X116.232 Y133.126 E0.01204
G1 X115.872 Y133.004 E0.01191
G1 X115.527 Y132.848 E0.01187
G1 X115.200 Y132.661 E0.01180
G1 X114.895 Y132.446 E0.01172
G1 X114.614 Y132.203 E0.01163
G1 X114.361 Y131.936 E0.01154
G1 X114.136 Y131.648 E0.01146
G1 X113.943 Y131.341 E0.01137
G1 X113.783 Y131.018 E0.01130
G1 X113.657 Y130.683 E0.01123
G1 X113.566 Y130.338 E0.01118
G1 X113.512 Y129.987 E0.01114
G1 X113.492 Y129.612 E0.01176
G1 X113.492 Y79.845 E1.56041
G1 X113.512 Y79.470 E0.01176
G1 X113.566 Y79.119 E0.01114
G1 X113.657 Y78.774 E0.01118
G1 X113.783 Y78.439 E0.01123
G1 X113.943 Y78.116 E0.01130
G1 X114.136 Y77.809 E0.01137
G1 X114.361 Y77.520 E0.01146
G1 X114.584 Y77.286 E0.01015
G1 X114.975 Y80.123 F10800.000
G1 F1200.000
G1 X119.744 Y80.123 E0.14951
G1 X119.740 Y77.804 E0.07272
G1 X119.686 Y76.859 E0.02967
G1 X119.711 Y76.471 E0.01219
G1 X120.056 Y76.714 E0.01323
G1 X120.365 Y76.980 E0.01279
G1 X120.644 Y77.274 E0.01271
G1 X120.892 Y77.592 E0.01263
G1 X121.105 Y77.931 E0.01256
G1 X121.282 Y78.288 E0.01249
G1 X121.422 Y78.660 E0.01244
G1 X121.522 Y79.042 E0.01239
G1 X121.583 Y79.431 E0.01236
G1 X121.604 Y79.835 E0.01268
G1 X121.604 Y129.622 E1.56102
G1 X121.583 Y130.025 E0.01268
G1 X121.522 Y130.415 E0.01236
G1 X121.422 Y130.797 E0.01239
G1 X121.282 Y131.169 E0.01244
G1 X121.105 Y131.526 E0.01249
G1 X120.892 Y131.865 E0.01256
G1 X120.644 Y132.183 E0.01263
G1 X120.365 Y132.476 E0.01271
G1 X120.056 Y132.743 E0.01279
G1 X119.721 Y132.980 E0.01287
G1 X119.363 Y133.184 E0.01293
G1 X118.986 Y133.355 E0.01299
G1 X118.592 Y133.489 E0.01302
G1 X118.183 Y133.586 E0.01319
G1 X117.767 Y133.645 E0.01318
G1 X117.455 Y133.659 E0.00980
G1 X116.949 Y133.644 E0.01585
G1 X116.535 Y133.586 E0.01311
G1 X116.127 Y133.489 E0.01316
G1 X115.733 Y133.355 E0.01304
G1 X115.356 Y133.184 E0.01299
G1 X114.997 Y132.980 E0.01294
G1 X114.662 Y132.743 E0.01286
G1 X114.354 Y132.476 E0.01279
G1 X114.075 Y132.183 E0.01271
G1 X113.827 Y131.865 E0.01263
G1 X113.614 Y131.526 E0.01256
G1 X113.437 Y131.169 E0.01249
G1 X113.297 Y130.797 E0.01244
G1 X113.197 Y130.415 E0.01239
G1 X113.136 Y130.025 E0.01236
G1 X113.115 Y129.622 E0.01268
G1 X113.115 Y79.835 E1.56102
G1 X113.136 Y79.431 E0.01268
G1 X113.197 Y79.042 E0.01236
G1 X113.297 Y78.660 E0.01239
G1 X113.437 Y78.288 E0.01244
G1 X113.614 Y77.931 E0.01250
G1 X113.827 Y77.592 E0.01256
G1 X114.075 Y77.274 E0.01263
G1 X114.354 Y76.980 E0.01271
G1 X114.663 Y76.714 E0.01279
G1 X115.023 Y76.462 E0.01377
G1 X115.067 Y76.771 E0.00977
G1 X115.008 Y77.181 E0.01300
G1 X114.981 Y77.628 E0.01404
G1 X114.975 Y80.063 E0.07636
G1 X114.974 Y80.523 F10800.000
G1 X114.485 Y80.125
G1 F1200.000
G1 X113.802 Y79.442 E0.03049
G1 X113.891 Y78.995 E0.01441
G1 X114.317 Y79.420 E0.01900
G1 X114.318 Y78.884 E0.01691
G1 X114.027 Y78.593 E0.01300
G1 X114.204 Y78.233 E0.01267
G1 X114.489 Y78.518 E0.01272
G1 X114.973 Y80.613 F10800.000
G1 F1200.000
G1 X120.944 Y86.584 E0.26657
G1 X120.944 Y86.047 E0.01695
G1 X115.680 Y80.783 E0.23502
G1 X116.217 Y80.783 E0.01695
G1 X120.944 Y85.510 E0.21105
G1 X120.944 Y84.973 E0.01695
G1 X116.754 Y80.783 E0.18707
G1 X117.291 Y80.783 E0.01695
G1 X120.944 Y84.436 E0.16310
G1 X120.944 Y83.899 E0.01695
G1 X117.828 Y80.783 E0.13913
G1 X118.365 Y80.783 E0.01695
G1 X120.944 Y83.362 E0.11515
G1 X120.944 Y82.825 E0.01695
G1 X118.902 Y80.783 E0.09118
G1 X119.438 Y80.783 E0.01695
G1 X120.944 Y82.288 E0.06721
G1 X120.944 Y81.751 E0.01695
G1 X119.975 Y80.783 E0.04324
G1 X120.405 Y80.783 E0.01355
G1 X120.404 Y80.675 E0.00341
G1 X120.944 Y81.215 E0.02408
G1 X120.944 Y80.678 E0.01695
G1 X120.404 Y80.137 E0.02412
G1 X120.403 Y79.600 E0.01698
G1 X120.944 Y80.141 E0.02415
G1 X120.944 Y79.852 E0.00911
G1 X120.930 Y79.590 E0.00828
G1 X120.402 Y79.062 E0.02358
G1 X120.401 Y78.524 E0.01698
G1 X121.046 Y79.169 E0.02878
G1 E-0.80000 F2100.00000
G1 Z0.800 F10800.000
G1 X121.113 Y87.291
G1 Z0.200
G1 E0.80000 F2100.00000
G1 F1200.000
G1 X113.775 Y79.952 E0.32764
G1 X113.775 Y80.489 E0.01695
G1 X120.944 Y87.658 E0.32006
G1 X120.944 Y88.195 E0.01695
G1 X113.775 Y81.026 E0.32006
G1 X113.775 Y81.563 E0.01695
G1 X120.944 Y88.732 E0.32006
G1 X120.944 Y89.269 E0.01695
G1 X113.775 Y82.100 E0.32006
G1 X113.775 Y82.637 E0.01695
G1 X120.944 Y89.806 E0.32006
G1 X120.944 Y90.343 E0.01695
G1 X113.775 Y83.174 E0.32006
G1 X113.775 Y83.711 E0.01695
G1 X120.944 Y90.880 E0.32006
G1 X120.944 Y91.416 E0.01695
G1 X113.775 Y84.248 E0.32006
G1 X113.775 Y84.785 E0.01695
G1 X120.944 Y91.953 E0.32006
G1 X120.944 Y92.490 E0.01695
G1 X113.775 Y85.322 E0.32006
G1 X113.775 Y85.859 E0.01695
G1 X120.944 Y93.027 E0.32006
G1 X120.944 Y93.564 E0.01695
G1 X113.775 Y86.396 E0.32006
G1 X113.775 Y86.933 E0.01695
G1 X120.944 Y94.101 E0.32006
G1 X120.944 Y94.638 E0.01695
G1 X113.775 Y87.469 E0.32006
G1 X113.775 Y88.006 E0.01695
G1 X120.944 Y95.175 E0.32006
G1 X120.944 Y95.712 E0.01695
G1 X113.775 Y88.543 E0.32006
G1 X113.775 Y89.080 E0.01695
G1 X120.944 Y96.249 E0.32006
G1 X120.944 Y96.786 E0.01695
G1 X113.775 Y89.617 E0.32006
G1 X113.775 Y90.154 E0.01695
G1 X120.944 Y97.323 E0.32006
G1 X120.944 Y97.860 E0.01695
G1 X113.775 Y90.691 E0.32006
G1 X113.775 Y91.228 E0.01695
G1 X120.944 Y98.397 E0.32006
G1 X120.944 Y98.934 E0.01695
G1 X113.775 Y91.765 E0.32006
G1 X113.775 Y92.302 E0.01695
G1 X120.944 Y99.471 E0.32006
G1 X120.944 Y100.008 E0.01695
G1 X113.775 Y92.839 E0.32006
G1 X113.775 Y93.376 E0.01695
G1 X120.944 Y100.545 E0.32006
G1 X120.944 Y101.081 E0.01695
G1 X113.775 Y93.913 E0.32006
G1 X113.775 Y94.450 E0.01695
G1 X120.944 Y101.618 E0.32006
G1 X120.944 Y102.155 E0.01695
G1 X113.775 Y94.987 E0.32006
G1 X113.775 Y95.524 E0.01695
G1 X120.944 Y102.692 E0.32006
G1 X120.944 Y103.229 E0.01695
G1 X113.775 Y96.061 E0.32006
G1 X113.775 Y96.598 E0.01695
G1 X120.944 Y103.766 E0.32006
G1 X120.944 Y104.303 E0.01695
G1 X113.775 Y97.134 E0.32006
G1 X113.775 Y97.671 E0.01695
G1 X120.944 Y104.840 E0.32006
G1 X120.944 Y105.377 E0.01695
G1 X113.775 Y98.208 E0.32006
G1 X113.775 Y98.745 E0.01695
G1 X120.944 Y105.914 E0.32006
G1 X120.944 Y106.451 E0.01695
G1 X113.775 Y99.282 E0.32006
G1 X113.775 Y99.819 E0.01695
G1 X120.944 Y106.988 E0.32006
G1 X120.944 Y107.525 E0.01695
G1 X113.775 Y100.356 E0.32006
G1 X113.775 Y100.893 E0.01695
G1 X120.944 Y108.062 E0.32006
G1 X120.944 Y108.599 E0.01695
G1 X113.775 Y101.430 E0.32006
G1 X113.775 Y101.967 E0.01695
G1 X120.944 Y109.136 E0.32006
G1 X120.944 Y109.673 E0.01695
G1 X113.775 Y102.504 E0.32006
G1 X113.775 Y103.041 E0.01695
G1 X120.944 Y110.210 E0.32006
G1 X120.944 Y110.746 E0.01695
G1 X113.775 Y103.578 E0.32006
M73 P4 R23
G1 X113.775 Y104.115 E0.01695
G1 X120.944 Y111.283 E0.32006
G1 X120.944 Y111.820 E0.01695
G1 X113.775 Y104.652 E0.32006
G1 X113.775 Y105.189 E0.01695
G1 X120.944 Y112.357 E0.32006
G1 X120.944 Y112.894 E0.01695
G1 X113.775 Y105.726 E0.32006
G1 X113.775 Y106.263 E0.01695
G1 X120.944 Y113.431 E0.32006
G1 X120.944 Y113.968 E0.01695
G1 X113.775 Y106.799 E0.32006
G1 X113.775 Y107.336 E0.01695
G1 X120.944 Y114.505 E0.32006
G1 X120.944 Y115.042 E0.01695
G1 X113.775 Y107.873 E0.32006
G1 X113.775 Y108.410 E0.01695
G1 X120.944 Y115.579 E0.32006
G1 X120.944 Y116.116 E0.01695
G1 X113.775 Y108.947 E0.32006
G1 X113.775 Y109.484 E0.01695
G1 X120.944 Y116.653 E0.32006
G1 X120.944 Y117.190 E0.01695
G1 X113.775 Y110.021 E0.32006
G1 X113.775 Y110.558 E0.01695
G1 X120.944 Y117.727 E0.32006
G1 X120.944 Y118.264 E0.01695
G1 X113.775 Y111.095 E0.32006
G1 X113.775 Y111.632 E0.01695
G1 X120.944 Y118.801 E0.32006
G1 X120.944 Y119.338 E0.01695
G1 X113.775 Y112.169 E0.32006
G1 X113.775 Y112.706 E0.01695
G1 X120.944 Y119.874 E0.32006
G1 X120.944 Y120.411 E0.01695
G1 X113.775 Y113.243 E0.32006
G1 X113.775 Y113.780 E0.01695
G1 X120.944 Y120.948 E0.32006
G1 X120.944 Y121.485 E0.01695
G1 X113.775 Y114.317 E0.32006
G1 X113.775 Y114.854 E0.01695
G1 X120.944 Y122.022 E0.32006
G1 X120.944 Y122.559 E0.01695
G1 X113.775 Y115.391 E0.32006
G1 X113.775 Y115.928 E0.01695
G1 X120.944 Y123.096 E0.32006
G1 X120.944 Y123.633 E0.01695
G1 X113.775 Y116.464 E0.32006
G1 X113.775 Y117.001 E0.01695
G1 X120.944 Y124.170 E0.32006
G1 X120.944 Y124.707 E0.01695
G1 X113.775 Y117.538 E0.32006
G1 X113.775 Y118.075 E0.01695
G1 X120.944 Y125.244 E0.32006
G1 X120.944 Y125.781 E0.01695
G1 X113.775 Y118.612 E0.32006
G1 X113.775 Y119.149 E0.01695
G1 X120.944 Y126.318 E0.32006
G1 X120.944 Y126.855 E0.01695
G1 X113.775 Y119.686 E0.32006
G1 X113.775 Y120.223 E0.01695
G1 X120.944 Y127.392 E0.32006
G1 X120.944 Y127.929 E0.01695
G1 X113.775 Y120.760 E0.32006
G1 X113.775 Y121.297 E0.01695
G1 X120.944 Y128.466 E0.32006
G1 X120.944 Y129.003 E0.01695
G1 X113.775 Y121.834 E0.32006
G1 X113.775 Y122.371 E0.01695
G1 X120.944 Y129.539 E0.32006
G1 X120.912 Y130.045 E0.01598
G1 X113.775 Y122.908 E0.31864
G1 X113.775 Y123.445 E0.01695
G1 X120.820 Y130.490 E0.31454
G1 X120.682 Y130.889 E0.01333
G1 X113.775 Y123.982 E0.30839
G1 X113.775 Y124.519 E0.01695
G1 X120.502 Y131.245 E0.30033
G1 X120.287 Y131.567 E0.01222
G1 X113.775 Y125.056 E0.29074
G1 X113.775 Y125.593 E0.01695
G1 X120.042 Y131.859 E0.27978
G1 X119.767 Y132.121 E0.01199
G1 X113.775 Y126.129 E0.26751
G1 X113.775 Y126.666 E0.01695
G1 X119.463 Y132.354 E0.25395
G1 X119.130 Y132.558 E0.01233
G1 X113.775 Y127.203 E0.23907
G1 X113.775 Y127.740 E0.01695
G1 X118.765 Y132.730 E0.22279
G1 X118.363 Y132.865 E0.01339
G1 X113.775 Y128.277 E0.20484
G1 X113.775 Y128.814 E0.01695
G1 X117.918 Y132.957 E0.18496
G1 X117.422 Y132.998 E0.01572
G1 X113.775 Y129.351 E0.16281
G1 X113.791 Y129.903 E0.01744
G1 X116.851 Y132.964 E0.13664
G1 X116.658 Y132.937 E0.00616
G1 X116.150 Y132.800 E0.01661
G1 X113.920 Y130.569 E0.09957
G1 X114.043 Y130.905 E0.01129
G1 X114.190 Y131.202 E0.01047
G1 X114.368 Y131.485 E0.01056
G1 X114.575 Y131.752 E0.01065
G1 X115.536 Y132.723 E0.04314
G1 E-0.80000 F2100.00000
G1 Z0.800 F10800.000
G1 X127.384 Y71.719
G1 Z0.200
G1 E0.80000 F2100.00000
G1 F1200.000
G1 X127.384 Y80.649 E0.27998
G1 X127.595 Y80.528 E0.00763
G1 X127.595 Y79.819 E0.02223
G1 X127.619 Y79.357 E0.01450
G1 X127.691 Y78.884 E0.01502
G1 X127.819 Y78.400 E0.01569
G1 X127.980 Y77.969 E0.01441
G1 X128.138 Y77.649 E0.01120
G1 X128.138 Y71.889 E0.18060
G1 X128.892 Y71.889 E0.02365
G1 X128.892 Y76.590 E0.14740
G1 X129.096 Y76.377 E0.00923
G1 X129.450 Y76.071 E0.01468
G1 X129.646 Y75.931 E0.00755
G1 X129.646 Y71.889 E0.12675
G1 X130.401 Y71.889 E0.02365
G1 X130.401 Y75.498 E0.11316
G1 X130.861 Y75.493 E0.01442
G1 X131.103 Y75.735 E0.01074
G1 X131.103 Y79.300 E0.11176
G1 X131.155 Y79.300 E0.00163
G1 X131.155 Y71.889 E0.23236
G1 X131.909 Y71.889 E0.02365
G1 X131.909 Y79.300 E0.23236
G1 X132.644 Y79.300 E0.02306
G1 X132.663 Y79.300 E0.00059
G1 X132.663 Y71.889 E0.23236
G1 X133.417 Y71.889 E0.02365
G1 X133.417 Y79.300 E0.23236
G1 X134.171 Y79.300 E0.02365
G1 X134.171 Y71.889 E0.23236
G1 X134.926 Y71.889 E0.02365
G1 X134.926 Y75.498 E0.11316
G1 X135.012 Y75.521 E0.00281
G1 X135.459 Y75.777 E0.01616
G1 X135.680 Y75.931 E0.00844
G1 X135.680 Y71.889 E0.12675
G1 X136.434 Y71.889 E0.02365
