; generated by PrusaSlicer 2.2.0+win64 on 2020-10-19 at 22:25:55 UTC

; 

; external perimeters extrusion width = 0.45mm
; perimeters extrusion width = 0.45mm
; infill extrusion width = 0.45mm
; solid infill extrusion width = 0.45mm
; top infill extrusion width = 0.40mm
; first layer extrusion width = 0.42mm

M73 P0 R294
M201 X9000 Y9000 Z500 E10000 ; sets maximum accelerations, mm/sec^2
M203 X500 Y500 Z12 E120 ; sets maximum feedrates, mm/sec
M204 P2000 R1500 T2000 ; sets acceleration (P, T) and retract acceleration (R), mm/sec^2
M205 X10.00 Y10.00 Z0.20 E2.50 ; sets the jerk limits, mm/sec
M205 S0 T0 ; sets the minimum extruding and travel feed rate, mm/sec
M107
M862.3 P "MK2S" ; printer model check
M862.1 P0.4 ; nozzle diameter check
M115 U3.2.3 ; tell printer latest fw version
G90 ; use absolute coordinates
M83 ; extruder relative mode
M204 S2000 T1500 ; MK2 firmware only supports the old M204 format
M104 S215 ; set extruder temp
M140 S60 ; set bed temp
M190 S60 ; wait for bed temp
M109 S215 ; wait for extruder temp
G28 W ; home all without mesh bed level
G80 ; mesh bed leveling
G1 Y-3.0 F1000.0 ; go outside print area
G92 E0.0
G1 X60.0 E9.0  F1000.0 ; intro line
M73 P0 R294
G1 X100.0 E12.5 F1000.0 ; intro line
G92 E0.0
G21 ; set units to millimeters
G90 ; use absolute coordinates
M83 ; use relative distances for extrusion
M900 K0.05 ; Filament gcode LA 1.5
M900 K30 ; Filament gcode LA 1.0
;BEFORE_LAYER_CHANGE
G92 E0.0
;0.2


G1 E-0.80000 F2100.00000
G1 Z0.600 F10800.000
;AFTER_LAYER_CHANGE
;0.2
G1 X175.394 Y192.133
G1 Z0.200
G1 E0.80000 F2100.00000
M204 S1000
G1 F1200.000
G1 X163.692 Y192.133 E0.36691
G1 X163.692 Y153.893 E1.19898
G1 X186.843 Y153.893 E0.72586
G1 X186.843 Y192.133 E1.19898
G1 X175.454 Y192.133 E0.35707
G1 X175.394 Y191.755 F10800.000
G1 F1200.000
G1 X164.069 Y191.755 E0.35509
G1 X164.069 Y154.270 E1.17533
G1 X186.466 Y154.270 E0.70222
G1 X186.466 Y191.755 E1.17533
G1 X175.454 Y191.755 E0.34525
G1 X175.356 Y192.154 F10800.000
G1 E-0.80000 F2100.00000
G1 Z0.800 F10800.000
G1 X160.160 Y192.133
G1 Z0.200
G1 E0.80000 F2100.00000
G1 F1200.000
G1 X140.249 Y192.133 E0.62431
G1 X140.249 Y153.893 E1.19898
G1 X160.160 Y153.893 E0.62431
G1 X160.160 Y192.073 E1.19710
G1 X159.783 Y191.755 F10800.000
G1 F1200.000
G1 X140.626 Y191.755 E0.60066
G1 X140.626 Y154.270 E1.17533
G1 X159.783 Y154.270 E0.60066
G1 X159.783 Y191.695 E1.17345
G1 X159.846 Y192.151 F10800.000
G1 E-0.80000 F2100.00000
G1 Z0.800 F10800.000
G1 X190.012 Y192.133
G1 Z0.200
G1 E0.80000 F2100.00000
G1 F1200.000
G1 X190.012 Y153.893 E1.19898
G1 X210.144 Y153.893 E0.63124
G1 X210.144 Y192.133 E1.19898
G1 X190.072 Y192.133 E0.62936
G1 X190.389 Y191.755 F10800.000
G1 F1200.000
G1 X190.389 Y154.270 E1.17533
G1 X209.767 Y154.270 E0.60760
G1 X209.767 Y191.755 E1.17533
G1 X190.449 Y191.755 E0.60572
G1 X190.015 Y191.898 F10800.000
G1 E-0.80000 F2100.00000
G1 Z0.800 F10800.000
G1 X160.160 Y124.527
G1 Z0.200
G1 E0.80000 F2100.00000
G1 F1200.000
G1 X140.249 Y124.527 E0.62431
G1 X140.249 Y85.645 E1.21912
G1 X160.160 Y85.645 E0.62431
G1 X160.160 Y124.467 E1.21724
G1 X159.783 Y124.150 F10800.000
G1 F1200.000
G1 X140.626 Y124.150 E0.60066
G1 X140.626 Y86.022 E1.19547
G1 X159.783 Y86.022 E0.60066
G1 X159.783 Y124.090 E1.19359
G1 X159.845 Y124.545 F10800.000
G1 E-0.80000 F2100.00000
G1 Z0.800 F10800.000
G1 X175.394 Y204.040
G1 Z0.200
G1 E0.80000 F2100.00000
G1 F1200.000
G1 X139.142 Y204.040 E1.13665
G1 X139.142 Y182.818 E0.66542
G1 X136.374 Y182.818 E0.08681
G1 X136.374 Y177.292 E0.17326
G1 X139.142 Y177.292 E0.08681
G1 X139.142 Y169.096 E0.25699
G1 X136.374 Y169.096 E0.08681
G1 X136.374 Y163.754 E0.16747
G1 X139.142 Y163.754 E0.08681
G1 X139.142 Y155.341 E0.26380
G1 X136.374 Y155.341 E0.08681
G1 X136.374 Y150.277 E0.15877
G1 X139.142 Y150.277 E0.08681
G1 X139.142 Y141.990 E0.25983
G1 X136.374 Y141.990 E0.08681
G1 X136.374 Y137.068 E0.15434
G1 X139.142 Y137.068 E0.08681
M73 P0 R293
G1 X139.142 Y128.636 E0.26438
G1 X136.374 Y128.636 E0.08681
G1 X136.374 Y123.309 E0.16702
G1 X139.142 Y123.309 E0.08681
G1 X139.142 Y115.186 E0.25471
G1 X136.374 Y115.186 E0.08681
G1 X136.374 Y109.638 E0.17394
G1 X139.142 Y109.638 E0.08681
G1 X139.142 Y101.381 E0.25890
G1 X136.374 Y101.381 E0.08681
G1 X136.374 Y95.956 E0.17009
G1 X139.142 Y95.956 E0.08681
G1 X139.142 Y89.996 E0.18688
G1 X133.969 Y89.996 E0.16220
G1 X133.969 Y62.298 E0.86845
G1 X178.437 Y62.298 E1.39425
G1 X178.437 Y85.645 E0.73203
G1 X163.692 Y85.645 E0.46232
G1 X163.692 Y124.527 E1.21912
G1 X186.843 Y124.527 E0.72586
G1 X186.843 Y96.907 E0.86602
G1 X190.012 Y96.907 E0.09936
G1 X190.012 Y124.527 E0.86602
G1 X210.144 Y124.527 E0.63124
G1 X210.144 Y96.907 E0.86602
G1 X216.819 Y96.907 E0.20929
G1 X216.819 Y101.579 E0.14649
G1 X214.020 Y101.579 E0.08776
G1 X214.020 Y110.156 E0.26894
G1 X216.819 Y110.156 E0.08776
G1 X216.819 Y115.006 E0.15207
G1 X214.020 Y115.006 E0.08776
G1 X214.020 Y123.376 E0.26243
G1 X216.819 Y123.376 E0.08776
G1 X216.819 Y128.636 E0.16493
G1 X214.020 Y128.636 E0.08776
G1 X214.020 Y137.068 E0.26438
G1 X216.819 Y137.068 E0.08776
G1 X216.819 Y141.990 E0.15434
G1 X214.020 Y141.990 E0.08776
G1 X214.020 Y150.277 E0.25983
G1 X216.819 Y150.277 E0.08776
G1 X216.819 Y155.630 E0.16785
G1 X214.020 Y155.630 E0.08776
G1 X214.020 Y163.899 E0.25926
G1 X216.819 Y163.899 E0.08776
G1 X216.819 Y169.168 E0.16520
G1 X214.020 Y169.168 E0.08776
G1 X214.020 Y177.485 E0.26079
G1 X216.819 Y177.485 E0.08776
G1 X216.819 Y182.910 E0.17008
G1 X214.020 Y182.910 E0.08776
G1 X214.020 Y204.040 E0.66253
G1 X175.454 Y204.040 E1.20920
G1 X175.394 Y204.417 F10800.000
G1 F1200.000
G1 X138.765 Y204.417 E1.14847
G1 X138.765 Y183.195 E0.66542
G1 X135.997 Y183.195 E0.08681
G1 X135.997 Y176.915 E0.19690
G1 X138.765 Y176.915 E0.08681
G1 X138.765 Y169.473 E0.23334
G1 X135.997 Y169.473 E0.08681
G1 X135.997 Y163.377 E0.19112
G1 X138.765 Y163.377 E0.08681
G1 X138.765 Y155.718 E0.24015
G1 X135.997 Y155.718 E0.08681
G1 X135.997 Y149.900 E0.18242
G1 X138.765 Y149.900 E0.08681
G1 X138.765 Y142.367 E0.23618
G1 X135.997 Y142.367 E0.08681
G1 X135.997 Y136.691 E0.17798
G1 X138.765 Y136.691 E0.08681
G1 X138.765 Y129.013 E0.24073
G1 X135.997 Y129.013 E0.08681
G1 X135.997 Y122.932 E0.19066
G1 X138.765 Y122.932 E0.08681
G1 X138.765 Y115.563 E0.23106
G1 X135.997 Y115.563 E0.08681
G1 X135.997 Y109.261 E0.19759
G1 X138.765 Y109.261 E0.08681
G1 X138.765 Y101.758 E0.23526
G1 X135.997 Y101.758 E0.08681
G1 X135.997 Y95.579 E0.19373
G1 X138.765 Y95.579 E0.08681
G1 X138.765 Y90.373 E0.16323
G1 X133.592 Y90.373 E0.16220
G1 X133.592 Y61.921 E0.89210
G1 X178.814 Y61.921 E1.41790
G1 X178.814 Y86.022 E0.75568
G1 X164.069 Y86.022 E0.46232
G1 X164.069 Y124.150 E1.19547
G1 X186.466 Y124.150 E0.70222
G1 X186.466 Y96.530 E0.86602
G1 X190.389 Y96.530 E0.12301
G1 X190.389 Y124.150 E0.86602
G1 X209.767 Y124.150 E0.60760
G1 X209.767 Y96.530 E0.86602
G1 X217.196 Y96.530 E0.23293
G1 X217.196 Y101.956 E0.17013
G1 X214.397 Y101.956 E0.08776
G1 X214.397 Y109.779 E0.24529
G1 X217.196 Y109.779 E0.08776
G1 X217.196 Y115.383 E0.17572
G1 X214.397 Y115.383 E0.08776
G1 X214.397 Y122.999 E0.23878
G1 X217.196 Y122.999 E0.08776
G1 X217.196 Y129.013 E0.18857
G1 X214.397 Y129.013 E0.08776
G1 X214.397 Y136.691 E0.24073
G1 X217.196 Y136.691 E0.08776
G1 X217.196 Y142.367 E0.17798
G1 X214.397 Y142.367 E0.08776
G1 X214.397 Y149.900 E0.23618
G1 X217.196 Y149.900 E0.08776
G1 X217.196 Y156.007 E0.19150
G1 X214.397 Y156.007 E0.08776
G1 X214.397 Y163.522 E0.23561
G1 X217.196 Y163.522 E0.08776
G1 X217.196 Y169.545 E0.18885
G1 X214.397 Y169.545 E0.08776
G1 X214.397 Y177.108 E0.23714
G1 X217.196 Y177.108 E0.08776
G1 X217.196 Y183.287 E0.19372
G1 X214.397 Y183.287 E0.08776
G1 X214.397 Y204.417 E0.66253
G1 X175.454 Y204.417 E1.22103
M73 P0 R292
G1 X175.140 Y204.109 F10800.000
G1 X174.233 Y203.927
G1 F1200.000
G1 X160.443 Y190.137 E0.61300
G1 X160.443 Y190.671 E0.01680
G1 X173.529 Y203.757 E0.58169
G1 X172.995 Y203.757 E0.01680
G1 X160.443 Y191.206 E0.55793
G1 X160.443 Y191.740 E0.01680
G1 X172.460 Y203.757 E0.53416
G1 X171.925 Y203.757 E0.01680
G1 X160.443 Y192.275 E0.51040
G1 X160.443 Y192.415 E0.00441
G1 X160.049 Y192.415 E0.01239
G1 X171.391 Y203.757 E0.50417
G1 X170.856 Y203.757 E0.01680
G1 X159.514 Y192.415 E0.50417
G1 X158.980 Y192.415 E0.01680
G1 X170.322 Y203.757 E0.50417
G1 X169.787 Y203.757 E0.01680
G1 X158.445 Y192.415 E0.50417
G1 X157.910 Y192.415 E0.01680
G1 X169.252 Y203.757 E0.50417
G1 X168.718 Y203.757 E0.01680
G1 X157.376 Y192.415 E0.50417
G1 X156.841 Y192.415 E0.01680
G1 X168.183 Y203.757 E0.50417
G1 X167.649 Y203.757 E0.01680
G1 X156.307 Y192.415 E0.50417
G1 X155.772 Y192.415 E0.01680
G1 X167.114 Y203.757 E0.50417
G1 X166.580 Y203.757 E0.01680
G1 X155.238 Y192.415 E0.50417
G1 X154.703 Y192.415 E0.01680
G1 X166.045 Y203.757 E0.50417
G1 X165.510 Y203.757 E0.01680
G1 X154.168 Y192.415 E0.50417
G1 X153.634 Y192.415 E0.01680
G1 X164.976 Y203.757 E0.50417
G1 X164.441 Y203.757 E0.01680
G1 X153.099 Y192.415 E0.50417
G1 X152.565 Y192.415 E0.01680
G1 X163.907 Y203.757 E0.50417
G1 X163.372 Y203.757 E0.01680
G1 X152.030 Y192.415 E0.50417
G1 X151.495 Y192.415 E0.01680
G1 X162.837 Y203.757 E0.50417
G1 X162.303 Y203.757 E0.01680
G1 X150.961 Y192.415 E0.50417
G1 X150.426 Y192.415 E0.01680
G1 X161.768 Y203.757 E0.50417
G1 X161.234 Y203.757 E0.01680
G1 X149.892 Y192.415 E0.50417
G1 X149.357 Y192.415 E0.01680
G1 X160.869 Y203.927 E0.51171
G1 X160.334 Y203.927 F10800.000
G1 F1200.000
G1 X148.822 Y192.415 E0.51171
G1 X148.288 Y192.415 E0.01680
G1 X159.630 Y203.757 E0.50417
G1 X159.095 Y203.757 E0.01680
G1 X147.753 Y192.415 E0.50417
G1 X147.219 Y192.415 E0.01680
G1 X158.561 Y203.757 E0.50417
G1 X158.026 Y203.757 E0.01680
G1 X146.684 Y192.415 E0.50417
G1 X146.150 Y192.415 E0.01680
G1 X157.492 Y203.757 E0.50417
G1 X156.957 Y203.757 E0.01680
G1 X145.615 Y192.415 E0.50417
G1 X145.080 Y192.415 E0.01680
G1 X156.422 Y203.757 E0.50417
G1 X155.888 Y203.757 E0.01680
G1 X144.546 Y192.415 E0.50417
G1 X144.011 Y192.415 E0.01680
G1 X155.353 Y203.757 E0.50417
G1 X154.819 Y203.757 E0.01680
G1 X143.477 Y192.415 E0.50417
G1 X142.942 Y192.415 E0.01680
G1 X154.284 Y203.757 E0.50417
G1 X153.749 Y203.757 E0.01680
G1 X142.407 Y192.415 E0.50417
G1 X141.873 Y192.415 E0.01680
G1 X153.215 Y203.757 E0.50417
G1 X152.680 Y203.757 E0.01680
G1 X141.338 Y192.415 E0.50417
G1 X140.804 Y192.415 E0.01680
G1 X152.146 Y203.757 E0.50417
G1 X151.611 Y203.757 E0.01680
G1 X139.425 Y191.572 E0.54167
G1 X139.425 Y191.037 E0.01680
G1 X139.966 Y191.578 E0.02404
G1 X139.966 Y191.043 E0.01680
G1 X139.425 Y190.502 E0.02404
G1 X139.425 Y189.968 E0.01680
G1 X139.966 Y190.509 E0.02404
G1 X139.966 Y189.974 E0.01680
G1 X139.425 Y189.433 E0.02404
G1 X139.425 Y188.899 E0.01680
G1 X139.966 Y189.439 E0.02404
G1 X139.966 Y188.905 E0.01680
G1 X139.425 Y188.364 E0.02404
G1 X139.425 Y187.829 E0.01680
G1 X139.966 Y188.370 E0.02404
G1 X139.966 Y187.836 E0.01680
G1 X139.425 Y187.295 E0.02404
G1 X139.425 Y186.760 E0.01680
G1 X139.966 Y187.301 E0.02404
G1 X139.966 Y186.767 E0.01680
G1 X139.425 Y186.226 E0.02404
G1 X139.425 Y185.691 E0.01680
G1 X139.966 Y186.232 E0.02404
G1 X139.966 Y185.697 E0.01680
G1 X139.425 Y185.157 E0.02404
G1 X139.425 Y184.622 E0.01680
G1 X139.966 Y185.163 E0.02404
G1 X139.966 Y184.628 E0.01680
G1 X139.425 Y184.087 E0.02404
G1 X139.425 Y183.553 E0.01680
G1 X139.966 Y184.094 E0.02404
G1 X139.966 Y183.559 E0.01680
G1 X139.256 Y182.848 E0.03158
G1 X136.973 Y182.705 F10800.000
G1 F1200.000
G1 X136.657 Y182.388 E0.01407
G1 X136.657 Y181.853 E0.01680
G1 X137.338 Y182.535 E0.03030
G1 X137.873 Y182.535 E0.01680
G1 X136.657 Y181.319 E0.05406
G1 X136.657 Y180.784 E0.01680
G1 X138.407 Y182.535 E0.07782
G1 X138.942 Y182.535 E0.01680
G1 X136.657 Y180.250 E0.10158
G1 X136.657 Y179.715 E0.01680
G1 X139.966 Y183.024 E0.14711
G1 X139.966 Y182.490 E0.01680
G1 X136.657 Y179.180 E0.14711
G1 X136.657 Y178.646 E0.01680
G1 X139.966 Y181.955 E0.14711
G1 X139.966 Y181.421 E0.01680
G1 X136.657 Y178.111 E0.14711
G1 X136.657 Y177.577 E0.01680
G1 X139.966 Y180.886 E0.14711
G1 X139.966 Y180.351 E0.01680
G1 X137.189 Y177.575 E0.12343
G1 X137.724 Y177.575 E0.01680
G1 X139.966 Y179.817 E0.09967
G1 X139.966 Y179.282 E0.01680
G1 X138.258 Y177.575 E0.07590
G1 X138.793 Y177.575 E0.01680
G1 X139.966 Y178.748 E0.05214
G1 X139.966 Y178.213 E0.01680
G1 X139.328 Y177.575 E0.02838
G1 X139.425 Y177.575 E0.00307
G1 X139.425 Y177.138 E0.01373
G1 X139.966 Y177.679 E0.02404
G1 X139.966 Y177.144 E0.01680
G1 X139.425 Y176.603 E0.02404
G1 X139.425 Y176.069 E0.01680
G1 X139.966 Y176.609 E0.02404
G1 X139.966 Y176.075 E0.01680
G1 X139.425 Y175.534 E0.02404
G1 X139.425 Y174.999 E0.01680
G1 X139.966 Y175.540 E0.02404
G1 X139.966 Y175.006 E0.01680
G1 X139.425 Y174.465 E0.02404
G1 X139.425 Y173.930 E0.01680
G1 X139.966 Y174.471 E0.02404
G1 X139.966 Y173.936 E0.01680
G1 X139.425 Y173.396 E0.02404
G1 X139.425 Y172.861 E0.01680
G1 X139.966 Y173.402 E0.02404
G1 X139.966 Y172.867 E0.01680
G1 X139.425 Y172.326 E0.02404
G1 X139.425 Y171.792 E0.01680
G1 X139.966 Y172.333 E0.02404
G1 X139.966 Y171.798 E0.01680
G1 X139.425 Y171.257 E0.02404
G1 X139.425 Y170.723 E0.01680
G1 X139.966 Y171.263 E0.02404
G1 X139.966 Y170.729 E0.01680
G1 X139.425 Y170.188 E0.02404
G1 X139.425 Y169.653 E0.01680
G1 X139.966 Y170.194 E0.02404
G1 X139.966 Y169.660 E0.01680
G1 X136.657 Y166.350 E0.14711
G1 X136.657 Y165.816 E0.01680
G1 X139.966 Y169.125 E0.14711
G1 X139.966 Y168.591 E0.01680
G1 X136.657 Y165.281 E0.14711
G1 X136.657 Y164.746 E0.01680
G1 X139.966 Y168.056 E0.14711
G1 X139.966 Y167.521 E0.01680
G1 X136.657 Y164.212 E0.14711
G1 X136.657 Y164.037 E0.00549
G1 X137.016 Y164.037 E0.01131
G1 X139.966 Y166.987 E0.13112
G1 X139.966 Y166.452 E0.01680
G1 X137.551 Y164.037 E0.10735
G1 X138.086 Y164.037 E0.01680
G1 X139.966 Y165.918 E0.08359
G1 X139.966 Y165.383 E0.01680
G1 X138.620 Y164.037 E0.05983
G1 X139.155 Y164.037 E0.01680
G1 X139.966 Y164.848 E0.03606
G1 X139.966 Y164.314 E0.01680
G1 X139.425 Y163.773 E0.02404
G1 X139.425 Y163.238 E0.01680
G1 X139.966 Y163.779 E0.02404
G1 X139.966 Y163.245 E0.01680
G1 X139.425 Y162.704 E0.02404
G1 X139.425 Y162.169 E0.01680
G1 X139.966 Y162.710 E0.02404
G1 X139.966 Y162.175 E0.01680
G1 X139.425 Y161.635 E0.02404
G1 X139.425 Y161.100 E0.01680
G1 X139.966 Y161.641 E0.02404
G1 X139.966 Y161.106 E0.01680
G1 X139.425 Y160.565 E0.02404
G1 X139.425 Y160.031 E0.01680
G1 X139.966 Y160.572 E0.02404
G1 X139.966 Y160.037 E0.01680
G1 X139.425 Y159.496 E0.02404
G1 X139.425 Y158.962 E0.01680
G1 X139.966 Y159.503 E0.02404
G1 X139.966 Y158.968 E0.01680
G1 X139.425 Y158.427 E0.02404
G1 X139.425 Y157.893 E0.01680
G1 X139.966 Y158.433 E0.02404
G1 X139.966 Y157.899 E0.01680
G1 X139.425 Y157.358 E0.02404
G1 X139.425 Y156.823 E0.01680
G1 X139.966 Y157.364 E0.02404
G1 X139.966 Y156.830 E0.01680
G1 X139.425 Y156.289 E0.02404
G1 X139.425 Y155.754 E0.01680
G1 X140.136 Y156.465 E0.03158
G1 X136.487 Y154.420 F10800.000
G1 F1200.000
G1 X137.125 Y155.058 E0.02838
G1 X137.660 Y155.058 E0.01680
G1 X136.657 Y154.055 E0.04460
G1 X136.657 Y153.520 E0.01680
G1 X138.194 Y155.058 E0.06836
G1 X138.729 Y155.058 E0.01680
G1 X136.657 Y152.986 E0.09212
G1 X136.657 Y152.451 E0.01680
G1 X139.966 Y155.760 E0.14711
G1 X139.966 Y155.226 E0.01680
G1 X136.657 Y151.916 E0.14711
G1 X136.657 Y151.382 E0.01680
G1 X139.966 Y154.691 E0.14711
G1 X139.966 Y154.157 E0.01680
G1 X136.657 Y150.847 E0.14711
G1 X136.657 Y150.560 E0.00903
G1 X136.904 Y150.560 E0.00777
G1 X139.966 Y153.622 E0.13612
G1 X140.489 Y153.610 E0.01643
G1 X137.438 Y150.560 E0.13559
G1 X137.973 Y150.560 E0.01680
G1 X141.023 Y153.610 E0.13559
G1 X141.558 Y153.610 E0.01680
G1 X138.508 Y150.560 E0.13559
G1 X139.042 Y150.560 E0.01680
G1 X142.093 Y153.610 E0.13559
G1 X142.627 Y153.610 E0.01680
G1 X139.425 Y150.408 E0.14232
G1 X139.425 Y149.874 E0.01680
G1 X143.162 Y153.610 E0.16609
G1 X143.696 Y153.610 E0.01680
G1 X139.425 Y149.339 E0.18985
G1 X139.425 Y148.805 E0.01680
G1 X144.231 Y153.610 E0.21361
G1 X144.765 Y153.610 E0.01680
G1 X139.425 Y148.270 E0.23738
G1 X139.425 Y147.735 E0.01680
G1 X145.300 Y153.610 E0.26114
G1 X145.835 Y153.610 E0.01680
G1 X139.425 Y147.201 E0.28490
