; generated by PrusaSlicer 2.2.0+win64 on 2020-12-23 at 20:33:36 UTC

; 

; external perimeters extrusion width = 0.45mm
; perimeters extrusion width = 0.45mm
; infill extrusion width = 0.45mm
; solid infill extrusion width = 0.45mm
; top infill extrusion width = 0.40mm
; first layer extrusion width = 0.42mm

M73 P0 R16
M201 X9000 Y9000 Z500 E10000 ; sets maximum accelerations, mm/sec^2
M203 X500 Y500 Z12 E120 ; sets maximum feedrates, mm/sec
M204 P2000 R1500 T2000 ; sets acceleration (P, T) and retract acceleration (R), mm/sec^2
M205 X10.00 Y10.00 Z0.20 E2.50 ; sets the jerk limits, mm/sec
M205 S0 T0 ; sets the minimum extruding and travel feed rate, mm/sec
M107
M862.3 P "MK2S" ; printer model check
M862.1 P0.4 ; nozzle diameter check
M115 U3.2.3 ; tell printer latest fw version
G90 ; use absolute coordinates
M83 ; extruder relative mode
M204 S2000 T1500 ; MK2 firmware only supports the old M204 format
M104 S215 ; set extruder temp
M140 S60 ; set bed temp
M190 S60 ; wait for bed temp
M109 S215 ; wait for extruder temp
G28 W ; home all without mesh bed level
G80 ; mesh bed leveling
G1 Y-3.0 F1000.0 ; go outside print area
G92 E0.0
G1 X60.0 E9.0  F1000.0 ; intro line
M73 P0 R16
G1 X100.0 E12.5 F1000.0 ; intro line
G92 E0.0
G21 ; set units to millimeters
G90 ; use absolute coordinates
M83 ; use relative distances for extrusion
M900 K30 ; Filament gcode
;BEFORE_LAYER_CHANGE
G92 E0.0
;0.2


G1 E-0.80000 F2100.00000
G1 Z0.600 F10800.000
;AFTER_LAYER_CHANGE
;0.2
G1 X111.669 Y110.359
G1 Z0.200
G1 E0.80000 F2100.00000
M204 S1000
G1 F1200.000
G1 X112.178 Y110.513 E0.01668
G1 X112.647 Y110.764 E0.01666
G1 X113.058 Y111.101 E0.01666
G1 X113.395 Y111.512 E0.01666
G1 X113.645 Y111.981 E0.01666
G1 X113.800 Y112.489 E0.01666
G1 X113.852 Y113.018 E0.01666
G1 X113.800 Y113.547 E0.01666
G1 X113.645 Y114.055 E0.01666
G1 X113.395 Y114.524 E0.01666
G1 X113.058 Y114.935 E0.01666
G1 X112.647 Y115.272 E0.01666
G1 X112.178 Y115.523 E0.01666
G1 X111.669 Y115.677 E0.01666
G1 X111.141 Y115.729 E0.01666
G1 X110.612 Y115.677 E0.01666
G1 X110.103 Y115.523 E0.01666
G1 X109.634 Y115.272 E0.01666
G1 X109.224 Y114.935 E0.01666
G1 X108.886 Y114.524 E0.01666
G1 X108.636 Y114.055 E0.01666
G1 X108.482 Y113.547 E0.01666
G1 X108.430 Y113.018 E0.01666
G1 X108.482 Y112.489 E0.01666
G1 X108.636 Y111.981 E0.01666
G1 X108.886 Y111.512 E0.01666
G1 X109.224 Y111.101 E0.01666
G1 X109.634 Y110.764 E0.01666
G1 X110.103 Y110.513 E0.01666
G1 X110.612 Y110.359 E0.01666
G1 X111.128 Y110.308 E0.01626
G1 X111.609 Y110.353 E0.01516
G1 X111.933 Y110.058 F10800.000
G1 E-0.80000 F2100.00000
G1 Z0.800 F10800.000
G1 X125.000 Y117.413
G1 Z0.200
G1 E0.80000 F2100.00000
G1 F1200.000
G1 X108.087 Y117.413 E0.53030
G1 X108.087 Y114.192 E0.10100
G1 X108.258 Y114.149 E0.00554
G1 X108.571 Y114.735 E0.02083
G1 X108.956 Y115.203 E0.01899
G1 X109.424 Y115.587 E0.01899
G1 X109.958 Y115.873 E0.01899
G1 X110.538 Y116.049 E0.01899
G1 X111.141 Y116.108 E0.01899
G1 X111.743 Y116.049 E0.01899
G1 X112.323 Y115.873 E0.01899
G1 X112.857 Y115.587 E0.01899
G1 X113.326 Y115.203 E0.01899
G1 X113.710 Y114.735 E0.01899
G1 X113.995 Y114.200 E0.01899
G1 X114.171 Y113.621 E0.01899
G1 X114.231 Y113.018 E0.01899
G1 X114.171 Y112.415 E0.01899
G1 X113.995 Y111.836 E0.01899
G1 X113.710 Y111.301 E0.01899
G1 X113.326 Y110.833 E0.01899
G1 X112.857 Y110.449 E0.01899
G1 X112.323 Y110.163 E0.01899
G1 X111.742 Y109.987 E0.01904
G1 X111.127 Y109.929 E0.01937
G1 X110.538 Y109.987 E0.01856
G1 X109.958 Y110.163 E0.01899
G1 X109.424 Y110.449 E0.01899
G1 X108.956 Y110.833 E0.01899
G1 X108.571 Y111.301 E0.01899
G1 X108.258 Y111.887 E0.02083
G1 X108.087 Y111.844 E0.00554
G1 X108.087 Y108.587 E0.10213
G1 X141.913 Y108.587 E1.06059
G1 X141.913 Y117.413 E0.27673
G1 X125.060 Y117.413 E0.52842
G1 X125.000 Y117.790 F10800.000
G1 F1200.000
G1 X107.710 Y117.790 E0.54212
G1 X107.710 Y108.210 E0.30037
G1 X142.290 Y108.210 E1.08424
G1 X142.290 Y117.790 E0.30037
G1 X125.060 Y117.790 E0.54024
G1 X124.745 Y117.482 F10800.000
G1 E-0.80000 F2100.00000
G1 Z0.800 F10800.000
G1 X112.494 Y110.126
G1 Z0.200
G1 E0.80000 F2100.00000
G1 F1200.000
G1 X111.238 Y108.870 E0.05591
G1 X110.702 Y108.870 E0.01684
G1 X111.514 Y109.682 E0.03612
G1 X111.126 Y109.645 E0.01226
G1 X110.959 Y109.662 E0.00528
G1 X110.167 Y108.870 E0.03523
G1 X109.632 Y108.870 E0.01684
G1 X110.474 Y109.711 E0.03744
G1 X110.063 Y109.836 E0.01350
G1 X109.097 Y108.870 E0.04298
G1 X108.562 Y108.870 E0.01684
G1 X109.682 Y109.990 E0.04984
G1 X109.333 Y110.176 E0.01244
G1 X108.370 Y109.213 E0.04288
G1 X108.370 Y109.748 E0.01684
G1 X109.029 Y110.407 E0.02933
G1 X108.739 Y110.652 E0.01195
G1 X108.370 Y110.283 E0.01641
G1 X108.370 Y110.818 E0.01684
G1 X108.618 Y111.066 E0.01104
G1 X108.152 Y112.055 F10800.000
G1 F1200.000
G1 X108.102 Y112.393 E0.01255
G1 X108.098 Y112.433 E0.00134
G1 X108.084 Y112.717 E0.00943
G1 X108.070 Y113.001 E0.00877
G1 X108.102 Y113.643 E0.01830
G1 X108.152 Y113.981 E0.01255
G1 X108.200 Y116.535 F10800.000
G1 F1200.000
G1 X108.795 Y117.130 E0.02649
G1 X109.331 Y117.130 E0.01684
G1 X108.370 Y116.169 E0.04275
G1 X108.370 Y115.634 E0.01684
G1 X109.866 Y117.130 E0.06656
G1 X110.401 Y117.130 E0.01684
G1 X108.370 Y115.099 E0.09037
G1 X108.370 Y114.935 E0.00517
G1 X108.755 Y115.404 E0.01910
G1 X109.266 Y115.823 E0.02081
G1 X109.849 Y116.135 E0.02081
G1 X109.981 Y116.175 E0.00432
G1 X110.936 Y117.130 E0.04249
G1 X111.471 Y117.130 E0.01684
G1 X110.688 Y116.348 E0.03482
G1 X111.141 Y116.392 E0.01430
G1 X111.257 Y116.381 E0.00367
G1 X112.006 Y117.130 E0.03335
G1 X112.541 Y117.130 E0.01684
G1 X111.744 Y116.333 E0.03548
G1 X112.163 Y116.217 E0.01369
G1 X113.076 Y117.130 E0.04064
G1 X113.611 Y117.130 E0.01684
G1 X112.552 Y116.071 E0.04713
G1 X112.901 Y115.884 E0.01244
G1 X114.147 Y117.130 E0.05543
G1 X114.682 Y117.130 E0.01684
G1 X113.213 Y115.661 E0.06536
G1 X113.507 Y115.420 E0.01196
G1 X115.217 Y117.130 E0.07609
G1 X115.752 Y117.130 E0.01684
G1 X113.751 Y115.130 E0.08901
G1 X113.982 Y114.825 E0.01202
G1 X116.287 Y117.130 E0.10256
G1 X116.822 Y117.130 E0.01684
G1 X114.168 Y114.476 E0.11808
G1 X114.258 Y114.309 E0.00596
G1 X114.323 Y114.095 E0.00703
G1 X117.357 Y117.130 E0.13503
G1 X117.892 Y117.130 E0.01684
G1 X114.447 Y113.685 E0.15330
G1 X114.497 Y113.199 E0.01536
G1 X118.428 Y117.130 E0.17490
G1 X118.963 Y117.130 E0.01684
G1 X114.478 Y112.645 E0.19955
G1 X114.450 Y112.360 E0.00903
G1 X114.329 Y111.961 E0.01310
G1 X119.498 Y117.130 E0.22999
G1 X120.033 Y117.130 E0.01684
G1 X111.773 Y108.870 E0.36755
G1 X112.308 Y108.870 E0.01684
G1 X120.568 Y117.130 E0.36755
G1 X121.103 Y117.130 E0.01684
G1 X112.843 Y108.870 E0.36755
G1 X113.378 Y108.870 E0.01684
G1 X121.638 Y117.130 E0.36755
G1 X122.173 Y117.130 E0.01684
G1 X113.913 Y108.870 E0.36755
G1 X114.448 Y108.870 E0.01684
G1 X122.709 Y117.130 E0.36755
G1 X123.244 Y117.130 E0.01684
G1 X114.983 Y108.870 E0.36755
G1 X115.519 Y108.870 E0.01684
G1 X123.779 Y117.130 E0.36755
G1 X124.314 Y117.130 E0.01684
G1 X116.054 Y108.870 E0.36755
G1 X116.589 Y108.870 E0.01684
G1 X124.849 Y117.130 E0.36755
G1 X125.384 Y117.130 E0.01684
G1 X117.124 Y108.870 E0.36755
G1 X117.659 Y108.870 E0.01684
G1 X125.919 Y117.130 E0.36755
G1 X126.454 Y117.130 E0.01684
G1 X118.194 Y108.870 E0.36755
G1 X118.729 Y108.870 E0.01684
G1 X126.990 Y117.130 E0.36755
G1 X127.525 Y117.130 E0.01684
G1 X119.264 Y108.870 E0.36755
G1 X119.800 Y108.870 E0.01684
G1 X128.060 Y117.130 E0.36755
G1 X128.595 Y117.130 E0.01684
G1 X120.335 Y108.870 E0.36755
G1 X120.870 Y108.870 E0.01684
G1 X129.130 Y117.130 E0.36755
G1 X129.665 Y117.130 E0.01684
G1 X121.405 Y108.870 E0.36755
G1 X121.940 Y108.870 E0.01684
G1 X130.200 Y117.130 E0.36755
G1 X130.735 Y117.130 E0.01684
G1 X122.475 Y108.870 E0.36755
G1 X123.010 Y108.870 E0.01684
G1 X131.271 Y117.130 E0.36755
G1 X131.806 Y117.130 E0.01684
G1 X123.545 Y108.870 E0.36755
G1 X124.081 Y108.870 E0.01684
G1 X132.341 Y117.130 E0.36755
G1 X132.876 Y117.130 E0.01684
G1 X124.616 Y108.870 E0.36755
G1 X125.151 Y108.870 E0.01684
G1 X133.411 Y117.130 E0.36755
G1 X133.946 Y117.130 E0.01684
G1 X125.686 Y108.870 E0.36755
G1 X126.221 Y108.870 E0.01684
G1 X134.481 Y117.130 E0.36755
G1 X135.016 Y117.130 E0.01684
G1 X126.756 Y108.870 E0.36755
G1 X127.291 Y108.870 E0.01684
G1 X135.552 Y117.130 E0.36755
G1 X136.087 Y117.130 E0.01684
G1 X127.826 Y108.870 E0.36755
G1 X128.362 Y108.870 E0.01684
G1 X136.622 Y117.130 E0.36755
G1 X137.157 Y117.130 E0.01684
G1 X128.897 Y108.870 E0.36755
G1 X129.432 Y108.870 E0.01684
G1 X137.692 Y117.130 E0.36755
G1 X138.227 Y117.130 E0.01684
G1 X129.967 Y108.870 E0.36755
G1 X130.502 Y108.870 E0.01684
G1 X138.762 Y117.130 E0.36755
G1 X139.297 Y117.130 E0.01684
G1 X131.037 Y108.870 E0.36755
G1 X131.572 Y108.870 E0.01684
G1 X139.833 Y117.130 E0.36755
G1 X140.368 Y117.130 E0.01684
G1 X132.107 Y108.870 E0.36755
G1 X132.643 Y108.870 E0.01684
G1 X140.903 Y117.130 E0.36755
G1 X141.438 Y117.130 E0.01684
G1 X133.178 Y108.870 E0.36755
G1 X133.713 Y108.870 E0.01684
G1 X141.630 Y116.787 E0.35229
G1 X141.630 Y116.252 E0.01684
G1 X134.248 Y108.870 E0.32848
G1 X134.783 Y108.870 E0.01684
G1 X141.630 Y115.717 E0.30467
G1 X141.630 Y115.182 E0.01684
G1 X135.318 Y108.870 E0.28086
G1 X135.853 Y108.870 E0.01684
G1 X141.630 Y114.647 E0.25705
G1 X141.630 Y114.112 E0.01684
G1 X136.388 Y108.870 E0.23324
G1 X136.924 Y108.870 E0.01684
G1 X141.630 Y113.577 E0.20943
G1 X141.630 Y113.041 E0.01684
G1 X137.459 Y108.870 E0.18562
G1 X137.994 Y108.870 E0.01684
G1 X141.630 Y112.506 E0.16181
G1 X141.630 Y111.971 E0.01684
G1 X138.529 Y108.870 E0.13799
G1 X139.064 Y108.870 E0.01684
G1 X141.630 Y111.436 E0.11418
G1 X141.630 Y110.901 E0.01684
G1 X139.599 Y108.870 E0.09037
G1 X140.134 Y108.870 E0.01684
G1 X141.630 Y110.366 E0.06656
G1 X141.630 Y109.831 E0.01684
G1 X140.669 Y108.870 E0.04275
G1 X141.205 Y108.870 E0.01684
G1 X141.800 Y109.465 E0.02649
G1 E-0.80000 F2100.00000
G1 Z0.800 F10800.000
G1 X111.669 Y99.677
G1 Z0.200
G1 E0.80000 F2100.00000
G1 F1200.000
G1 X111.141 Y99.729 E0.01666
G1 X110.612 Y99.677 E0.01666
G1 X110.103 Y99.523 E0.01666
G1 X109.634 Y99.272 E0.01666
G1 X109.224 Y98.935 E0.01666
G1 X108.886 Y98.524 E0.01666
G1 X108.636 Y98.055 E0.01666
G1 X108.482 Y97.547 E0.01666
G1 X108.430 Y97.018 E0.01666
G1 X108.482 Y96.489 E0.01666
G1 X108.636 Y95.981 E0.01666
G1 X108.886 Y95.512 E0.01666
G1 X109.224 Y95.101 E0.01666
G1 X109.634 Y94.764 E0.01666
G1 X110.103 Y94.513 E0.01666
G1 X110.612 Y94.359 E0.01666
G1 X111.128 Y94.308 E0.01626
G1 X111.669 Y94.359 E0.01704
G1 X112.178 Y94.513 E0.01668
G1 X112.647 Y94.764 E0.01666
G1 X113.058 Y95.101 E0.01666
G1 X113.395 Y95.512 E0.01666
G1 X113.645 Y95.981 E0.01666
G1 X113.800 Y96.489 E0.01666
G1 X113.852 Y97.018 E0.01666
G1 X113.800 Y97.547 E0.01666
G1 X113.645 Y98.055 E0.01666
G1 X113.395 Y98.524 E0.01666
G1 X113.058 Y98.935 E0.01666
G1 X112.647 Y99.272 E0.01666
G1 X112.178 Y99.523 E0.01666
G1 X111.727 Y99.659 E0.01478
G1 X111.541 Y100.056 F10800.000
G1 E-0.80000 F2100.00000
G1 Z0.800 F10800.000
G1 X125.000 Y101.413
G1 Z0.200
G1 E0.80000 F2100.00000
G1 F1200.000
G1 X108.087 Y101.413 E0.53030
G1 X108.087 Y98.192 E0.10100
G1 X108.258 Y98.149 E0.00554
G1 X108.571 Y98.735 E0.02083
G1 X108.956 Y99.203 E0.01899
G1 X109.424 Y99.587 E0.01899
G1 X109.958 Y99.873 E0.01899
G1 X110.538 Y100.049 E0.01899
G1 X111.141 Y100.108 E0.01899
G1 X111.743 Y100.049 E0.01899
G1 X112.323 Y99.873 E0.01899
G1 X112.857 Y99.587 E0.01899
G1 X113.326 Y99.203 E0.01899
G1 X113.710 Y98.735 E0.01899
G1 X113.995 Y98.200 E0.01899
G1 X114.171 Y97.621 E0.01899
G1 X114.231 Y97.018 E0.01899
G1 X114.171 Y96.415 E0.01899
G1 X113.995 Y95.836 E0.01899
G1 X113.710 Y95.301 E0.01899
G1 X113.326 Y94.833 E0.01899
G1 X112.857 Y94.449 E0.01899
G1 X112.323 Y94.163 E0.01899
G1 X111.742 Y93.987 E0.01904
G1 X111.127 Y93.929 E0.01937
G1 X110.538 Y93.987 E0.01856
G1 X109.958 Y94.163 E0.01899
G1 X109.424 Y94.449 E0.01899
G1 X108.956 Y94.833 E0.01899
G1 X108.571 Y95.301 E0.01899
G1 X108.258 Y95.887 E0.02083
G1 X108.087 Y95.844 E0.00554
G1 X108.087 Y92.587 E0.10213
G1 X141.913 Y92.587 E1.06059
G1 X141.913 Y101.413 E0.27673
G1 X125.060 Y101.413 E0.52842
G1 X125.000 Y101.790 F10800.000
G1 F1200.000
G1 X107.710 Y101.790 E0.54212
G1 X107.710 Y92.210 E0.30037
G1 X142.290 Y92.210 E1.08424
G1 X142.290 Y101.790 E0.30037
M73 P6 R15
G1 X125.060 Y101.790 E0.54024
G1 X124.745 Y101.482 F10800.000
G1 E-0.80000 F2100.00000
G1 Z0.800 F10800.000
G1 X112.494 Y94.127
G1 Z0.200
G1 E0.80000 F2100.00000
G1 F1200.000
G1 X111.238 Y92.870 E0.05591
G1 X110.702 Y92.870 E0.01684
G1 X111.514 Y93.682 E0.03612
G1 X111.126 Y93.645 E0.01226
G1 X110.959 Y93.662 E0.00528
G1 X110.167 Y92.870 E0.03523
G1 X109.632 Y92.870 E0.01684
G1 X110.474 Y93.711 E0.03744
G1 X110.063 Y93.836 E0.01350
G1 X109.097 Y92.870 E0.04298
G1 X108.562 Y92.870 E0.01684
G1 X109.682 Y93.990 E0.04984
G1 X109.333 Y94.176 E0.01244
G1 X108.370 Y93.213 E0.04288
G1 X108.370 Y93.748 E0.01684
G1 X109.029 Y94.407 E0.02933
G1 X108.739 Y94.652 E0.01195
G1 X108.370 Y94.283 E0.01641
G1 X108.370 Y94.818 E0.01684
G1 X108.618 Y95.066 E0.01104
G1 X108.152 Y96.055 F10800.000
G1 F1200.000
G1 X108.102 Y96.393 E0.01255
G1 X108.098 Y96.433 E0.00134
G1 X108.084 Y96.717 E0.00943
G1 X108.070 Y97.001 E0.00877
G1 X108.102 Y97.643 E0.01830
G1 X108.152 Y97.981 E0.01255
G1 X108.200 Y100.535 F10800.000
G1 F1200.000
G1 X108.795 Y101.130 E0.02649
G1 X109.331 Y101.130 E0.01684
G1 X108.370 Y100.169 E0.04275
G1 X108.370 Y99.634 E0.01684
G1 X109.866 Y101.130 E0.06656
G1 X110.401 Y101.130 E0.01684
G1 X108.370 Y99.099 E0.09037
G1 X108.370 Y98.935 E0.00517
G1 X108.755 Y99.404 E0.01910
G1 X109.266 Y99.823 E0.02081
G1 X109.849 Y100.135 E0.02081
G1 X109.981 Y100.175 E0.00432
G1 X110.936 Y101.130 E0.04249
G1 X111.471 Y101.130 E0.01684
G1 X110.688 Y100.348 E0.03482
G1 X111.141 Y100.392 E0.01430
G1 X111.257 Y100.381 E0.00367
G1 X112.006 Y101.130 E0.03335
G1 X112.541 Y101.130 E0.01684
G1 X111.744 Y100.333 E0.03548
G1 X112.163 Y100.217 E0.01369
G1 X113.076 Y101.130 E0.04064
G1 X113.611 Y101.130 E0.01684
G1 X112.552 Y100.071 E0.04713
G1 X112.901 Y99.884 E0.01244
G1 X114.147 Y101.130 E0.05543
G1 X114.682 Y101.130 E0.01684
G1 X113.213 Y99.661 E0.06536
G1 X113.507 Y99.420 E0.01196
G1 X115.217 Y101.130 E0.07609
G1 X115.752 Y101.130 E0.01684
G1 X113.751 Y99.130 E0.08901
G1 X113.982 Y98.825 E0.01202
G1 X116.287 Y101.130 E0.10256
G1 X116.822 Y101.130 E0.01684
G1 X114.168 Y98.476 E0.11808
G1 X114.258 Y98.309 E0.00596
G1 X114.323 Y98.095 E0.00703
G1 X117.357 Y101.130 E0.13503
G1 X117.892 Y101.130 E0.01684
G1 X114.447 Y97.685 E0.15330
G1 X114.497 Y97.199 E0.01536
G1 X118.428 Y101.130 E0.17490
G1 X118.963 Y101.130 E0.01684
G1 X114.478 Y96.645 E0.19955
G1 X114.450 Y96.360 E0.00903
G1 X114.329 Y95.961 E0.01310
G1 X119.498 Y101.130 E0.22999
G1 X120.033 Y101.130 E0.01684
G1 X111.773 Y92.870 E0.36755
G1 X112.308 Y92.870 E0.01684
G1 X120.568 Y101.130 E0.36755
G1 X121.103 Y101.130 E0.01684
G1 X112.843 Y92.870 E0.36755
G1 X113.378 Y92.870 E0.01684
G1 X121.638 Y101.130 E0.36755
G1 X122.173 Y101.130 E0.01684
G1 X113.913 Y92.870 E0.36755
G1 X114.448 Y92.870 E0.01684
G1 X122.709 Y101.130 E0.36755
G1 X123.244 Y101.130 E0.01684
G1 X114.983 Y92.870 E0.36755
G1 X115.519 Y92.870 E0.01684
G1 X123.779 Y101.130 E0.36755
G1 X124.314 Y101.130 E0.01684
G1 X116.054 Y92.870 E0.36755
G1 X116.589 Y92.870 E0.01684
G1 X124.849 Y101.130 E0.36755
G1 X125.384 Y101.130 E0.01684
G1 X117.124 Y92.870 E0.36755
G1 X117.659 Y92.870 E0.01684
G1 X125.919 Y101.130 E0.36755
G1 X126.454 Y101.130 E0.01684
G1 X118.194 Y92.870 E0.36755
G1 X118.729 Y92.870 E0.01684
G1 X126.990 Y101.130 E0.36755
G1 X127.525 Y101.130 E0.01684
G1 X119.264 Y92.870 E0.36755
G1 X119.800 Y92.870 E0.01684
G1 X128.060 Y101.130 E0.36755
G1 X128.595 Y101.130 E0.01684
G1 X120.335 Y92.870 E0.36755
G1 X120.870 Y92.870 E0.01684
G1 X129.130 Y101.130 E0.36755
G1 X129.665 Y101.130 E0.01684
G1 X121.405 Y92.870 E0.36755
G1 X121.940 Y92.870 E0.01684
G1 X130.200 Y101.130 E0.36755
G1 X130.735 Y101.130 E0.01684
G1 X122.475 Y92.870 E0.36755
G1 X123.010 Y92.870 E0.01684
G1 X131.271 Y101.130 E0.36755
G1 X131.806 Y101.130 E0.01684
G1 X123.545 Y92.870 E0.36755
G1 X124.081 Y92.870 E0.01684
