; generated by PrusaSlicer 2.2.0+win64 on 2020-12-23 at 20:34:03 UTC

; 

; external perimeters extrusion width = 0.45mm
; perimeters extrusion width = 0.45mm
; infill extrusion width = 0.45mm
; solid infill extrusion width = 0.45mm
; top infill extrusion width = 0.40mm
; first layer extrusion width = 0.42mm

M73 P0 R56
M201 X9000 Y9000 Z500 E10000 ; sets maximum accelerations, mm/sec^2
M203 X500 Y500 Z12 E120 ; sets maximum feedrates, mm/sec
M204 P2000 R1500 T2000 ; sets acceleration (P, T) and retract acceleration (R), mm/sec^2
M205 X10.00 Y10.00 Z0.20 E2.50 ; sets the jerk limits, mm/sec
M205 S0 T0 ; sets the minimum extruding and travel feed rate, mm/sec
M107
M862.3 P "MK2S" ; printer model check
M862.1 P0.4 ; nozzle diameter check
M115 U3.2.3 ; tell printer latest fw version
G90 ; use absolute coordinates
M83 ; extruder relative mode
M204 S2000 T1500 ; MK2 firmware only supports the old M204 format
M104 S215 ; set extruder temp
M140 S60 ; set bed temp
M190 S60 ; wait for bed temp
M109 S215 ; wait for extruder temp
G28 W ; home all without mesh bed level
G80 ; mesh bed leveling
G1 Y-3.0 F1000.0 ; go outside print area
G92 E0.0
G1 X60.0 E9.0  F1000.0 ; intro line
M73 P0 R56
G1 X100.0 E12.5 F1000.0 ; intro line
G92 E0.0
G21 ; set units to millimeters
G90 ; use absolute coordinates
M83 ; use relative distances for extrusion
M900 K30 ; Filament gcode
;BEFORE_LAYER_CHANGE
G92 E0.0
;0.2


G1 E-0.80000 F2100.00000
G1 Z0.600 F10800.000
;AFTER_LAYER_CHANGE
;0.2
G1 X91.710 Y78.530
G1 Z0.200
G1 E0.80000 F2100.00000
M204 S1000
G1 F1200.000
G1 X92.147 Y78.764 E0.01554
G1 X92.557 Y79.101 E0.01666
G1 X92.895 Y79.512 E0.01666
G1 X93.145 Y79.981 E0.01666
G1 X93.299 Y80.489 E0.01666
G1 X93.351 Y81.018 E0.01666
G1 X93.299 Y81.547 E0.01666
G1 X93.145 Y82.055 E0.01666
G1 X92.895 Y82.524 E0.01666
G1 X92.557 Y82.935 E0.01666
G1 X92.147 Y83.272 E0.01666
G1 X91.678 Y83.523 E0.01666
G1 X91.169 Y83.677 E0.01666
G1 X90.640 Y83.729 E0.01666
G1 X90.112 Y83.677 E0.01666
G1 X89.603 Y83.523 E0.01666
G1 X89.134 Y83.272 E0.01666
G1 X88.723 Y82.935 E0.01666
G1 X88.386 Y82.524 E0.01666
G1 X88.136 Y82.055 E0.01666
G1 X87.982 Y81.547 E0.01666
G1 X87.929 Y81.018 E0.01666
G1 X87.982 Y80.489 E0.01666
G1 X88.136 Y79.981 E0.01666
G1 X88.386 Y79.512 E0.01666
G1 X88.723 Y79.101 E0.01666
G1 X89.134 Y78.764 E0.01666
G1 X89.603 Y78.513 E0.01666
G1 X90.112 Y78.359 E0.01666
G1 X90.628 Y78.308 E0.01626
G1 X91.169 Y78.359 E0.01704
G1 X91.655 Y78.506 E0.01592
G1 X92.027 Y78.287 F10800.000
G1 E-0.80000 F2100.00000
G1 Z0.800 F10800.000
G1 X104.500 Y85.413
G1 Z0.200
G1 E0.80000 F2100.00000
G1 F1200.000
G1 X87.587 Y85.413 E0.53030
G1 X87.587 Y82.192 E0.10100
G1 X87.758 Y82.149 E0.00554
G1 X88.071 Y82.735 E0.02083
G1 X88.456 Y83.203 E0.01899
G1 X88.924 Y83.587 E0.01899
G1 X89.458 Y83.873 E0.01899
G1 X90.038 Y84.049 E0.01899
G1 X90.640 Y84.108 E0.01899
G1 X91.243 Y84.049 E0.01899
G1 X91.823 Y83.873 E0.01899
G1 X92.357 Y83.587 E0.01899
G1 X92.825 Y83.203 E0.01899
G1 X93.210 Y82.735 E0.01899
G1 X93.495 Y82.200 E0.01899
G1 X93.671 Y81.621 E0.01899
G1 X93.730 Y81.018 E0.01899
G1 X93.671 Y80.415 E0.01899
G1 X93.495 Y79.836 E0.01899
G1 X93.210 Y79.301 E0.01899
G1 X92.825 Y78.833 E0.01899
G1 X92.357 Y78.449 E0.01899
G1 X91.823 Y78.163 E0.01899
G1 X91.242 Y77.987 E0.01904
G1 X90.627 Y77.929 E0.01937
G1 X90.038 Y77.987 E0.01856
G1 X89.458 Y78.163 E0.01899
G1 X88.924 Y78.449 E0.01899
G1 X88.456 Y78.833 E0.01899
G1 X88.071 Y79.301 E0.01899
G1 X87.758 Y79.887 E0.02083
G1 X87.587 Y79.844 E0.00554
G1 X87.587 Y76.587 E0.10213
G1 X121.413 Y76.587 E1.06059
G1 X121.413 Y85.413 E0.27673
G1 X104.560 Y85.413 E0.52842
G1 X104.500 Y85.790 F10800.000
G1 F1200.000
G1 X87.210 Y85.790 E0.54212
G1 X87.210 Y76.210 E0.30037
G1 X121.790 Y76.210 E1.08424
G1 X121.790 Y85.790 E0.30037
G1 X104.560 Y85.790 E0.54024
G1 X104.245 Y85.482 F10800.000
G1 E-0.80000 F2100.00000
G1 Z0.800 F10800.000
G1 X91.994 Y78.127
G1 Z0.200
G1 E0.80000 F2100.00000
G1 F1200.000
G1 X90.737 Y76.870 E0.05591
G1 X90.202 Y76.870 E0.01684
G1 X91.014 Y77.682 E0.03612
G1 X90.626 Y77.645 E0.01226
G1 X90.459 Y77.662 E0.00528
G1 X89.667 Y76.870 E0.03523
G1 X89.132 Y76.870 E0.01684
G1 X89.974 Y77.711 E0.03744
G1 X89.563 Y77.836 E0.01350
G1 X88.597 Y76.870 E0.04298
G1 X88.062 Y76.870 E0.01684
G1 X89.182 Y77.990 E0.04984
G1 X88.833 Y78.176 E0.01244
G1 X87.870 Y77.213 E0.04288
G1 X87.870 Y77.748 E0.01684
G1 X88.529 Y78.407 E0.02933
G1 X88.238 Y78.652 E0.01195
G1 X87.870 Y78.283 E0.01641
G1 X87.870 Y78.818 E0.01684
G1 X88.118 Y79.066 E0.01104
G1 X87.652 Y80.055 F10800.000
G1 F1200.000
G1 X87.601 Y80.393 E0.01255
G1 X87.597 Y80.433 E0.00134
G1 X87.584 Y80.717 E0.00943
G1 X87.570 Y81.001 E0.00877
G1 X87.601 Y81.643 E0.01830
G1 X87.652 Y81.981 E0.01255
G1 X87.700 Y84.535 F10800.000
G1 F1200.000
G1 X88.295 Y85.130 E0.02649
G1 X88.830 Y85.130 E0.01684
G1 X87.870 Y84.169 E0.04275
G1 X87.870 Y83.634 E0.01684
G1 X89.365 Y85.130 E0.06656
G1 X89.901 Y85.130 E0.01684
G1 X87.870 Y83.099 E0.09037
G1 X87.870 Y82.935 E0.00517
G1 X88.255 Y83.404 E0.01910
G1 X88.766 Y83.823 E0.02081
G1 X89.349 Y84.135 E0.02081
G1 X89.481 Y84.175 E0.00432
G1 X90.436 Y85.130 E0.04249
G1 X90.971 Y85.130 E0.01684
G1 X90.188 Y84.348 E0.03482
G1 X90.640 Y84.392 E0.01430
G1 X90.756 Y84.381 E0.00367
G1 X91.506 Y85.130 E0.03335
G1 X92.041 Y85.130 E0.01684
G1 X91.244 Y84.333 E0.03548
G1 X91.663 Y84.217 E0.01369
G1 X92.576 Y85.130 E0.04064
G1 X93.111 Y85.130 E0.01684
G1 X92.052 Y84.071 E0.04713
G1 X92.401 Y83.884 E0.01244
G1 X93.646 Y85.130 E0.05543
G1 X94.182 Y85.130 E0.01684
G1 X92.713 Y83.661 E0.06536
G1 X93.007 Y83.420 E0.01196
G1 X94.717 Y85.130 E0.07609
G1 X95.252 Y85.130 E0.01684
G1 X93.251 Y83.130 E0.08901
G1 X93.482 Y82.825 E0.01202
G1 X95.787 Y85.130 E0.10256
G1 X96.322 Y85.130 E0.01684
G1 X93.668 Y82.476 E0.11808
G1 X93.758 Y82.309 E0.00596
G1 X93.823 Y82.095 E0.00703
G1 X96.857 Y85.130 E0.13503
G1 X97.392 Y85.130 E0.01684
G1 X93.947 Y81.685 E0.15330
G1 X93.997 Y81.199 E0.01536
G1 X97.927 Y85.130 E0.17490
G1 X98.463 Y85.130 E0.01684
G1 X93.978 Y80.645 E0.19955
G1 X93.950 Y80.360 E0.00903
G1 X93.829 Y79.961 E0.01310
G1 X98.998 Y85.130 E0.22999
G1 X99.533 Y85.130 E0.01684
G1 X91.273 Y76.870 E0.36755
G1 X91.808 Y76.870 E0.01684
G1 X100.068 Y85.130 E0.36755
G1 X100.603 Y85.130 E0.01684
G1 X92.343 Y76.870 E0.36755
G1 X92.878 Y76.870 E0.01684
G1 X101.138 Y85.130 E0.36755
G1 X101.673 Y85.130 E0.01684
G1 X93.413 Y76.870 E0.36755
G1 X93.948 Y76.870 E0.01684
G1 X102.208 Y85.130 E0.36755
G1 X102.744 Y85.130 E0.01684
G1 X94.483 Y76.870 E0.36755
G1 X95.018 Y76.870 E0.01684
G1 X103.279 Y85.130 E0.36755
G1 X103.814 Y85.130 E0.01684
G1 X95.554 Y76.870 E0.36755
G1 X96.089 Y76.870 E0.01684
G1 X104.349 Y85.130 E0.36755
G1 X104.884 Y85.130 E0.01684
G1 X96.624 Y76.870 E0.36755
G1 X97.159 Y76.870 E0.01684
G1 X105.419 Y85.130 E0.36755
G1 X105.954 Y85.130 E0.01684
G1 X97.694 Y76.870 E0.36755
G1 X98.229 Y76.870 E0.01684
G1 X106.489 Y85.130 E0.36755
G1 X107.025 Y85.130 E0.01684
G1 X98.764 Y76.870 E0.36755
G1 X99.299 Y76.870 E0.01684
G1 X107.560 Y85.130 E0.36755
G1 X108.095 Y85.130 E0.01684
G1 X99.835 Y76.870 E0.36755
G1 X100.370 Y76.870 E0.01684
G1 X108.630 Y85.130 E0.36755
G1 X109.165 Y85.130 E0.01684
G1 X100.905 Y76.870 E0.36755
G1 X101.440 Y76.870 E0.01684
G1 X109.700 Y85.130 E0.36755
G1 X110.235 Y85.130 E0.01684
G1 X101.975 Y76.870 E0.36755
G1 X102.510 Y76.870 E0.01684
G1 X110.770 Y85.130 E0.36755
G1 X111.306 Y85.130 E0.01684
G1 X103.045 Y76.870 E0.36755
G1 X103.580 Y76.870 E0.01684
G1 X111.841 Y85.130 E0.36755
G1 X112.376 Y85.130 E0.01684
G1 X104.116 Y76.870 E0.36755
G1 X104.651 Y76.870 E0.01684
G1 X112.911 Y85.130 E0.36755
G1 X113.446 Y85.130 E0.01684
G1 X105.186 Y76.870 E0.36755
G1 X105.721 Y76.870 E0.01684
G1 X113.981 Y85.130 E0.36755
G1 X114.516 Y85.130 E0.01684
G1 X106.256 Y76.870 E0.36755
G1 X106.791 Y76.870 E0.01684
G1 X115.051 Y85.130 E0.36755
G1 X115.587 Y85.130 E0.01684
G1 X107.326 Y76.870 E0.36755
G1 X107.861 Y76.870 E0.01684
G1 X116.122 Y85.130 E0.36755
G1 X116.657 Y85.130 E0.01684
G1 X108.397 Y76.870 E0.36755
G1 X108.932 Y76.870 E0.01684
G1 X117.192 Y85.130 E0.36755
G1 X117.727 Y85.130 E0.01684
G1 X109.467 Y76.870 E0.36755
G1 X110.002 Y76.870 E0.01684
G1 X118.262 Y85.130 E0.36755
G1 X118.797 Y85.130 E0.01684
G1 X110.537 Y76.870 E0.36755
G1 X111.072 Y76.870 E0.01684
G1 X119.332 Y85.130 E0.36755
G1 X119.868 Y85.130 E0.01684
G1 X111.607 Y76.870 E0.36755
G1 X112.142 Y76.870 E0.01684
G1 X120.403 Y85.130 E0.36755
G1 X120.938 Y85.130 E0.01684
G1 X112.678 Y76.870 E0.36755
G1 X113.213 Y76.870 E0.01684
G1 X121.130 Y84.787 E0.35229
G1 X121.130 Y84.252 E0.01684
G1 X113.748 Y76.870 E0.32848
G1 X114.283 Y76.870 E0.01684
G1 X121.130 Y83.717 E0.30467
G1 X121.130 Y83.182 E0.01684
G1 X114.818 Y76.870 E0.28086
G1 X115.353 Y76.870 E0.01684
G1 X121.130 Y82.647 E0.25705
G1 X121.130 Y82.112 E0.01684
G1 X115.888 Y76.870 E0.23324
G1 X116.423 Y76.870 E0.01684
G1 X121.130 Y81.577 E0.20943
G1 X121.130 Y81.041 E0.01684
G1 X116.959 Y76.870 E0.18562
G1 X117.494 Y76.870 E0.01684
G1 X121.130 Y80.506 E0.16181
G1 X121.130 Y79.971 E0.01684
G1 X118.029 Y76.870 E0.13799
G1 X118.564 Y76.870 E0.01684
G1 X121.130 Y79.436 E0.11418
G1 X121.130 Y78.901 E0.01684
G1 X119.099 Y76.870 E0.09037
G1 X119.634 Y76.870 E0.01684
G1 X121.130 Y78.366 E0.06656
G1 X121.130 Y77.831 E0.01684
G1 X120.169 Y76.870 E0.04275
G1 X120.704 Y76.870 E0.01684
G1 X121.300 Y77.465 E0.02649
G1 E-0.80000 F2100.00000
G1 Z0.800 F10800.000
G1 X91.678 Y99.523
G1 Z0.200
G1 E0.80000 F2100.00000
G1 F1200.000
G1 X91.169 Y99.677 E0.01666
G1 X90.640 Y99.729 E0.01666
G1 X90.112 Y99.677 E0.01666
G1 X89.603 Y99.523 E0.01666
G1 X89.134 Y99.272 E0.01666
G1 X88.723 Y98.935 E0.01666
G1 X88.386 Y98.524 E0.01666
G1 X88.136 Y98.055 E0.01666
G1 X87.982 Y97.547 E0.01666
G1 X87.929 Y97.018 E0.01666
G1 X87.982 Y96.489 E0.01666
G1 X88.136 Y95.981 E0.01666
G1 X88.386 Y95.512 E0.01666
G1 X88.723 Y95.101 E0.01666
G1 X89.134 Y94.764 E0.01666
G1 X89.603 Y94.513 E0.01666
G1 X90.112 Y94.359 E0.01666
G1 X90.628 Y94.308 E0.01626
G1 X91.169 Y94.359 E0.01704
G1 X91.678 Y94.513 E0.01668
G1 X92.147 Y94.764 E0.01666
G1 X92.557 Y95.101 E0.01666
G1 X92.895 Y95.512 E0.01666
G1 X93.145 Y95.981 E0.01666
G1 X93.299 Y96.489 E0.01666
G1 X93.351 Y97.018 E0.01666
G1 X93.299 Y97.547 E0.01666
G1 X93.145 Y98.055 E0.01666
G1 X92.895 Y98.524 E0.01666
G1 X92.557 Y98.935 E0.01666
G1 X92.147 Y99.272 E0.01666
G1 X91.731 Y99.494 E0.01478
G1 X91.626 Y99.919 F10800.000
G1 E-0.80000 F2100.00000
G1 Z0.800 F10800.000
G1 X104.500 Y101.413
G1 Z0.200
G1 E0.80000 F2100.00000
G1 F1200.000
G1 X87.587 Y101.413 E0.53030
G1 X87.587 Y98.192 E0.10100
G1 X87.758 Y98.149 E0.00554
G1 X88.071 Y98.735 E0.02083
G1 X88.456 Y99.203 E0.01899
G1 X88.924 Y99.587 E0.01899
G1 X89.458 Y99.873 E0.01899
G1 X90.038 Y100.049 E0.01899
G1 X90.640 Y100.108 E0.01899
G1 X91.243 Y100.049 E0.01899
G1 X91.823 Y99.873 E0.01899
G1 X92.357 Y99.587 E0.01899
G1 X92.825 Y99.203 E0.01899
G1 X93.210 Y98.735 E0.01899
G1 X93.495 Y98.200 E0.01899
G1 X93.671 Y97.621 E0.01899
G1 X93.730 Y97.018 E0.01899
G1 X93.671 Y96.415 E0.01899
G1 X93.495 Y95.836 E0.01899
G1 X93.210 Y95.301 E0.01899
G1 X92.825 Y94.833 E0.01899
G1 X92.357 Y94.449 E0.01899
G1 X91.823 Y94.163 E0.01899
G1 X91.242 Y93.987 E0.01904
G1 X90.627 Y93.929 E0.01937
G1 X90.038 Y93.987 E0.01856
G1 X89.458 Y94.163 E0.01899
G1 X88.924 Y94.449 E0.01899
G1 X88.456 Y94.833 E0.01899
G1 X88.071 Y95.301 E0.01899
G1 X87.758 Y95.887 E0.02083
G1 X87.587 Y95.844 E0.00554
G1 X87.587 Y92.587 E0.10213
G1 X121.413 Y92.587 E1.06059
G1 X121.413 Y101.413 E0.27673
G1 X104.560 Y101.413 E0.52842
G1 X104.500 Y101.790 F10800.000
G1 F1200.000
G1 X87.210 Y101.790 E0.54212
G1 X87.210 Y92.210 E0.30037
G1 X121.790 Y92.210 E1.08424
G1 X121.790 Y101.790 E0.30037
M73 P1 R55
G1 X104.560 Y101.790 E0.54024
G1 X104.245 Y101.482 F10800.000
G1 E-0.80000 F2100.00000
G1 Z0.800 F10800.000
G1 X91.994 Y94.127
G1 Z0.200
G1 E0.80000 F2100.00000
G1 F1200.000
G1 X90.737 Y92.870 E0.05591
G1 X90.202 Y92.870 E0.01684
G1 X91.014 Y93.682 E0.03612
G1 X90.626 Y93.645 E0.01226
G1 X90.459 Y93.662 E0.00528
G1 X89.667 Y92.870 E0.03523
G1 X89.132 Y92.870 E0.01684
G1 X89.974 Y93.711 E0.03744
G1 X89.563 Y93.836 E0.01350
G1 X88.597 Y92.870 E0.04298
G1 X88.062 Y92.870 E0.01684
G1 X89.182 Y93.990 E0.04984
G1 X88.833 Y94.176 E0.01244
G1 X87.870 Y93.213 E0.04288
G1 X87.870 Y93.748 E0.01684
G1 X88.529 Y94.407 E0.02933
G1 X88.238 Y94.652 E0.01195
G1 X87.870 Y94.283 E0.01641
G1 X87.870 Y94.818 E0.01684
G1 X88.118 Y95.066 E0.01104
G1 X87.652 Y96.055 F10800.000
G1 F1200.000
G1 X87.601 Y96.393 E0.01255
G1 X87.597 Y96.433 E0.00134
G1 X87.584 Y96.717 E0.00943
G1 X87.570 Y97.001 E0.00877
G1 X87.601 Y97.643 E0.01830
G1 X87.652 Y97.981 E0.01255
G1 X87.700 Y100.535 F10800.000
G1 F1200.000
G1 X88.295 Y101.130 E0.02649
G1 X88.830 Y101.130 E0.01684
G1 X87.870 Y100.169 E0.04275
G1 X87.870 Y99.634 E0.01684
G1 X89.365 Y101.130 E0.06656
G1 X89.901 Y101.130 E0.01684
G1 X87.870 Y99.099 E0.09037
G1 X87.870 Y98.935 E0.00517
G1 X88.255 Y99.404 E0.01910
G1 X88.766 Y99.823 E0.02081
G1 X89.349 Y100.135 E0.02081
G1 X89.481 Y100.175 E0.00432
G1 X90.436 Y101.130 E0.04249
G1 X90.971 Y101.130 E0.01684
G1 X90.188 Y100.348 E0.03482
G1 X90.640 Y100.392 E0.01430
G1 X90.756 Y100.381 E0.00367
G1 X91.506 Y101.130 E0.03335
G1 X92.041 Y101.130 E0.01684
G1 X91.244 Y100.333 E0.03548
G1 X91.663 Y100.217 E0.01369
G1 X92.576 Y101.130 E0.04064
G1 X93.111 Y101.130 E0.01684
G1 X92.052 Y100.071 E0.04713
G1 X92.401 Y99.884 E0.01244
G1 X93.646 Y101.130 E0.05543
G1 X94.182 Y101.130 E0.01684
G1 X92.713 Y99.661 E0.06536
G1 X93.007 Y99.420 E0.01196
G1 X94.717 Y101.130 E0.07609
G1 X95.252 Y101.130 E0.01684
G1 X93.251 Y99.130 E0.08901
G1 X93.482 Y98.825 E0.01202
G1 X95.787 Y101.130 E0.10256
G1 X96.322 Y101.130 E0.01684
G1 X93.668 Y98.476 E0.11808
G1 X93.758 Y98.309 E0.00596
G1 X93.823 Y98.095 E0.00703
G1 X96.857 Y101.130 E0.13503
G1 X97.392 Y101.130 E0.01684
G1 X93.947 Y97.685 E0.15330
G1 X93.997 Y97.199 E0.01536
G1 X97.927 Y101.130 E0.17490
G1 X98.463 Y101.130 E0.01684
G1 X93.978 Y96.645 E0.19955
G1 X93.950 Y96.360 E0.00903
G1 X93.829 Y95.961 E0.01310
G1 X98.998 Y101.130 E0.22999
G1 X99.533 Y101.130 E0.01684
G1 X91.273 Y92.870 E0.36755
G1 X91.808 Y92.870 E0.01684
G1 X100.068 Y101.130 E0.36755
G1 X100.603 Y101.130 E0.01684
G1 X92.343 Y92.870 E0.36755
G1 X92.878 Y92.870 E0.01684
G1 X101.138 Y101.130 E0.36755
G1 X101.673 Y101.130 E0.01684
G1 X93.413 Y92.870 E0.36755
G1 X93.948 Y92.870 E0.01684
G1 X102.208 Y101.130 E0.36755
G1 X102.744 Y101.130 E0.01684
G1 X94.483 Y92.870 E0.36755
G1 X95.018 Y92.870 E0.01684
G1 X103.279 Y101.130 E0.36755
G1 X103.814 Y101.130 E0.01684
G1 X95.554 Y92.870 E0.36755
G1 X96.089 Y92.870 E0.01684
G1 X104.349 Y101.130 E0.36755
G1 X104.884 Y101.130 E0.01684
G1 X96.624 Y92.870 E0.36755
G1 X97.159 Y92.870 E0.01684
G1 X105.419 Y101.130 E0.36755
G1 X105.954 Y101.130 E0.01684
G1 X97.694 Y92.870 E0.36755
G1 X98.229 Y92.870 E0.01684
G1 X106.489 Y101.130 E0.36755
G1 X107.025 Y101.130 E0.01684
G1 X98.764 Y92.870 E0.36755
G1 X99.299 Y92.870 E0.01684
G1 X107.560 Y101.130 E0.36755
G1 X108.095 Y101.130 E0.01684
G1 X99.835 Y92.870 E0.36755
G1 X100.370 Y92.870 E0.01684
G1 X108.630 Y101.130 E0.36755
G1 X109.165 Y101.130 E0.01684
G1 X100.905 Y92.870 E0.36755
G1 X101.440 Y92.870 E0.01684
G1 X109.700 Y101.130 E0.36755
G1 X110.235 Y101.130 E0.01684
G1 X101.975 Y92.870 E0.36755
G1 X102.510 Y92.870 E0.01684
G1 X110.770 Y101.130 E0.36755
G1 X111.306 Y101.130 E0.01684
G1 X103.045 Y92.870 E0.36755
G1 X103.580 Y92.870 E0.01684
G1 X111.841 Y101.130 E0.36755
G1 X112.376 Y101.130 E0.01684
G1 X104.116 Y92.870 E0.36755
G1 X104.651 Y92.870 E0.01684
G1 X112.911 Y101.130 E0.36755
G1 X113.446 Y101.130 E0.01684
G1 X105.186 Y92.870 E0.36755
G1 X105.721 Y92.870 E0.01684
G1 X113.981 Y101.130 E0.36755
G1 X114.516 Y101.130 E0.01684
G1 X106.256 Y92.870 E0.36755
G1 X106.791 Y92.870 E0.01684
G1 X115.051 Y101.130 E0.36755
G1 X115.587 Y101.130 E0.01684
G1 X107.326 Y92.870 E0.36755
G1 X107.861 Y92.870 E0.01684
G1 X116.122 Y101.130 E0.36755
G1 X116.657 Y101.130 E0.01684
G1 X108.397 Y92.870 E0.36755
G1 X108.932 Y92.870 E0.01684
