; generated by PrusaSlicer 2.2.0+win64 on 2021-01-29 at 19:41:35 UTC

; 

; external perimeters extrusion width = 0.45mm
; perimeters extrusion width = 0.45mm
; infill extrusion width = 0.45mm
; solid infill extrusion width = 0.45mm
; top infill extrusion width = 0.40mm
; support material extrusion width = 0.35mm
; first layer extrusion width = 0.42mm

M73 P0 R49
M201 X9000 Y9000 Z500 E10000 ; sets maximum accelerations, mm/sec^2
M203 X500 Y500 Z12 E120 ; sets maximum feedrates, mm/sec
M204 P2000 R1500 T2000 ; sets acceleration (P, T) and retract acceleration (R), mm/sec^2
M205 X10.00 Y10.00 Z0.20 E2.50 ; sets the jerk limits, mm/sec
M205 S0 T0 ; sets the minimum extruding and travel feed rate, mm/sec
M107
M862.3 P "MK2S" ; printer model check
M862.1 P0.4 ; nozzle diameter check
M115 U3.2.3 ; tell printer latest fw version
G90 ; use absolute coordinates
M83 ; extruder relative mode
M204 S2000 T1500 ; MK2 firmware only supports the old M204 format
M104 S215 ; set extruder temp
M140 S60 ; set bed temp
M190 S60 ; wait for bed temp
M109 S215 ; wait for extruder temp
G28 W ; home all without mesh bed level
G80 ; mesh bed leveling
G1 Y-3.0 F1000.0 ; go outside print area
G92 E0.0
G1 X60.0 E9.0  F1000.0 ; intro line
M73 P0 R49
G1 X100.0 E12.5 F1000.0 ; intro line
G92 E0.0
G21 ; set units to millimeters
G90 ; use absolute coordinates
M83 ; use relative distances for extrusion
M900 K0.05 ; Filament gcode LA 1.5
M900 K30 ; Filament gcode LA 1.0
;BEFORE_LAYER_CHANGE
G92 E0.0
;0.2


G1 E-0.80000 F2100.00000
G1 Z0.600 F10800.000
;AFTER_LAYER_CHANGE
;0.2
G1 X119.963 Y112.696
G1 Z0.200
G1 E0.80000 F2100.00000
M204 S1000
G1 F1200.000
G1 X130.037 Y112.696 E0.31587
G1 X130.037 Y122.770 E0.31587
G1 X119.963 Y122.770 E0.31587
G1 X119.963 Y112.756 E0.31399
G1 X120.340 Y113.073 F10800.000
G1 F1200.000
G1 X129.660 Y113.073 E0.29222
G1 X129.660 Y122.393 E0.29222
G1 X120.340 Y122.393 E0.29222
G1 X120.340 Y113.133 E0.29034
G1 X120.236 Y112.687 F10800.000
G1 E-0.80000 F2100.00000
G1 Z0.800 F10800.000
G1 X106.544 Y99.277
G1 Z0.200
G1 E0.80000 F2100.00000
G1 F1200.000
G1 X143.456 Y99.277 E1.15734
G1 X143.451 Y135.646 E1.14033
G1 X106.549 Y135.646 E1.15704
G1 X106.544 Y99.337 E1.13845
G1 X106.167 Y98.900 F10800.000
G1 F1200.000
G1 X143.833 Y98.900 E1.18100
G1 X143.828 Y136.023 E1.16397
G1 X106.172 Y136.023 E1.18068
G1 X106.167 Y98.960 E1.16209
G1 X106.553 Y99.003 F10800.000
G1 E-0.80000 F2100.00000
G1 Z0.800 F10800.000
G1 X119.850 Y122.226
G1 Z0.200
G1 E0.80000 F2100.00000
G1 F1200.000
G1 X106.828 Y109.204 E0.58038
G1 X106.828 Y108.668 E0.01690
G1 X119.680 Y121.520 E0.57282
G1 X119.680 Y120.984 E0.01689
G1 X106.828 Y108.132 E0.57282
G1 X106.828 Y107.596 E0.01690
G1 X119.680 Y120.448 E0.57283
G1 X119.680 Y119.912 E0.01689
G1 X106.828 Y107.060 E0.57283
G1 X106.828 Y106.523 E0.01690
G1 X119.680 Y119.376 E0.57283
G1 X119.680 Y118.840 E0.01689
G1 X106.828 Y105.987 E0.57284
G1 X106.828 Y105.451 E0.01690
G1 X119.680 Y118.304 E0.57284
G1 X119.680 Y117.768 E0.01689
G1 X106.828 Y104.915 E0.57284
G1 X106.827 Y104.379 E0.01690
G1 X119.680 Y117.232 E0.57285
G1 X119.680 Y116.696 E0.01689
G1 X106.827 Y103.843 E0.57285
G1 X106.827 Y103.307 E0.01690
G1 X119.680 Y116.160 E0.57285
G1 X119.680 Y115.624 E0.01689
G1 X106.827 Y102.771 E0.57286
G1 X106.827 Y102.235 E0.01690
G1 X119.680 Y115.088 E0.57286
G1 X119.680 Y114.552 E0.01689
G1 X106.827 Y101.699 E0.57286
G1 X106.827 Y101.163 E0.01690
G1 X119.680 Y114.016 E0.57287
G1 X119.680 Y113.480 E0.01689
G1 X106.827 Y100.626 E0.57287
G1 X106.827 Y100.090 E0.01690
G1 X119.680 Y112.944 E0.57287
G1 X119.686 Y112.414 E0.01671
G1 X106.833 Y99.560 E0.57288
G1 X107.369 Y99.560 E0.01689
G1 X120.222 Y112.414 E0.57288
G1 X120.758 Y112.414 E0.01689
G1 X107.905 Y99.560 E0.57288
G1 X108.441 Y99.560 E0.01689
G1 X121.294 Y112.414 E0.57288
G1 X121.830 Y112.414 E0.01689
G1 X108.977 Y99.560 E0.57288
G1 X109.513 Y99.560 E0.01689
G1 X122.366 Y112.414 E0.57288
G1 X122.902 Y112.414 E0.01689
G1 X110.049 Y99.560 E0.57288
G1 X110.585 Y99.560 E0.01689
G1 X123.438 Y112.414 E0.57288
G1 X123.974 Y112.414 E0.01689
G1 X111.121 Y99.560 E0.57288
G1 X111.657 Y99.560 E0.01689
G1 X124.510 Y112.414 E0.57288
G1 X125.046 Y112.414 E0.01689
G1 X112.193 Y99.560 E0.57288
G1 X112.729 Y99.560 E0.01689
G1 X125.582 Y112.414 E0.57288
G1 X126.118 Y112.414 E0.01689
G1 X113.265 Y99.560 E0.57288
G1 X113.801 Y99.560 E0.01689
G1 X126.654 Y112.414 E0.57288
G1 X127.190 Y112.414 E0.01689
G1 X114.337 Y99.560 E0.57288
G1 X114.873 Y99.560 E0.01689
G1 X127.726 Y112.414 E0.57288
G1 X128.262 Y112.414 E0.01689
G1 X115.409 Y99.560 E0.57288
G1 X115.945 Y99.560 E0.01689
G1 X128.798 Y112.414 E0.57288
G1 X129.334 Y112.414 E0.01689
G1 X116.481 Y99.560 E0.57288
G1 X117.017 Y99.560 E0.01689
G1 X130.040 Y112.583 E0.58044
G1 E-0.80000 F2100.00000
G1 Z0.800 F10800.000
G1 X143.342 Y100.156
G1 Z0.200
G1 E0.80000 F2100.00000
G1 F1200.000
G1 X142.746 Y99.560 E0.02657
G1 X142.210 Y99.560 E0.01689
G1 X143.172 Y100.522 E0.04289
G1 X143.172 Y101.058 E0.01688
G1 X141.674 Y99.560 E0.06676
G1 X141.138 Y99.560 E0.01689
G1 X143.171 Y101.594 E0.09064
M73 P2 R48
G1 X143.171 Y102.129 E0.01688
G1 X140.602 Y99.560 E0.11451
G1 X140.066 Y99.560 E0.01689
G1 X143.171 Y102.665 E0.13839
G1 X143.170 Y103.201 E0.01688
G1 X139.530 Y99.560 E0.16226
G1 X138.994 Y99.560 E0.01689
G1 X143.170 Y103.736 E0.18614
G1 X143.170 Y104.272 E0.01688
G1 X138.458 Y99.560 E0.21001
G1 X137.922 Y99.560 E0.01689
G1 X143.169 Y104.808 E0.23388
G1 X143.169 Y105.343 E0.01688
G1 X137.386 Y99.560 E0.25776
G1 X136.850 Y99.560 E0.01689
G1 X143.169 Y105.879 E0.28163
G1 X143.168 Y106.415 E0.01688
G1 X136.314 Y99.560 E0.30551
G1 X135.778 Y99.560 E0.01689
G1 X143.168 Y106.951 E0.32940
G1 X143.168 Y107.487 E0.01689
G1 X135.242 Y99.560 E0.35329
G1 X134.706 Y99.560 E0.01689
G1 X143.168 Y108.023 E0.37718
G1 X143.168 Y108.559 E0.01689
G1 X134.170 Y99.560 E0.40107
G1 X133.634 Y99.560 E0.01689
G1 X143.168 Y109.095 E0.42496
G1 X143.168 Y109.631 E0.01689
G1 X133.098 Y99.560 E0.44885
G1 X132.561 Y99.560 E0.01689
G1 X143.168 Y110.167 E0.47274
G1 X143.168 Y110.703 E0.01689
G1 X132.025 Y99.560 E0.49663
G1 X131.489 Y99.560 E0.01689
G1 X143.168 Y111.239 E0.52052
G1 X143.168 Y111.775 E0.01689
G1 X130.953 Y99.560 E0.54442
G1 X130.417 Y99.560 E0.01689
G1 X143.168 Y112.311 E0.56831
G1 X143.168 Y112.847 E0.01689
G1 X129.881 Y99.560 E0.59220
G1 X129.345 Y99.560 E0.01689
G1 X143.168 Y113.383 E0.61609
G1 X143.168 Y113.919 E0.01689
G1 X128.809 Y99.560 E0.63998
G1 X128.273 Y99.560 E0.01689
G1 X143.168 Y114.455 E0.66387
G1 X143.168 Y114.991 E0.01689
G1 X127.737 Y99.560 E0.68776
G1 X127.201 Y99.560 E0.01689
G1 X143.168 Y115.527 E0.71165
G1 X143.168 Y116.063 E0.01689
G1 X126.665 Y99.560 E0.73554
G1 X126.129 Y99.560 E0.01689
G1 X143.168 Y116.599 E0.75943
G1 X143.168 Y117.135 E0.01689
G1 X125.593 Y99.560 E0.78332
G1 X125.057 Y99.560 E0.01689
G1 X143.168 Y117.671 E0.80721
G1 X143.168 Y118.207 E0.01689
G1 X124.521 Y99.560 E0.83110
G1 X123.985 Y99.560 E0.01689
G1 X143.168 Y118.743 E0.85499
G1 X143.168 Y119.279 E0.01689
G1 X123.449 Y99.560 E0.87888
G1 X122.913 Y99.560 E0.01689
G1 X143.168 Y119.815 E0.90277
G1 X143.168 Y120.351 E0.01689
G1 X122.377 Y99.560 E0.92666
G1 X121.841 Y99.560 E0.01689
G1 X143.168 Y120.887 E0.95055
G1 X143.168 Y121.423 E0.01689
G1 X121.305 Y99.560 E0.97444
G1 X120.769 Y99.560 E0.01689
G1 X143.168 Y121.959 E0.99833
G1 X143.168 Y122.495 E0.01689
G1 X120.233 Y99.560 E1.02223
G1 X119.697 Y99.560 E0.01689
G1 X143.168 Y123.031 E1.04612
G1 X143.168 Y123.567 E0.01689
G1 X119.161 Y99.560 E1.07001
G1 X118.625 Y99.560 E0.01689
G1 X143.168 Y124.103 E1.09390
G1 X143.168 Y124.639 E0.01689
G1 X118.089 Y99.560 E1.11779
G1 X117.553 Y99.560 E0.01689
G1 X143.168 Y125.175 E1.14168
G1 X143.168 Y125.711 E0.01689
G1 X130.320 Y112.863 E0.57265
G1 X130.320 Y113.399 E0.01689
G1 X143.168 Y126.247 E0.57265
G1 X143.168 Y126.783 E0.01689
G1 X130.320 Y113.935 E0.57265
G1 X130.320 Y114.471 E0.01689
G1 X143.168 Y127.319 E0.57265
G1 X143.168 Y127.855 E0.01689
G1 X130.320 Y115.007 E0.57265
G1 X130.320 Y115.543 E0.01689
G1 X143.168 Y128.391 E0.57265
G1 X143.168 Y128.927 E0.01689
G1 X130.320 Y116.079 E0.57265
G1 X130.320 Y116.615 E0.01689
G1 X143.168 Y129.463 E0.57265
G1 X143.168 Y130.000 E0.01689
G1 X130.320 Y117.151 E0.57265
G1 X130.320 Y117.687 E0.01689
G1 X143.168 Y130.536 E0.57265
G1 X143.168 Y131.072 E0.01689
G1 X130.320 Y118.223 E0.57265
G1 X130.320 Y118.759 E0.01689
G1 X143.168 Y131.608 E0.57265
G1 X143.168 Y132.144 E0.01689
G1 X130.320 Y119.295 E0.57265
G1 X130.320 Y119.831 E0.01689
G1 X143.168 Y132.680 E0.57265
G1 X143.168 Y133.216 E0.01689
G1 X130.320 Y120.367 E0.57265
G1 X130.320 Y120.903 E0.01689
G1 X143.168 Y133.752 E0.57265
M73 P4 R47
G1 X143.168 Y134.288 E0.01689
G1 X130.320 Y121.439 E0.57265
G1 X130.320 Y121.975 E0.01689
G1 X143.168 Y134.824 E0.57265
G1 X143.168 Y135.360 E0.01689
G1 X130.320 Y122.511 E0.57265
G1 X130.320 Y123.047 E0.01689
G1 X142.636 Y135.364 E0.54893
G1 X142.100 Y135.364 E0.01689
G1 X129.790 Y123.053 E0.54867
G1 X129.254 Y123.053 E0.01689
G1 X141.564 Y135.364 E0.54867
G1 X141.028 Y135.364 E0.01689
G1 X128.718 Y123.053 E0.54867
G1 X128.182 Y123.053 E0.01689
G1 X140.492 Y135.364 E0.54867
G1 X139.956 Y135.364 E0.01689
G1 X127.646 Y123.053 E0.54867
G1 X127.110 Y123.053 E0.01689
G1 X139.420 Y135.364 E0.54867
G1 X138.884 Y135.364 E0.01689
G1 X126.574 Y123.053 E0.54867
G1 X126.038 Y123.053 E0.01689
G1 X138.348 Y135.364 E0.54867
G1 X137.812 Y135.364 E0.01689
G1 X125.502 Y123.053 E0.54867
G1 X124.966 Y123.053 E0.01689
G1 X137.276 Y135.364 E0.54867
G1 X136.740 Y135.364 E0.01689
G1 X124.430 Y123.053 E0.54867
G1 X123.894 Y123.053 E0.01689
G1 X136.204 Y135.364 E0.54867
G1 X135.668 Y135.364 E0.01689
G1 X123.358 Y123.053 E0.54867
G1 X122.821 Y123.053 E0.01689
G1 X135.132 Y135.364 E0.54867
G1 X134.596 Y135.364 E0.01689
G1 X122.285 Y123.053 E0.54867
G1 X121.749 Y123.053 E0.01689
G1 X134.060 Y135.364 E0.54867
G1 X133.524 Y135.364 E0.01689
G1 X121.213 Y123.053 E0.54867
G1 X120.677 Y123.053 E0.01689
G1 X132.988 Y135.364 E0.54867
G1 X132.452 Y135.364 E0.01689
G1 X120.141 Y123.053 E0.54867
G1 X119.680 Y123.053 E0.01454
G1 X119.680 Y122.592 E0.01454
G1 X106.828 Y109.740 E0.57281
G1 X106.828 Y110.276 E0.01690
G1 X131.916 Y135.364 E1.11815
G1 X131.380 Y135.364 E0.01689
G1 X106.828 Y110.812 E1.09426
G1 X106.828 Y111.348 E0.01690
G1 X130.844 Y135.364 E1.07036
G1 X130.308 Y135.364 E0.01689
G1 X106.828 Y111.884 E1.04647
G1 X106.829 Y112.421 E0.01690
G1 X129.772 Y135.364 E1.02257
G1 X129.236 Y135.364 E0.01689
G1 X106.829 Y112.957 E0.99868
G1 X106.829 Y113.493 E0.01690
G1 X128.700 Y135.364 E0.97479
G1 X128.163 Y135.364 E0.01689
G1 X106.829 Y114.029 E0.95089
G1 X106.829 Y114.565 E0.01690
G1 X127.627 Y135.364 E0.92700
G1 X127.091 Y135.364 E0.01689
G1 X106.829 Y115.101 E0.90311
G1 X106.829 Y115.637 E0.01690
G1 X126.555 Y135.364 E0.87921
G1 X126.019 Y135.364 E0.01689
G1 X106.829 Y116.173 E0.85532
G1 X106.829 Y116.709 E0.01690
G1 X125.483 Y135.364 E0.83142
G1 X124.947 Y135.364 E0.01689
G1 X106.829 Y117.245 E0.80753
G1 X106.829 Y117.781 E0.01690
G1 X124.411 Y135.364 E0.78364
G1 X123.875 Y135.364 E0.01689
G1 X106.829 Y118.318 E0.75974
G1 X106.829 Y118.854 E0.01690
G1 X123.339 Y135.364 E0.73585
G1 X122.803 Y135.364 E0.01689
G1 X106.829 Y119.390 E0.71196
G1 X106.830 Y119.926 E0.01690
G1 X122.267 Y135.364 E0.68806
G1 X121.731 Y135.364 E0.01689
G1 X106.830 Y120.462 E0.66417
G1 X106.830 Y120.998 E0.01690
G1 X121.195 Y135.364 E0.64027
G1 X120.659 Y135.364 E0.01689
G1 X106.830 Y121.534 E0.61638
G1 X106.830 Y122.070 E0.01690
G1 X120.123 Y135.364 E0.59249
G1 X119.587 Y135.364 E0.01689
G1 X106.830 Y122.606 E0.56859
G1 X106.830 Y123.142 E0.01690
G1 X119.051 Y135.364 E0.54470
G1 X118.515 Y135.364 E0.01689
G1 X106.830 Y123.678 E0.52081
G1 X106.830 Y124.215 E0.01690
G1 X117.979 Y135.364 E0.49691
G1 X117.443 Y135.364 E0.01689
G1 X106.830 Y124.751 E0.47302
G1 X106.830 Y125.287 E0.01690
G1 X116.907 Y135.364 E0.44912
G1 X116.371 Y135.364 E0.01689
G1 X106.830 Y125.823 E0.42523
G1 X106.830 Y126.359 E0.01690
G1 X115.835 Y135.364 E0.40134
M73 P6 R46
G1 X115.299 Y135.364 E0.01689
G1 X106.831 Y126.895 E0.37744
G1 X106.831 Y127.431 E0.01690
G1 X114.763 Y135.364 E0.35355
G1 X114.227 Y135.364 E0.01689
G1 X106.831 Y127.967 E0.32966
G1 X106.831 Y128.503 E0.01690
G1 X113.691 Y135.364 E0.30576
G1 X113.155 Y135.364 E0.01689
G1 X106.831 Y129.039 E0.28187
G1 X106.831 Y129.575 E0.01690
G1 X112.619 Y135.364 E0.25797
G1 X112.083 Y135.364 E0.01689
G1 X106.831 Y130.112 E0.23408
G1 X106.831 Y130.648 E0.01690
G1 X111.547 Y135.364 E0.21019
G1 X111.011 Y135.364 E0.01689
G1 X106.831 Y131.184 E0.18629
G1 X106.831 Y131.720 E0.01690
G1 X110.475 Y135.364 E0.16240
G1 X109.939 Y135.364 E0.01689
G1 X106.831 Y132.256 E0.13851
G1 X106.831 Y132.792 E0.01690
G1 X109.403 Y135.364 E0.11461
G1 X108.867 Y135.364 E0.01689
G1 X106.831 Y133.328 E0.09072
G1 X106.831 Y133.864 E0.01690
G1 X108.331 Y135.364 E0.06682
G1 X107.795 Y135.364 E0.01689
G1 X106.832 Y134.400 E0.04293
G1 X106.832 Y134.936 E0.01690
G1 X107.428 Y135.533 E0.02660
G1 E-0.80000 F2100.00000
G1 Z0.800 F10800.000
G1 X116.195 Y98.365
G1 Z0.200
G1 E0.80000 F2100.00000
G1 F1200.000
G1 X121.998 Y92.562 E0.25733
G1 X120.932 Y92.562 E0.03344
G1 X115.782 Y97.712 E0.22837
G1 X115.248 Y97.179 E0.02365
G1 X119.865 Y92.562 E0.20472
G1 X118.799 Y92.562 E0.03344
G1 X114.715 Y96.645 E0.18108
G1 X114.182 Y96.112 E0.02365
G1 X117.732 Y92.562 E0.15743
G1 X116.666 Y92.562 E0.03344
G1 X113.649 Y95.579 E0.13378
G1 X113.115 Y95.046 E0.02365
G1 X115.753 Y92.408 E0.11697
G1 X115.599 Y92.254 E0.00683
G1 X115.599 Y91.495 E0.02378
G1 X112.582 Y94.512 E0.13378
G1 X112.049 Y93.979 E0.02365
G1 X115.599 Y90.429 E0.15743
G1 X115.599 Y89.362 E0.03344
G1 X111.516 Y93.446 E0.18108
G1 X110.982 Y92.912 E0.02365
G1 X115.599 Y88.296 E0.20472
G1 X115.599 Y87.229 E0.03344
G1 X110.449 Y92.379 E0.22837
G1 X109.916 Y91.846 E0.02365
G1 X115.769 Y85.993 E0.25954
G1 E-0.80000 F2100.00000
G1 Z0.800 F10800.000
G1 X109.420 Y75.277
G1 Z0.200
G1 E0.80000 F2100.00000
G1 F1200.000
G1 X116.996 Y67.701 E0.33592
G1 X117.529 Y68.234 E0.02365
G1 X110.073 Y75.690 E0.33060
G1 X110.607 Y76.223 E0.02365
G1 X118.062 Y68.768 E0.33060
G1 X118.596 Y69.301 E0.02365
G1 X111.020 Y76.877 E0.33592
G1 X114.753 Y80.609 F10800.000
G1 F1200.000
G1 X115.599 Y79.763 E0.03753
G1 X115.599 Y78.697 E0.03344
G1 X114.340 Y79.956 E0.05585
G1 X113.806 Y79.423 E0.02365
G1 X115.599 Y77.630 E0.07950
G1 X115.599 Y76.564 E0.03344
G1 X113.273 Y78.890 E0.10314
G1 X112.740 Y78.356 E0.02365
G1 X115.599 Y75.497 E0.12679
G1 X115.599 Y74.430 E0.03344
G1 X112.207 Y77.823 E0.15044
G1 X111.673 Y77.290 E0.02365
G1 X119.129 Y69.834 E0.33060
G1 X119.662 Y70.367 E0.02365
G1 X116.270 Y73.760 E0.15044
G1 X117.336 Y73.760 E0.03344
G1 X120.196 Y70.901 E0.12679
G1 X120.729 Y71.434 E0.02365
G1 X118.403 Y73.760 E0.10315
G1 X119.469 Y73.760 E0.03344
G1 X121.262 Y71.967 E0.07950
G1 X121.795 Y72.500 E0.02365
G1 X120.536 Y73.760 E0.05585
G1 X121.602 Y73.760 E0.03344
G1 X122.449 Y72.914 E0.03753
G1 E-0.80000 F2100.00000
G1 Z0.800 F10800.000
G1 X133.805 Y67.957
G1 Z0.200
G1 E0.80000 F2100.00000
G1 F1200.000
G1 X128.002 Y73.760 E0.25734
G1 X129.068 Y73.760 E0.03344
G1 X134.218 Y68.610 E0.22837
G1 X134.752 Y69.143 E0.02365
G1 X130.135 Y73.760 E0.20472
G1 X131.201 Y73.760 E0.03344
G1 X135.285 Y69.676 E0.18108
G1 X135.818 Y70.210 E0.02365
G1 X132.268 Y73.760 E0.15743
G1 X133.334 Y73.760 E0.03344
G1 X136.351 Y70.743 E0.13378
G1 X136.885 Y71.276 E0.02365
G1 X134.247 Y73.914 E0.11697
G1 X134.401 Y74.068 E0.00683
G1 X134.401 Y74.827 E0.02378
G1 X137.418 Y71.810 E0.13378
G1 X137.951 Y72.343 E0.02365
G1 X134.401 Y75.893 E0.15743
G1 X134.401 Y76.960 E0.03344
G1 X138.484 Y72.876 E0.18108
G1 X139.018 Y73.409 E0.02365
G1 X134.401 Y78.026 E0.20472
G1 X134.401 Y79.093 E0.03344
G1 X139.551 Y73.943 E0.22837
G1 X140.084 Y74.476 E0.02365
G1 X134.231 Y80.329 E0.25954
G1 E-0.80000 F2100.00000
G1 Z0.800 F10800.000
G1 X135.247 Y85.712
G1 Z0.200
G1 E0.80000 F2100.00000
G1 F1200.000
G1 X134.401 Y86.559 E0.03753
G1 X134.401 Y87.625 E0.03344
G1 X135.660 Y86.366 E0.05585
G1 X136.194 Y86.899 E0.02365
