; generated by PrusaSlicer 2.2.0+win64 on 2021-01-29 at 19:28:30 UTC

; 

; external perimeters extrusion width = 0.45mm
; perimeters extrusion width = 0.45mm
; infill extrusion width = 0.45mm
; solid infill extrusion width = 0.45mm
; top infill extrusion width = 0.40mm
; support material extrusion width = 0.35mm
; first layer extrusion width = 0.42mm

M73 P0 R7
M201 X9000 Y9000 Z500 E10000 ; sets maximum accelerations, mm/sec^2
M203 X500 Y500 Z12 E120 ; sets maximum feedrates, mm/sec
M204 P2000 R1500 T2000 ; sets acceleration (P, T) and retract acceleration (R), mm/sec^2
M205 X10.00 Y10.00 Z0.20 E2.50 ; sets the jerk limits, mm/sec
M205 S0 T0 ; sets the minimum extruding and travel feed rate, mm/sec
M107
M862.3 P "MK2S" ; printer model check
M862.1 P0.4 ; nozzle diameter check
M115 U3.2.3 ; tell printer latest fw version
G90 ; use absolute coordinates
M83 ; extruder relative mode
M204 S2000 T1500 ; MK2 firmware only supports the old M204 format
M104 S215 ; set extruder temp
M140 S60 ; set bed temp
M190 S60 ; wait for bed temp
M109 S215 ; wait for extruder temp
G28 W ; home all without mesh bed level
G80 ; mesh bed leveling
G1 Y-3.0 F1000.0 ; go outside print area
G92 E0.0
G1 X60.0 E9.0  F1000.0 ; intro line
M73 P0 R7
G1 X100.0 E12.5 F1000.0 ; intro line
G92 E0.0
G21 ; set units to millimeters
G90 ; use absolute coordinates
M83 ; use relative distances for extrusion
M900 K0.05 ; Filament gcode LA 1.5
M900 K30 ; Filament gcode LA 1.0
;BEFORE_LAYER_CHANGE
G92 E0.0
;0.2


G1 E-0.80000 F2100.00000
G1 Z0.600 F10800.000
;AFTER_LAYER_CHANGE
;0.2
G1 X121.587 Y95.587
G1 Z0.200
G1 E0.80000 F2100.00000
M204 S1000
G1 F1200.000
G1 X128.413 Y95.587 E0.21402
G1 X128.413 Y114.413 E0.59027
G1 X121.587 Y114.413 E0.21402
G1 X121.587 Y95.647 E0.58839
G1 X121.210 Y95.210 F10800.000
G1 F1200.000
G1 X128.790 Y95.210 E0.23767
G1 X128.790 Y114.790 E0.61392
G1 X121.210 Y114.790 E0.23767
G1 X121.210 Y95.270 E0.61204
G1 X121.578 Y95.366 F10800.000
G1 E-0.80000 F2100.00000
G1 Z0.800 F10800.000
G1 X121.700 Y113.531
G1 Z0.200
G1 E0.80000 F2100.00000
G1 F1200.000
G1 X122.299 Y114.130 E0.02679
G1 X122.837 Y114.130 E0.01700
G1 X121.870 Y113.163 E0.04325
G1 X121.870 Y112.625 E0.01700
G1 X123.375 Y114.130 E0.06730
G1 X123.913 Y114.130 E0.01700
G1 X121.870 Y112.087 E0.09134
G1 X121.870 Y111.550 E0.01700
G1 X124.450 Y114.130 E0.11539
G1 X124.988 Y114.130 E0.01700
G1 X121.870 Y111.012 E0.13944
G1 X121.870 Y110.474 E0.01700
G1 X125.526 Y114.130 E0.16348
G1 X126.064 Y114.130 E0.01700
G1 X121.870 Y109.936 E0.18753
G1 X121.870 Y109.399 E0.01700
G1 X126.601 Y114.130 E0.21157
G1 X127.139 Y114.130 E0.01700
G1 X121.870 Y108.861 E0.23562
G1 X121.870 Y108.323 E0.01700
G1 X127.677 Y114.130 E0.25966
G1 X128.130 Y114.130 E0.01433
G1 X128.130 Y114.045 E0.00268
G1 X121.870 Y107.785 E0.27993
G1 X121.870 Y107.247 E0.01700
G1 X128.130 Y113.508 E0.27993
G1 X128.130 Y112.970 E0.01700
G1 X121.870 Y106.710 E0.27993
G1 X121.870 Y106.172 E0.01700
G1 X128.130 Y112.432 E0.27993
G1 X128.130 Y111.894 E0.01700
G1 X121.870 Y105.634 E0.27993
G1 X121.870 Y105.096 E0.01700
G1 X128.130 Y111.357 E0.27993
G1 X128.130 Y110.819 E0.01700
G1 X121.870 Y104.559 E0.27993
G1 X121.870 Y104.021 E0.01700
G1 X128.130 Y110.281 E0.27993
G1 X128.130 Y109.743 E0.01700
G1 X121.870 Y103.483 E0.27993
G1 X121.870 Y102.945 E0.01700
G1 X128.130 Y109.206 E0.27993
G1 X128.130 Y108.668 E0.01700
G1 X121.870 Y102.408 E0.27993
G1 X121.870 Y101.870 E0.01700
G1 X128.130 Y108.130 E0.27993
G1 X128.130 Y107.592 E0.01700
G1 X121.870 Y101.332 E0.27993
G1 X121.870 Y100.794 E0.01700
G1 X128.130 Y107.055 E0.27993
G1 X128.130 Y106.517 E0.01700
G1 X121.870 Y100.257 E0.27993
G1 X121.870 Y99.719 E0.01700
G1 X128.130 Y105.979 E0.27993
G1 X128.130 Y105.441 E0.01700
G1 X121.870 Y99.181 E0.27993
G1 X121.870 Y98.643 E0.01700
G1 X128.130 Y104.904 E0.27993
G1 X128.130 Y104.366 E0.01700
G1 X121.870 Y98.106 E0.27993
G1 X121.870 Y97.568 E0.01700
G1 X128.130 Y103.828 E0.27993
G1 X128.130 Y103.290 E0.01700
G1 X121.870 Y97.030 E0.27993
G1 X121.870 Y96.492 E0.01700
G1 X128.130 Y102.753 E0.27993
G1 X128.130 Y102.215 E0.01700
G1 X121.870 Y95.955 E0.27993
G1 X121.870 Y95.870 E0.00268
G1 X122.323 Y95.870 E0.01432
G1 X128.130 Y101.677 E0.25967
G1 X128.130 Y101.139 E0.01700
G1 X122.861 Y95.870 E0.23562
G1 X123.398 Y95.870 E0.01700
G1 X128.130 Y100.602 E0.21158
G1 X128.130 Y100.064 E0.01700
G1 X123.936 Y95.870 E0.18753
G1 X124.474 Y95.870 E0.01700
G1 X128.130 Y99.526 E0.16348
G1 X128.130 Y98.988 E0.01700
G1 X125.012 Y95.870 E0.13944
G1 X125.549 Y95.870 E0.01700
G1 X128.130 Y98.451 E0.11539
G1 X128.130 Y97.913 E0.01700
G1 X126.087 Y95.870 E0.09135
G1 X126.625 Y95.870 E0.01700
G1 X128.130 Y97.375 E0.06730
G1 X128.130 Y96.837 E0.01700
G1 X127.163 Y95.870 E0.04326
G1 X127.700 Y95.870 E0.01700
G1 X128.300 Y96.469 E0.02680
M106 S255
;BEFORE_LAYER_CHANGE
G92 E0.0
;0.4


G1 E-0.80000 F2100.00000
G1 Z0.800 F10800.000
;AFTER_LAYER_CHANGE
;0.4
M104 S210 ; set temperature
G1 X128.368 Y95.632
G1 Z0.400
G1 E0.80000 F2100.00000
M204 S800
G1 F1622
G1 X128.368 Y114.368 E0.63419
G1 X121.632 Y114.368 E0.22800
G1 X121.632 Y95.632 E0.63419
G1 X128.308 Y95.632 E0.22597
M204 S1000
G1 X128.775 Y95.225 F10800.000
M204 S800
G1 F1622
G1 X128.775 Y114.775 E0.66174
G1 X121.225 Y114.775 E0.25556
G1 X121.225 Y95.225 E0.66174
G1 X128.715 Y95.225 E0.25353
M204 S1000
G1 X128.726 Y95.622 F10800.000
G1 E-0.80000 F2100.00000
G1 Z1.000 F10800.000
G1 X127.412 Y114.246
G1 Z0.400
G1 E0.80000 F2100.00000
M204 S2000
G1 F1622
G1 X128.063 Y113.595 E0.03153
G1 X128.063 Y113.012 E0.01998
G1 X127.012 Y114.063 E0.05090
G1 X126.429 Y114.063 E0.01998
G1 X128.063 Y112.429 E0.07916
G1 X128.063 Y111.847 E0.01998
G1 X125.847 Y114.063 E0.10741
G1 X125.264 Y114.063 E0.01998
G1 X128.063 Y111.264 E0.13566
G1 X128.063 Y110.681 E0.01998
G1 X124.681 Y114.063 E0.16391
G1 X124.098 Y114.063 E0.01998
G1 X128.063 Y110.098 E0.19216
G1 X128.063 Y109.515 E0.01998
G1 X123.515 Y114.063 E0.22042
G1 X122.932 Y114.063 E0.01998
G1 X128.063 Y108.932 E0.24867
G1 X128.063 Y108.349 E0.01998
G1 X122.349 Y114.063 E0.27692
G1 X121.937 Y114.063 E0.01411
G1 X121.937 Y113.892 E0.00586
G1 X128.063 Y107.766 E0.29688
G1 X128.063 Y107.183 E0.01998
G1 X121.937 Y113.309 E0.29688
G1 X121.937 Y112.726 E0.01998
G1 X128.063 Y106.601 E0.29688
G1 X128.063 Y106.018 E0.01998
G1 X121.937 Y112.143 E0.29688
G1 X121.937 Y111.560 E0.01998
G1 X128.063 Y105.435 E0.29688
G1 X128.063 Y104.852 E0.01998
G1 X121.937 Y110.977 E0.29688
G1 X121.937 Y110.394 E0.01998
G1 X128.063 Y104.269 E0.29688
G1 X128.063 Y103.686 E0.01998
G1 X121.937 Y109.811 E0.29688
G1 X121.937 Y109.228 E0.01998
G1 X128.063 Y103.103 E0.29688
G1 X128.063 Y102.520 E0.01998
G1 X121.937 Y108.645 E0.29688
G1 X121.937 Y108.063 E0.01998
G1 X128.063 Y101.937 E0.29688
G1 X128.063 Y101.354 E0.01998
G1 X121.937 Y107.480 E0.29688
G1 X121.937 Y106.897 E0.01998
G1 X128.063 Y100.772 E0.29688
G1 X128.063 Y100.189 E0.01998
G1 X121.937 Y106.314 E0.29688
G1 X121.937 Y105.731 E0.01998
G1 X128.063 Y99.606 E0.29688
G1 X128.063 Y99.023 E0.01998
G1 X121.937 Y105.148 E0.29688
G1 X121.937 Y104.565 E0.01998
G1 X128.063 Y98.440 E0.29688
G1 X128.063 Y97.857 E0.01998
G1 X121.937 Y103.982 E0.29688
G1 X121.937 Y103.399 E0.01998
G1 X128.063 Y97.274 E0.29688
G1 X128.063 Y96.691 E0.01998
G1 X121.937 Y102.816 E0.29688
G1 X121.937 Y102.234 E0.01998
G1 X128.063 Y96.108 E0.29688
G1 X128.063 Y95.937 E0.00586
G1 X127.651 Y95.937 E0.01412
G1 X121.937 Y101.651 E0.27691
G1 X121.937 Y101.068 E0.01998
G1 X127.068 Y95.937 E0.24866
G1 X126.485 Y95.937 E0.01998
G1 X121.937 Y100.485 E0.22041
G1 X121.937 Y99.902 E0.01998
G1 X125.902 Y95.937 E0.19216
G1 X125.319 Y95.937 E0.01998
G1 X121.937 Y99.319 E0.16391
G1 X121.937 Y98.736 E0.01998
G1 X124.736 Y95.937 E0.13565
G1 X124.153 Y95.937 E0.01998
G1 X121.937 Y98.153 E0.10740
G1 X121.937 Y97.570 E0.01998
G1 X123.570 Y95.937 E0.07915
G1 X122.988 Y95.937 E0.01998
G1 X121.937 Y96.988 E0.05090
G1 X121.937 Y96.405 E0.01998
G1 X122.588 Y95.754 E0.03153
M204 S1000
;BEFORE_LAYER_CHANGE
G92 E0.0
;0.6


G1 E-0.80000 F2100.00000
G1 Z1.000 F10800.000
;AFTER_LAYER_CHANGE
;0.6
G1 X121.632 Y95.632
G1 Z0.600
G1 E0.80000 F2100.00000
M204 S800
G1 F1623
G1 X128.368 Y95.632 E0.22800
G1 X128.368 Y114.368 E0.63419
G1 X121.632 Y114.368 E0.22800
G1 X121.632 Y95.692 E0.63216
M204 S1000
G1 X121.225 Y95.225 F10800.000
M204 S800
G1 F1623
G1 X128.775 Y95.225 E0.25556
G1 X128.775 Y114.775 E0.66174
G1 X121.225 Y114.775 E0.25556
G1 X121.225 Y95.285 E0.65971
M204 S1000
G1 X121.593 Y95.381 F10800.000
G1 E-0.80000 F2100.00000
G1 Z1.200 F10800.000
G1 X121.754 Y113.412
G1 Z0.600
G1 E0.80000 F2100.00000
M204 S2000
G1 F1623
G1 X122.405 Y114.063 E0.03153
G1 X122.988 Y114.063 E0.01998
G1 X121.937 Y113.012 E0.05090
G1 X121.937 Y112.430 E0.01998
G1 X123.570 Y114.063 E0.07915
G1 X124.153 Y114.063 E0.01998
G1 X121.937 Y111.847 E0.10740
G1 X121.937 Y111.264 E0.01998
G1 X124.736 Y114.063 E0.13565
G1 X125.319 Y114.063 E0.01998
G1 X121.937 Y110.681 E0.16391
G1 X121.937 Y110.098 E0.01998
G1 X125.902 Y114.063 E0.19216
G1 X126.485 Y114.063 E0.01998
G1 X121.937 Y109.515 E0.22041
G1 X121.937 Y108.932 E0.01998
G1 X127.068 Y114.063 E0.24866
G1 X127.651 Y114.063 E0.01998
G1 X121.937 Y108.349 E0.27691
G1 X121.937 Y107.766 E0.01998
G1 X128.063 Y113.892 E0.29688
G1 X128.063 Y113.309 E0.01998
G1 X121.937 Y107.184 E0.29688
G1 X121.937 Y106.601 E0.01998
G1 X128.063 Y112.726 E0.29688
G1 X128.063 Y112.143 E0.01998
G1 X121.937 Y106.018 E0.29688
G1 X121.937 Y105.435 E0.01998
G1 X128.063 Y111.560 E0.29688
G1 X128.063 Y110.977 E0.01998
G1 X121.937 Y104.852 E0.29688
G1 X121.937 Y104.269 E0.01998
G1 X128.063 Y110.394 E0.29688
G1 X128.063 Y109.811 E0.01998
G1 X121.937 Y103.686 E0.29688
G1 X121.937 Y103.103 E0.01998
G1 X128.063 Y109.228 E0.29688
G1 X128.063 Y108.646 E0.01998
G1 X121.937 Y102.520 E0.29688
G1 X121.937 Y101.937 E0.01998
G1 X128.063 Y108.063 E0.29688
G1 X128.063 Y107.480 E0.01998
G1 X121.937 Y101.355 E0.29688
G1 X121.937 Y100.772 E0.01998
G1 X128.063 Y106.897 E0.29688
G1 X128.063 Y106.314 E0.01998
G1 X121.937 Y100.189 E0.29688
G1 X121.937 Y99.606 E0.01998
G1 X128.063 Y105.731 E0.29688
G1 X128.063 Y105.148 E0.01998
G1 X121.937 Y99.023 E0.29688
G1 X121.937 Y98.440 E0.01998
G1 X128.063 Y104.565 E0.29688
G1 X128.063 Y103.982 E0.01998
G1 X121.937 Y97.857 E0.29688
G1 X121.937 Y97.274 E0.01998
G1 X128.063 Y103.399 E0.29688
G1 X128.063 Y102.817 E0.01998
G1 X121.937 Y96.691 E0.29688
G1 X121.937 Y96.108 E0.01998
G1 X128.063 Y102.234 E0.29688
G1 X128.063 Y101.651 E0.01998
G1 X122.349 Y95.937 E0.27692
G1 X122.932 Y95.937 E0.01998
G1 X128.063 Y101.068 E0.24867
G1 X128.063 Y100.485 E0.01998
G1 X123.515 Y95.937 E0.22042
G1 X124.098 Y95.937 E0.01998
G1 X128.063 Y99.902 E0.19216
G1 X128.063 Y99.319 E0.01998
G1 X124.681 Y95.937 E0.16391
G1 X125.264 Y95.937 E0.01998
G1 X128.063 Y98.736 E0.13566
G1 X128.063 Y98.153 E0.01998
G1 X125.847 Y95.937 E0.10741
G1 X126.429 Y95.937 E0.01998
G1 X128.063 Y97.571 E0.07916
G1 X128.063 Y96.988 E0.01998
G1 X127.012 Y95.937 E0.05090
G1 X127.595 Y95.937 E0.01998
G1 X128.246 Y96.588 E0.03153
M204 S1000
;BEFORE_LAYER_CHANGE
G92 E0.0
;0.8


G1 E-0.80000 F2100.00000
G1 Z1.200 F10800.000
;AFTER_LAYER_CHANGE
;0.8
G1 X128.368 Y95.632
G1 Z0.800
G1 E0.80000 F2100.00000
M204 S800
G1 F900
G1 X128.368 Y114.368 E0.63419
G1 X121.632 Y114.368 E0.22800
G1 X121.632 Y95.632 E0.63419
M73 P15 R6
G1 X128.308 Y95.632 E0.22597
M204 S1000
G1 X128.775 Y95.225 F10800.000
M204 S800
G1 F900
G1 X128.775 Y114.775 E0.66174
G1 X121.225 Y114.775 E0.25556
G1 X121.225 Y95.225 E0.66174
G1 X128.715 Y95.225 E0.25353
M204 S1000
G1 X128.726 Y95.622 F10800.000
G1 X126.892 Y95.754
M204 S2000
G1 F900
G1 X121.937 Y114.246 E0.64800
M204 S1000
G1 E-0.80000 F2100.00000
G1 Z1.400 F10800.000
G1 X121.754 Y106.455
G1 Z0.800
G1 E0.80000 F2100.00000
M204 S2000
G1 F900
G1 X128.246 Y104.716 E0.22748
M204 S1000
G1 X128.246 Y107.446 F10800.000
M204 S2000
G1 F900
G1 X121.754 Y100.954 E0.31075
M204 S1000
;BEFORE_LAYER_CHANGE
G92 E0.0
;1


G1 E-0.80000 F2100.00000
G1 Z1.400 F10800.000
;AFTER_LAYER_CHANGE
;1
G1 X121.632 Y95.632
G1 Z1.000
G1 E0.80000 F2100.00000
M204 S800
G1 F900
G1 X128.368 Y95.632 E0.22800
G1 X128.368 Y114.368 E0.63419
G1 X121.632 Y114.368 E0.22800
G1 X121.632 Y95.692 E0.63216
M204 S1000
G1 X121.225 Y95.225 F10800.000
M204 S800
G1 F900
G1 X128.775 Y95.225 E0.25556
G1 X128.775 Y114.775 E0.66174
G1 X121.225 Y114.775 E0.25556
G1 X121.225 Y95.285 E0.65971
M204 S1000
G1 X121.593 Y95.381 F10800.000
G1 E-0.80000 F2100.00000
G1 Z1.600 F10800.000
G1 X121.754 Y100.754
G1 Z1.000
G1 E0.80000 F2100.00000
M204 S2000
G1 F900
G1 X128.246 Y107.246 E0.31075
M204 S1000
G1 X128.246 Y104.862 F10800.000
M204 S2000
G1 F900
G1 X121.754 Y106.602 E0.22748
M204 S1000
G1 E-0.80000 F2100.00000
G1 Z1.600 F10800.000
G1 X121.791 Y114.246
G1 Z1.000
G1 E0.80000 F2100.00000
M204 S2000
G1 F900
G1 X126.745 Y95.754 E0.64800
M204 S1000
;BEFORE_LAYER_CHANGE
G92 E0.0
;1.2


G1 E-0.80000 F2100.00000
G1 Z1.600 F10800.000
;AFTER_LAYER_CHANGE
;1.2
G1 X128.368 Y95.632
G1 Z1.200
G1 E0.80000 F2100.00000
M204 S800
G1 F900
G1 X128.368 Y114.368 E0.63419
G1 X121.632 Y114.368 E0.22800
G1 X121.632 Y95.632 E0.63419
G1 X128.308 Y95.632 E0.22597
M204 S1000
G1 X128.775 Y95.225 F10800.000
M204 S800
G1 F900
G1 X128.775 Y114.775 E0.66174
G1 X121.225 Y114.775 E0.25556
G1 X121.225 Y95.225 E0.66174
G1 X128.715 Y95.225 E0.25353
M204 S1000
G1 X128.726 Y95.622 F10800.000
G1 X126.599 Y95.754
M204 S2000
G1 F900
G1 X121.754 Y113.835 E0.63360
M204 S1000
G1 E-0.80000 F2100.00000
G1 Z1.800 F10800.000
G1 X121.754 Y106.748
G1 Z1.200
G1 E0.80000 F2100.00000
M204 S2000
G1 F900
G1 X128.246 Y105.009 E0.22748
M204 S1000
G1 X128.246 Y107.046 F10800.000
M204 S2000
G1 F900
G1 X121.754 Y100.554 E0.31075
M204 S1000
;BEFORE_LAYER_CHANGE
G92 E0.0
;1.4


G1 E-0.80000 F2100.00000
G1 Z1.800 F10800.000
;AFTER_LAYER_CHANGE
;1.4
G1 X121.632 Y95.632
G1 Z1.400
G1 E0.80000 F2100.00000
M204 S800
G1 F900
G1 X128.368 Y95.632 E0.22800
G1 X128.368 Y114.368 E0.63419
G1 X121.632 Y114.368 E0.22800
G1 X121.632 Y95.692 E0.63216
M204 S1000
G1 X121.225 Y95.225 F10800.000
M204 S800
G1 F900
G1 X128.775 Y95.225 E0.25556
G1 X128.775 Y114.775 E0.66174
G1 X121.225 Y114.775 E0.25556
G1 X121.225 Y95.285 E0.65971
M204 S1000
G1 X121.593 Y95.381 F10800.000
G1 E-0.80000 F2100.00000
G1 Z2.000 F10800.000
G1 X121.754 Y100.354
G1 Z1.400
G1 E0.80000 F2100.00000
M204 S2000
G1 F900
G1 X128.246 Y106.846 E0.31075
M204 S1000
G1 X128.246 Y105.155 F10800.000
M204 S2000
G1 F900
G1 X121.754 Y106.895 E0.22748
M204 S1000
G1 E-0.80000 F2100.00000
G1 Z2.000 F10800.000
G1 X121.754 Y113.289
G1 Z1.400
G1 E0.80000 F2100.00000
M204 S2000
G1 F900
G1 X126.453 Y95.754 E0.61446
M204 S1000
;BEFORE_LAYER_CHANGE
G92 E0.0
;1.6


G1 E-0.80000 F2100.00000
G1 Z2.000 F10800.000
;AFTER_LAYER_CHANGE
;1.6
G1 X128.368 Y95.632
G1 Z1.600
G1 E0.80000 F2100.00000
M204 S800
G1 F900
G1 X128.368 Y114.368 E0.63419
G1 X121.632 Y114.368 E0.22800
G1 X121.632 Y95.632 E0.63419
G1 X128.308 Y95.632 E0.22597
M204 S1000
G1 X128.775 Y95.225 F10800.000
M204 S800
G1 F900
G1 X128.775 Y114.775 E0.66174
G1 X121.225 Y114.775 E0.25556
G1 X121.225 Y95.225 E0.66174
G1 X128.715 Y95.225 E0.25353
M204 S1000
G1 X128.726 Y95.622 F10800.000
G1 X126.306 Y95.754
M204 S2000
G1 F900
G1 X121.754 Y112.742 E0.59531
M204 S1000
G1 E-0.80000 F2100.00000
G1 Z2.200 F10800.000
G1 X121.754 Y107.041
G1 Z1.600
G1 E0.80000 F2100.00000
M204 S2000
G1 F900
G1 X128.246 Y105.302 E0.22748
M204 S1000
G1 X128.246 Y106.646 F10800.000
M204 S2000
G1 F900
G1 X121.754 Y100.154 E0.31075
M204 S1000
;BEFORE_LAYER_CHANGE
G92 E0.0
;1.8


G1 E-0.80000 F2100.00000
G1 Z2.200 F10800.000
;AFTER_LAYER_CHANGE
;1.8
G1 X121.632 Y95.632
G1 Z1.800
G1 E0.80000 F2100.00000
M204 S800
G1 F900
G1 X128.368 Y95.632 E0.22800
G1 X128.368 Y114.368 E0.63419
G1 X121.632 Y114.368 E0.22800
G1 X121.632 Y95.692 E0.63216
M204 S1000
G1 X121.225 Y95.225 F10800.000
M204 S800
G1 F900
G1 X128.775 Y95.225 E0.25556
G1 X128.775 Y114.775 E0.66174
G1 X121.225 Y114.775 E0.25556
G1 X121.225 Y95.285 E0.65971
M204 S1000
G1 X121.593 Y95.381 F10800.000
G1 X121.754 Y99.954
M204 S2000
G1 F900
G1 X128.246 Y106.446 E0.31075
