; G-Code generated by Simplify3D(R) Version 4.1.1
; Oct 7, 2019 at 1:13:50 PM
; Settings Summary
;   processName,Process1
;   applyToModels,BodyV1R3,MainBladeV1R3,blade2V1R3,blade2V1R3(2)
;   profileName,Prusa Research Original Prusa i3 MK2 (modified)
;   profileVersion,2019-10-01 10:02:23
;   baseProfile,
;   printMaterial,PLA
;   printQuality,Medium
;   printExtruders,
;   extruderName,Primary Extruder
;   extruderToolheadNumber,0
;   extruderDiameter,0.4
;   extruderAutoWidth,1
;   extruderWidth,0.48
;   extrusionMultiplier,1
;   extruderUseRetract,1
;   extruderRetractionDistance,1.5
;   extruderExtraRestartDistance,0
;   extruderRetractionZLift,0
;   extruderRetractionSpeed,1800
;   extruderUseCoasting,1
;   extruderCoastingDistance,0.2
;   extruderUseWipe,1
;   extruderWipeDistance,2
;   primaryExtruder,0
;   layerHeight,0.2
;   topSolidLayers,3
;   bottomSolidLayers,3
;   perimeterOutlines,2
;   printPerimetersInsideOut,1
;   startPointOption,2
;   startPointOriginX,0
;   startPointOriginY,0
;   sequentialIslands,0
;   spiralVaseMode,0
;   firstLayerHeightPercentage,150
;   firstLayerWidthPercentage,100
;   firstLayerUnderspeed,0.5
;   useRaft,1
;   raftExtruder,0
;   raftTopLayers,2
;   raftBaseLayers,2
;   raftOffset,3
;   raftSeparationDistance,0.14
;   raftTopInfill,100
;   aboveRaftSpeedMultiplier,0.3
;   useSkirt,0
;   skirtExtruder,0
;   skirtLayers,1
;   skirtOutlines,2
;   skirtOffset,4
;   usePrimePillar,0
;   primePillarExtruder,999
;   primePillarWidth,12
;   primePillarLocation,7
;   primePillarSpeedMultiplier,1
;   useOozeShield,0
;   oozeShieldExtruder,999
;   oozeShieldOffset,2
;   oozeShieldOutlines,1
;   oozeShieldSidewallShape,1
;   oozeShieldSidewallAngle,30
;   oozeShieldSpeedMultiplier,1
;   infillExtruder,0
;   internalInfillPattern,Rectilinear
;   externalInfillPattern,Rectilinear
;   infillPercentage,40
;   outlineOverlapPercentage,20
;   infillExtrusionWidthPercentage,100
;   minInfillLength,5
;   infillLayerInterval,1
;   internalInfillAngles,45,-45
;   overlapInternalInfillAngles,0
;   externalInfillAngles,45,-45
;   generateSupport,1
;   supportExtruder,0
;   supportInfillPercentage,50
;   supportExtraInflation,0
;   supportBaseLayers,2
;   denseSupportExtruder,0
;   denseSupportLayers,0
;   denseSupportInfillPercentage,70
;   supportLayerInterval,1
;   supportHorizontalPartOffset,0.3
;   supportUpperSeparationLayers,1
;   supportLowerSeparationLayers,1
;   supportType,0
;   supportGridSpacing,1
;   maxOverhangAngle,45
;   supportAngles,0
;   temperatureName,Primary Extruder,Heated Bed
;   temperatureNumber,0,0
;   temperatureSetpointCount,1,1
;   temperatureSetpointLayers,1,1
;   temperatureSetpointTemperatures,200,60
;   temperatureStabilizeAtStartup,1,1
;   temperatureHeatedBed,0,1
;   fanLayers,1,2
;   fanSpeeds,0,100
;   blipFanToFullPower,0
;   adjustSpeedForCooling,1
;   minSpeedLayerTime,15
;   minCoolingSpeedSlowdown,20
;   increaseFanForCooling,0
;   minFanLayerTime,45
;   maxCoolingFanSpeed,100
;   increaseFanForBridging,0
;   bridgingFanSpeed,100
;   use5D,1
;   relativeEdistances,0
;   allowEaxisZeroing,1
;   independentExtruderAxes,0
;   includeM10123,0
;   stickySupport,1
;   applyToolheadOffsets,0
;   gcodeXoffset,0
;   gcodeYoffset,0
;   gcodeZoffset,0
;   overrideMachineDefinition,1
;   machineTypeOverride,0
;   strokeXoverride,250
;   strokeYoverride,210
;   strokeZoverride,200
;   originOffsetXoverride,0
;   originOffsetYoverride,0
;   originOffsetZoverride,0
;   homeXdirOverride,-1
;   homeYdirOverride,-1
;   homeZdirOverride,-1
;   flipXoverride,1
;   flipYoverride,-1
;   flipZoverride,1
;   toolheadOffsets,0,0|0,0|0,0|0,0|0,0|0,0
;   overrideFirmwareConfiguration,1
;   firmwareTypeOverride,RepRap (Marlin/Repetier/Sprinter)
;   GPXconfigOverride,r2
;   baudRateOverride,250000
;   overridePrinterModels,1
;   printerModelsOverride
;   startingGcode,M115 U3.0.7 ; use the latest firmware version,G28 W ; home all axes without mesh bed leveling,G80 ; run mesh bed leveling routine,G1 Y-3.0 F1000.0 ; prepare to prime,G92 E0 ; reset extrusion distance,G1 X60.0 E9.0  F1000.0 ; priming,G1 X100.0 E12.5  F1000.0 ; priming
;   layerChangeGcode,
;   retractionGcode,
;   toolChangeGcode,
;   endingGcode,M106 S0 ; turn off cooling fan,M104 S0 ; turn off extruder,M140 S0 ; turn off bed,G1 X0 Y200 ; part removal,M84 ; disable motors
;   exportFileFormat,gcode
;   celebration,0
;   celebrationSong,Random Song
;   postProcessing,
;   defaultSpeed,2400
;   outlineUnderspeed,0.8
;   solidInfillUnderspeed,0.8
;   supportUnderspeed,0.8
;   rapidXYspeed,4800
;   rapidZspeed,1002
;   minBridgingArea,50
;   bridgingExtraInflation,0
;   bridgingExtrusionMultiplier,1
;   bridgingSpeedMultiplier,1
;   useFixedBridgingAngle,0
;   fixedBridgingAngle,0
;   applyBridgingToPerimeters,0
;   filamentDiameters,1.75|1.75|1.75|1.75|1.75|1.75
;   filamentPricesPerKg,46|46|46|46|46|46
;   filamentDensities,1.25|1.25|1.25|1.25|1.25|1.25
;   useMinPrintHeight,0
;   minPrintHeight,0
;   useMaxPrintHeight,0
;   maxPrintHeight,0
;   useDiaphragm,0
;   diaphragmLayerInterval,20
;   robustSlicing,1
;   mergeAllIntoSolid,0
;   onlyRetractWhenCrossingOutline,1
;   retractBetweenLayers,1
;   useRetractionMinTravel,0
;   retractionMinTravel,3
;   retractWhileWiping,1
;   onlyWipeOutlines,1
;   avoidCrossingOutline,0
;   maxMovementDetourFactor,3
;   toolChangeRetractionDistance,12
;   toolChangeExtraRestartDistance,-0.5
;   toolChangeRetractionSpeed,600
;   externalThinWallType,0
;   internalThinWallType,2
;   thinWallAllowedOverlapPercentage,25
;   singleExtrusionMinLength,1
;   singleExtrusionMinPrintingWidthPercentage,50
;   singleExtrusionMaxPrintingWidthPercentage,200
;   singleExtrusionEndpointExtension,0.2
;   horizontalSizeCompensation,0
G90
M82
M106 S0
M140 S60
M190 S60
M104 S200 T0
M109 S200 T0
M115 U3.0.7 ; use the latest firmware version
G28 W ; home all axes without mesh bed leveling
G80 ; run mesh bed leveling routine
G1 Y-3.0 F1000.0 ; prepare to prime
G92 E0 ; reset extrusion distance
G1 X60.0 E9.0  F1000.0 ; priming
G1 X100.0 E12.5  F1000.0 ; priming
; process Process1
; layer 1, Z = 0.750
T0
G92 E0.0000
G1 E-1.5000 F1800
; feature raft
; tool H0.750 W0.800
G1 Z0.750 F1002
G1 X100.871 Y90.266 F4800
G1 E0.0000 F1800
G92 E0.0000
G1 X102.394 Y88.743 E0.5373 F300
G1 X108.382 Y88.743 E2.0309
G1 X109.244 Y88.100 E2.2993
G1 X109.360 Y88.023 E2.3339
G1 X110.392 Y87.413 E2.6331
G1 X110.535 Y87.340 E2.6732
G1 X111.682 Y86.841 E2.9851
G1 X111.820 Y86.790 E3.0219
G1 X112.924 Y86.453 E3.3098
G1 X113.074 Y86.416 E3.3483
G1 X114.258 Y86.203 E3.6484
G1 X114.411 Y86.185 E3.6868
G1 X115.614 Y86.113 E3.9873
G1 X115.768 Y86.113 E4.0259
G1 X116.970 Y86.185 E4.3262
G1 X117.123 Y86.203 E4.3647
G1 X118.308 Y86.416 E4.6650
G1 X118.458 Y86.453 E4.7035
G1 X119.609 Y86.804 E5.0038
G1 X119.754 Y86.858 E5.0423
G1 X120.856 Y87.344 E5.3426
G1 X120.993 Y87.415 E5.3811
G1 X122.022 Y88.023 E5.6795
G1 X122.138 Y88.100 E5.7141
G1 X123.001 Y88.743 E5.9825
G1 X128.988 Y88.743 E7.4761
G1 X130.511 Y90.266 E8.0134
G1 X130.511 Y104.860 E11.6539
G1 X128.988 Y106.383 E12.1912
G1 X123.001 Y106.383 E13.6847
G1 X122.138 Y107.027 E13.9532
G1 X122.022 Y107.104 E13.9878
G1 X120.993 Y107.712 E14.2862
G1 X120.856 Y107.783 E14.3247
G1 X119.754 Y108.269 E14.6250
G1 X119.609 Y108.322 E14.6635
G1 X118.458 Y108.674 E14.9638
G1 X118.308 Y108.711 E15.0023
G1 X117.123 Y108.924 E15.3026
G1 X116.970 Y108.942 E15.3411
G1 X115.768 Y109.013 E15.6414
G1 X115.614 Y109.013 E15.6799
G1 X114.412 Y108.942 E15.9802
G1 X114.259 Y108.924 E16.0187
G1 X113.074 Y108.711 E16.3190
G1 X112.924 Y108.674 E16.3575
G1 X111.773 Y108.322 E16.6578
G1 X111.628 Y108.269 E16.6963
G1 X110.526 Y107.783 E16.9967
G1 X110.389 Y107.712 E17.0353
G1 X109.355 Y107.100 E17.3348
G1 X109.241 Y107.024 E17.3692
G1 X108.381 Y106.383 E17.6365
G1 X102.394 Y106.383 E19.1301
G1 X100.871 Y104.860 E19.6674
G1 X100.871 Y90.466 E23.2579
G1 X100.871 Y90.266 F300
G92 E0.0000
G1 E-1.5000 F1800
G1 X109.108 Y89.000 F4800
G1 E0.0000 F1800
G92 E0.0000
G1 X122.274 Y89.000 E3.2842 F300
G1 X122.788 Y89.383 E3.4442
G1 X128.723 Y89.383 E4.9247
G1 X129.871 Y90.532 E5.3297
G1 X129.871 Y91.286 E5.5178
G1 X101.511 Y91.286 E12.5922
G1 X101.511 Y93.571 E13.1624
G1 X129.871 Y93.571 E20.2368
G1 X129.871 Y95.857 E20.8070
G1 X101.511 Y95.857 E27.8814
G1 X101.511 Y98.143 E28.4516
G1 X129.871 Y98.143 E35.5261
G1 X129.871 Y100.429 E36.0962
G1 X101.511 Y100.429 E43.1707
G1 X101.511 Y102.714 E43.7408
G1 X129.871 Y102.714 E50.8153
G1 X129.871 Y104.595 E51.2845
G1 X129.466 Y105.000 E51.4272
G1 X101.916 Y105.000 E58.2998
G1 X102.659 Y105.743 E58.5620
G1 X108.594 Y105.743 E60.0424
G1 X109.610 Y106.501 E60.3585
G1 X109.696 Y106.558 E60.3844
G1 X110.698 Y107.151 E60.6749
G1 X110.802 Y107.205 E60.7040
G1 X110.985 Y107.286 E60.7540
G1 X120.197 Y107.286 E63.0518
G1 X120.397 Y107.286 F300
G92 E0.0000
G1 E-1.5000 F1800
G1 X119.488 Y112.281 F4800
G1 E0.0000 F1800
G92 E0.0000
G1 X121.011 Y113.804 E0.5373 F300
G1 X121.011 Y120.398 E2.1822
G1 X120.670 Y120.739 E2.3026
G1 X120.632 Y121.717 E2.5468
G1 X118.178 Y124.212 E3.4197
G1 X117.214 Y124.617 E3.6805
G1 X115.168 Y124.617 E4.1909
G1 X114.204 Y124.212 E4.4517
G1 X111.750 Y121.717 E5.3246
G1 X111.713 Y120.739 E5.5688
G1 X111.191 Y120.218 E5.7527
G1 X110.670 Y120.739 E5.9367
G1 X110.632 Y121.717 E6.1809
G1 X108.178 Y124.212 E7.0538
G1 X107.214 Y124.617 E7.3146
G1 X105.168 Y124.617 E7.8249
G1 X104.204 Y124.212 E8.0858
G1 X101.750 Y121.717 E8.9587
G1 X101.713 Y120.739 E9.2029
G1 X101.371 Y120.398 E9.3233
G1 X101.371 Y113.804 E10.9682
G1 X102.894 Y112.281 E11.5055
G1 X109.488 Y112.281 E13.1503
G1 X111.191 Y113.984 E13.7511
G1 X112.894 Y112.281 E14.3519
G1 X119.288 Y112.281 E15.9469
G1 X119.488 Y112.281 F300
G92 E0.0000
G1 E-1.5000 F1800
G1 X118.192 Y123.286 F4800
G1 E0.0000 F1800
G92 E0.0000
G1 X114.390 Y123.286 E0.9483 F300
G1 X114.190 Y123.286 F300
G92 E0.0000
G1 E-1.5000 F1800
G1 X108.192 Y123.286 F4800
G1 E0.0000 F1800
G92 E0.0000
G1 X104.190 Y123.286 E0.9982 F300
G1 X102.380 Y121.445 E1.6421
G1 X102.363 Y121.000 E1.7532
G1 X110.019 Y121.000 E3.6630
G1 X110.040 Y120.464 E3.7969
G1 X111.191 Y119.312 E4.2030
G1 X112.342 Y120.464 E4.6092
G1 X112.363 Y121.000 E4.7430
G1 X120.019 Y121.000 E6.6528
G1 X120.040 Y120.464 E6.7867
G1 X120.371 Y120.132 E6.9036
G1 X120.371 Y118.714 E7.2573
G1 X102.011 Y118.714 E11.8372
G1 X102.011 Y116.429 E12.4074
G1 X120.371 Y116.429 E16.9873
G1 X120.371 Y114.143 E17.5575
G1 X111.937 Y114.143 E19.6614
G1 X111.191 Y114.889 E19.9245
G1 X110.445 Y114.143 E20.1877
G1 X102.211 Y114.143 E22.2417
G1 X102.011 Y114.143 F300
G92 E0.0000
G1 E-1.5000 F1800
G1 X132.797 Y97.651 F4800
G1 E0.0000 F1800
G92 E0.0000
G1 X132.413 Y96.890 E0.2126 F300
G1 X132.345 Y96.731 E0.2556
G1 X132.064 Y95.922 E0.4694
G1 X132.017 Y95.751 E0.5136
G1 X131.844 Y94.887 E0.7333
G1 X131.821 Y94.717 E0.7763
G1 X131.765 Y93.877 E0.9862
G1 X131.765 Y93.705 E1.0291
G1 X131.822 Y92.854 E1.2420
G1 X131.845 Y92.682 E1.2851
G1 X132.014 Y91.845 E1.4981
G1 X132.060 Y91.676 E1.5418
G1 X132.348 Y90.845 E1.7614
G1 X132.417 Y90.683 E1.8051
G1 X132.803 Y89.921 E2.0183
G1 X132.891 Y89.772 E2.0614
G1 X133.375 Y89.068 E2.2745
G1 X133.483 Y88.931 E2.3181
G1 X134.069 Y88.284 E2.5356
G1 X134.194 Y88.163 E2.5791
G1 X134.847 Y87.613 E2.7922
G1 X134.986 Y87.510 E2.8352
G1 X135.705 Y87.051 E3.0482
G1 X135.857 Y86.968 E3.0913
G1 X136.631 Y86.608 E3.3042
G1 X136.792 Y86.546 E3.3473
G1 X137.608 Y86.291 E3.5605
G1 X137.778 Y86.251 E3.6041
G1 X138.637 Y86.105 E3.8214
G1 X138.810 Y86.087 E3.8648
G1 X139.661 Y86.058 E4.0772
G1 X139.834 Y86.064 E4.1204
G1 X140.682 Y86.148 E4.3330
G1 X140.854 Y86.176 E4.3764
G1 X141.715 Y86.380 E4.5971
G1 X141.889 Y86.434 E4.6426
G1 X142.708 Y86.755 E4.8620
G1 X142.860 Y86.825 E4.9038
G1 X143.584 Y87.222 E5.1097
G1 X143.729 Y87.315 E5.1527
G1 X144.417 Y87.821 E5.3658
G1 X144.551 Y87.934 E5.4096
G1 X145.185 Y88.546 E5.6294
G1 X145.302 Y88.677 E5.6731
G1 X145.829 Y89.345 E5.8856
G1 X145.927 Y89.487 E5.9284
G1 X146.349 Y90.200 E6.1351
G1 X146.486 Y90.469 E6.2103
G1 X147.279 Y90.461 E6.4082
G1 X148.820 Y91.987 E6.9492
G1 X148.820 Y96.588 E8.0970
G1 X147.297 Y98.111 E8.6343
G1 X145.929 Y98.111 E8.9756
G1 X145.302 Y98.907 E9.2282
G1 X145.185 Y99.036 E9.2718
G1 X144.554 Y99.647 E9.4908
G1 X144.420 Y99.760 E9.5346
G1 X143.731 Y100.266 E9.7478
G1 X143.586 Y100.359 E9.7909
G1 X142.835 Y100.771 E10.0044
G1 X142.674 Y100.845 E10.0486
G1 X141.852 Y101.159 E10.2680
G1 X141.689 Y101.210 E10.3106
G1 X140.885 Y101.401 E10.5168
G1 X140.715 Y101.430 E10.5598
G1 X139.853 Y101.518 E10.7761
G1 X139.678 Y101.524 E10.8197
G1 X138.811 Y101.496 E11.0360
G1 X138.637 Y101.478 E11.0796
G1 X137.796 Y101.336 E11.2926
G1 X137.628 Y101.296 E11.3357
G1 X136.811 Y101.044 E11.5488
G1 X136.648 Y100.981 E11.5925
G1 X135.849 Y100.610 E11.8122
G1 X135.696 Y100.526 E11.8558
G1 X134.976 Y100.065 E12.0690
G1 X134.837 Y99.963 E12.1121
G1 X134.185 Y99.411 E12.3252
G1 X134.059 Y99.289 E12.3690
G1 X133.475 Y98.641 E12.5865
G1 X133.367 Y98.505 E12.6299
G1 X132.900 Y97.822 E12.8362
G1 X132.885 Y97.800 F300
G1 X132.797 Y97.651
G92 E0.0000
G1 E-1.5000 F1800
G1 X141.971 Y100.429 F4800
G1 E0.0000 F1800
G92 E0.0000
G1 X136.994 Y100.429 E1.2417 F300
G1 X136.897 Y100.391 E1.2675
G1 X136.138 Y100.039 E1.4762
G1 X136.023 Y99.975 E1.5092
G1 X135.339 Y99.538 E1.7117
G1 X135.234 Y99.461 E1.7441
G1 X134.614 Y98.936 E1.9466
G1 X134.519 Y98.844 E1.9796
G1 X133.964 Y98.229 E2.1864
G1 X133.897 Y98.143 E2.2136
G1 X145.089 Y98.143 E5.0055
G1 X145.618 Y97.471 E5.2188
G1 X147.032 Y97.471 E5.5714
G1 X148.180 Y96.323 E5.9765
G1 X148.180 Y95.857 E6.0927
G1 X132.719 Y95.857 E9.9495
G1 X132.676 Y95.732 E9.9825
G1 X132.640 Y95.603 E10.0158
G1 X132.475 Y94.782 E10.2248
G1 X132.458 Y94.653 E10.2571
G1 X132.405 Y93.856 E10.4565
G1 X132.405 Y93.726 E10.4889
G1 X132.416 Y93.571 E10.5276
G1 X148.180 Y93.571 E14.4600
G1 X148.180 Y92.254 E14.7887
G1 X147.202 Y91.286 E15.1319
G1 X132.873 Y91.286 E18.7064
G1 X132.946 Y91.075 E18.7621
G1 X132.998 Y90.953 E18.7951
G1 X133.364 Y90.229 E18.9976
G1 X133.431 Y90.117 E19.0301
G1 X133.890 Y89.448 E19.2325
G1 X133.972 Y89.344 E19.2655
G1 X134.284 Y89.000 E19.3813
G1 X144.732 Y89.000 E21.9877
G1 X144.724 Y88.991 E21.9906
G1 X144.122 Y88.409 E22.1996
G1 X144.021 Y88.324 E22.2326
G1 X143.367 Y87.843 E22.4350
G1 X143.258 Y87.773 E22.4674
G1 X142.570 Y87.397 E22.6629
G1 X142.456 Y87.343 E22.6944
G1 X141.677 Y87.039 E22.9031
G1 X141.546 Y86.998 E22.9373
G1 X140.727 Y86.804 E23.1471
G1 X140.598 Y86.782 E23.1799
G1 X139.910 Y86.714 E23.3522
G1 X139.401 Y86.714 E23.4791
G1 X139.201 Y86.714 F300
G92 E0.0000
G1 E-1.5000 F1800
; layer 2, Z = 1.250
M106 S255
; tool H0.500 W0.800
G1 Z1.250 F1002
G1 X138.810 Y86.087 F4800
G1 E0.0000 F1800
G92 E0.0000
G1 X139.661 Y86.058 E0.1417 F600
G1 X139.834 Y86.064 E0.1704
G1 X140.682 Y86.148 E0.3122
G1 X140.854 Y86.176 E0.3411
G1 X141.715 Y86.380 E0.4882
G1 X141.889 Y86.434 E0.5186
G1 X142.708 Y86.755 E0.6648
G1 X142.860 Y86.825 E0.6927
G1 X143.584 Y87.222 E0.8300
G1 X143.729 Y87.315 E0.8586
G1 X144.417 Y87.821 E1.0007
G1 X144.551 Y87.934 E1.0299
G1 X145.185 Y88.546 E1.1764
G1 X145.302 Y88.677 E1.2056
G1 X145.829 Y89.345 E1.3472
G1 X145.927 Y89.487 E1.3758
G1 X146.349 Y90.200 E1.5135
G1 X146.486 Y90.469 E1.5637
G1 X147.279 Y90.461 E1.6956
G1 X148.820 Y91.987 E2.0563
G1 X148.820 Y96.588 E2.8215
G1 X147.297 Y98.111 E3.1797
G1 X145.929 Y98.111 E3.4072
G1 X145.302 Y98.907 E3.5756
G1 X145.185 Y99.036 E3.6047
G1 X144.554 Y99.647 E3.7507
G1 X144.420 Y99.760 E3.7799
G1 X143.731 Y100.266 E3.9220
G1 X143.586 Y100.359 E3.9508
G1 X142.835 Y100.771 E4.0931
G1 X142.674 Y100.845 E4.1225
G1 X141.852 Y101.159 E4.2688
G1 X141.689 Y101.210 E4.2972
G1 X140.885 Y101.401 E4.4347
G1 X140.715 Y101.430 E4.4633
G1 X139.853 Y101.518 E4.6076
G1 X139.678 Y101.524 E4.6366
G1 X138.811 Y101.496 E4.7808
G1 X138.637 Y101.478 E4.8099
G1 X137.796 Y101.336 E4.9519
G1 X137.628 Y101.296 E4.9806
G1 X136.811 Y101.044 E5.1227
G1 X136.648 Y100.981 E5.1518
G1 X135.849 Y100.610 E5.2983
G1 X135.696 Y100.526 E5.3274
G1 X134.976 Y100.065 E5.4695
