; generated by PrusaSlicer 2.2.0+win64 on 2020-12-28 at 21:26:35 UTC

; 

; external perimeters extrusion width = 0.45mm
; perimeters extrusion width = 0.45mm
; infill extrusion width = 0.45mm
; solid infill extrusion width = 0.45mm
; top infill extrusion width = 0.40mm
; support material extrusion width = 0.35mm
; first layer extrusion width = 0.42mm

M73 P0 R58
M201 X9000 Y9000 Z500 E10000 ; sets maximum accelerations, mm/sec^2
M203 X500 Y500 Z12 E120 ; sets maximum feedrates, mm/sec
M204 P2000 R1500 T2000 ; sets acceleration (P, T) and retract acceleration (R), mm/sec^2
M205 X10.00 Y10.00 Z0.20 E2.50 ; sets the jerk limits, mm/sec
M205 S0 T0 ; sets the minimum extruding and travel feed rate, mm/sec
M107
M862.3 P "MK2S" ; printer model check
M862.1 P0.4 ; nozzle diameter check
M115 U3.2.3 ; tell printer latest fw version
G90 ; use absolute coordinates
M83 ; extruder relative mode
M204 S2000 T1500 ; MK2 firmware only supports the old M204 format
M104 S215 ; set extruder temp
M140 S60 ; set bed temp
M190 S60 ; wait for bed temp
M109 S215 ; wait for extruder temp
G28 W ; home all without mesh bed level
G80 ; mesh bed leveling
G1 Y-3.0 F1000.0 ; go outside print area
G92 E0.0
G1 X60.0 E9.0  F1000.0 ; intro line
M73 P0 R58
G1 X100.0 E12.5 F1000.0 ; intro line
G92 E0.0
G21 ; set units to millimeters
G90 ; use absolute coordinates
M83 ; use relative distances for extrusion
M900 K0.06 ; Filament gcode LA 1.5
M900 K30 ; Filament gcode LA 1.0
;BEFORE_LAYER_CHANGE
G92 E0.0
;0.2


G1 E-0.80000 F2100.00000
G1 Z0.600 F10800.000
;AFTER_LAYER_CHANGE
;0.2
G1 X118.716 Y91.020
G1 Z0.200
G1 E0.80000 F2100.00000
M204 S1000
G1 F1200.000
G1 X107.877 Y101.858 E0.48059
G1 X108.411 Y102.392 E0.02365
G1 X119.129 Y91.673 E0.47527
G1 X119.662 Y92.207 E0.02365
G1 X108.824 Y103.045 E0.48059
G1 E-0.80000 F2100.00000
G1 Z0.800 F10800.000
G1 X119.882 Y100.078
G1 Z0.200
G1 E0.80000 F2100.00000
G1 F1200.000
G1 X121.329 Y98.631 E0.05225
G1 X120.612 Y98.631 E0.01831
G1 X119.622 Y99.622 E0.03577
G1 X119.263 Y99.263 E0.01295
G1 X119.895 Y98.631 E0.02282
G1 X119.178 Y98.631 E0.01831
G1 X118.904 Y98.905 E0.00988
G1 X118.546 Y98.546 E0.01295
G1 X118.672 Y98.419 E0.00457
G1 X118.520 Y97.954 E0.01251
G1 X119.653 Y97.098 E0.03626
G1 X120.097 Y96.834 E0.01317
G1 X119.819 Y96.556 E0.01003
G1 X118.187 Y98.187 E0.05891
G1 X117.829 Y97.829 E0.01295
G1 X119.460 Y96.197 E0.05891
G1 X119.102 Y95.839 E0.01295
G1 X117.470 Y97.470 E0.05891
G1 X117.112 Y97.112 E0.01295
G1 X118.841 Y95.383 E0.06244
G1 X121.945 Y96.323 F10800.000
G1 F1200.000
G1 X122.862 Y95.406 E0.04067
G1 X122.329 Y94.873 E0.02365
G1 X120.474 Y96.727 E0.08224
G1 X119.941 Y96.194 E0.02365
G1 X121.795 Y94.340 E0.08224
G1 X121.262 Y93.806 E0.02365
G1 X119.407 Y95.661 E0.08224
G1 X118.874 Y95.128 E0.02365
G1 X120.729 Y93.273 E0.08224
G1 X120.196 Y92.740 E0.02365
G1 X107.846 Y105.090 E0.54761
G1 X108.379 Y105.623 E0.02365
G1 X116.759 Y97.243 E0.37158
G1 X117.292 Y97.776 E0.02365
G1 X108.912 Y106.156 E0.37158
G1 X109.388 Y106.631 E0.02107
G1 X107.756 Y108.263 E0.07234
G1 X107.814 Y108.321 E0.00257
G1 X117.826 Y98.309 E0.44392
G1 X118.359 Y98.843 E0.02365
G1 X108.347 Y108.854 E0.44392
G1 X108.881 Y109.387 E0.02365
G1 X118.892 Y99.376 E0.44392
G1 X119.425 Y99.909 E0.02365
G1 X109.414 Y109.921 E0.44392
G1 X109.947 Y110.454 E0.02365
G1 X119.959 Y100.442 E0.44392
G1 X120.106 Y100.590 E0.00653
G1 X122.030 Y98.666 E0.08530
G1 X122.802 Y98.666 E0.02421
G1 X110.481 Y110.987 E0.54634
G1 X111.014 Y111.520 E0.02365
G1 X123.952 Y98.582 E0.57370
G1 X124.495 Y98.497 E0.01722
G1 X125.103 Y98.497 E0.01908
G1 X111.427 Y112.174 E0.60643
G1 X114.093 Y114.840 F10800.000
G1 F1200.000
G1 X123.301 Y105.633 E0.40826
G1 X122.767 Y105.100 E0.02365
G1 X113.680 Y114.187 E0.40294
G1 X113.147 Y113.653 E0.02365
G1 X123.865 Y102.935 E0.47527
G1 X123.332 Y102.402 E0.02365
G1 X112.614 Y113.120 E0.47527
G1 X112.080 Y112.587 E0.02365
G1 X122.799 Y101.868 E0.47527
G1 X122.668 Y101.737 E0.00582
G1 X125.000 Y99.405 E0.10342
G1 X125.131 Y99.536 E0.00582
G1 X126.080 Y98.587 E0.04208
G1 X126.564 Y98.663 E0.01536
G1 X127.068 Y98.666 E0.01579
G1 X125.664 Y100.069 E0.06223
G1 X126.198 Y100.603 E0.02365
G1 X128.052 Y98.748 E0.08224
G1 X128.586 Y99.281 E0.02365
G1 X126.731 Y101.136 E0.08224
G1 X127.264 Y101.669 E0.02365
G1 X129.119 Y99.815 E0.08224
G1 X129.652 Y100.348 E0.02365
G1 X126.046 Y103.954 E0.15989
G1 E-0.80000 F2100.00000
G1 Z0.800 F10800.000
G1 X131.820 Y95.311
G1 Z0.200
G1 E0.80000 F2100.00000
G1 F1200.000
G1 X130.151 Y96.980 E0.06027
G1 X130.347 Y97.098 E0.00582
G1 X130.576 Y97.273 E0.00736
G1 X132.081 Y95.768 E0.05436
G1 X132.440 Y96.126 E0.01295
G1 X130.982 Y97.584 E0.05263
G1 X131.393 Y97.890 E0.01308
G1 X132.798 Y96.485 E0.05076
G1 X133.157 Y96.843 E0.01295
G1 X129.796 Y100.204 E0.12135
G1 X129.438 Y99.845 F10800.000
G1 F1200.000
G1 X130.652 Y98.631 E0.04384
G1 X129.935 Y98.631 E0.01831
G1 X129.177 Y99.389 E0.02736
G1 X128.818 Y99.030 E0.01295
G1 X129.218 Y98.631 E0.01442
G1 X128.500 Y98.631 E0.01831
G1 X128.362 Y98.769 E0.00500
G1 X127.460 Y96.141 F10800.000
G1 F1200.000
G1 X132.054 Y91.547 E0.20371
G1 X132.587 Y92.080 E0.02365
G1 X128.399 Y96.269 E0.18571
G1 X129.139 Y96.595 E0.02536
G1 X133.120 Y92.614 E0.17654
G1 X133.653 Y93.147 E0.02365
G1 X131.799 Y95.002 E0.08224
G1 X132.332 Y95.535 E0.02365
G1 X134.187 Y93.680 E0.08224
G1 X134.720 Y94.213 E0.02365
G1 X132.865 Y96.068 E0.08224
G1 X133.399 Y96.601 E0.02365
G1 X135.253 Y94.747 E0.08224
G1 X135.787 Y95.280 E0.02365
G1 X126.699 Y104.367 E0.40294
G1 X127.233 Y104.900 E0.02365
G1 X136.320 Y95.813 E0.40294
G1 X136.853 Y96.347 E0.02365
G1 X126.135 Y107.065 E0.47527
G1 X126.668 Y107.598 E0.02365
G1 X137.386 Y96.880 E0.47527
G1 X137.920 Y97.413 E0.02365
G1 X127.081 Y108.251 E0.48059
G1 X130.118 Y109.922 F10800.000
G1 F1200.000
G1 X128.671 Y111.369 E0.05225
G1 X129.388 Y111.369 E0.01831
G1 X130.378 Y110.378 E0.03577
G1 X130.737 Y110.737 E0.01295
G1 X130.105 Y111.369 E0.02282
G1 X130.822 Y111.369 E0.01831
G1 X131.096 Y111.095 E0.00988
G1 X131.454 Y111.454 E0.01295
G1 X131.328 Y111.581 E0.00457
G1 X131.480 Y112.046 E0.01251
G1 X130.347 Y112.902 E0.03626
G1 X129.904 Y113.166 E0.01317
G1 X130.181 Y113.444 E0.01003
G1 X131.813 Y111.813 E0.05891
G1 X132.171 Y112.171 E0.01295
G1 X130.540 Y113.803 E0.05891
G1 X130.898 Y114.161 E0.01295
G1 X132.530 Y112.530 E0.05891
G1 X132.888 Y112.888 E0.01295
G1 X131.159 Y114.617 E0.06244
G1 X133.121 Y112.877 F10800.000
G1 F1200.000
G1 X141.621 Y104.377 E0.37690
G1 X141.088 Y103.844 E0.02365
G1 X132.708 Y112.224 E0.37158
G1 X132.174 Y111.691 E0.02365
G1 X142.186 Y101.679 E0.44392
G1 X141.653 Y101.146 E0.02365
G1 X131.641 Y111.157 E0.44392
G1 X131.108 Y110.624 E0.02365
G1 X141.119 Y100.613 E0.44392
G1 X140.586 Y100.079 E0.02365
G1 X130.575 Y110.091 E0.44392
G1 X130.041 Y109.558 E0.02365
G1 X140.053 Y99.546 E0.44392
G1 X139.519 Y99.013 E0.02365
G1 X127.198 Y111.334 E0.54634
G1 X126.605 Y111.334 E0.01861
G1 X126.048 Y111.418 E0.01766
G1 X138.986 Y98.480 E0.57370
G1 X138.453 Y97.946 E0.02365
G1 X124.897 Y111.503 E0.60111
G1 X124.495 Y111.503 E0.01260
G1 X123.920 Y111.413 E0.01824
G1 X124.869 Y110.464 E0.04208
G1 X124.336 Y109.931 E0.02365
G1 X122.932 Y111.334 E0.06223
G1 X122.030 Y111.334 E0.02830
G1 X121.948 Y111.252 E0.00364
G1 X123.802 Y109.397 E0.08224
G1 X123.269 Y108.864 E0.02365
G1 X121.414 Y110.719 E0.08224
G1 X120.881 Y110.185 E0.02365
G1 X122.736 Y108.331 E0.08224
G1 X122.668 Y108.263 E0.00302
G1 X124.299 Y106.631 E0.07234
G1 X123.834 Y106.166 E0.02063
G1 X120.348 Y109.652 E0.15457
G1 X120.106 Y109.410 E0.01073
G1 X116.359 Y113.157 E0.16613
G1 X116.601 Y113.399 E0.01073
G1 X114.747 Y115.253 E0.08224
G1 X115.280 Y115.787 E0.02365
G1 X117.135 Y113.932 E0.08224
G1 X117.668 Y114.465 E0.02365
G1 X115.813 Y116.320 E0.08224
G1 X116.347 Y116.853 E0.02365
G1 X118.201 Y114.998 E0.08224
G1 X118.475 Y115.272 E0.01212
G1 X120.521 Y113.226 E0.09073
G1 X120.861 Y113.405 E0.01206
G1 X116.880 Y117.386 E0.17654
G1 X117.413 Y117.920 E0.02365
G1 X121.601 Y113.731 E0.18571
G1 X121.747 Y113.794 E0.00496
G1 X122.405 Y113.995 E0.02157
G1 X117.826 Y118.573 E0.20301
G1 X118.180 Y114.689 F10800.000
G1 F1200.000
G1 X119.849 Y113.020 E0.06027
G1 X119.653 Y112.902 E0.00582
G1 X119.424 Y112.727 E0.00736
G1 X117.919 Y114.232 E0.05436
G1 X117.560 Y113.874 E0.01295
G1 X119.018 Y112.416 E0.05263
G1 X118.607 Y112.110 E0.01308
G1 X117.202 Y113.515 E0.05076
G1 X116.843 Y113.157 E0.01295
G1 X120.106 Y109.894 E0.11782
G1 X120.465 Y110.253 E0.01295
G1 X119.348 Y111.369 E0.04031
G1 X120.065 Y111.369 E0.01831
G1 X120.823 Y110.611 E0.02737
G1 X121.182 Y110.970 E0.01295
G1 X120.782 Y111.369 E0.01442
G1 X121.500 Y111.369 E0.01831
G1 X121.638 Y111.231 E0.00500
G1 E-0.80000 F2100.00000
G1 Z0.800 F10800.000
G1 X128.055 Y113.677
G1 Z0.200
G1 E0.80000 F2100.00000
G1 F1200.000
G1 X127.138 Y114.594 E0.04067
G1 X127.671 Y115.127 E0.02365
G1 X129.526 Y113.272 E0.08224
G1 X130.059 Y113.806 E0.02365
G1 X128.205 Y115.660 E0.08224
G1 X128.738 Y116.194 E0.02365
G1 X130.593 Y114.339 E0.08224
G1 X131.126 Y114.872 E0.02365
G1 X129.271 Y116.727 E0.08224
G1 X129.804 Y117.260 E0.02365
G1 X142.154 Y104.910 E0.54761
G1 X142.244 Y105.000 E0.00397
G1 X140.612 Y106.631 E0.07234
G1 X141.056 Y107.075 E0.01967
G1 X130.338 Y117.793 E0.47527
G1 X130.871 Y118.327 E0.02365
G1 X141.589 Y107.608 E0.47527
G1 X142.123 Y108.142 E0.02365
G1 X131.284 Y118.980 E0.48059
G1 E-0.80000 F2100.00000
G1 Z0.800 F10800.000
G1 X126.671 Y97.553
G1 Z0.200
G1 E0.80000 F2100.00000
G1 F1200.000
G1 X125.592 Y97.384 E0.03425
G1 X124.408 Y97.384 E0.03711
G1 X123.329 Y97.553 E0.03425
G1 X121.893 Y97.553 E0.04504
G1 X121.855 Y97.373 E0.00575
G1 X122.121 Y97.256 E0.00911
G1 X123.058 Y96.970 E0.03072
G1 X124.022 Y96.796 E0.03072
G1 X125.000 Y96.738 E0.03072
G1 X125.931 Y96.793 E0.02926
G1 X126.944 Y96.970 E0.03222
G1 X127.879 Y97.256 E0.03067
G1 X128.145 Y97.373 E0.00911
G1 X128.107 Y97.553 E0.00575
G1 X126.731 Y97.553 E0.04316
G1 X126.642 Y97.930 F10800.000
G1 F1200.000
G1 X125.562 Y97.761 E0.03425
G1 X124.438 Y97.761 E0.03527
G1 X123.358 Y97.930 E0.03425
G1 X120.339 Y97.930 E0.09466
G1 X120.294 Y97.763 E0.00541
G1 X121.051 Y97.316 E0.02759
G1 X121.989 Y96.902 E0.03213
G1 X122.969 Y96.603 E0.03213
G1 X123.977 Y96.421 E0.03213
G1 X125.000 Y96.360 E0.03213
G1 X125.975 Y96.418 E0.03063
G1 X127.032 Y96.603 E0.03363
G1 X128.011 Y96.902 E0.03211
G1 X128.949 Y97.316 E0.03213
G1 X129.706 Y97.763 E0.02759
G1 X129.661 Y97.930 E0.00541
G1 X126.702 Y97.930 E0.09278
G1 X126.472 Y97.568 F10800.000
G1 X127.018 Y97.279
G1 F1200.000
G1 X127.445 Y97.343 E0.00327
G1 X127.018 Y97.279 F10800.000
G1 F1200.000
G1 X125.895 Y97.110 E0.02014
G1 X125.606 Y97.079 E0.00514
G1 X125.000 Y97.061 E0.01076
G1 X124.394 Y97.079 E0.01076
G1 X124.060 Y97.115 E0.00595
G1 X122.984 Y97.279 E0.01929
G1 X122.841 Y97.300 E0.00208
G1 X122.698 Y97.322 E0.00159
G1 X122.555 Y97.343 E0.00110
G1 E-0.80000 F2100.00000
G1 Z0.800 F10800.000
G1 X125.000 Y113.262
G1 Z0.200
G1 E0.80000 F2100.00000
G1 F1200.000
G1 X124.022 Y113.204 E0.03072
G1 X123.058 Y113.030 E0.03072
G1 X122.121 Y112.744 E0.03072
G1 X121.856 Y112.627 E0.00907
G1 X121.894 Y112.448 E0.00576
G1 X123.334 Y112.448 E0.04515
G1 X124.408 Y112.616 E0.03410
G1 X125.592 Y112.616 E0.03711
G1 X126.671 Y112.447 E0.03425
G1 X128.107 Y112.447 E0.04504
G1 X128.145 Y112.627 E0.00575
G1 X127.879 Y112.744 E0.00911
G1 X126.942 Y113.030 E0.03072
G1 X125.978 Y113.204 E0.03072
G1 X125.060 Y113.258 E0.02884
G1 X125.000 Y113.640 F10800.000
G1 F1200.000
G1 X123.977 Y113.579 E0.03213
G1 X122.969 Y113.397 E0.03213
G1 X121.989 Y113.098 E0.03213
G1 X121.051 Y112.684 E0.03213
G1 X120.294 Y112.237 E0.02758
G1 X120.340 Y112.070 E0.00541
G1 X123.363 Y112.071 E0.09479
G1 X124.438 Y112.239 E0.03410
G1 X125.562 Y112.239 E0.03527
G1 X126.642 Y112.070 E0.03425
G1 X129.661 Y112.070 E0.09466
G1 X129.706 Y112.237 E0.00541
G1 X128.949 Y112.684 E0.02759
G1 X128.011 Y113.098 E0.03213
G1 X127.031 Y113.397 E0.03213
G1 X126.023 Y113.579 E0.03213
G1 X125.060 Y113.636 E0.03025
G1 X124.800 Y113.293 F10800.000
G1 X127.016 Y112.721
G1 F1200.000
G1 X125.940 Y112.885 E0.01936
G1 X125.606 Y112.921 E0.00597
G1 X125.000 Y112.939 E0.01079
G1 X124.394 Y112.921 E0.01079
G1 X124.060 Y112.885 E0.00597
G1 X122.985 Y112.722 E0.01935
G1 X122.842 Y112.700 E0.00207
G1 X122.700 Y112.679 E0.00158
G1 X122.557 Y112.658 E0.00109
G1 X127.016 Y112.721 F10800.000
G1 F1200.000
G1 X127.445 Y112.657 E0.00329
M106 S255
;BEFORE_LAYER_CHANGE
G92 E0.0
;0.3


G1 E-0.80000 F2100.00000
G1 Z0.800 F10800.000
;AFTER_LAYER_CHANGE
;0.3
M104 S210 ; set temperature
G1 X130.118 Y109.922
G1 Z0.300
G1 E0.80000 F2100.00000
G1 F900
G1 X128.671 Y111.369 E0.02795
G1 X129.388 Y111.369 E0.00980
G1 X130.378 Y110.378 E0.01914
G1 X130.737 Y110.737 E0.00693
G1 X130.105 Y111.369 E0.01221
G1 X130.822 Y111.369 E0.00980
G1 X131.096 Y111.095 E0.00528
G1 X131.454 Y111.454 E0.00693
G1 X131.328 Y111.581 E0.00244
G1 X131.480 Y112.046 E0.00669
G1 X130.347 Y112.902 E0.01940
G1 X129.904 Y113.166 E0.00705
G1 X130.181 Y113.444 E0.00537
G1 X133.444 Y110.181 E0.06303
G1 X133.803 Y110.540 E0.00693
G1 X130.540 Y113.803 E0.06303
G1 X130.898 Y114.161 E0.00693
G1 X134.161 Y110.898 E0.06303
G1 X134.520 Y111.257 E0.00693
G1 X131.159 Y114.617 E0.06491
G1 X134.908 Y111.406 F10800.000
G1 F900
G1 X138.051 Y108.263 E0.06072
G1 X136.419 Y106.631 E0.03151
G1 X138.051 Y105.000 E0.03151
G1 X133.374 Y109.677 E0.09034
G1 X133.157 Y109.460 E0.00419
G1 X131.525 Y111.091 E0.03151
G1 X130.111 Y109.677 E0.02732
G1 X138.051 Y101.737 E0.15337
G1 X136.419 Y100.106 E0.03151
G1 X129.894 Y106.631 E0.12605
G1 X131.525 Y105.000 E0.03151
G1 X129.894 Y103.369 E0.03151
G1 X133.037 Y100.225 E0.06072
G1 X132.862 Y100.007 F10800.000
G1 F900
G1 X134.591 Y98.277 E0.03340
G1 X134.232 Y97.919 E0.00693
G1 X132.601 Y99.550 E0.03151
G1 X132.243 Y99.192 E0.00693
G1 X133.874 Y97.560 E0.03151
G1 X133.515 Y97.202 E0.00693
G1 X131.884 Y98.833 E0.03151
G1 X131.525 Y98.475 E0.00693
G1 X129.894 Y100.106 E0.03151
G1 X133.157 Y96.843 E0.06303
G1 X132.798 Y96.485 E0.00693
G1 X131.393 Y97.890 E0.02715
M73 P1 R57
G1 X130.982 Y97.584 E0.00700
G1 X132.440 Y96.126 E0.02815
G1 X132.081 Y95.768 E0.00693
G1 X130.576 Y97.273 E0.02908
G1 X130.347 Y97.098 E0.00394
G1 X130.151 Y96.980 E0.00311
G1 X131.820 Y95.311 E0.03224
G1 X128.362 Y98.769 F10800.000
G1 F900
G1 X128.500 Y98.631 E0.00267
G1 X129.218 Y98.631 E0.00980
G1 X128.818 Y99.030 E0.00771
G1 X129.177 Y99.389 E0.00693
G1 X129.935 Y98.631 E0.01464
G1 X130.652 Y98.631 E0.00980
G1 X129.438 Y99.845 E0.02345
G1 E-0.80000 F2100.00000
G1 Z0.900 F10800.000
G1 X119.882 Y100.078
G1 Z0.300
G1 E0.80000 F2100.00000
G1 F900
G1 X121.329 Y98.631 E0.02795
G1 X120.612 Y98.631 E0.00980
G1 X119.622 Y99.622 E0.01914
G1 X119.263 Y99.263 E0.00693
G1 X119.895 Y98.631 E0.01221
G1 X119.178 Y98.631 E0.00980
G1 X118.904 Y98.905 E0.00528
G1 X118.546 Y98.546 E0.00693
G1 X118.672 Y98.419 E0.00244
G1 X118.520 Y97.954 E0.00669
G1 X119.653 Y97.098 E0.01940
G1 X120.097 Y96.834 E0.00705
G1 X119.819 Y96.556 E0.00537
G1 X116.556 Y99.819 E0.06303
G1 X116.197 Y99.460 E0.00693
G1 X119.460 Y96.197 E0.06303
G1 X119.102 Y95.839 E0.00693
G1 X115.839 Y99.102 E0.06303
G1 X115.480 Y98.743 E0.00693
G1 X118.841 Y95.383 E0.06491
G1 X115.092 Y98.594 F10800.000
G1 F900
G1 X111.949 Y101.737 E0.06072
G1 X113.581 Y103.369 E0.03151
G1 X111.949 Y105.000 E0.03151
G1 X116.626 Y100.323 E0.09034
G1 X116.843 Y100.540 E0.00419
G1 X118.475 Y98.909 E0.03151
G1 X119.889 Y100.323 E0.02732
G1 X111.949 Y108.263 E0.15337
G1 X113.581 Y109.894 E0.03151
G1 X120.106 Y103.369 E0.12605
G1 X118.475 Y105.000 E0.03151
G1 X120.106 Y106.631 E0.03151
G1 X116.963 Y109.775 E0.06072
G1 X115.311 Y111.820 F10800.000
G1 F900
G1 X117.040 Y110.091 E0.03340
G1 X117.399 Y110.450 E0.00693
G1 X115.768 Y112.081 E0.03151
G1 X116.126 Y112.440 E0.00693
G1 X117.758 Y110.808 E0.03151
G1 X118.116 Y111.167 E0.00693
G1 X116.387 Y112.896 E0.03340
G1 X118.180 Y114.689 F10800.000
G1 F900
G1 X119.849 Y113.020 E0.03224
G1 X119.653 Y112.902 E0.00312
G1 X119.424 Y112.727 E0.00394
G1 X117.919 Y114.232 E0.02908
G1 X117.560 Y113.874 E0.00693
