; generated by PrusaSlicer 2.2.0+win64 on 2020-12-28 at 21:27:58 UTC

; 

; external perimeters extrusion width = 0.45mm
; perimeters extrusion width = 0.45mm
; infill extrusion width = 0.45mm
; solid infill extrusion width = 0.45mm
; top infill extrusion width = 0.40mm
; support material extrusion width = 0.35mm
; first layer extrusion width = 0.42mm

M73 P0 R22
M201 X9000 Y9000 Z500 E10000 ; sets maximum accelerations, mm/sec^2
M203 X500 Y500 Z12 E120 ; sets maximum feedrates, mm/sec
M204 P2000 R1500 T2000 ; sets acceleration (P, T) and retract acceleration (R), mm/sec^2
M205 X10.00 Y10.00 Z0.20 E2.50 ; sets the jerk limits, mm/sec
M205 S0 T0 ; sets the minimum extruding and travel feed rate, mm/sec
M107
M862.3 P "MK2S" ; printer model check
M862.1 P0.4 ; nozzle diameter check
M115 U3.2.3 ; tell printer latest fw version
G90 ; use absolute coordinates
M83 ; extruder relative mode
M204 S2000 T1500 ; MK2 firmware only supports the old M204 format
M104 S215 ; set extruder temp
M140 S60 ; set bed temp
M190 S60 ; wait for bed temp
M109 S215 ; wait for extruder temp
G28 W ; home all without mesh bed level
G80 ; mesh bed leveling
G1 Y-3.0 F1000.0 ; go outside print area
G92 E0.0
G1 X60.0 E9.0  F1000.0 ; intro line
M73 P0 R22
G1 X100.0 E12.5 F1000.0 ; intro line
G92 E0.0
G21 ; set units to millimeters
G90 ; use absolute coordinates
M83 ; use relative distances for extrusion
M900 K0.06 ; Filament gcode LA 1.5
M900 K30 ; Filament gcode LA 1.0
;BEFORE_LAYER_CHANGE
G92 E0.0
;0.2


G1 E-0.80000 F2100.00000
G1 Z0.600 F10800.000
;AFTER_LAYER_CHANGE
;0.2
G1 X132.530 Y100.551
G1 Z0.200
G1 E0.80000 F2100.00000
M204 S1000
G1 F1200.000
G1 X140.106 Y92.975 E0.33592
G1 X139.573 Y92.442 E0.02365
G1 X132.117 Y99.898 E0.33060
G1 X131.584 Y99.364 E0.02365
G1 X139.040 Y91.909 E0.33060
G1 X138.506 Y91.375 E0.02365
G1 X131.051 Y98.831 E0.33060
G1 X130.517 Y98.298 E0.02365
G1 X137.973 Y90.842 E0.33060
G1 X137.440 Y90.309 E0.02365
G1 X129.984 Y97.765 E0.33060
G1 X129.688 Y97.468 E0.01313
G1 X129.859 Y97.337 E0.00678
G1 X130.360 Y96.852 E0.02184
G1 X130.819 Y96.278 E0.02306
G1 X131.221 Y95.612 E0.02440
G1 X131.340 Y95.342 E0.00924
G1 X136.907 Y89.775 E0.24683
G1 X136.373 Y89.242 E0.02365
G1 X131.756 Y93.859 E0.20473
G1 X131.469 Y93.507 E0.01425
G1 X131.085 Y93.507 E0.01204
G1 X131.085 Y93.464 E0.00134
G1 X135.840 Y88.709 E0.21086
G1 X135.307 Y88.176 E0.02365
G1 X131.698 Y91.784 E0.16002
G1 X131.546 Y91.225 E0.01818
G1 X131.445 Y90.971 E0.00856
G1 X134.773 Y87.642 E0.14759
G1 X134.240 Y87.109 E0.02365
G1 X131.100 Y90.249 E0.13924
G1 X130.865 Y89.851 E0.01449
G1 X130.676 Y89.607 E0.00968
G1 X133.707 Y86.576 E0.13442
G1 X133.174 Y86.043 E0.02365
G1 X130.059 Y89.158 E0.13813
G1 E-0.80000 F2100.00000
G1 Z0.800 F10800.000
G1 X126.327 Y97.577
G1 Z0.200
G1 E0.80000 F2100.00000
G1 F1200.000
G1 X125.726 Y97.556 E0.01887
G1 X125.132 Y97.456 E0.01888
G1 X124.557 Y97.279 E0.01886
G1 X123.990 Y97.015 E0.01962
G1 X123.483 Y96.691 E0.01887
G1 X123.023 Y96.302 E0.01888
G1 X122.609 Y95.842 E0.01940
G1 X122.269 Y95.345 E0.01889
G1 X121.997 Y94.807 E0.01890
G1 X121.799 Y94.238 E0.01890
G1 X121.679 Y93.647 E0.01889
G1 X121.637 Y93.033 E0.01931
G1 X121.677 Y92.432 E0.01888
G1 X121.796 Y91.842 E0.01886
G1 X122.001 Y91.251 E0.01961
G1 X122.273 Y90.714 E0.01886
G1 X122.614 Y90.218 E0.01889
G1 X123.017 Y89.771 E0.01888
G1 X123.490 Y89.371 E0.01940
G1 X123.997 Y89.047 E0.01888
G1 X124.543 Y88.793 E0.01887
G1 X125.142 Y88.608 E0.01965
G1 X125.736 Y88.509 E0.01889
G1 X126.334 Y88.490 E0.01876
G1 X126.950 Y88.552 E0.01941
G1 X127.535 Y88.693 E0.01887
G1 X128.097 Y88.910 E0.01888
G1 X128.625 Y89.199 E0.01888
G1 X129.110 Y89.555 E0.01887
G1 X129.561 Y89.991 E0.01965
G1 X129.934 Y90.464 E0.01888
G1 X130.241 Y90.983 E0.01890
G1 X130.437 Y91.446 E0.01579
G1 X129.971 Y91.446 E0.01461
G1 X129.971 Y94.620 E0.09952
G1 X130.437 Y94.620 E0.01459
G1 X130.228 Y95.105 E0.01655
G1 X129.933 Y95.603 E0.01815
G1 X129.561 Y96.076 E0.01888
G1 X129.112 Y96.510 E0.01956
G1 X128.627 Y96.867 E0.01888
G1 X128.099 Y97.156 E0.01889
G1 X127.530 Y97.375 E0.01912
G1 X126.951 Y97.514 E0.01867
G1 X126.387 Y97.571 E0.01776
G1 X126.340 Y97.955 F10800.000
G1 F1200.000
G1 X125.688 Y97.932 E0.02046
G1 X125.045 Y97.824 E0.02045
G1 X124.422 Y97.631 E0.02044
G1 X123.808 Y97.346 E0.02122
G1 X123.258 Y96.995 E0.02046
G1 X122.760 Y96.573 E0.02046
G1 X122.312 Y96.076 E0.02099
G1 X121.943 Y95.537 E0.02047
G1 X121.649 Y94.954 E0.02047
G1 X121.435 Y94.338 E0.02047
G1 X121.304 Y93.698 E0.02047
G1 X121.259 Y93.033 E0.02090
G1 X121.302 Y92.382 E0.02046
G1 X121.431 Y91.743 E0.02045
G1 X121.653 Y91.103 E0.02121
G1 X121.948 Y90.522 E0.02045
G1 X122.317 Y89.984 E0.02046
G1 X122.754 Y89.499 E0.02046
G1 X123.265 Y89.067 E0.02099
G1 X123.816 Y88.716 E0.02047
G1 X124.407 Y88.440 E0.02046
G1 X125.055 Y88.240 E0.02125
G1 X125.699 Y88.133 E0.02047
G1 X126.347 Y88.112 E0.02034
G1 X127.014 Y88.180 E0.02099
G1 X127.648 Y88.332 E0.02045
G1 X128.256 Y88.567 E0.02045
G1 X128.829 Y88.880 E0.02046
G1 X129.354 Y89.266 E0.02046
G1 X129.841 Y89.737 E0.02124
G1 X130.245 Y90.250 E0.02047
G1 X130.578 Y90.812 E0.02047
G1 X130.833 Y91.413 E0.02046
G1 X130.944 Y91.823 E0.01334
G1 X130.349 Y91.823 E0.01868
G1 X130.349 Y94.243 E0.07588
G1 X130.944 Y94.243 E0.01868
G1 X130.832 Y94.655 E0.01338
G1 X130.565 Y95.276 E0.02122
G1 X130.245 Y95.817 E0.01969
G1 X129.841 Y96.329 E0.02046
G1 X129.356 Y96.798 E0.02116
G1 X128.830 Y97.185 E0.02047
G1 X128.258 Y97.499 E0.02047
G1 X127.642 Y97.736 E0.02069
G1 X127.014 Y97.886 E0.02025
G1 X126.400 Y97.949 E0.01935
G1 X126.129 Y97.615 F10800.000
G1 X130.021 Y95.234
G1 F1200.000
G1 X124.102 Y89.315 E0.26919
G1 X123.768 Y89.528 E0.01274
G1 X129.692 Y95.452 E0.26944
G1 X129.451 Y95.758 E0.01253
G1 X123.460 Y89.767 E0.27252
G1 X123.170 Y90.024 E0.01246
G1 X129.188 Y96.043 E0.27376
G1 X128.908 Y96.309 E0.01244
G1 X122.910 Y90.311 E0.27280
G1 X122.677 Y90.625 E0.01258
G1 X128.593 Y96.541 E0.26907
G1 X128.254 Y96.749 E0.01279
G1 X122.465 Y90.960 E0.26329
G1 X122.281 Y91.323 E0.01309
G1 X127.891 Y96.933 E0.25515
G1 X127.496 Y97.085 E0.01361
G1 X122.136 Y91.725 E0.24380
G1 X122.069 Y91.917 E0.00653
G1 X122.021 Y92.157 E0.00788
G1 X127.060 Y97.197 E0.22923
G1 X126.903 Y97.234 E0.00520
G1 X126.583 Y97.267 E0.01034
G1 X121.947 Y92.630 E0.21089
G1 X121.920 Y93.033 E0.01296
G1 X121.929 Y93.159 E0.00408
G1 X126.054 Y97.285 E0.18764
G1 X125.754 Y97.274 E0.00966
G1 X125.445 Y97.222 E0.01009
G1 X121.992 Y93.770 E0.15704
G1 X122.073 Y94.163 E0.01290
G1 X122.197 Y94.522 E0.01223
G1 X124.703 Y97.028 E0.11399
G1 X124.126 Y96.767 E0.02038
G1 X123.651 Y96.463 E0.01814
G1 X123.261 Y96.132 E0.01644
G1 X122.316 Y95.187 E0.04301
G1 E-0.80000 F2100.00000
G1 Z0.800 F10800.000
G1 X129.858 Y94.524
G1 Z0.200
G1 E0.80000 F2100.00000
G1 F1200.000
G1 X124.472 Y89.138 E0.24500
G1 X124.645 Y89.058 E0.00613
G1 X124.869 Y88.988 E0.00755
G1 X129.689 Y93.808 E0.21921
G1 X129.689 Y93.261 E0.01759
G1 X125.297 Y88.869 E0.19975
G1 X125.766 Y88.791 E0.01529
G1 X129.689 Y92.714 E0.17842
G1 X129.689 Y92.167 E0.01759
G1 X126.296 Y88.774 E0.15432
G1 X126.901 Y88.832 E0.01954
G1 X129.689 Y91.620 E0.12681
G1 X129.689 Y91.163 E0.01468
G1 X129.779 Y91.163 E0.00292
G1 X127.660 Y89.044 E0.09640
G1 X127.978 Y89.167 E0.01096
G1 X128.473 Y89.438 E0.01816
G1 X128.928 Y89.772 E0.01814
G1 X130.056 Y90.893 E0.05117
G1 E-0.80000 F2100.00000
G1 Z0.800 F10800.000
G1 X111.982 Y107.530
G1 Z0.200
G1 E0.80000 F2100.00000
G1 F1200.000
G1 X117.927 Y101.586 E0.26358
G1 X118.460 Y102.119 E0.02365
G1 X112.636 Y107.943 E0.25826
G1 X113.169 Y108.477 E0.02365
G1 X118.993 Y102.652 E0.25826
G1 X119.500 Y103.159 E0.02247
G1 X121.131 Y101.528 E0.07234
G1 X121.158 Y101.554 E0.00118
G1 X112.071 Y110.641 E0.40294
G1 X112.604 Y111.174 E0.02365
G1 X121.691 Y102.087 E0.40294
G1 X122.224 Y102.621 E0.02365
G1 X113.137 Y111.708 E0.40294
G1 X113.671 Y112.241 E0.02365
G1 X122.758 Y103.154 E0.40294
G1 X123.291 Y103.687 E0.02365
G1 X112.572 Y114.406 E0.47527
G1 X113.106 Y114.939 E0.02365
G1 X123.824 Y104.220 E0.47527
G1 X124.357 Y104.754 E0.02365
G1 X113.519 Y115.592 E0.48059
G1 E-0.80000 F2100.00000
G1 Z0.800 F10800.000
G1 X113.424 Y125.286
G1 Z0.200
G1 E0.80000 F2100.00000
G1 F1200.000
G1 X120.324 Y118.386 E0.30592
G1 X119.257 Y118.386 E0.03344
G1 X113.011 Y124.632 E0.27695
G1 X112.478 Y124.099 E0.02365
G1 X118.191 Y118.386 E0.25331
G1 X117.889 Y118.386 E0.00945
G1 X117.687 Y118.297 E0.00694
G1 X117.460 Y118.050 E0.01050
G1 X111.945 Y123.566 E0.24458
G1 X111.411 Y123.033 E0.02365
G1 X116.951 Y117.493 E0.24563
G1 X116.545 Y117.050 E0.01884
G1 X116.484 Y116.893 E0.00528
G1 X110.878 Y122.499 E0.24859
G1 X110.413 Y122.034 E0.02063
G1 X115.307 Y117.140 E0.21701
G1 X115.239 Y117.072 E0.00302
G1 X116.474 Y115.837 E0.05476
G1 X116.474 Y114.770 E0.03344
G1 X114.706 Y116.539 E0.07841
G1 X114.172 Y116.005 E0.02365
G1 X124.891 Y105.287 E0.47527
G1 X125.424 Y105.820 E0.02365
G1 X118.955 Y112.289 E0.28684
G1 X120.022 Y112.289 E0.03344
G1 X125.957 Y106.353 E0.26319
G1 X126.491 Y106.887 E0.02365
G1 X121.088 Y112.289 E0.23955
G1 X121.298 Y112.369 E0.00704
G1 X121.686 Y112.758 E0.01722
G1 X125.392 Y109.051 E0.16434
G1 X125.926 Y109.585 E0.02365
G1 X122.219 Y113.291 E0.16435
G1 X122.446 Y113.518 E0.01005
G1 X122.526 Y113.711 E0.00656
G1 X122.526 Y114.051 E0.01066
G1 X126.459 Y110.118 E0.17440
G1 X126.956 Y110.615 E0.02202
G1 X125.324 Y112.246 E0.07234
G1 X125.361 Y112.283 E0.00162
G1 X122.526 Y115.118 E0.12571
G1 X122.526 Y116.184 E0.03344
G1 X125.894 Y112.816 E0.14935
G1 X126.427 Y113.349 E0.02365
G1 X114.078 Y125.699 E0.54761
G1 X114.611 Y126.232 E0.02365
G1 X123.698 Y117.145 E0.40294
G1 X124.231 Y117.678 E0.02365
G1 X115.144 Y126.765 E0.40294
G1 X115.678 Y127.299 E0.02365
G1 X124.765 Y118.212 E0.40294
G1 X125.298 Y118.745 E0.02365
G1 X116.211 Y127.832 E0.40294
G1 X116.744 Y128.365 E0.02365
G1 X125.831 Y119.278 E0.40294
G1 X126.364 Y119.811 E0.02365
G1 X117.277 Y128.898 E0.40294
G1 X117.811 Y129.432 E0.02365
G1 X126.898 Y120.345 E0.40294
G1 X127.431 Y120.878 E0.02365
G1 X119.975 Y128.334 E0.33060
G1 X120.508 Y128.867 E0.02365
G1 X127.964 Y121.411 E0.33060
G1 X128.497 Y121.944 E0.02365
G1 X120.922 Y129.520 E0.33592
G1 E-0.80000 F2100.00000
G1 Z0.800 F10800.000
G1 X119.500 Y117.273
G1 Z0.200
G1 E0.80000 F2100.00000
G1 F1200.000
G1 X118.259 Y117.273 E0.03894
G1 X117.587 Y116.539 E0.03119
G1 X117.587 Y114.059 E0.07778
G1 X118.243 Y113.402 E0.02910
G1 X120.757 Y113.402 E0.07881
G1 X121.413 Y114.059 E0.02910
G1 X121.413 Y116.539 E0.07778
G1 X120.741 Y117.273 E0.03119
G1 X119.560 Y117.273 E0.03703
G1 X119.500 Y117.650 F10800.000
G1 F1200.000
G1 X118.092 Y117.650 E0.04414
G1 X117.210 Y116.686 E0.04099
G1 X117.210 Y113.903 E0.08727
G1 X118.087 Y113.025 E0.03890
G1 X120.913 Y113.025 E0.08861
G1 X121.790 Y113.903 E0.03890
G1 X121.790 Y116.686 E0.08727
G1 X120.907 Y117.650 E0.04099
G1 X119.560 Y117.650 E0.04224
G1 X119.256 Y117.334 F10800.000
G1 X121.300 Y114.356
G1 F1200.000
G1 X120.629 Y113.685 E0.03094
G1 X120.074 Y113.685 E0.01808
G1 X121.130 Y114.741 E0.04869
G1 X121.130 Y115.295 E0.01808
G1 X119.520 Y113.685 E0.07426
G1 X118.965 Y113.685 E0.01808
G1 X121.130 Y115.850 E0.09983
G1 X121.130 Y116.404 E0.01808
G1 X118.411 Y113.685 E0.12540
G1 X118.360 Y113.685 E0.00163
G1 X118.108 Y113.937 E0.01163
G1 X120.877 Y116.706 E0.12768
G1 X120.617 Y116.991 E0.01257
G1 X117.870 Y114.253 E0.12644
G1 X117.870 Y114.808 E0.01808
G1 X120.052 Y116.991 E0.10064
G1 X119.498 Y116.991 E0.01808
G1 X117.870 Y115.362 E0.07507
G1 X117.870 Y115.917 E0.01808
G1 X118.943 Y116.990 E0.04950
G1 X118.389 Y116.990 E0.01808
G1 X117.700 Y116.302 E0.03175
G1 E-0.80000 F2100.00000
G1 Z0.800 F10800.000
G1 X124.519 Y117.081
G1 Z0.200
G1 E0.80000 F2100.00000
G1 F1200.000
G1 X135.358 Y106.242 E0.48059
G1 X134.824 Y105.709 E0.02365
G1 X124.106 Y116.428 E0.47527
G1 X123.573 Y115.894 E0.02365
G1 X134.291 Y105.176 E0.47527
G1 X133.758 Y104.643 E0.02365
G1 X124.671 Y113.730 E0.40294
G1 X124.137 Y113.196 E0.02365
G1 X133.224 Y104.109 E0.40294
G1 X132.691 Y103.576 E0.02365
G1 X123.604 Y112.663 E0.40294
G1 X123.071 Y112.130 E0.02365
G1 X132.158 Y103.043 E0.40294
G1 X132.131 Y103.016 E0.00118
G1 X130.500 Y104.648 E0.07234
G1 X129.993 Y104.141 E0.02247
G1 X124.169 Y109.965 E0.25826
G1 X123.636 Y109.432 E0.02365
G1 X129.460 Y103.608 E0.25826
G1 X128.927 Y103.074 E0.02365
G1 X122.982 Y109.019 E0.26358
G1 E-0.80000 F2100.00000
G1 Z0.800 F10800.000
G1 X124.424 Y126.774
G1 Z0.200
G1 E0.80000 F2100.00000
G1 F1200.000
G1 X131.324 Y119.875 E0.30592
G1 X130.257 Y119.875 E0.03344
G1 X124.011 Y126.121 E0.27695
G1 X123.478 Y125.588 E0.02365
G1 X129.191 Y119.875 E0.25331
G1 X128.889 Y119.875 E0.00945
G1 X128.687 Y119.786 E0.00694
G1 X128.460 Y119.539 E0.01050
G1 X122.945 Y125.055 E0.24458
G1 X122.411 Y124.521 E0.02365
G1 X127.951 Y118.982 E0.24563
G1 X127.545 Y118.539 E0.01884
G1 X127.484 Y118.382 E0.00528
G1 X121.878 Y123.988 E0.24859
G1 X121.413 Y123.523 E0.02063
G1 X126.307 Y118.629 E0.21701
G1 X126.239 Y118.561 E0.00302
G1 X127.474 Y117.326 E0.05476
G1 X127.474 Y116.259 E0.03344
G1 X125.706 Y118.027 E0.07841
G1 X125.172 Y117.494 E0.02365
G1 X135.891 Y106.776 E0.47527
G1 X136.424 Y107.309 E0.02365
G1 X129.955 Y113.778 E0.28684
G1 X131.022 Y113.778 E0.03344
G1 X136.957 Y107.842 E0.26319
M73 P4 R21
G1 X137.491 Y108.376 E0.02365
G1 X132.088 Y113.778 E0.23955
G1 X132.298 Y113.858 E0.00704
G1 X132.686 Y114.246 E0.01722
G1 X136.393 Y110.540 E0.16434
G1 X136.926 Y111.073 E0.02365
G1 X133.219 Y114.780 E0.16435
G1 X133.446 Y115.007 E0.01005
G1 X133.526 Y115.200 E0.00656
G1 X133.526 Y115.540 E0.01066
G1 X137.459 Y111.607 E0.17440
G1 X137.956 Y112.103 E0.02202
G1 X136.324 Y113.735 E0.07234
G1 X136.361 Y113.771 E0.00162
G1 X133.526 Y116.606 E0.12571
G1 X133.526 Y117.673 E0.03344
G1 X136.894 Y114.305 E0.14935
G1 X137.428 Y114.838 E0.02365
G1 X125.078 Y127.188 E0.54761
G1 X125.611 Y127.721 E0.02365
G1 X134.698 Y118.634 E0.40294
G1 X135.231 Y119.167 E0.02365
G1 X126.144 Y128.254 E0.40294
G1 X126.678 Y128.788 E0.02365
G1 X135.765 Y119.700 E0.40294
G1 X136.298 Y120.234 E0.02365
G1 X127.211 Y129.321 E0.40294
G1 X127.744 Y129.854 E0.02365
G1 X136.831 Y120.767 E0.40294
G1 X137.364 Y121.300 E0.02365
G1 X128.277 Y130.387 E0.40294
G1 X128.811 Y130.921 E0.02365
G1 X137.898 Y121.833 E0.40294
G1 X138.431 Y122.367 E0.02365
G1 X130.975 Y129.823 E0.33060
G1 X131.509 Y130.356 E0.02365
G1 X138.964 Y122.900 E0.33060
G1 X139.498 Y123.433 E0.02365
G1 X131.922 Y131.009 E0.33592
G1 E-0.80000 F2100.00000
G1 Z0.800 F10800.000
G1 X130.500 Y118.762
G1 Z0.200
G1 E0.80000 F2100.00000
G1 F1200.000
G1 X129.259 Y118.762 E0.03894
G1 X128.587 Y118.028 E0.03119
G1 X128.587 Y115.547 E0.07778
G1 X129.243 Y114.891 E0.02910
G1 X131.757 Y114.891 E0.07881
G1 X132.413 Y115.548 E0.02910
G1 X132.413 Y118.028 E0.07778
G1 X131.741 Y118.762 E0.03119
G1 X130.560 Y118.762 E0.03703
G1 X130.500 Y119.139 F10800.000
G1 F1200.000
G1 X129.092 Y119.139 E0.04414
G1 X128.210 Y118.175 E0.04099
G1 X128.210 Y115.391 E0.08727
G1 X129.087 Y114.514 E0.03890
G1 X131.913 Y114.514 E0.08861
G1 X132.790 Y115.391 E0.03890
G1 X132.790 Y118.175 E0.08727
G1 X131.907 Y119.139 E0.04099
G1 X130.560 Y119.139 E0.04224
G1 X130.256 Y118.822 F10800.000
G1 X132.300 Y115.845
G1 F1200.000
G1 X131.629 Y115.174 E0.03094
G1 X131.074 Y115.174 E0.01808
G1 X132.130 Y116.230 E0.04869
G1 X132.130 Y116.784 E0.01808
G1 X130.520 Y115.174 E0.07426
G1 X129.965 Y115.174 E0.01808
G1 X132.130 Y117.339 E0.09983
G1 X132.130 Y117.893 E0.01808
G1 X129.411 Y115.174 E0.12540
G1 X129.360 Y115.174 E0.00163
G1 X129.108 Y115.426 E0.01163
G1 X131.877 Y118.195 E0.12768
G1 X131.617 Y118.479 E0.01257
G1 X128.870 Y115.742 E0.12644
G1 X128.870 Y116.297 E0.01808
G1 X131.052 Y118.479 E0.10064
G1 X130.498 Y118.479 E0.01808
G1 X128.870 Y116.851 E0.07507
G1 X128.870 Y117.406 E0.01808
G1 X129.943 Y118.479 E0.04950
G1 X129.389 Y118.479 E0.01808
G1 X128.700 Y117.791 E0.03175
M106 S255
;BEFORE_LAYER_CHANGE
G92 E0.0
;0.4


G1 E-0.80000 F2100.00000
G1 Z0.800 F10800.000
;AFTER_LAYER_CHANGE
;0.4
M104 S210 ; set temperature
G1 X126.315 Y97.647
G1 Z0.400
G1 E0.80000 F2100.00000
M204 S800
G1 F1037
