; generated by PrusaSlicer 2.0.0+ on 2019-08-13 at 12:07:32

; 

; external perimeters extrusion width = 0.45mm
; perimeters extrusion width = 0.45mm
; infill extrusion width = 0.45mm
; solid infill extrusion width = 0.45mm
; top infill extrusion width = 0.40mm
; support material extrusion width = 0.35mm
; first layer extrusion width = 0.42mm

M73 P0 R25
M201 X9000 Y9000 Z500 E10000 ; sets maximum accelerations, mm/sec^2
M203 X500 Y500 Z12 E120 ; sets maximum feedrates, mm/sec
M204 P2000 R1500 T2000 ; sets acceleration (P, T) and retract acceleration (R), mm/sec^2
M205 X10.00 Y10.00 Z0.20 E2.50 ; sets the jerk limits, mm/sec
M205 S0 T0 ; sets the minimum extruding and travel feed rate, mm/sec
M107
M115 U3.2.3 ; tell printer latest fw version
G90 ; use absolute coordinates
M83 ; extruder relative mode
M204 S2000 T1500 ; MK2 firmware only supports the old M204 format
M104 S215 ; set extruder temp
M140 S60 ; set bed temp
M190 S60 ; wait for bed temp
M109 S215 ; wait for extruder temp
G28 W ; home all without mesh bed level
G80 ; mesh bed leveling
G1 Y-3.0 F1000.0 ; go outside print area
G92 E0.0
G1 X60.0 E9.0  F1000.0 ; intro line
M73 P0 R25
G1 X100.0 E12.5 F1000.0 ; intro line
G92 E0.0
M900 K30 ; Filament gcode
G21 ; set units to millimeters
G90 ; use absolute coordinates
M83 ; use relative distances for extrusion
;BEFORE_LAYER_CHANGE
G92 E0.0
;0.2


G1 E-0.80000 F2100.00000
G1 Z0.600 F10800.000
;AFTER_LAYER_CHANGE
;0.2
G1 X112.760 Y89.326
G1 Z0.200
G1 E0.80000 F2100.00000
M204 S1000
G1 F1200
G1 X113.367 Y88.792 E0.02533
G1 X114.109 Y88.473 E0.02533
G1 X125.213 Y86.099 E0.35602
G1 X125.740 Y86.045 E0.01660
G1 X138.167 Y86.240 E0.38971
G1 X138.886 Y86.453 E0.02349
G1 X139.512 Y86.865 E0.02349
G1 X139.992 Y87.440 E0.02349
G1 X140.285 Y88.125 E0.02337
G1 X140.370 Y88.767 E0.02029
G1 X140.331 Y97.631 E0.27795
G1 X136.519 Y118.002 E0.64978
G1 X136.267 Y118.632 E0.02128
G1 X135.856 Y119.177 E0.02140
G1 X135.315 Y119.594 E0.02140
G1 X134.688 Y119.852 E0.02128
G1 X124.657 Y120.755 E0.31577
G1 X123.708 Y120.745 E0.02975
G1 X122.483 Y120.569 E0.03881
G1 X121.468 Y120.265 E0.03325
G1 X120.389 Y119.765 E0.03729
G1 X119.469 Y119.166 E0.03440
G1 X118.718 Y118.521 E0.03104
G1 X117.984 Y117.699 E0.03456
G1 X117.405 Y116.845 E0.03235
G1 X116.952 Y115.943 E0.03165
G1 X112.258 Y102.333 E0.45141
G1 X112.172 Y101.695 E0.02017
G1 X112.174 Y90.862 E0.33966
G1 X112.340 Y90.047 E0.02606
G1 X112.730 Y89.378 E0.02431
G1 X113.052 Y89.566 F10800.000
G1 F1200
G1 X113.574 Y89.107 E0.02178
G1 X114.211 Y88.837 E0.02168
G1 X125.741 Y86.422 E0.36937
G1 X138.079 Y86.609 E0.38690
G1 X138.700 Y86.783 E0.02021
G1 X139.242 Y87.130 E0.02021
G1 X139.661 Y87.621 E0.02021
G1 X139.918 Y88.212 E0.02021
G1 X139.993 Y88.768 E0.01760
G1 X139.962 Y97.554 E0.27547
G1 X136.158 Y117.892 E0.64874
G1 X135.945 Y118.435 E0.01828
G1 X135.597 Y118.902 E0.01828
G1 X135.137 Y119.261 E0.01828
G1 X134.599 Y119.486 E0.01828
G1 X124.626 Y120.379 E0.31395
G1 X123.734 Y120.369 E0.02795
G1 X122.561 Y120.201 E0.03715
G1 X121.600 Y119.911 E0.03149
G1 X120.572 Y119.435 E0.03552
G1 X119.696 Y118.864 E0.03280
G1 X118.983 Y118.253 E0.02941
G1 X118.280 Y117.465 E0.03314
G1 X117.729 Y116.652 E0.03079
G1 X117.295 Y115.788 E0.03031
G1 X112.624 Y102.241 E0.44930
G1 X112.549 Y101.688 E0.01749
G1 X112.550 Y90.888 E0.33864
G1 X112.692 Y90.182 E0.02259
G1 X113.022 Y89.617 E0.02048
G1 F8640
G1 X113.574 Y89.107 E-0.17363
G1 X114.211 Y88.837 E-0.15967
G1 X116.019 Y88.458 E-0.42670
G1 E-0.04000 F2100.00000
G1 Z0.800 F10800.000
G1 X125.738 Y88.610
G1 Z0.200
G1 E0.80000 F2100.00000
G1 F1200
G1 X125.738 Y99.324 E0.33592
G1 X126.492 Y99.324 E0.02365
G1 X126.492 Y88.780 E0.33060
G1 X127.246 Y88.780 E0.02365
G1 X127.246 Y99.494 E0.33592
G1 X128.754 Y98.678 F10800.000
G1 F1200
G1 X128.754 Y99.324 E0.02025
G1 X128.000 Y99.324 E0.02365
G1 X128.000 Y88.780 E0.33060
G1 X128.754 Y88.780 E0.02365
G1 X128.754 Y97.397 E0.27019
G1 X128.909 Y97.326 E0.00535
G1 X129.508 Y97.326 E0.01879
G1 X129.508 Y88.780 E0.26794
G1 X130.262 Y88.780 E0.02365
G1 X130.262 Y97.326 E0.26794
G1 X131.017 Y97.326 E0.02365
G1 X131.017 Y88.780 E0.26794
G1 X131.771 Y88.780 E0.02365
G1 X131.771 Y97.326 E0.26794
G1 X132.091 Y97.326 E0.01003
G1 X132.255 Y97.401 E0.00568
G1 X132.525 Y97.719 E0.01306
G1 X132.525 Y88.780 E0.28027
G1 X133.279 Y88.780 E0.02365
G1 X133.279 Y99.324 E0.33060
G1 X134.033 Y99.324 E0.02365
G1 X134.033 Y88.780 E0.33060
G1 X134.787 Y88.780 E0.02365
G1 X134.787 Y99.324 E0.33060
G1 X135.542 Y99.324 E0.02365
G1 X135.542 Y88.780 E0.33060
G1 X136.296 Y88.780 E0.02365
G1 X136.296 Y97.017 E0.25826
G1 X137.050 Y97.017 E0.02365
G1 X137.050 Y88.780 E0.25826
G1 X137.804 Y88.780 E0.02365
G1 X137.804 Y97.187 E0.26358
G1 F8640
G1 X137.804 Y93.895 E-0.76000
G1 E-0.04000 F2100.00000
G1 Z0.800 F10800.000
G1 X132.525 Y98.394
G1 Z0.200
G1 E0.80000 F2100.00000
G1 F1200
G1 X132.525 Y99.494 E0.03447
G1 F8640
G1 X132.525 Y98.394 E-0.25384
G1 E-0.54616 F2100.00000
G1 Z0.800 F10800.000
G1 X131.383 Y98.371
G1 Z0.200
G1 E0.80000 F2100.00000
G1 F1200
G1 X130.754 Y99.010 E0.02813
G1 X130.246 Y99.010 E0.01592
G1 X129.573 Y98.326 E0.03008
G1 X131.425 Y98.328 E0.05805
G1 X132.098 Y98.181 F10800.000
G1 F1200
G1 X130.912 Y99.387 E0.05305
G1 X130.088 Y99.387 E0.02583
G1 X128.902 Y98.181 E0.05303
G1 X129.098 Y97.949 E0.00952
G1 X131.903 Y97.949 E0.08797
G1 X132.060 Y98.135 E0.00761
G1 X131.748 Y98.374 F10800.000
G1 F8640
G1 X130.912 Y99.387 E-0.39231
G1 X130.088 Y99.387 E-0.19025
G1 X129.549 Y98.839 E-0.17743
G1 E-0.04000 F2100.00000
G1 Z0.800 F10800.000
G1 X130.826 Y98.668
G1 Z0.200
G1 E0.80000 F2100.00000
G1 F1200
G1 X130.174 Y98.668 E0.01663
G1 F8640
G1 X130.826 Y98.668 E-0.15046
G1 E-0.64954 F2100.00000
G1 Z0.800 F10800.000
G1 X126.490 Y106.489
G1 Z0.200
G1 E0.80000 F2100.00000
G1 F1200
G1 X126.490 Y107.767 E0.04009
G1 X127.244 Y108.168 E0.02678
G1 X127.244 Y106.658 E0.04733
G1 X127.999 Y106.658 E0.02365
G1 X127.999 Y108.761 E0.06592
G1 X128.375 Y109.128 E0.01648
G1 X128.753 Y109.607 E0.01914
G1 X128.753 Y106.658 E0.09246
G1 X129.507 Y106.658 E0.02365
G1 X129.507 Y111.073 E0.13842
G1 X129.729 Y111.948 E0.02831
G1 X129.507 Y112.220 E0.01102
G1 X129.507 Y113.724 E0.04715
G1 F8640
G1 X129.507 Y112.220 E-0.34720
G1 X129.729 Y111.948 E-0.08113
G1 X129.507 Y111.073 E-0.20848
G1 X129.507 Y110.539 E-0.12319
G1 E-0.04000 F2100.00000
G1 Z0.800 F10800.000
G1 X127.999 Y116.679
G1 Z0.200
G1 E0.80000 F2100.00000
G1 F1200
G1 X127.999 Y117.202 E0.01642
G1 X128.753 Y117.202 E0.02365
G1 X128.753 Y116.069 E0.03553
G1 X128.835 Y115.961 E0.00427
G1 X129.204 Y115.334 E0.02279
G1 X129.507 Y114.603 E0.02482
G1 X129.507 Y117.202 E0.08150
G1 X130.261 Y117.202 E0.02365
G1 X130.261 Y106.658 E0.33060
G1 X131.015 Y106.658 E0.02365
G1 X131.015 Y117.202 E0.33060
G1 X131.769 Y117.202 E0.02365
G1 X131.769 Y106.658 E0.33060
G1 X132.524 Y106.658 E0.02365
G1 X132.524 Y117.202 E0.33060
G1 X133.278 Y117.202 E0.02365
G1 X133.278 Y106.658 E0.33060
G1 X134.032 Y106.658 E0.02365
G1 X134.032 Y117.372 E0.33592
G1 F8640
G1 X134.032 Y114.081 E-0.76000
G1 E-0.04000 F2100.00000
G1 Z0.800 F10800.000
G1 X128.038 Y111.251
G1 Z0.200
G1 E0.80000 F2100.00000
G1 F1200
G1 X128.038 Y114.425 E0.09952
G1 X128.503 Y114.425 E0.01459
G1 X128.294 Y114.910 E0.01655
G1 X127.999 Y115.408 E0.01815
G1 X127.627 Y115.880 E0.01888
G1 X127.178 Y116.314 E0.01956
G1 X126.693 Y116.671 E0.01888
G1 X126.165 Y116.961 E0.01889
G1 X125.596 Y117.180 E0.01912
G1 X125.017 Y117.318 E0.01867
G1 X124.394 Y117.381 E0.01964
G1 X123.792 Y117.361 E0.01887
G1 X123.198 Y117.261 E0.01888
G1 X122.624 Y117.083 E0.01886
G1 X122.056 Y116.820 E0.01962
G1 X121.549 Y116.495 E0.01887
G1 X121.090 Y116.106 E0.01888
G1 X120.675 Y115.647 E0.01940
G1 X120.335 Y115.150 E0.01889
G1 X120.063 Y114.611 E0.01890
G1 X119.865 Y114.042 E0.01890
G1 X119.745 Y113.452 E0.01889
G1 X119.703 Y112.837 E0.01931
G1 X119.743 Y112.236 E0.01888
G1 X119.862 Y111.647 E0.01886
G1 X120.067 Y111.056 E0.01961
G1 X120.339 Y110.519 E0.01886
G1 X120.680 Y110.022 E0.01889
G1 X121.083 Y109.575 E0.01888
G1 X121.556 Y109.175 E0.01940
G1 X122.063 Y108.851 E0.01888
G1 X122.609 Y108.598 E0.01887
G1 X123.208 Y108.413 E0.01965
G1 X123.802 Y108.314 E0.01889
G1 X124.401 Y108.294 E0.01876
G1 X125.016 Y108.357 E0.01941
G1 X125.602 Y108.497 E0.01887
G1 X126.163 Y108.714 E0.01888
G1 X126.692 Y109.003 E0.01888
G1 X127.177 Y109.360 E0.01887
G1 X127.627 Y109.795 E0.01965
G1 X128.000 Y110.268 E0.01888
G1 X128.307 Y110.787 E0.01890
G1 X128.504 Y111.251 E0.01579
G1 X128.098 Y111.251 E0.01273
G1 X128.415 Y111.628 F10800.000
G1 F1200
G1 X128.415 Y114.048 E0.07588
G1 X129.011 Y114.048 E0.01868
G1 X128.899 Y114.459 E0.01338
G1 X128.631 Y115.081 E0.02122
G1 X128.311 Y115.621 E0.01969
G1 X127.907 Y116.134 E0.02046
G1 X127.422 Y116.603 E0.02116
G1 X126.896 Y116.990 E0.02047
G1 X126.324 Y117.303 E0.02047
G1 X125.708 Y117.541 E0.02069
G1 X125.080 Y117.691 E0.02025
G1 X124.406 Y117.759 E0.02124
G1 X123.754 Y117.737 E0.02046
G1 X123.111 Y117.628 E0.02045
G1 X122.488 Y117.436 E0.02044
G1 X121.874 Y117.151 E0.02122
G1 X121.325 Y116.799 E0.02046
G1 X120.827 Y116.378 E0.02046
G1 X120.378 Y115.881 E0.02099
G1 X120.009 Y115.342 E0.02047
G1 X119.715 Y114.759 E0.02047
G1 X119.501 Y114.142 E0.02047
G1 X119.370 Y113.502 E0.02047
G1 X119.325 Y112.838 E0.02090
G1 X119.368 Y112.186 E0.02046
G1 X119.497 Y111.547 E0.02045
G1 X119.719 Y110.908 E0.02121
G1 X120.014 Y110.326 E0.02045
G1 X120.383 Y109.788 E0.02046
G1 X120.821 Y109.304 E0.02046
G1 X121.331 Y108.871 E0.02099
G1 X121.882 Y108.520 E0.02047
G1 X122.474 Y108.245 E0.02046
G1 X123.121 Y108.045 E0.02125
G1 X123.765 Y107.938 E0.02047
G1 X124.414 Y107.917 E0.02034
G1 X125.080 Y107.984 E0.02099
G1 X125.714 Y108.136 E0.02045
G1 X126.322 Y108.371 E0.02045
G1 X126.895 Y108.685 E0.02046
G1 X127.420 Y109.071 E0.02046
G1 X127.908 Y109.542 E0.02124
G1 X128.311 Y110.055 E0.02047
G1 X128.644 Y110.617 E0.02047
G1 X128.899 Y111.217 E0.02046
G1 X129.011 Y111.628 E0.01334
G1 X128.475 Y111.628 E0.01680
G1 X128.026 Y111.721 F10800.000
G1 X128.015 Y111.137
G1 F1200
G1 X125.726 Y108.848 E0.10412
G1 X125.517 Y108.768 E0.00720
G1 X124.967 Y108.636 E0.01820
G1 X127.755 Y111.424 E0.12681
G1 X127.755 Y111.971 E0.01759
G1 X124.362 Y108.578 E0.15432
G1 X123.832 Y108.596 E0.01705
G1 X127.755 Y112.518 E0.17842
G1 X127.755 Y113.065 E0.01759
G1 X123.363 Y108.674 E0.19975
G1 X122.936 Y108.793 E0.01428
G1 X127.755 Y113.612 E0.21921
G1 X127.755 Y114.159 E0.01759
G1 X122.538 Y108.943 E0.23728
G1 X122.168 Y109.120 E0.01319
G1 X127.963 Y114.914 E0.26356
G1 X127.758 Y115.257 E0.01283
G1 X121.835 Y109.333 E0.26944
G1 X121.526 Y109.571 E0.01254
G1 X127.517 Y115.563 E0.27252
G1 X127.416 Y115.690 E0.00524
G1 X127.255 Y115.847 E0.00724
G1 X121.236 Y109.828 E0.27376
G1 X120.976 Y110.116 E0.01246
G1 X126.974 Y116.114 E0.27281
G1 X126.659 Y116.345 E0.01258
G1 X120.743 Y110.430 E0.26908
G1 X120.531 Y110.765 E0.01275
G1 X126.320 Y116.553 E0.26329
G1 X125.957 Y116.738 E0.01309
G1 X120.347 Y111.128 E0.25516
G1 X120.328 Y111.166 E0.00138
G1 X120.202 Y111.530 E0.01237
G1 X125.562 Y116.890 E0.24380
G1 X125.512 Y116.909 E0.00173
G1 X125.127 Y117.001 E0.01274
G1 X120.087 Y111.962 E0.22923
G1 X120.024 Y112.274 E0.01025
G1 X120.013 Y112.435 E0.00519
G1 X124.650 Y117.071 E0.21089
G1 X124.384 Y117.098 E0.00858
G1 X124.121 Y117.089 E0.00848
G1 X119.995 Y112.964 E0.18764
G1 X120.026 Y113.414 E0.01450
G1 X120.058 Y113.574 E0.00527
G1 X123.511 Y117.027 E0.15704
G1 X123.264 Y116.985 E0.00807
G1 X122.770 Y116.832 E0.01664
G1 X119.988 Y114.051 E0.12651
G1 F8640
G1 X122.316 Y116.378 E-0.76000
G1 E-0.04000 F2100.00000
G1 Z0.800 F10800.000
G1 X120.382 Y114.991
G1 Z0.200
G1 E0.80000 F2100.00000
G1 F1200
G1 X122.110 Y116.720 E0.07863
G1 F8640
G1 X120.382 Y114.991 E-0.56451
G1 E-0.23549 F2100.00000
G1 Z0.800 F10800.000
G1 X128.122 Y110.698
G1 Z0.200
G1 E0.80000 F2100.00000
G1 F1200
G1 X126.394 Y108.969 E0.07861
G1 F8640
G1 X128.122 Y110.698 E-0.56439
G1 E-0.23561 F2100.00000
G1 Z0.800 F10800.000
G1 X126.804 Y101.844
G1 Z0.200
G1 E0.80000 F2100.00000
G1 F1200
G1 X126.804 Y93.438 E0.26358
G1 X126.050 Y93.438 E0.02365
G1 X126.050 Y101.675 E0.25826
G1 X125.296 Y101.675 E0.02365
G1 X125.296 Y93.438 E0.25826
G1 X124.579 Y93.438 E0.02247
G1 X124.579 Y91.131 E0.07234
G1 X124.542 Y91.131 E0.00118
G1 X124.542 Y101.675 E0.33060
G1 X123.787 Y101.675 E0.02365
G1 X123.787 Y91.131 E0.33060
G1 X123.033 Y91.131 E0.02365
G1 X123.033 Y101.675 E0.33060
G1 X122.279 Y101.675 E0.02365
G1 X122.279 Y91.131 E0.33060
G1 X121.525 Y91.131 E0.02365
G1 X121.525 Y92.463 E0.04178
G1 X120.771 Y91.696 E0.03373
G1 X120.771 Y90.961 E0.02306
G1 X118.508 Y90.961 F10800.000
G1 F1200
G1 X118.508 Y91.412 E0.01415
G1 X117.754 Y92.179 E0.03373
G1 X117.754 Y91.131 E0.03288
G1 X117.000 Y91.131 E0.02365
G1 X117.000 Y101.675 E0.33060
G1 X117.754 Y101.675 E0.02365
G1 X117.754 Y93.702 E0.24996
G1 X117.909 Y93.774 E0.00536
G1 X118.508 Y93.774 E0.01878
G1 X118.508 Y101.675 E0.24772
G1 X119.262 Y101.675 E0.02365
G1 X119.262 Y93.774 E0.24772
G1 X120.017 Y93.774 E0.02365
G1 X120.017 Y101.675 E0.24772
G1 X120.771 Y101.675 E0.02365
G1 X120.771 Y93.774 E0.24772
G1 X121.091 Y93.774 E0.01004
G1 X121.256 Y93.698 E0.00570
G1 X121.525 Y93.381 E0.01304
G1 X121.525 Y101.844 E0.26537
G1 X116.246 Y101.844 F10800.000
G1 F1200
G1 X116.246 Y91.131 E0.33592
G1 X115.492 Y91.131 E0.02365
G1 X115.492 Y101.675 E0.33060
G1 X114.738 Y101.675 E0.02365
G1 X114.738 Y90.961 E0.33592
G1 F8640
G1 X114.738 Y94.252 E-0.76000
G1 E-0.04000 F2100.00000
G1 Z0.800 F10800.000
G1 X118.573 Y92.773
G1 Z0.200
G1 E0.80000 F2100.00000
G1 F1200
G1 X119.246 Y92.089 E0.03008
G1 X119.754 Y92.089 E0.01592
G1 X120.426 Y92.773 E0.03008
G1 X118.633 Y92.773 E0.05621
G1 X118.098 Y93.150 F10800.000
G1 F1200
G1 X117.902 Y92.918 E0.00952
G1 X119.088 Y91.712 E0.05303
G1 X119.912 Y91.712 E0.02583
G1 X121.098 Y92.918 E0.05303
G1 X120.902 Y93.150 E0.00952
G1 X118.158 Y93.150 E0.08605
G1 X118.107 Y92.847 F10800.000
G1 F8640
G1 X117.902 Y92.918 E-0.07973
G1 X119.088 Y91.712 E-0.39052
G1 X119.912 Y91.712 E-0.19025
G1 X120.214 Y92.019 E-0.09950
G1 E-0.04000 F2100.00000
G1 Z0.800 F10800.000
G1 X119.174 Y92.431
G1 Z0.200
G1 E0.80000 F2100.00000
G1 F1200
G1 X119.826 Y92.431 E0.01663
M106 S255
;BEFORE_LAYER_CHANGE
G92 E0.0
;0.4


G1 F8640
G1 X119.174 Y92.431 E-0.15044
G1 E-0.64956 F2100.00000
G1 Z0.800 F10800.000
;AFTER_LAYER_CHANGE
;0.4
G1 X113.367 Y88.792
G1 Z0.400
G1 E0.80000 F2100.00000
G1 F1106
G1 X114.109 Y88.473 E0.02533
G1 X125.213 Y86.099 E0.35602
G1 X125.740 Y86.045 E0.01660
G1 X138.167 Y86.240 E0.38971
G1 X138.886 Y86.453 E0.02349
G1 X139.512 Y86.865 E0.02349
G1 X139.992 Y87.440 E0.02349
G1 X140.285 Y88.125 E0.02337
G1 X140.370 Y88.767 E0.02029
G1 X140.331 Y97.631 E0.27795
G1 X136.519 Y118.002 E0.64978
G1 X136.267 Y118.632 E0.02128
G1 X135.856 Y119.177 E0.02140
G1 X135.315 Y119.594 E0.02140
G1 X134.688 Y119.852 E0.02128
G1 X124.657 Y120.755 E0.31577
G1 X123.708 Y120.745 E0.02975
G1 X122.483 Y120.569 E0.03881
G1 X121.468 Y120.265 E0.03325
G1 X120.389 Y119.765 E0.03729
G1 X119.469 Y119.166 E0.03440
G1 X118.718 Y118.521 E0.03104
G1 X117.984 Y117.699 E0.03456
G1 X117.405 Y116.845 E0.03235
G1 X116.952 Y115.943 E0.03165
G1 X112.258 Y102.333 E0.45141
M73 P4 R24
G1 X112.172 Y101.695 E0.02017
G1 X112.174 Y90.862 E0.33966
G1 X112.340 Y90.047 E0.02606
G1 X112.760 Y89.326 E0.02619
G1 X113.322 Y88.832 E0.02345
G1 F8640
G1 X114.109 Y88.473 E-0.19975
G1 X116.482 Y87.966 E-0.56025
G1 E-0.04000 F2100.00000
G1 Z1.000 F10800.000
G1 X129.595 Y98.248
G1 Z0.400
G1 E0.80000 F2100.00000
M204 S800
G1 F1106
G1 X131.405 Y98.248 E0.06127
G1 X130.735 Y98.929 E0.03233
G1 X130.265 Y98.929 E0.01592
G1 X129.637 Y98.291 E0.03030
M204 S1000
G1 X128.880 Y98.102 F10800.000
M204 S800
G1 F1106
G1 X129.104 Y97.841 E0.01163
G1 X131.896 Y97.841 E0.09453
G1 X132.120 Y98.102 E0.01163
G1 X130.906 Y99.336 E0.05860
G1 X130.094 Y99.336 E0.02747
G1 X128.923 Y98.145 E0.05655
M204 S1000
G1 X129.198 Y97.970 F10800.000
G1 F8640
G1 X129.104 Y97.841 E-0.08171
G1 X131.896 Y97.841 E-0.64486
G1 X131.991 Y97.951 E-0.03343
G1 E-0.04000 F2100.00000
G1 Z1.000 F10800.000
G1 X130.215 Y98.588
G1 Z0.400
