; generated by PrusaSlicer 2.2.0+win64 on 2020-12-28 at 21:32:05 UTC

; 

; external perimeters extrusion width = 0.60mm
; perimeters extrusion width = 0.43mm
; infill extrusion width = 0.45mm
; solid infill extrusion width = 0.70mm
; top infill extrusion width = 0.43mm
; support material extrusion width = 0.37mm
; first layer extrusion width = 0.42mm

M73 P0 R117
M201 X9000 Y9000 Z500 E10000 ; sets maximum accelerations, mm/sec^2
M203 X500 Y500 Z12 E120 ; sets maximum feedrates, mm/sec
M204 P2000 R1500 T2000 ; sets acceleration (P, T) and retract acceleration (R), mm/sec^2
M205 X10.00 Y10.00 Z0.20 E2.50 ; sets the jerk limits, mm/sec
M205 S0 T0 ; sets the minimum extruding and travel feed rate, mm/sec
M107
M862.3 P "MK2S" ; printer model check
M862.1 P0.4 ; nozzle diameter check
M115 U3.2.3 ; tell printer latest fw version
G90 ; use absolute coordinates
M83 ; extruder relative mode
M204 S2000 T1500 ; MK2 firmware only supports the old M204 format
M104 S215 ; set extruder temp
M140 S60 ; set bed temp
M190 S60 ; wait for bed temp
M109 S215 ; wait for extruder temp
G28 W ; home all without mesh bed level
G80 ; mesh bed leveling
G1 Y-3.0 F1000.0 ; go outside print area
G92 E0.0
G1 X60.0 E9.0  F1000.0 ; intro line
M73 P0 R117
G1 X100.0 E12.5 F1000.0 ; intro line
G92 E0.0
G21 ; set units to millimeters
G90 ; use absolute coordinates
M83 ; use relative distances for extrusion
M900 K0.06 ; Filament gcode LA 1.5
M900 K30 ; Filament gcode LA 1.0
;BEFORE_LAYER_CHANGE
G92 E0.0
;0.2


G1 E-0.80000 F2100.00000
G1 Z0.600 F10800.000
;AFTER_LAYER_CHANGE
;0.2
G1 X1.965 Y42.009
G1 Z0.200
G1 E0.80000 F2100.00000
M204 S1000
G1 F1200.000
G1 X1.965 Y24.447 E0.55064
G1 X2.719 Y24.447 E0.02365
G1 X2.719 Y41.839 E0.54532
G1 X3.473 Y41.839 E0.02365
G1 X3.473 Y24.447 E0.54532
G1 X4.227 Y24.447 E0.02365
G1 X4.238 Y44.134 E0.61727
G1 X4.982 Y44.134 E0.02332
G1 X4.982 Y24.447 E0.61727
G1 X5.736 Y24.447 E0.02365
G1 X5.736 Y44.134 E0.61727
G1 X6.490 Y44.134 E0.02365
G1 X6.490 Y24.447 E0.61727
G1 X6.533 Y24.447 E0.00134
G1 X6.533 Y22.152 E0.07195
G1 X7.244 Y22.152 E0.02231
G1 X7.244 Y46.429 E0.76118
G1 X7.998 Y46.429 E0.02365
G1 X7.998 Y22.152 E0.76118
G1 X8.752 Y22.152 E0.02365
G1 X8.752 Y46.429 E0.76118
G1 X9.507 Y46.429 E0.02365
G1 X9.507 Y22.152 E0.76118
G1 X10.261 Y22.152 E0.02365
G1 X10.261 Y46.429 E0.76118
G1 X11.015 Y46.429 E0.02365
G1 X11.015 Y22.152 E0.76118
G1 X11.769 Y22.152 E0.02365
G1 X11.769 Y46.429 E0.76118
G1 X12.523 Y46.429 E0.02365
G1 X12.523 Y22.152 E0.76118
G1 X13.277 Y22.152 E0.02365
G1 X13.277 Y46.429 E0.76118
G1 X14.032 Y46.429 E0.02365
G1 X14.032 Y22.152 E0.76118
G1 X14.786 Y22.152 E0.02365
G1 X14.786 Y46.429 E0.76118
G1 X15.540 Y46.429 E0.02365
G1 X15.540 Y22.152 E0.76118
G1 X16.294 Y22.152 E0.02365
G1 X16.294 Y48.724 E0.83314
G1 X17.048 Y48.724 E0.02365
G1 X17.048 Y22.152 E0.83314
G1 X17.802 Y22.152 E0.02365
G1 X17.802 Y48.724 E0.83314
G1 X18.556 Y48.724 E0.02365
G1 X18.556 Y22.152 E0.83314
G1 X19.311 Y22.152 E0.02365
G1 X19.311 Y48.724 E0.83314
G1 X20.065 Y48.724 E0.02365
G1 X20.065 Y24.447 E0.76118
G1 X20.819 Y24.447 E0.02365
G1 X20.819 Y48.724 E0.76118
G1 X21.573 Y48.724 E0.02365
G1 X21.573 Y24.447 E0.76118
G1 X21.630 Y24.447 E0.00178
G1 X21.630 Y29.037 E0.14391
G1 X22.327 Y29.037 E0.02187
G1 X22.327 Y48.724 E0.61727
G1 X23.081 Y48.724 E0.02365
G1 X23.081 Y29.037 E0.61727
G1 X23.836 Y29.037 E0.02365
G1 X23.836 Y48.724 E0.61727
G1 X24.590 Y48.724 E0.02365
G1 X24.590 Y29.037 E0.61727
G1 X25.344 Y29.037 E0.02365
G1 X25.344 Y48.724 E0.61727
G1 X26.098 Y48.724 E0.02365
G1 X26.098 Y29.037 E0.61727
G1 X26.852 Y29.037 E0.02365
G1 X26.852 Y48.724 E0.61727
G1 X27.606 Y48.724 E0.02365
G1 X27.606 Y29.037 E0.61727
G1 X28.361 Y29.037 E0.02365
G1 X28.361 Y48.724 E0.61727
G1 X29.115 Y48.724 E0.02365
G1 X29.115 Y29.037 E0.61727
G1 X29.869 Y29.037 E0.02365
G1 X29.869 Y48.893 E0.62259
G1 X32.131 Y48.893 F10800.000
G1 F1200.000
G1 X32.131 Y48.437 E0.01430
G1 X31.377 Y47.820 E0.03055
G1 X31.377 Y48.724 E0.02832
G1 X30.623 Y48.724 E0.02365
G1 X30.623 Y29.037 E0.61727
G1 X31.377 Y29.037 E0.02365
G1 X31.377 Y46.338 E0.54248
G1 X32.131 Y45.416 E0.03734
G1 X32.131 Y29.037 E0.51358
G1 X32.885 Y29.037 E0.02365
G1 X32.885 Y44.495 E0.48467
G1 X33.104 Y44.227 E0.01084
G1 X33.104 Y39.544 E0.14683
G1 X33.640 Y39.544 E0.01678
G1 X33.640 Y29.037 E0.32945
G1 X34.394 Y29.037 E0.02365
G1 X34.394 Y39.544 E0.32945
G1 X35.148 Y39.544 E0.02365
G1 X35.148 Y29.037 E0.32945
G1 X35.902 Y29.037 E0.02365
G1 X35.902 Y39.544 E0.32945
G1 X36.656 Y39.544 E0.02365
G1 X36.656 Y29.037 E0.32945
G1 X37.410 Y29.037 E0.02365
G1 X37.410 Y39.232 E0.31966
G1 E-0.80000 F2100.00000
G1 Z0.800 F10800.000
G1 X98.497 Y86.187
G1 Z0.200
G1 E0.80000 F2100.00000
G1 F1200.000
G1 X98.497 Y73.639 E0.39341
G1 X97.743 Y73.639 E0.02365
G1 X97.743 Y85.350 E0.36719
G1 X96.989 Y84.733 E0.03055
G1 X96.989 Y78.229 E0.20394
G1 X96.235 Y78.229 E0.02365
G1 X96.235 Y84.116 E0.18459
G1 X95.481 Y83.499 E0.03055
G1 X95.481 Y78.229 E0.16525
G1 X94.738 Y78.229 E0.02327
G1 X94.727 Y82.882 E0.14590
G1 X93.972 Y82.265 E0.03055
G1 X93.972 Y80.524 E0.05460
G1 X93.218 Y80.524 E0.02365
G1 X93.218 Y81.648 E0.03525
G1 X92.464 Y81.031 E0.03055
G1 X92.464 Y80.354 E0.02123
G1 X91.122 Y79.548 F10800.000
G1 F1200.000
G1 X91.122 Y79.987 E0.01194
G1 X91.368 Y80.188 E0.00865
G1 X91.617 Y80.188 E0.00676
G1 X91.617 Y79.152 E0.02817
G1 X92.112 Y78.547 E0.02126
G1 X92.112 Y80.188 E0.04462
G1 X92.607 Y80.188 E0.01346
G1 X92.607 Y77.943 E0.06107
G1 X93.102 Y77.338 E0.02126
G1 X93.102 Y80.188 E0.07752
G1 X93.597 Y80.188 E0.01346
G1 X93.597 Y76.733 E0.09397
G1 X94.092 Y76.128 E0.02126
G1 X94.092 Y80.188 E0.11042
M73 P0 R116
G1 X94.402 Y80.188 E0.00846
G1 X94.402 Y77.893 E0.06241
G1 X94.586 Y77.893 E0.00500
G1 X94.586 Y75.523 E0.06446
G1 X95.081 Y74.918 E0.02126
G1 X95.081 Y77.893 E0.08091
G1 X95.576 Y77.893 E0.01346
G1 X95.576 Y74.313 E0.09736
G1 X96.071 Y73.708 E0.02126
G1 X96.071 Y77.893 E0.11381
G1 X96.566 Y77.893 E0.01346
G1 X96.566 Y73.103 E0.13026
G1 X97.061 Y72.499 E0.02126
G1 X97.061 Y73.436 E0.02550
G1 X98.546 Y73.436 F10800.000
G1 F1200.000
G1 X98.546 Y71.008 E0.06602
G1 X98.051 Y71.008 E0.01346
G1 X98.051 Y73.303 E0.06241
G1 X97.556 Y73.303 E0.01346
G1 X97.556 Y71.008 E0.06241
G1 X97.061 Y71.008 E0.01346
G1 X97.061 Y71.429 E0.01144
G1 X96.566 Y71.024 E0.01739
G1 X96.566 Y70.876 E0.00404
G1 X93.972 Y69.068 F10800.000
G1 F1200.000
G1 X93.972 Y68.050 E0.03194
G1 X94.727 Y68.050 E0.02365
G1 X94.727 Y69.466 E0.04442
G1 X95.481 Y70.083 E0.03055
G1 X95.481 Y68.050 E0.06376
G1 X96.235 Y68.050 E0.02365
G1 X96.235 Y70.672 E0.08224
G1 X96.989 Y70.672 E0.02365
G1 X96.989 Y68.050 E0.08224
G1 X97.743 Y68.050 E0.02365
G1 X97.743 Y70.672 E0.08224
G1 X98.497 Y70.672 E0.02365
G1 X98.497 Y68.050 E0.08224
G1 X99.251 Y68.050 E0.02365
G1 X99.251 Y86.584 E0.58115
G1 X100.006 Y87.201 E0.03055
G1 X100.006 Y68.050 E0.60049
G1 X100.760 Y68.050 E0.02365
G1 X100.760 Y87.818 E0.61984
G1 X101.514 Y88.435 E0.03055
G1 X101.514 Y68.050 E0.63918
G1 X101.951 Y68.050 E0.01370
G1 X101.951 Y70.345 E0.07195
G1 X102.268 Y70.345 E0.00994
G1 X102.268 Y89.053 E0.58658
G1 X103.022 Y89.670 E0.03055
G1 X103.022 Y70.345 E0.60592
G1 X103.776 Y70.345 E0.02365
G1 X103.776 Y90.287 E0.62527
G1 X104.531 Y90.904 E0.03055
G1 X104.531 Y70.345 E0.64461
G1 X105.285 Y70.345 E0.02365
G1 X105.285 Y91.521 E0.66396
G1 X106.039 Y92.138 E0.03055
G1 X106.039 Y70.345 E0.68331
G1 X106.541 Y70.345 E0.01574
G1 X106.541 Y72.639 E0.07195
G1 X106.793 Y72.639 E0.00791
G1 X106.793 Y92.755 E0.63070
G1 X107.547 Y93.372 E0.03055
G1 X107.547 Y72.639 E0.65004
G1 X108.301 Y72.639 E0.02365
G1 X108.301 Y93.989 E0.66939
G1 X109.056 Y94.606 E0.03055
G1 X109.056 Y74.934 E0.61678
G1 X109.810 Y74.934 E0.02365
G1 X109.810 Y95.223 E0.63613
G1 X110.564 Y95.840 E0.03055
G1 X110.564 Y74.934 E0.65547
G1 X111.131 Y74.934 E0.01777
G1 X111.131 Y77.229 E0.07195
G1 X111.318 Y77.229 E0.00588
G1 X111.318 Y96.457 E0.60286
G1 X112.072 Y97.074 E0.03055
G1 X112.072 Y77.229 E0.62221
G1 X112.826 Y77.229 E0.02365
G1 X112.826 Y97.691 E0.64156
G1 X113.581 Y98.308 E0.03055
G1 X113.581 Y79.524 E0.58895
G1 X114.335 Y79.524 E0.02365
G1 X114.335 Y98.925 E0.60829
G1 X115.089 Y99.542 E0.03055
G1 X115.089 Y79.524 E0.62764
G1 X115.843 Y79.524 E0.02365
G1 X115.843 Y100.159 E0.64698
G1 X116.597 Y100.776 E0.03055
G1 X116.597 Y79.524 E0.66633
G1 X117.351 Y79.524 E0.02365
G1 X117.351 Y101.393 E0.68568
G1 X117.490 Y101.506 E0.00561
G1 X118.015 Y101.506 E0.01648
G1 X118.015 Y99.211 E0.07195
G1 X118.105 Y99.211 E0.00283
G1 X118.105 Y81.819 E0.54532
G1 X118.860 Y81.819 E0.02365
G1 X118.860 Y99.211 E0.54532
G1 X119.614 Y99.211 E0.02365
G1 X119.614 Y81.819 E0.54532
G1 X120.310 Y81.819 E0.02183
G1 X120.310 Y86.409 E0.14391
G1 X120.368 Y86.409 E0.00181
G1 X120.368 Y94.621 E0.25750
G1 X121.122 Y94.621 E0.02365
G1 X121.122 Y86.409 E0.25750
G1 X121.876 Y86.409 E0.02365
G1 X121.876 Y94.791 E0.26282
G1 E-0.80000 F2100.00000
G1 Z0.800 F10800.000
G1 X206.342 Y200.356
G1 Z0.200
G1 E0.80000 F2100.00000
G1 F1200.000
G1 X206.342 Y189.679 E0.33477
G1 X207.096 Y189.679 E0.02365
G1 X207.096 Y200.186 E0.32945
G1 X207.850 Y200.186 E0.02365
G1 X207.850 Y189.679 E0.32945
G1 X208.483 Y189.679 E0.01983
G1 X208.483 Y187.384 E0.07195
G1 X208.605 Y187.384 E0.00381
G1 X208.605 Y202.481 E0.47336
G1 X209.359 Y202.481 E0.02365
G1 X209.359 Y187.384 E0.47336
G1 X210.113 Y187.384 E0.02365
G1 X210.113 Y202.481 E0.47336
G1 X210.778 Y202.481 E0.02085
G1 X210.778 Y204.776 E0.07195
G1 X210.867 Y204.776 E0.00280
G1 X210.867 Y185.089 E0.61727
G1 X211.621 Y185.089 E0.02365
G1 X211.621 Y204.776 E0.61727
G1 X212.375 Y204.776 E0.02365
G1 X212.375 Y185.089 E0.61727
G1 X213.073 Y185.089 E0.02187
G1 X213.073 Y180.499 E0.14391
G1 X213.129 Y180.499 E0.00178
G1 X213.129 Y207.071 E0.83314
G1 X213.884 Y207.071 E0.02365
G1 X213.884 Y180.499 E0.83314
G1 X214.638 Y180.499 E0.02365
G1 X214.638 Y207.071 E0.83314
G1 X215.392 Y207.071 E0.02365
G1 X215.392 Y180.499 E0.83314
G1 X216.146 Y180.499 E0.02365
G1 X216.146 Y207.071 E0.83314
G1 X216.900 Y207.071 E0.02365
G1 X216.900 Y180.499 E0.83314
G1 X217.654 Y180.499 E0.02365
G1 X217.654 Y207.071 E0.83314
G1 X218.409 Y207.071 E0.02365
G1 X218.409 Y180.499 E0.83314
G1 X219.163 Y180.499 E0.02365
G1 X219.163 Y207.071 E0.83314
G1 X219.917 Y207.071 E0.02365
G1 X219.917 Y180.499 E0.83314
G1 X220.671 Y180.499 E0.02365
G1 X220.671 Y207.071 E0.83314
G1 X221.425 Y207.071 E0.02365
G1 X221.425 Y180.499 E0.83314
G1 X222.179 Y180.499 E0.02365
G1 X222.179 Y207.071 E0.83314
M73 P1 R115
G1 X222.934 Y207.071 E0.02365
G1 X222.934 Y180.499 E0.83314
G1 X223.688 Y180.499 E0.02365
G1 X223.688 Y207.071 E0.83314
G1 X224.442 Y207.071 E0.02365
G1 X224.442 Y180.499 E0.83314
G1 X225.196 Y180.499 E0.02365
G1 X225.196 Y207.071 E0.83314
G1 X225.950 Y207.071 E0.02365
G1 X225.950 Y182.794 E0.76118
G1 X226.704 Y182.794 E0.02365
G1 X226.704 Y207.071 E0.76118
G1 X227.459 Y207.071 E0.02365
G1 X227.459 Y182.794 E0.76118
G1 X228.213 Y182.794 E0.02365
G1 X228.213 Y204.776 E0.68923
G1 X228.967 Y204.776 E0.02365
G1 X228.967 Y182.794 E0.68923
G1 X229.721 Y182.794 E0.02365
G1 X229.721 Y204.776 E0.68923
G1 X230.465 Y204.776 E0.02332
G1 X230.475 Y185.089 E0.61727
G1 X231.229 Y185.089 E0.02365
G1 X231.229 Y202.481 E0.54532
G1 X231.983 Y202.481 E0.02365
G1 X231.983 Y185.089 E0.54532
G1 X232.738 Y185.089 E0.02365
G1 X232.738 Y202.651 E0.55064
G1 E-0.80000 F2100.00000
G1 Z0.800 F10800.000
G1 X208.880 Y180.413
G1 Z0.200
G1 E0.80000 F2100.00000
G1 F1200.000
G1 X202.448 Y175.151 E0.26055
G1 X198.285 Y180.239 E0.20613
G1 X204.717 Y185.501 E0.26055
G1 X203.497 Y186.992 E0.06038
G1 X32.446 Y47.046 E6.92946
G1 X39.048 Y38.977 E0.32690
G1 X75.574 Y68.861 E1.47971
G1 X92.139 Y68.997 E0.51941
G1 X95.562 Y71.798 E0.13866
G1 X88.987 Y79.834 E0.32557
G1 X210.099 Y178.922 E4.90639
G1 X208.918 Y180.366 E0.05850
G1 E-0.80000 F2100.00000
G1 Z0.800 F10800.000
G1 X89.517 Y79.781
G1 Z0.200
G1 E0.80000 F2100.00000
G1 F1200.000
G1 X210.630 Y178.869 E4.90639
G1 X208.933 Y180.943 E0.08403
G1 X202.501 Y175.682 E0.26055
G1 X198.816 Y180.186 E0.18248
G1 X205.248 Y185.448 E0.26055
G1 X203.550 Y187.522 E0.08403
G1 X31.915 Y47.099 E6.95311
M73 P2 R114
G1 X38.995 Y38.446 E0.35054
G1 X75.710 Y68.485 E1.48737
G1 X92.275 Y68.621 E0.51941
G1 X96.092 Y71.745 E0.15465
G1 X89.555 Y79.735 E0.32369
G1 X89.312 Y80.125 F10800.000
G1 E-0.80000 F2100.00000
G1 Z0.800 F10800.000
G1 X95.260 Y71.988
G1 Z0.200
G1 E0.80000 F2100.00000
G1 F1200.000
G1 X94.864 Y71.592 E0.01763
G1 X92.037 Y69.279 E0.11490
G1 X92.016 Y69.279 E0.00067
G1 X94.898 Y72.162 E0.12827
G1 X94.658 Y72.456 E0.01196
G1 X91.476 Y69.275 E0.14156
G1 X90.937 Y69.270 E0.01698
G1 X94.417 Y72.751 E0.15485
G1 X94.176 Y73.045 E0.01196
G1 X90.397 Y69.266 E0.16815
G1 X89.858 Y69.261 E0.01698
G1 X93.935 Y73.339 E0.18144
G1 X93.694 Y73.633 E0.01196
G1 X89.318 Y69.257 E0.19474
G1 X88.778 Y69.253 E0.01698
G1 X93.454 Y73.928 E0.20803
G1 X93.213 Y74.222 E0.01196
G1 X88.239 Y69.248 E0.22132
G1 X87.699 Y69.244 E0.01698
G1 X92.972 Y74.516 E0.23462
G1 X92.731 Y74.811 E0.01196
G1 X87.160 Y69.239 E0.24791
G1 X86.620 Y69.235 E0.01698
G1 X92.490 Y75.105 E0.26121
G1 X92.250 Y75.399 E0.01196
G1 X86.080 Y69.230 E0.27450
G1 X85.541 Y69.226 E0.01698
G1 X92.009 Y75.694 E0.28780
G1 X91.768 Y75.988 E0.01196
G1 X85.001 Y69.221 E0.30109
G1 X84.462 Y69.217 E0.01698
G1 X91.527 Y76.282 E0.31438
G1 X91.286 Y76.577 E0.01196
G1 X83.922 Y69.212 E0.32768
G1 X83.383 Y69.208 E0.01698
G1 X91.046 Y76.871 E0.34097
G1 X90.805 Y77.165 E0.01196
G1 X82.843 Y69.204 E0.35427
G1 X82.303 Y69.199 E0.01698
G1 X90.564 Y77.460 E0.36756
G1 X90.323 Y77.754 E0.01196
G1 X81.764 Y69.195 E0.38086
G1 X81.224 Y69.190 E0.01698
G1 X90.082 Y78.048 E0.39415
G1 X89.842 Y78.343 E0.01196
G1 X80.685 Y69.186 E0.40744
G1 X80.145 Y69.181 E0.01698
G1 X89.601 Y78.637 E0.42074
G1 X89.360 Y78.931 E0.01196
G1 X79.606 Y69.177 E0.43403
G1 X79.066 Y69.172 E0.01698
G1 X89.119 Y79.226 E0.44733
G1 X88.878 Y79.520 E0.01196
G1 X78.526 Y69.168 E0.46062
G1 X77.987 Y69.164 E0.01698
G1 X159.243 Y150.419 E3.61555
G1 X162.185 Y152.827 E0.11962
G1 X92.130 Y82.772 E3.11717
G1 X95.073 Y85.179 E0.11962
G1 X165.128 Y155.234 E3.11717
G1 X168.071 Y157.642 E0.11962
G1 X98.015 Y87.587 E3.11717
G1 X100.958 Y89.994 E0.11962
G1 X171.013 Y160.049 E3.11717
G1 X173.956 Y162.457 E0.11962
G1 X103.901 Y92.402 E3.11717
G1 X106.843 Y94.809 E0.11962
G1 X176.898 Y164.864 E3.11717
G1 X179.841 Y167.272 E0.11962
G1 X109.786 Y97.217 E3.11717
G1 X112.728 Y99.624 E0.11962
M73 P3 R113
G1 X182.784 Y169.679 E3.11717
G1 X185.726 Y172.087 E0.11962
G1 X115.671 Y102.032 E3.11717
G1 X118.614 Y104.439 E0.11962
G1 X188.669 Y174.494 E3.11717
G1 X191.611 Y176.902 E0.11962
G1 X121.556 Y106.846 E3.11717
G1 X124.499 Y109.254 E0.11962
G1 X194.554 Y179.309 E3.11717
G1 X197.497 Y181.717 E0.11962
G1 X127.441 Y111.661 E3.11717
G1 X130.384 Y114.069 E0.11962
G1 X200.439 Y184.124 E3.11717
G1 X203.382 Y186.532 E0.11962
G1 X133.327 Y116.476 E3.11717
G1 X136.269 Y118.884 E0.11962
G1 X203.692 Y186.307 E3.00005
G1 X203.933 Y186.013 E0.01196
G1 X199.603 Y181.682 E0.19268
G1 X197.887 Y180.279 E0.06973
G1 X198.028 Y180.107 E0.00697
G1 X139.212 Y121.291 E2.61707
G1 X142.154 Y123.699 E0.11962
G1 X198.269 Y179.813 E2.49685
G1 X198.509 Y179.519 E0.01196
G1 X145.097 Y126.106 E2.37663
G1 X148.040 Y128.514 E0.11962
G1 X198.750 Y179.224 E2.25641
M73 P4 R112
G1 X198.991 Y178.930 E0.01196
G1 X150.982 Y130.921 E2.13619
G1 X153.925 Y133.329 E0.11962
G1 X199.232 Y178.636 E2.01597
G1 X199.473 Y178.341 E0.01196
G1 X156.868 Y135.736 E1.89575
G1 X159.810 Y138.144 E0.11962
G1 X199.713 Y178.047 E1.77553
G1 X199.954 Y177.753 E0.01196
G1 X162.753 Y140.551 E1.65531
G1 X165.695 Y142.959 E0.11962
G1 X200.195 Y177.458 E1.53509
G1 X200.436 Y177.164 E0.01196
G1 X168.638 Y145.366 E1.41487
G1 X171.581 Y147.774 E0.11962
G1 X200.677 Y176.870 E1.29465
G1 X200.917 Y176.575 E0.01196
G1 X174.523 Y150.181 E1.17443
G1 X177.466 Y152.589 E0.11962
G1 X201.158 Y176.281 E1.05421
G1 X201.399 Y175.987 E0.01196
G1 X180.408 Y154.996 E0.93399
G1 X183.351 Y157.404 E0.11962
G1 X201.640 Y175.692 E0.81378
G1 X201.881 Y175.398 E0.01196
G1 X186.294 Y159.811 E0.69356
