; generated by PrusaSlicer 2.1.1+win64 on 2020-02-28 at 20:15:46 UTC

; 

; external perimeters extrusion width = 0.45mm
; perimeters extrusion width = 0.45mm
; infill extrusion width = 0.45mm
; solid infill extrusion width = 0.45mm
; top infill extrusion width = 0.40mm
; support material extrusion width = 0.35mm
; first layer extrusion width = 0.42mm

M73 P0 R74
M201 X9000 Y9000 Z500 E10000 ; sets maximum accelerations, mm/sec^2
M203 X500 Y500 Z12 E120 ; sets maximum feedrates, mm/sec
M204 P2000 R1500 T2000 ; sets acceleration (P, T) and retract acceleration (R), mm/sec^2
M205 X10.00 Y10.00 Z0.20 E2.50 ; sets the jerk limits, mm/sec
M205 S0 T0 ; sets the minimum extruding and travel feed rate, mm/sec
M107
M862.3 P "MK2S" ; printer model check
M862.1 P0.4 ; nozzle diameter check
M115 U3.2.3 ; tell printer latest fw version
G90 ; use absolute coordinates
M83 ; extruder relative mode
M204 S2000 T1500 ; MK2 firmware only supports the old M204 format
M104 S215 ; set extruder temp
M140 S60 ; set bed temp
M190 S60 ; wait for bed temp
M109 S215 ; wait for extruder temp
G28 W ; home all without mesh bed level
G80 ; mesh bed leveling
G1 Y-3.0 F1000.0 ; go outside print area
G92 E0.0
G1 X60.0 E9.0  F1000.0 ; intro line
M73 P0 R74
G1 X100.0 E12.5 F1000.0 ; intro line
G92 E0.0
G21 ; set units to millimeters
G90 ; use absolute coordinates
M83 ; use relative distances for extrusion
M900 K30 ; Filament gcode
;BEFORE_LAYER_CHANGE
G92 E0.0
;0.2


G1 E-0.80000 F2100.00000
G1 Z0.600 F10800.000
;AFTER_LAYER_CHANGE
;0.2
G1 X120.887 Y148.995
G1 Z0.200
G1 E0.80000 F2100.00000
M204 S1000
G1 F1200
G1 X112.392 Y147.418 E0.27092
G1 X111.814 Y147.218 E0.01919
G1 X111.348 Y146.897 E0.01771
G1 X107.957 Y143.750 E0.14508
G1 X105.685 Y141.189 E0.10733
G1 X90.933 Y112.024 E1.02477
G1 X88.362 Y104.717 E0.24288
G1 X87.513 Y101.794 E0.09544
G1 X87.439 Y101.282 E0.01623
G1 X87.546 Y100.548 E0.02326
G1 X97.009 Y71.823 E0.94826
G1 X97.363 Y70.938 E0.02986
G1 X97.953 Y69.876 E0.03813
G1 X98.507 Y69.129 E0.02914
G1 X99.209 Y68.396 E0.03182
G1 X100.109 Y67.685 E0.03597
G1 X100.896 Y67.222 E0.02861
G1 X101.978 Y66.779 E0.03668
G1 X102.967 Y66.549 E0.03183
G1 X103.795 Y66.482 E0.02604
G1 X124.751 Y67.211 E0.65747
G1 X131.595 Y69.408 E0.22539
G1 X160.632 Y89.761 E1.11181
G1 X170.023 Y99.175 E0.41692
G1 X170.258 Y99.612 E0.01555
G1 X170.390 Y100.094 E0.01567
G1 X170.409 Y100.593 E0.01567
G1 X170.315 Y101.083 E0.01567
G1 X157.653 Y138.441 E1.23678
G1 X157.220 Y139.274 E0.02941
G1 X156.771 Y139.887 E0.02383
G1 X156.229 Y140.455 E0.02463
G1 X155.632 Y140.936 E0.02402
G1 X154.470 Y141.573 E0.04158
G1 X153.613 Y141.856 E0.02829
G1 X120.946 Y148.983 E1.04834
G1 E-0.80000 F2100.00000
G1 Z0.800 F10800.000
G1 X148.256 Y132.695
G1 Z0.200
G1 E0.80000 F2100.00000
G1 F1200
G1 X148.547 Y132.184 E0.01844
G1 X148.955 Y131.705 E0.01973
G1 X149.414 Y131.296 E0.01927
G1 X150.090 Y130.863 E0.02517
G1 X150.659 Y130.613 E0.01949
G1 X151.274 Y130.440 E0.02003
G1 X151.881 Y130.358 E0.01920
G1 X152.494 Y130.358 E0.01924
G1 X153.116 Y130.444 E0.01969
G1 X153.703 Y130.609 E0.01911
G1 X154.264 Y130.852 E0.01916
G1 X154.795 Y131.175 E0.01949
G1 X155.413 Y131.698 E0.02538
G1 X155.801 Y132.148 E0.01864
G1 X156.121 Y132.629 E0.01811
G1 X156.304 Y133.089 E0.01553
G1 X156.740 Y135.008 E0.06169
G1 X157.279 Y137.598 E0.08296
G1 X157.287 Y137.781 E0.00574
G1 X157.143 Y138.415 E0.02038
G1 X156.781 Y139.048 E0.02286
G1 X156.376 Y139.592 E0.02127
G1 X155.909 Y140.081 E0.02122
G1 X155.344 Y140.537 E0.02275
G1 X154.807 Y140.871 E0.01983
G1 X154.237 Y141.139 E0.01975
G1 X153.598 Y141.352 E0.02111
G1 X152.864 Y141.494 E0.02344
G1 X152.135 Y141.536 E0.02289
G1 X151.453 Y141.486 E0.02146
G1 X150.794 Y141.355 E0.02105
G1 X150.218 Y141.169 E0.01900
G1 X149.637 Y140.904 E0.02002
G1 X149.014 Y140.522 E0.02292
G1 X148.455 Y140.066 E0.02260
G1 X148.003 Y139.591 E0.02056
G1 X147.610 Y139.064 E0.02062
G1 X147.213 Y138.351 E0.02560
G1 X147.099 Y137.568 E0.02480
G1 X147.586 Y135.038 E0.08077
G1 X148.088 Y132.990 E0.06614
G1 X148.226 Y132.747 E0.00875
G1 X148.448 Y133.106 F10800.000
G1 F1200
G1 X148.845 Y132.415 E0.02499
G1 X149.216 Y131.978 E0.01796
G1 X149.654 Y131.588 E0.01838
G1 X150.256 Y131.202 E0.02242
G1 X150.775 Y130.972 E0.01781
G1 X151.339 Y130.812 E0.01839
G1 X151.894 Y130.735 E0.01756
G1 X152.481 Y130.735 E0.01840
G1 X153.050 Y130.815 E0.01803
G1 X153.587 Y130.968 E0.01750
G1 X154.101 Y131.192 E0.01756
G1 X154.586 Y131.489 E0.01783
G1 X155.138 Y131.956 E0.02268
G1 X155.494 Y132.367 E0.01706
G1 X155.796 Y132.821 E0.01708
G1 X155.940 Y133.186 E0.01231
G1 X156.372 Y135.090 E0.06120
G1 X156.906 Y137.658 E0.08226
G1 X156.910 Y137.769 E0.00347
G1 X156.801 Y138.253 E0.01557
G1 X156.471 Y138.833 E0.02091
G1 X156.096 Y139.340 E0.01980
G1 X155.645 Y139.812 E0.02045
G1 X155.117 Y140.235 E0.02122
G1 X154.618 Y140.544 E0.01840
G1 X154.087 Y140.793 E0.01837
G1 X153.491 Y140.990 E0.01969
G1 X152.829 Y141.119 E0.02115
G1 X152.149 Y141.159 E0.02135
G1 X151.515 Y141.114 E0.01995
G1 X150.879 Y140.987 E0.02032
G1 X150.344 Y140.814 E0.01763
G1 X149.823 Y140.577 E0.01795
G1 X149.241 Y140.221 E0.02139
G1 X148.719 Y139.797 E0.02108
G1 X148.298 Y139.356 E0.01912
G1 X147.930 Y138.865 E0.01923
G1 X147.579 Y138.255 E0.02208
G1 X147.475 Y137.606 E0.02061
G1 X147.955 Y135.114 E0.07955
G1 X148.434 Y133.164 E0.06296
G1 X148.808 Y133.222 F10800.000
G1 F1200
G1 X149.143 Y132.646 E0.02091
G1 X149.494 Y132.232 E0.01702
G1 X149.892 Y131.880 E0.01665
G1 X150.422 Y131.540 E0.01975
G1 X150.892 Y131.331 E0.01613
G1 X151.406 Y131.183 E0.01676
G1 X151.909 Y131.112 E0.01593
G1 X152.443 Y131.110 E0.01674
G1 X152.961 Y131.182 E0.01641
G1 X153.449 Y131.319 E0.01587
G1 X153.937 Y131.532 E0.01672
G1 X154.376 Y131.802 E0.01614
G1 X154.863 Y132.215 E0.02002
G1 X155.187 Y132.587 E0.01547
G1 X155.471 Y133.012 E0.01602
G1 X155.575 Y133.282 E0.00908
G1 X156.003 Y135.171 E0.06074
G1 X156.533 Y137.714 E0.08144
G1 X156.459 Y138.093 E0.01209
G1 X156.161 Y138.618 E0.01895
G1 X155.814 Y139.088 E0.01831
G1 X155.381 Y139.542 E0.01966
G1 X154.891 Y139.933 E0.01967
G1 X154.430 Y140.217 E0.01698
G1 X153.939 Y140.446 E0.01699
G1 X153.386 Y140.628 E0.01826
G1 X152.770 Y140.746 E0.01964
G1 X152.163 Y140.782 E0.01908
G1 X151.576 Y140.742 E0.01846
G1 X150.985 Y140.625 E0.01889
G1 X150.471 Y140.458 E0.01692
G1 X149.991 Y140.238 E0.01657
G1 X149.469 Y139.919 E0.01919
G1 X148.983 Y139.528 E0.01955
G1 X148.579 Y139.104 E0.01837
G1 X148.239 Y138.649 E0.01779
G1 X147.924 Y138.097 E0.01994
G1 X147.852 Y137.645 E0.01437
G1 X148.324 Y135.190 E0.07838
G1 X148.793 Y133.281 E0.06165
G1 X149.167 Y133.341 F10800.000
G1 F1200
G1 X149.458 Y132.855 E0.01777
G1 X149.772 Y132.488 E0.01514
G1 X150.130 Y132.173 E0.01496
G1 X150.590 Y131.878 E0.01713
G1 X151.011 Y131.689 E0.01447
G1 X151.473 Y131.555 E0.01508
G1 X151.948 Y131.487 E0.01507
G1 X152.429 Y131.487 E0.01506
G1 X152.895 Y131.553 E0.01477
G1 X153.333 Y131.678 E0.01426
G1 X153.773 Y131.872 E0.01508
G1 X154.165 Y132.115 E0.01447
G1 X154.588 Y132.474 E0.01740
G1 X154.895 Y132.825 E0.01462
G1 X155.144 Y133.201 E0.01414
G1 X155.210 Y133.377 E0.00590
G1 X155.635 Y135.253 E0.06032
G1 X156.152 Y137.736 E0.07952
G1 X156.114 Y137.936 E0.00637
G1 X155.839 Y138.422 E0.01753
G1 X155.519 Y138.854 E0.01686
G1 X155.135 Y139.256 E0.01740
G1 X154.683 Y139.619 E0.01818
G1 X154.242 Y139.890 E0.01625
G1 X153.791 Y140.099 E0.01559
G1 X153.280 Y140.266 E0.01684
G1 X152.735 Y140.371 E0.01740
G1 X152.175 Y140.405 E0.01758
G1 X151.636 Y140.369 E0.01696
G1 X151.089 Y140.263 E0.01746
G1 X150.618 Y140.111 E0.01552
G1 X150.158 Y139.900 E0.01587
G1 X149.695 Y139.618 E0.01700
G1 X149.247 Y139.257 E0.01803
G1 X148.874 Y138.869 E0.01688
G1 X148.549 Y138.433 E0.01705
G1 X148.268 Y137.941 E0.01777
G1 X148.228 Y137.684 E0.00815
G1 X148.694 Y135.266 E0.07721
G1 X149.152 Y133.399 E0.06028
G1 X149.526 Y133.461 F10800.000
G1 F1200
G1 X149.769 Y133.067 E0.01452
G1 X150.048 Y132.745 E0.01335
G1 X150.367 Y132.467 E0.01328
G1 X150.759 Y132.216 E0.01458
G1 X151.131 Y132.047 E0.01281
G1 X151.541 Y131.926 E0.01341
G1 X151.964 Y131.864 E0.01340
G1 X152.391 Y131.863 E0.01340
G1 X152.805 Y131.920 E0.01310
G1 X153.216 Y132.037 E0.01340
G1 X153.607 Y132.211 E0.01340
G1 X153.953 Y132.427 E0.01281
G1 X154.314 Y132.733 E0.01485
G1 X154.588 Y133.044 E0.01298
G1 X154.815 Y133.388 E0.01293
G1 X154.844 Y133.469 E0.00270
G1 X155.267 Y135.336 E0.06001
G1 X155.775 Y137.722 E0.07648
G1 X155.766 Y137.785 E0.00200
G1 X155.516 Y138.226 E0.01589
G1 X155.223 Y138.619 E0.01538
G1 X154.872 Y138.986 E0.01591
G1 X154.475 Y139.304 E0.01597
G1 X154.073 Y139.553 E0.01482
G1 X153.643 Y139.752 E0.01486
G1 X153.176 Y139.903 E0.01539
G1 X152.677 Y139.998 E0.01593
G1 X152.187 Y140.028 E0.01538
G1 X151.695 Y139.997 E0.01547
G1 X151.194 Y139.900 E0.01600
G1 X150.745 Y139.755 E0.01480
G1 X150.326 Y139.563 E0.01445
G1 X149.903 Y139.303 E0.01559
G1 X149.510 Y138.987 E0.01578
G1 X149.154 Y138.617 E0.01611
G1 X148.859 Y138.218 E0.01555
G1 X148.614 Y137.786 E0.01559
G1 X148.605 Y137.724 E0.00194
G1 X149.063 Y135.342 E0.07607
G1 X149.511 Y133.519 E0.05885
G1 E-0.80000 F2100.00000
G1 Z0.800 F10800.000
G1 X112.944 Y76.417
G1 Z0.200
G1 E0.80000 F2100.00000
G1 F1200
G1 X113.181 Y75.689 E0.02402
G1 X117.125 Y70.261 E0.21038
G1 X117.504 Y69.934 E0.01569
G1 X117.627 Y69.865 E0.00443
G1 X124.137 Y67.728 E0.21482
G1 X124.905 Y67.728 E0.02408
G1 X131.286 Y69.801 E0.21038
G1 X131.708 Y70.057 E0.01548
G1 X132.090 Y70.496 E0.01824
G1 X135.858 Y75.682 E0.20099
G1 X136.051 Y76.144 E0.01569
G1 X136.078 Y76.282 E0.00443
G1 X136.099 Y83.134 E0.21482
G1 X135.861 Y83.866 E0.02413
G1 X131.817 Y89.396 E0.21482
G1 X131.714 Y89.493 E0.00443
G1 X131.286 Y89.752 E0.01569
G1 X124.912 Y91.823 E0.21012
G1 X124.414 Y91.865 E0.01569
G1 X124.274 Y91.847 E0.00443
G1 X117.751 Y89.750 E0.21482
G1 X117.128 Y89.298 E0.02413
G1 X113.118 Y83.742 E0.21482
G1 X113.058 Y83.615 E0.00443
G1 X112.944 Y83.127 E0.01569
G1 X112.944 Y76.477 E0.20850
G1 X113.321 Y76.447 F10800.000
G1 F1200
G1 X113.503 Y75.887 E0.01848
G1 X117.416 Y70.501 E0.20871
G1 X117.732 Y70.235 E0.01297
G1 X124.226 Y68.096 E0.21438
G1 X124.816 Y68.095 E0.01851
G1 X131.147 Y70.152 E0.20871
G1 X131.482 Y70.360 E0.01238
G1 X131.788 Y70.722 E0.01485
G1 X135.539 Y75.885 E0.20008
G1 X135.695 Y76.268 E0.01297
G1 X135.722 Y83.105 E0.21438
G1 X135.539 Y83.667 E0.01854
G1 X131.498 Y89.183 E0.21438
G1 X131.147 Y89.401 E0.01297
G1 X124.819 Y91.457 E0.20863
G1 X124.373 Y91.483 E0.01400
G1 X117.895 Y89.400 E0.21334
G1 X117.416 Y89.053 E0.01854
G1 X113.420 Y83.505 E0.21438
G1 X113.321 Y83.104 E0.01297
G1 X113.321 Y76.507 E0.20683
G1 X113.698 Y76.477 F10800.000
G1 F1200
G1 X113.826 Y76.084 E0.01295
G1 X117.706 Y70.743 E0.20698
G1 X117.929 Y70.560 E0.00906
G1 X124.315 Y68.463 E0.21075
G1 X124.728 Y68.463 E0.01295
G1 X131.006 Y70.503 E0.20698
G1 X131.252 Y70.660 E0.00913
G1 X131.485 Y70.947 E0.01159
G1 X135.219 Y76.086 E0.19918
G1 X135.324 Y76.355 E0.00906
G1 X135.345 Y83.076 E0.21075
G1 X135.217 Y83.469 E0.01295
G1 X131.250 Y88.894 E0.21075
G1 X131.006 Y89.050 E0.00906
G1 X124.726 Y91.091 E0.20705
G1 X124.438 Y91.108 E0.00906
G1 X118.039 Y89.051 E0.21075
G1 X117.705 Y88.808 E0.01295
G1 X113.771 Y83.358 E0.21075
G1 X113.698 Y83.078 E0.00906
G1 X113.698 Y76.537 E0.20510
G1 X114.075 Y76.507 F10800.000
G1 F1200
G1 X114.148 Y76.282 E0.00741
G1 X117.994 Y70.988 E0.20518
G1 X118.134 Y70.878 E0.00558
G1 X124.404 Y68.831 E0.20678
G1 X124.640 Y68.831 E0.00741
G1 X130.863 Y70.853 E0.20518
G1 X131.014 Y70.954 E0.00567
G1 X134.897 Y76.285 E0.20681
G1 X134.959 Y76.452 E0.00558
G1 X134.968 Y83.047 E0.20678
G1 X134.895 Y83.271 E0.00740
G1 X131.011 Y88.601 E0.20678
G1 X130.863 Y88.700 E0.00558
G1 X124.636 Y90.723 E0.20529
G1 X124.458 Y90.730 E0.00558
G1 X118.183 Y88.701 E0.20678
G1 X117.992 Y88.562 E0.00740
G1 X114.123 Y83.222 E0.20678
G1 X114.075 Y83.050 E0.00558
G1 X114.075 Y76.567 E0.20329
G1 X114.452 Y76.536 F10800.000
G1 F1200
G1 X114.538 Y76.387 E0.00539
G1 X118.280 Y71.236 E0.19961
G1 X118.328 Y71.201 E0.00187
G1 X124.492 Y69.199 E0.20320
G1 X124.551 Y69.199 E0.00187
G1 X130.715 Y71.201 E0.20320
G1 X130.763 Y71.236 E0.00187
G1 X134.572 Y76.479 E0.20320
G1 X134.591 Y76.536 E0.00187
G1 X134.591 Y83.017 E0.20320
G1 X134.572 Y83.074 E0.00187
G1 X134.462 Y83.226 E0.00592
G1 X130.763 Y88.317 E0.19728
G1 X130.715 Y88.352 E0.00187
G1 X124.551 Y90.354 E0.20320
G1 X124.492 Y90.354 E0.00187
G1 X118.328 Y88.352 E0.20320
G1 X118.280 Y88.317 E0.00187
G1 X114.471 Y83.074 E0.20320
G1 X114.452 Y83.017 E0.00187
G1 X114.452 Y76.596 E0.20132
G1 E-0.80000 F2100.00000
G1 Z0.800 F10800.000
G1 X97.282 Y72.622
G1 Z0.200
G1 E0.80000 F2100.00000
G1 F1200
G1 X97.579 Y71.688 E0.03071
G1 X97.993 Y70.774 E0.03145
G1 X98.402 Y70.087 E0.02509
G1 X98.668 Y69.715 E0.01433
G1 X99.013 Y69.296 E0.01702
G1 X99.293 Y68.998 E0.01283
G1 X99.769 Y68.558 E0.02031
G1 X100.446 Y68.050 E0.02654
G1 X101.096 Y67.672 E0.02357
G1 X101.530 Y67.469 E0.01502
G1 X102.170 Y67.235 E0.02136
G1 X102.691 Y67.099 E0.01691
G1 X103.064 Y67.031 E0.01186
G1 X103.477 Y66.986 E0.01304
G1 X103.953 Y66.976 E0.01493
G1 X104.415 Y67.002 E0.01451
G1 X104.863 Y67.069 E0.01420
G1 X105.400 Y67.199 E0.01733
G1 X105.828 Y67.343 E0.01415
G1 X106.358 Y67.569 E0.01806
G1 X106.735 Y67.766 E0.01336
G1 X107.310 Y68.131 E0.02135
G1 X107.665 Y68.397 E0.01389
G1 X108.275 Y68.949 E0.02581
G1 X108.573 Y69.271 E0.01373
G1 X109.045 Y69.873 E0.02399
G1 X109.532 Y70.666 E0.02920
G1 X109.795 Y71.215 E0.01907
G1 X110.013 Y71.770 E0.01869
G1 X110.208 Y72.410 E0.02098
G1 X110.410 Y73.418 E0.03224
G1 X110.495 Y74.304 E0.02792
G1 X110.469 Y75.472 E0.03662
G1 X110.278 Y76.035 E0.01866
G1 X109.935 Y76.786 E0.02588
G1 X109.681 Y77.257 E0.01677
G1 X109.488 Y77.563 E0.01135
G1 X109.543 Y77.828 E0.00847
G1 X109.526 Y78.332 E0.01583
G1 X109.328 Y78.918 E0.01939
G1 X109.201 Y79.110 E0.00722
G1 X108.754 Y79.559 E0.01988
G1 X108.069 Y79.922 E0.02431
G1 X107.337 Y80.133 E0.02387
G1 X107.065 Y80.138 E0.00855
G1 X106.747 Y80.072 E0.01017
G1 X106.459 Y79.935 E0.01002
G1 X105.870 Y79.443 E0.02404
G1 X105.711 Y79.220 E0.00859
G1 X105.585 Y78.920 E0.01020
G1 X105.536 Y78.604 E0.01003
G1 X105.663 Y77.175 E0.04499
G1 X105.770 Y76.661 E0.01645
G1 X105.985 Y75.852 E0.02625
G1 X106.154 Y74.837 E0.03228
G1 X106.253 Y74.367 E0.01505
G1 X106.154 Y74.074 E0.00968
G1 X106.133 Y73.712 E0.01136
G1 X106.099 Y73.492 E0.00700
G1 X105.969 Y73.003 E0.01586
G1 X105.828 Y72.666 E0.01146
G1 X105.660 Y72.379 E0.01042
G1 X105.426 Y72.086 E0.01175
G1 X105.086 Y71.800 E0.01394
G1 X104.810 Y71.652 E0.00983
G1 X104.565 Y71.568 E0.00811
G1 X104.412 Y71.543 E0.00486
G1 X103.912 Y71.558 E0.01570
G1 X103.321 Y71.495 E0.01862
G1 X103.149 Y71.519 E0.00544
G1 X102.893 Y71.595 E0.00837
G1 X102.587 Y71.746 E0.01073
G1 X102.406 Y71.872 E0.00691
G1 X102.127 Y72.132 E0.01196
G1 X101.960 Y72.339 E0.00832
G1 X101.767 Y72.654 E0.01157
G1 X101.623 Y72.974 E0.01103
G1 X101.512 Y73.316 E0.01126
G1 X101.381 Y73.942 E0.02004
G1 X101.268 Y74.168 E0.00793
G1 X101.347 Y74.763 E0.01882
G1 X101.421 Y75.634 E0.02742
G1 X101.627 Y76.881 E0.03962
G1 X101.621 Y78.480 E0.05012
G1 X101.549 Y78.742 E0.00854
G1 X101.398 Y79.029 E0.01016
G1 X101.257 Y79.202 E0.00697
G1 X100.505 Y79.718 E0.02862
G1 X100.292 Y79.786 E0.00701
G1 X99.967 Y79.824 E0.01024
G1 X99.650 Y79.782 E0.01005
G1 X98.977 Y79.515 E0.02270
G1 X98.438 Y79.186 E0.01982
G1 X97.999 Y78.719 E0.02008
G1 X97.727 Y78.146 E0.01989
G1 X97.706 Y78.038 E0.00345
G1 X97.690 Y77.408 E0.01975
G1 X97.778 Y77.038 E0.01193
G1 X97.633 Y76.756 E0.00993
G1 X97.361 Y76.124 E0.02160
G1 X97.105 Y75.369 E0.02497
G1 X96.975 Y74.659 E0.02265
G1 X97.078 Y73.636 E0.03223
G1 X97.270 Y72.681 E0.03056
G1 X97.645 Y72.726 F10800.000
G1 F1200
G1 X97.928 Y71.833 E0.02936
G1 X98.322 Y70.958 E0.03010
G1 X98.714 Y70.300 E0.02401
G1 X98.964 Y69.950 E0.01349
G1 X99.293 Y69.549 E0.01626
G1 X99.554 Y69.270 E0.01200
G1 X100.018 Y68.841 E0.01979
G1 X100.646 Y68.370 E0.02462
G1 X101.264 Y68.009 E0.02243
G1 X101.668 Y67.820 E0.01399
G1 X102.273 Y67.597 E0.02023
G1 X102.779 Y67.466 E0.01639
G1 X103.494 Y67.363 E0.02265
G1 X103.940 Y67.353 E0.01397
