; generated by PrusaSlicer 2.2.0+win64 on 2021-01-29 at 19:01:54 UTC

; 

; external perimeters extrusion width = 0.60mm
; perimeters extrusion width = 0.43mm
; infill extrusion width = 0.45mm
; solid infill extrusion width = 0.70mm
; top infill extrusion width = 0.43mm
; first layer extrusion width = 0.42mm

M73 P0 R11
M201 X9000 Y9000 Z500 E10000 ; sets maximum accelerations, mm/sec^2
M203 X500 Y500 Z12 E120 ; sets maximum feedrates, mm/sec
M204 P2000 R1500 T2000 ; sets acceleration (P, T) and retract acceleration (R), mm/sec^2
M205 X10.00 Y10.00 Z0.20 E2.50 ; sets the jerk limits, mm/sec
M205 S0 T0 ; sets the minimum extruding and travel feed rate, mm/sec
M107
M862.3 P "MK2S" ; printer model check
M862.1 P0.4 ; nozzle diameter check
M115 U3.2.3 ; tell printer latest fw version
G90 ; use absolute coordinates
M83 ; extruder relative mode
M204 S2000 T1500 ; MK2 firmware only supports the old M204 format
M104 S215 ; set extruder temp
M140 S60 ; set bed temp
M190 S60 ; wait for bed temp
M109 S215 ; wait for extruder temp
G28 W ; home all without mesh bed level
G80 ; mesh bed leveling
G1 Y-3.0 F1000.0 ; go outside print area
G92 E0.0
G1 X60.0 E9.0  F1000.0 ; intro line
M73 P0 R11
G1 X100.0 E12.5 F1000.0 ; intro line
G92 E0.0
G21 ; set units to millimeters
G90 ; use absolute coordinates
M83 ; use relative distances for extrusion
M900 K0.05 ; Filament gcode LA 1.5
M900 K30 ; Filament gcode LA 1.0
;BEFORE_LAYER_CHANGE
G92 E0.0
;0.2


G1 E-0.80000 F2100.00000
G1 Z0.600 F10800.000
;AFTER_LAYER_CHANGE
;0.2
G1 X99.028 Y81.265
G1 Z0.200
G1 E0.80000 F2100.00000
M204 S1000
G1 F1200.000
G1 X99.365 Y80.710 E0.02036
G1 X99.843 Y80.265 E0.02048
G1 X100.420 Y79.967 E0.02036
G1 X101.060 Y79.837 E0.02048
G1 X122.004 Y79.832 E0.65668
G1 X122.529 Y79.892 E0.01657
G1 X123.031 Y80.068 E0.01668
G1 X149.839 Y92.971 E0.93284
G1 X150.278 Y93.251 E0.01633
G1 X150.644 Y93.616 E0.01621
G1 X151.028 Y94.301 E0.02461
G1 X151.167 Y95.069 E0.02449
G1 X151.168 Y114.918 E0.62235
G1 X150.972 Y115.840 E0.02954
G1 X150.517 Y116.529 E0.02590
G1 X149.857 Y117.020 E0.02579
G1 X122.639 Y130.080 E0.94655
G1 X122.011 Y130.168 E0.01989
G1 X101.198 Y130.168 E0.65259
G1 X100.265 Y129.972 E0.02989
G1 X99.689 Y129.618 E0.02119
G1 X99.239 Y129.120 E0.02107
G1 X98.945 Y128.515 E0.02107
G1 X98.833 Y127.853 E0.02107
G1 X98.832 Y82.198 E1.43147
G1 X99.016 Y81.324 E0.02801
; printing object Diffuser.STL id:0 copy 2
G1 E-0.80000 F2100.00000
G1 Z0.800 F10800.000
G1 X128.787 Y95.892
G1 Z0.200
G1 E0.80000 F2100.00000
G1 F1200.000
G1 X148.004 Y95.892 E0.60252
G1 X148.004 Y114.108 E0.57116
G1 X128.787 Y114.108 E0.60252
G1 X128.787 Y95.952 E0.56928
G1 X128.410 Y95.515 F10800.000
G1 F1200.000
G1 X148.381 Y95.515 E0.62616
G1 X148.381 Y114.485 E0.59481
G1 X128.410 Y114.485 E0.62616
G1 X128.410 Y95.575 E0.59293
G1 X128.797 Y95.615 F10800.000
G1 E-0.80000 F2100.00000
G1 Z0.800 F10800.000
G1 X147.890 Y96.773
G1 Z0.200
G1 E0.80000 F2100.00000
G1 F1200.000
G1 X147.292 Y96.175 E0.02671
G1 X146.755 Y96.175 E0.01696
G1 X147.721 Y97.140 E0.04312
G1 X147.721 Y97.677 E0.01696
G1 X146.218 Y96.175 E0.06710
G1 X145.681 Y96.175 E0.01696
G1 X147.721 Y98.214 E0.09108
G1 X147.721 Y98.751 E0.01696
G1 X145.144 Y96.175 E0.11506
G1 X144.607 Y96.175 E0.01696
G1 X147.721 Y99.288 E0.13905
G1 X147.721 Y99.825 E0.01696
G1 X144.070 Y96.175 E0.16303
G1 X143.533 Y96.175 E0.01696
G1 X147.721 Y100.362 E0.18701
G1 X147.721 Y100.899 E0.01696
G1 X142.996 Y96.175 E0.21099
G1 X142.459 Y96.175 E0.01696
G1 X147.721 Y101.437 E0.23497
G1 X147.721 Y101.974 E0.01696
G1 X141.922 Y96.175 E0.25895
G1 X141.385 Y96.175 E0.01696
G1 X147.721 Y102.511 E0.28293
G1 X147.721 Y103.048 E0.01696
G1 X140.848 Y96.175 E0.30692
G1 X140.311 Y96.175 E0.01696
G1 X147.721 Y103.585 E0.33090
G1 X147.721 Y104.122 E0.01696
G1 X139.774 Y96.175 E0.35488
G1 X139.237 Y96.175 E0.01696
G1 X147.721 Y104.659 E0.37886
G1 X147.721 Y105.196 E0.01696
G1 X138.700 Y96.175 E0.40284
G1 X138.162 Y96.175 E0.01696
G1 X147.721 Y105.733 E0.42682
G1 X147.721 Y106.270 E0.01696
G1 X137.625 Y96.175 E0.45081
G1 X137.088 Y96.175 E0.01696
G1 X147.721 Y106.807 E0.47479
G1 X147.721 Y107.344 E0.01696
G1 X136.551 Y96.175 E0.49877
G1 X136.014 Y96.175 E0.01696
G1 X147.721 Y107.881 E0.52275
G1 X147.721 Y108.418 E0.01696
G1 X135.477 Y96.175 E0.54673
G1 X134.940 Y96.175 E0.01696
G1 X147.721 Y108.955 E0.57071
G1 X147.721 Y109.492 E0.01696
G1 X134.403 Y96.175 E0.59470
G1 X133.866 Y96.175 E0.01696
G1 X147.721 Y110.029 E0.61868
G1 X147.721 Y110.566 E0.01696
G1 X133.329 Y96.175 E0.64266
G1 X132.792 Y96.175 E0.01696
G1 X147.721 Y111.103 E0.66664
G1 X147.721 Y111.640 E0.01696
G1 X132.255 Y96.175 E0.69062
G1 X131.718 Y96.175 E0.01696
G1 X147.721 Y112.177 E0.71460
G1 X147.721 Y112.714 E0.01696
G1 X131.181 Y96.175 E0.73859
G1 X130.644 Y96.175 E0.01696
G1 X147.721 Y113.251 E0.76257
G1 X147.721 Y113.788 E0.01696
G1 X130.107 Y96.175 E0.78655
G1 X129.570 Y96.175 E0.01696
G1 X147.221 Y113.825 E0.78820
G1 X146.684 Y113.825 E0.01696
G1 X129.070 Y96.212 E0.78654
G1 X129.070 Y96.749 E0.01696
G1 X146.147 Y113.825 E0.76256
G1 X145.610 Y113.825 E0.01696
G1 X129.070 Y97.286 E0.73858
G1 X129.070 Y97.823 E0.01696
G1 X145.072 Y113.825 E0.71460
G1 X144.535 Y113.825 E0.01696
G1 X129.070 Y98.360 E0.69062
G1 X129.070 Y98.897 E0.01696
G1 X143.998 Y113.825 E0.66664
G1 X143.461 Y113.825 E0.01696
G1 X129.070 Y99.434 E0.64265
G1 X129.070 Y99.971 E0.01696
G1 X142.924 Y113.825 E0.61867
G1 X142.387 Y113.825 E0.01696
G1 X129.070 Y100.508 E0.59469
G1 X129.070 Y101.045 E0.01696
G1 X141.850 Y113.825 E0.57071
G1 X141.313 Y113.825 E0.01696
G1 X129.070 Y101.582 E0.54673
G1 X129.070 Y102.119 E0.01696
G1 X140.776 Y113.825 E0.52275
G1 X140.239 Y113.825 E0.01696
G1 X129.070 Y102.656 E0.49876
G1 X129.070 Y103.193 E0.01696
G1 X139.702 Y113.825 E0.47478
G1 X139.165 Y113.825 E0.01696
G1 X129.070 Y103.730 E0.45080
G1 X129.070 Y104.267 E0.01696
G1 X138.628 Y113.825 E0.42682
M73 P9 R10
G1 X138.091 Y113.825 E0.01696
G1 X129.070 Y104.804 E0.40284
G1 X129.070 Y105.341 E0.01696
G1 X137.554 Y113.825 E0.37886
G1 X137.017 Y113.825 E0.01696
G1 X129.070 Y105.878 E0.35487
G1 X129.070 Y106.415 E0.01696
G1 X136.480 Y113.825 E0.33089
G1 X135.943 Y113.825 E0.01696
G1 X129.070 Y106.952 E0.30691
G1 X129.070 Y107.490 E0.01696
G1 X135.406 Y113.825 E0.28293
G1 X134.869 Y113.825 E0.01696
G1 X129.070 Y108.027 E0.25895
G1 X129.070 Y108.564 E0.01696
G1 X134.332 Y113.825 E0.23497
G1 X133.795 Y113.825 E0.01696
G1 X129.070 Y109.101 E0.21099
G1 X129.070 Y109.638 E0.01696
G1 X133.258 Y113.825 E0.18700
G1 X132.721 Y113.825 E0.01696
G1 X129.070 Y110.175 E0.16302
G1 X129.070 Y110.712 E0.01696
G1 X132.184 Y113.825 E0.13904
G1 X131.646 Y113.825 E0.01696
G1 X129.070 Y111.249 E0.11506
G1 X129.070 Y111.786 E0.01696
G1 X131.109 Y113.825 E0.09108
G1 X130.572 Y113.825 E0.01696
G1 X129.070 Y112.323 E0.06710
G1 X129.070 Y112.860 E0.01696
G1 X130.035 Y113.825 E0.04311
G1 X129.498 Y113.825 E0.01696
G1 X128.900 Y113.227 E0.02671
; stop printing object Diffuser.STL id:0 copy 2
; printing object Diffuser.STL id:0 copy 0
G1 E-0.80000 F2100.00000
G1 Z0.800 F10800.000
G1 X121.213 Y108.787
G1 Z0.200
G1 E0.80000 F2100.00000
G1 F1200.000
G1 X121.213 Y127.004 E0.57116
G1 X101.996 Y127.004 E0.60252
G1 X101.996 Y108.787 E0.57116
G1 X121.153 Y108.787 E0.60064
G1 X121.590 Y108.410 F10800.000
G1 F1200.000
G1 X121.590 Y127.381 E0.59481
G1 X101.619 Y127.381 E0.62616
G1 X101.619 Y108.410 E0.59481
G1 X121.530 Y108.410 E0.62428
G1 X121.483 Y108.795 F10800.000
G1 E-0.80000 F2100.00000
G1 Z0.800 F10800.000
G1 X102.110 Y126.123
G1 Z0.200
G1 E0.80000 F2100.00000
G1 F1200.000
G1 X102.708 Y126.721 E0.02671
G1 X103.245 Y126.721 E0.01696
G1 X102.279 Y125.755 E0.04311
G1 X102.279 Y125.218 E0.01696
G1 X103.782 Y126.721 E0.06710
G1 X104.319 Y126.721 E0.01696
G1 X102.279 Y124.681 E0.09108
G1 X102.279 Y124.144 E0.01696
G1 X104.856 Y126.721 E0.11506
G1 X105.393 Y126.721 E0.01696
G1 X102.279 Y123.607 E0.13904
G1 X102.279 Y123.070 E0.01696
G1 X105.930 Y126.721 E0.16302
G1 X106.467 Y126.721 E0.01696
G1 X102.279 Y122.533 E0.18700
G1 X102.279 Y121.996 E0.01696
G1 X107.004 Y126.721 E0.21099
G1 X107.541 Y126.721 E0.01696
G1 X102.279 Y121.459 E0.23497
G1 X102.279 Y120.922 E0.01696
G1 X108.078 Y126.721 E0.25895
G1 X108.615 Y126.721 E0.01696
G1 X102.279 Y120.385 E0.28293
G1 X102.279 Y119.848 E0.01696
G1 X109.152 Y126.721 E0.30691
G1 X109.689 Y126.721 E0.01696
G1 X102.279 Y119.311 E0.33089
G1 X102.279 Y118.774 E0.01696
G1 X110.226 Y126.721 E0.35487
G1 X110.763 Y126.721 E0.01696
G1 X102.279 Y118.237 E0.37886
G1 X102.279 Y117.700 E0.01696
G1 X111.300 Y126.721 E0.40284
G1 X111.837 Y126.721 E0.01696
G1 X102.279 Y117.163 E0.42682
G1 X102.279 Y116.626 E0.01696
G1 X112.374 Y126.721 E0.45080
G1 X112.911 Y126.721 E0.01696
G1 X102.279 Y116.088 E0.47478
G1 X102.279 Y115.551 E0.01696
G1 X113.449 Y126.721 E0.49876
G1 X113.986 Y126.721 E0.01696
G1 X102.279 Y115.014 E0.52275
G1 X102.279 Y114.477 E0.01696
G1 X114.523 Y126.721 E0.54673
G1 X115.060 Y126.721 E0.01696
G1 X102.279 Y113.940 E0.57071
G1 X102.279 Y113.403 E0.01696
G1 X115.597 Y126.721 E0.59469
G1 X116.134 Y126.721 E0.01696
G1 X102.279 Y112.866 E0.61867
G1 X102.279 Y112.329 E0.01696
G1 X116.671 Y126.721 E0.64265
G1 X117.208 Y126.721 E0.01696
G1 X102.279 Y111.792 E0.66664
G1 X102.279 Y111.255 E0.01696
G1 X117.745 Y126.721 E0.69062
G1 X118.282 Y126.721 E0.01696
G1 X102.279 Y110.718 E0.71460
G1 X102.279 Y110.181 E0.01696
G1 X118.819 Y126.721 E0.73858
G1 X119.356 Y126.721 E0.01696
G1 X102.279 Y109.644 E0.76256
G1 X102.279 Y109.107 E0.01696
G1 X119.893 Y126.721 E0.78654
G1 X120.430 Y126.721 E0.01696
G1 X102.779 Y109.070 E0.78820
G1 X103.316 Y109.070 E0.01696
G1 X120.930 Y126.684 E0.78655
G1 X120.930 Y126.147 E0.01696
G1 X103.853 Y109.070 E0.76257
G1 X104.390 Y109.070 E0.01696
G1 X120.930 Y125.610 E0.73859
G1 X120.930 Y125.073 E0.01696
G1 X104.927 Y109.070 E0.71460
G1 X105.464 Y109.070 E0.01696
G1 X120.930 Y124.536 E0.69062
G1 X120.930 Y123.999 E0.01696
G1 X106.001 Y109.070 E0.66664
G1 X106.539 Y109.070 E0.01696
G1 X120.930 Y123.461 E0.64266
G1 X120.930 Y122.924 E0.01696
G1 X107.076 Y109.070 E0.61868
G1 X107.613 Y109.070 E0.01696
G1 X120.930 Y122.387 E0.59470
G1 X120.930 Y121.850 E0.01696
G1 X108.150 Y109.070 E0.57071
G1 X108.687 Y109.070 E0.01696
G1 X120.930 Y121.313 E0.54673
G1 X120.930 Y120.776 E0.01696
G1 X109.224 Y109.070 E0.52275
G1 X109.761 Y109.070 E0.01696
G1 X120.930 Y120.239 E0.49877
G1 X120.930 Y119.702 E0.01696
G1 X110.298 Y109.070 E0.47479
G1 X110.835 Y109.070 E0.01696
G1 X120.930 Y119.165 E0.45081
G1 X120.930 Y118.628 E0.01696
G1 X111.372 Y109.070 E0.42682
G1 X111.909 Y109.070 E0.01696
G1 X120.930 Y118.091 E0.40284
G1 X120.930 Y117.554 E0.01696
G1 X112.446 Y109.070 E0.37886
G1 X112.983 Y109.070 E0.01696
G1 X120.930 Y117.017 E0.35488
G1 X120.930 Y116.480 E0.01696
G1 X113.520 Y109.070 E0.33090
G1 X114.057 Y109.070 E0.01696
G1 X120.930 Y115.943 E0.30692
G1 X120.930 Y115.406 E0.01696
G1 X114.594 Y109.070 E0.28293
G1 X115.131 Y109.070 E0.01696
G1 X120.930 Y114.869 E0.25895
G1 X120.930 Y114.332 E0.01696
G1 X115.668 Y109.070 E0.23497
G1 X116.205 Y109.070 E0.01696
G1 X120.930 Y113.795 E0.21099
G1 X120.930 Y113.258 E0.01696
G1 X116.742 Y109.070 E0.18701
G1 X117.279 Y109.070 E0.01696
G1 X120.930 Y112.721 E0.16303
G1 X120.930 Y112.184 E0.01696
G1 X117.816 Y109.070 E0.13905
G1 X118.353 Y109.070 E0.01696
G1 X120.930 Y111.647 E0.11506
M73 P19 R9
G1 X120.930 Y111.110 E0.01696
G1 X118.890 Y109.070 E0.09108
G1 X119.427 Y109.070 E0.01696
G1 X120.930 Y110.573 E0.06710
G1 X120.930 Y110.035 E0.01696
G1 X119.965 Y109.070 E0.04312
G1 X120.502 Y109.070 E0.01696
G1 X121.100 Y109.668 E0.02671
; stop printing object Diffuser.STL id:0 copy 0
; printing object Diffuser.STL id:0 copy 1
G1 E-0.80000 F2100.00000
G1 Z0.800 F10800.000
G1 X121.100 Y101.213
G1 Z0.200
G1 E0.80000 F2100.00000
G1 F1200.000
G1 X101.996 Y101.213 E0.59897
G1 X101.996 Y82.996 E0.57116
G1 X121.213 Y82.996 E0.60252
G1 X121.213 Y101.213 E0.57116
G1 X121.160 Y101.213 E0.00167
G1 X121.590 Y101.590 F10800.000
G1 F1200.000
G1 X101.619 Y101.590 E0.62616
G1 X101.619 Y82.619 E0.59481
G1 X121.590 Y82.619 E0.62616
G1 X121.590 Y101.530 E0.59293
G1 X121.203 Y101.490 F10800.000
G1 E-0.80000 F2100.00000
G1 Z0.800 F10800.000
G1 X102.110 Y100.332
G1 Z0.200
G1 E0.80000 F2100.00000
G1 F1200.000
G1 X102.708 Y100.930 E0.02671
G1 X103.245 Y100.930 E0.01696
G1 X102.279 Y99.965 E0.04311
G1 X102.279 Y99.428 E0.01696
G1 X103.782 Y100.930 E0.06710
G1 X104.319 Y100.930 E0.01696
G1 X102.279 Y98.891 E0.09108
G1 X102.279 Y98.354 E0.01696
G1 X104.856 Y100.930 E0.11506
G1 X105.393 Y100.930 E0.01696
G1 X102.279 Y97.816 E0.13904
G1 X102.279 Y97.279 E0.01696
G1 X105.930 Y100.930 E0.16302
G1 X106.467 Y100.930 E0.01696
G1 X102.279 Y96.742 E0.18700
G1 X102.279 Y96.205 E0.01696
G1 X107.004 Y100.930 E0.21099
G1 X107.541 Y100.930 E0.01696
G1 X102.279 Y95.668 E0.23497
G1 X102.279 Y95.131 E0.01696
G1 X108.078 Y100.930 E0.25895
G1 X108.615 Y100.930 E0.01696
G1 X102.279 Y94.594 E0.28293
G1 X102.279 Y94.057 E0.01696
G1 X109.152 Y100.930 E0.30691
G1 X109.689 Y100.930 E0.01696
G1 X102.279 Y93.520 E0.33089
G1 X102.279 Y92.983 E0.01696
G1 X110.226 Y100.930 E0.35487
G1 X110.763 Y100.930 E0.01696
G1 X102.279 Y92.446 E0.37886
G1 X102.279 Y91.909 E0.01696
G1 X111.300 Y100.930 E0.40284
G1 X111.837 Y100.930 E0.01696
G1 X102.279 Y91.372 E0.42682
G1 X102.279 Y90.835 E0.01696
G1 X112.374 Y100.930 E0.45080
G1 X112.911 Y100.930 E0.01696
G1 X102.279 Y90.298 E0.47478
G1 X102.279 Y89.761 E0.01696
G1 X113.449 Y100.930 E0.49876
G1 X113.986 Y100.930 E0.01696
G1 X102.279 Y89.224 E0.52275
G1 X102.279 Y88.687 E0.01696
G1 X114.523 Y100.930 E0.54673
G1 X115.060 Y100.930 E0.01696
G1 X102.279 Y88.150 E0.57071
G1 X102.279 Y87.613 E0.01696
G1 X115.597 Y100.930 E0.59469
G1 X116.134 Y100.930 E0.01696
G1 X102.279 Y87.076 E0.61867
G1 X102.279 Y86.539 E0.01696
G1 X116.671 Y100.930 E0.64265
G1 X117.208 Y100.930 E0.01696
G1 X102.279 Y86.002 E0.66664
G1 X102.279 Y85.465 E0.01696
G1 X117.745 Y100.930 E0.69062
G1 X118.282 Y100.930 E0.01696
G1 X102.279 Y84.927 E0.71460
G1 X102.279 Y84.390 E0.01696
G1 X118.819 Y100.930 E0.73858
G1 X119.356 Y100.930 E0.01696
G1 X102.279 Y83.853 E0.76256
G1 X102.279 Y83.316 E0.01696
G1 X119.893 Y100.930 E0.78654
G1 X120.430 Y100.930 E0.01696
G1 X102.779 Y83.279 E0.78820
G1 X103.316 Y83.279 E0.01696
G1 X120.930 Y100.893 E0.78655
G1 X120.930 Y100.356 E0.01696
G1 X103.853 Y83.279 E0.76257
G1 X104.390 Y83.279 E0.01696
G1 X120.930 Y99.819 E0.73859
G1 X120.930 Y99.282 E0.01696
G1 X104.927 Y83.279 E0.71460
G1 X105.464 Y83.279 E0.01696
G1 X120.930 Y98.745 E0.69062
G1 X120.930 Y98.208 E0.01696
G1 X106.001 Y83.279 E0.66664
G1 X106.539 Y83.279 E0.01696
G1 X120.930 Y97.671 E0.64266
G1 X120.930 Y97.134 E0.01696
G1 X107.076 Y83.279 E0.61868
G1 X107.613 Y83.279 E0.01696
G1 X120.930 Y96.597 E0.59470
G1 X120.930 Y96.060 E0.01696
G1 X108.150 Y83.279 E0.57071
G1 X108.687 Y83.279 E0.01696
G1 X120.930 Y95.523 E0.54673
G1 X120.930 Y94.986 E0.01696
G1 X109.224 Y83.279 E0.52275
G1 X109.761 Y83.279 E0.01696
G1 X120.930 Y94.449 E0.49877
G1 X120.930 Y93.912 E0.01696
G1 X110.298 Y83.279 E0.47479
G1 X110.835 Y83.279 E0.01696
G1 X120.930 Y93.375 E0.45081
G1 X120.930 Y92.838 E0.01696
G1 X111.372 Y83.279 E0.42682
G1 X111.909 Y83.279 E0.01696
G1 X120.930 Y92.300 E0.40284
G1 X120.930 Y91.763 E0.01696
G1 X112.446 Y83.279 E0.37886
G1 X112.983 Y83.279 E0.01696
G1 X120.930 Y91.226 E0.35488
G1 X120.930 Y90.689 E0.01696
G1 X113.520 Y83.279 E0.33090
G1 X114.057 Y83.279 E0.01696
G1 X120.930 Y90.152 E0.30692
G1 X120.930 Y89.615 E0.01696
G1 X114.594 Y83.279 E0.28293
G1 X115.131 Y83.279 E0.01696
G1 X120.930 Y89.078 E0.25895
G1 X120.930 Y88.541 E0.01696
G1 X115.668 Y83.279 E0.23497
G1 X116.205 Y83.279 E0.01696
G1 X120.930 Y88.004 E0.21099
G1 X120.930 Y87.467 E0.01696
G1 X116.742 Y83.279 E0.18701
G1 X117.279 Y83.279 E0.01696
G1 X120.930 Y86.930 E0.16303
G1 X120.930 Y86.393 E0.01696
G1 X117.816 Y83.279 E0.13905
G1 X118.353 Y83.279 E0.01696
G1 X120.930 Y85.856 E0.11506
G1 X120.930 Y85.319 E0.01696
G1 X118.890 Y83.279 E0.09108
G1 X119.427 Y83.279 E0.01696
G1 X120.930 Y84.782 E0.06710
G1 X120.930 Y84.245 E0.01696
