; generated by PrusaSlicer 2.2.0+win64 on 2021-01-29 at 20:02:23 UTC

; 

; external perimeters extrusion width = 0.60mm
; perimeters extrusion width = 0.43mm
; infill extrusion width = 0.45mm
; solid infill extrusion width = 0.70mm
; top infill extrusion width = 0.43mm
; first layer extrusion width = 0.42mm

M73 P0 R23
M201 X9000 Y9000 Z500 E10000 ; sets maximum accelerations, mm/sec^2
M203 X500 Y500 Z12 E120 ; sets maximum feedrates, mm/sec
M204 P2000 R1500 T2000 ; sets acceleration (P, T) and retract acceleration (R), mm/sec^2
M205 X10.00 Y10.00 Z0.20 E2.50 ; sets the jerk limits, mm/sec
M205 S0 T0 ; sets the minimum extruding and travel feed rate, mm/sec
M107
M862.3 P "MK2S" ; printer model check
M862.1 P0.4 ; nozzle diameter check
M115 U3.2.3 ; tell printer latest fw version
G90 ; use absolute coordinates
M83 ; extruder relative mode
M204 S2000 T1500 ; MK2 firmware only supports the old M204 format
M104 S215 ; set extruder temp
M140 S60 ; set bed temp
M190 S60 ; wait for bed temp
M109 S215 ; wait for extruder temp
G28 W ; home all without mesh bed level
G80 ; mesh bed leveling
G1 Y-3.0 F1000.0 ; go outside print area
G92 E0.0
G1 X60.0 E9.0  F1000.0 ; intro line
M73 P0 R23
G1 X100.0 E12.5 F1000.0 ; intro line
G92 E0.0
G21 ; set units to millimeters
G90 ; use absolute coordinates
M83 ; use relative distances for extrusion
M900 K0.05 ; Filament gcode LA 1.5
M900 K30 ; Filament gcode LA 1.0
;BEFORE_LAYER_CHANGE
G92 E0.0
;0.2


G1 E-0.80000 F2100.00000
G1 Z0.600 F10800.000
;AFTER_LAYER_CHANGE
;0.2
G1 X73.913 Y100.252
G1 Z0.200
G1 E0.80000 F2100.00000
M204 S1000
G1 F1200.000
G1 X74.638 Y100.017 E0.02390
G1 X175.004 Y99.989 E3.14688
G1 X175.902 Y100.167 E0.02872
G1 X176.664 Y100.669 E0.02860
G1 X177.182 Y101.425 E0.02872
G1 X177.377 Y102.320 E0.02872
G1 X177.357 Y115.692 E0.41926
G1 X177.138 Y116.422 E0.02390
G1 X176.700 Y117.045 E0.02390
G1 X176.087 Y117.498 E0.02390
G1 X175.362 Y117.733 E0.02390
G1 X74.954 Y117.761 E3.14820
G1 X74.144 Y117.601 E0.02590
G1 X73.436 Y117.174 E0.02590
G1 X72.918 Y116.531 E0.02590
G1 X72.651 Y115.745 E0.02602
G1 X72.641 Y102.070 E0.42878
G1 X72.858 Y101.335 E0.02402
G1 X73.297 Y100.708 E0.02402
G1 X73.865 Y100.288 E0.02214
; printing object Drop Target.STL id:0 copy 0
G1 X75.787 Y103.181 F10800.000
G1 F1200.000
G1 X103.376 Y103.184 E0.86503
G1 X103.590 Y103.213 E0.00678
G1 X103.830 Y103.292 E0.00791
G1 X104.013 Y103.393 E0.00654
G1 X104.159 Y103.509 E0.00585
G1 X104.302 Y103.668 E0.00669
G1 X104.403 Y103.827 E0.00593
G1 X104.483 Y104.015 E0.00641
G1 X104.529 Y104.203 E0.00605
G1 X104.547 Y104.426 E0.00701
G1 X104.552 Y114.597 E0.31891
G1 X97.071 Y114.597 E0.23456
G1 X97.071 Y103.797 E0.33863
G1 X78.879 Y103.797 E0.57040
G1 X78.879 Y114.597 E0.33863
G1 X75.787 Y114.597 E0.09694
G1 X75.787 Y103.241 E0.35604
G1 E-0.80000 F2100.00000
G1 Z0.800 F10800.000
G1 X96.694 Y104.174
G1 Z0.200
G1 E0.80000 F2100.00000
G1 F1200.000
G1 X79.256 Y104.174 E0.54675
G1 X79.256 Y114.974 E0.33863
G1 X75.410 Y114.974 E0.12059
G1 X75.410 Y102.804 E0.38157
G1 X103.401 Y102.807 E0.87765
G1 X103.675 Y102.844 E0.00866
G1 X103.981 Y102.945 E0.01010
G1 X104.223 Y103.078 E0.00865
G1 X104.418 Y103.233 E0.00782
G1 X104.603 Y103.438 E0.00866
G1 X104.738 Y103.651 E0.00789
G1 X104.843 Y103.896 E0.00836
G1 X104.902 Y104.143 E0.00797
G1 X104.924 Y104.411 E0.00841
G1 X104.929 Y114.974 E0.33120
G1 X96.694 Y114.974 E0.25821
G1 X96.694 Y104.234 E0.33675
G1 X96.608 Y103.783 F10800.000
G1 X97.260 Y103.490
G1 F1200.000
G1 X78.690 Y103.489 E0.36747
G1 X78.766 Y104.250 F10800.000
G1 F1200.000
G1 X77.980 Y103.464 E0.03503
G1 X77.444 Y103.464 E0.01691
G1 X78.596 Y104.617 E0.05137
G1 X78.596 Y105.153 E0.01691
G1 X76.908 Y103.464 E0.07528
G1 X76.372 Y103.464 E0.01691
G1 X78.596 Y105.689 E0.09919
G1 X78.596 Y106.225 E0.01691
G1 X76.070 Y103.699 E0.11264
G1 X76.070 Y104.235 E0.01691
G1 X78.596 Y106.761 E0.11264
G1 X78.596 Y107.298 E0.01691
G1 X76.070 Y104.771 E0.11264
G1 X76.070 Y105.307 E0.01691
G1 X78.596 Y107.834 E0.11264
G1 X78.596 Y108.370 E0.01691
G1 X76.070 Y105.844 E0.11264
G1 X76.070 Y106.380 E0.01691
G1 X78.596 Y108.906 E0.11264
G1 X78.596 Y109.442 E0.01691
G1 X76.070 Y106.916 E0.11264
G1 X76.070 Y107.452 E0.01691
G1 X78.596 Y109.979 E0.11264
G1 X78.596 Y110.515 E0.01691
G1 X76.070 Y107.989 E0.11264
G1 X76.070 Y108.525 E0.01691
G1 X78.596 Y111.051 E0.11264
G1 X78.596 Y111.587 E0.01691
G1 X76.070 Y109.061 E0.11264
G1 X76.070 Y109.597 E0.01691
G1 X78.596 Y112.123 E0.11264
G1 X78.596 Y112.660 E0.01691
G1 X76.070 Y110.133 E0.11264
G1 X76.070 Y110.670 E0.01691
G1 X78.596 Y113.196 E0.11264
G1 X78.596 Y113.732 E0.01691
G1 X76.070 Y111.206 E0.11264
G1 X76.070 Y111.742 E0.01691
G1 X78.596 Y114.268 E0.11264
G1 X78.596 Y114.314 E0.00144
G1 X78.106 Y114.314 E0.01546
G1 X76.070 Y112.278 E0.09077
G1 X76.070 Y112.814 E0.01691
G1 X77.569 Y114.314 E0.06686
G1 X77.033 Y114.314 E0.01691
G1 X76.070 Y113.351 E0.04295
G1 X76.070 Y113.887 E0.01691
G1 X76.667 Y114.484 E0.02661
G1 E-0.80000 F2100.00000
G1 Z0.800 F10800.000
G1 X97.958 Y114.484
G1 Z0.200
G1 E0.80000 F2100.00000
G1 F1200.000
G1 X97.354 Y113.880 E0.02717
G1 X97.354 Y113.339 E0.01721
G1 X98.329 Y114.314 E0.04388
G1 X98.870 Y114.314 E0.01721
G1 X97.354 Y112.798 E0.06821
G1 X97.354 Y112.257 E0.01721
G1 X99.411 Y114.314 E0.09255
G1 X99.952 Y114.314 E0.01721
G1 X97.354 Y111.716 E0.11689
G1 X97.354 Y111.175 E0.01721
G1 X100.493 Y114.314 E0.14122
G1 X101.034 Y114.314 E0.01721
G1 X97.354 Y110.634 E0.16556
G1 X97.354 Y110.093 E0.01721
G1 X101.575 Y114.314 E0.18990
G1 X102.116 Y114.314 E0.01721
G1 X97.354 Y109.552 E0.21423
G1 X97.354 Y109.011 E0.01721
G1 X102.657 Y114.314 E0.23857
G1 X103.198 Y114.314 E0.01721
G1 X97.354 Y108.470 E0.26291
G1 X97.354 Y107.929 E0.01721
G1 X103.739 Y114.314 E0.28724
G1 X104.269 Y114.303 E0.01686
G1 X97.354 Y107.388 E0.31107
G1 X97.354 Y106.847 E0.01721
G1 X104.269 Y113.762 E0.31106
G1 X104.268 Y113.220 E0.01722
G1 X97.354 Y106.306 E0.31105
G1 X97.354 Y105.765 E0.01721
G1 X104.268 Y112.679 E0.31104
G1 X104.268 Y112.138 E0.01722
G1 X97.354 Y105.224 E0.31102
G1 X97.354 Y104.683 E0.01721
G1 X104.268 Y111.596 E0.31101
G1 X104.267 Y111.055 E0.01722
G1 X97.354 Y104.142 E0.31100
G1 X97.354 Y103.913 E0.00726
G1 X97.542 Y103.913 E0.00600
G1 X97.542 Y103.789 E0.00395
G1 X104.267 Y110.514 E0.30250
G1 X104.267 Y109.973 E0.01722
G1 X97.761 Y103.466 E0.29267
G1 X98.302 Y103.466 E0.01721
G1 X104.266 Y109.431 E0.26832
G1 X104.266 Y108.890 E0.01722
G1 X98.843 Y103.467 E0.24397
G1 X99.384 Y103.467 E0.01721
G1 X104.266 Y108.349 E0.21962
G1 X104.266 Y107.807 E0.01722
G1 X99.925 Y103.467 E0.19526
G1 X100.466 Y103.467 E0.01721
G1 X104.265 Y107.266 E0.17091
G1 X104.265 Y106.725 E0.01722
G1 X101.007 Y103.467 E0.14656
G1 X101.548 Y103.467 E0.01721
G1 X104.265 Y106.184 E0.12221
G1 X104.264 Y105.642 E0.01722
G1 X102.089 Y103.467 E0.09786
G1 X102.630 Y103.467 E0.01721
G1 X104.264 Y105.101 E0.07351
G1 X104.264 Y104.560 E0.01722
G1 X103.171 Y103.467 E0.04915
G1 X103.527 Y103.490 E0.01133
G1 X103.716 Y103.552 E0.00635
G1 X103.855 Y103.629 E0.00504
G1 X104.401 Y104.156 E0.02414
G1 E-0.80000 F2100.00000
G1 Z0.800 F10800.000
G1 X171.121 Y103.797
G1 Z0.200
G1 E0.80000 F2100.00000
G1 F1200.000
G1 X152.929 Y103.797 E0.57040
G1 X152.929 Y114.597 E0.33863
G1 X121.598 Y114.597 E0.98236
G1 X121.603 Y104.428 E0.31884
G1 X121.632 Y104.147 E0.00884
G1 X121.691 Y103.954 E0.00634
G1 X121.806 Y103.730 E0.00791
G1 X121.933 Y103.567 E0.00646
G1 X122.073 Y103.440 E0.00593
G1 X122.252 Y103.324 E0.00670
G1 X122.425 Y103.249 E0.00591
G1 X122.627 Y103.199 E0.00652
G1 X122.849 Y103.181 E0.00699
G1 X174.213 Y103.181 E1.61047
G1 X174.213 Y114.597 E0.35792
G1 X171.121 Y114.597 E0.09694
G1 X171.121 Y103.857 E0.33675
G1 X170.744 Y104.174 F10800.000
G1 F1200.000
G1 X153.306 Y104.174 E0.54675
G1 X153.306 Y114.974 E0.33863
G1 X121.221 Y114.974 E1.00601
G1 X121.226 Y104.408 E0.33128
G1 X121.261 Y104.073 E0.01057
G1 X121.340 Y103.812 E0.00855
G1 X121.487 Y103.525 E0.01012
G1 X121.656 Y103.310 E0.00856
G1 X121.842 Y103.140 E0.00790
G1 X122.074 Y102.990 E0.00867
G1 X122.305 Y102.890 E0.00788
G1 X122.567 Y102.826 E0.00847
G1 X122.834 Y102.804 E0.00842
G1 X174.590 Y102.804 E1.62276
G1 X174.590 Y114.974 E0.38157
G1 X170.744 Y114.974 E0.12059
G1 X170.744 Y104.234 E0.33675
G1 X170.698 Y103.776 F10800.000
G1 X171.310 Y103.489
G1 F1200.000
G1 X152.740 Y103.489 E0.36803
M73 P4 R22
G1 X152.816 Y104.246 F10800.000
G1 F1200.000
G1 X152.034 Y103.464 E0.03472
G1 X151.500 Y103.464 E0.01676
G1 X152.646 Y104.611 E0.05089
G1 X152.646 Y105.144 E0.01676
G1 X150.966 Y103.464 E0.07460
G1 X150.432 Y103.464 E0.01676
G1 X152.646 Y105.678 E0.09830
G1 X152.646 Y106.212 E0.01676
G1 X149.898 Y103.464 E0.12201
G1 X149.364 Y103.464 E0.01676
G1 X152.646 Y106.746 E0.14571
G1 X152.646 Y107.280 E0.01676
G1 X148.830 Y103.464 E0.16942
G1 X148.296 Y103.464 E0.01676
G1 X152.646 Y107.814 E0.19312
G1 X152.646 Y108.348 E0.01676
G1 X147.762 Y103.464 E0.21683
G1 X147.228 Y103.464 E0.01676
G1 X152.646 Y108.882 E0.24053
G1 X152.646 Y109.416 E0.01676
G1 X146.694 Y103.464 E0.26424
G1 X146.161 Y103.464 E0.01676
G1 X152.646 Y109.950 E0.28794
G1 X152.646 Y110.484 E0.01676
G1 X145.627 Y103.464 E0.31165
G1 X145.093 Y103.464 E0.01676
G1 X152.646 Y111.018 E0.33535
G1 X152.646 Y111.552 E0.01676
G1 X144.559 Y103.464 E0.35906
G1 X144.025 Y103.464 E0.01676
G1 X152.646 Y112.086 E0.38276
G1 X152.646 Y112.619 E0.01676
G1 X143.491 Y103.464 E0.40647
G1 X142.957 Y103.464 E0.01676
G1 X152.646 Y113.153 E0.43017
G1 X152.646 Y113.687 E0.01676
G1 X142.423 Y103.464 E0.45388
G1 X141.889 Y103.464 E0.01676
G1 X152.646 Y114.221 E0.47758
G1 X152.646 Y114.314 E0.00291
G1 X152.205 Y114.314 E0.01385
G1 X141.355 Y103.464 E0.48170
G1 X140.821 Y103.464 E0.01676
G1 X151.671 Y114.314 E0.48170
G1 X151.137 Y114.314 E0.01676
G1 X140.287 Y103.464 E0.48170
G1 X139.753 Y103.464 E0.01676
G1 X150.603 Y114.314 E0.48170
G1 X150.069 Y114.314 E0.01676
G1 X139.219 Y103.464 E0.48170
G1 X138.685 Y103.464 E0.01676
G1 X149.535 Y114.314 E0.48170
G1 X149.001 Y114.314 E0.01676
G1 X138.152 Y103.464 E0.48170
G1 X137.618 Y103.464 E0.01676
G1 X148.467 Y114.314 E0.48170
G1 X147.934 Y114.314 E0.01676
G1 X137.084 Y103.464 E0.48170
G1 X136.550 Y103.464 E0.01676
G1 X147.400 Y114.314 E0.48170
G1 X146.866 Y114.314 E0.01676
G1 X136.016 Y103.464 E0.48170
G1 X135.482 Y103.464 E0.01676
G1 X146.332 Y114.314 E0.48170
G1 X145.798 Y114.314 E0.01676
G1 X134.948 Y103.464 E0.48170
G1 X134.414 Y103.464 E0.01676
G1 X145.264 Y114.314 E0.48170
G1 X144.730 Y114.314 E0.01676
G1 X133.880 Y103.464 E0.48170
G1 X133.346 Y103.464 E0.01676
G1 X144.196 Y114.314 E0.48170
G1 X143.662 Y114.314 E0.01676
G1 X132.812 Y103.464 E0.48170
G1 X132.278 Y103.464 E0.01676
G1 X143.128 Y114.314 E0.48170
G1 X142.594 Y114.314 E0.01676
G1 X131.744 Y103.464 E0.48170
G1 X131.210 Y103.464 E0.01676
G1 X142.060 Y114.314 E0.48170
G1 X141.526 Y114.314 E0.01676
G1 X130.676 Y103.464 E0.48170
G1 X130.143 Y103.464 E0.01676
G1 X140.992 Y114.314 E0.48170
G1 X140.458 Y114.314 E0.01676
G1 X129.609 Y103.464 E0.48170
G1 X129.075 Y103.464 E0.01676
G1 X139.925 Y114.314 E0.48170
G1 X139.391 Y114.314 E0.01676
G1 X128.541 Y103.464 E0.48170
G1 X128.007 Y103.464 E0.01676
G1 X138.857 Y114.314 E0.48170
G1 X138.323 Y114.314 E0.01676
G1 X127.473 Y103.464 E0.48170
G1 X126.939 Y103.464 E0.01676
G1 X137.789 Y114.314 E0.48170
G1 X137.255 Y114.314 E0.01676
G1 X126.405 Y103.464 E0.48170
G1 X125.871 Y103.464 E0.01676
G1 X136.721 Y114.314 E0.48170
G1 X136.187 Y114.314 E0.01676
G1 X125.337 Y103.464 E0.48170
G1 X124.803 Y103.464 E0.01676
G1 X135.653 Y114.314 E0.48170
G1 X135.119 Y114.314 E0.01676
G1 X124.269 Y103.464 E0.48170
G1 X123.735 Y103.464 E0.01676
G1 X134.585 Y114.314 E0.48170
G1 X134.051 Y114.314 E0.01676
G1 X123.201 Y103.464 E0.48170
G1 X122.682 Y103.478 E0.01632
G1 X133.517 Y114.314 E0.48107
G1 X132.983 Y114.314 E0.01676
G1 X122.299 Y103.630 E0.47434
G1 X122.142 Y103.760 E0.00642
G1 X122.036 Y103.901 E0.00552
G1 X132.449 Y114.314 E0.46231
G1 X131.916 Y114.314 E0.01676
G1 X121.901 Y104.299 E0.44461
G1 X121.886 Y104.818 E0.01630
G1 X131.382 Y114.314 E0.42157
G1 X130.848 Y114.314 E0.01676
G1 X121.886 Y105.352 E0.39788
G1 X121.885 Y105.886 E0.01675
G1 X130.314 Y114.314 E0.37419
G1 X129.780 Y114.314 E0.01676
G1 X121.885 Y106.419 E0.35050
G1 X121.885 Y106.953 E0.01675
G1 X129.246 Y114.314 E0.32680
G1 X128.712 Y114.314 E0.01676
G1 X121.885 Y107.487 E0.30311
G1 X121.884 Y108.020 E0.01675
G1 X128.178 Y114.314 E0.27942
G1 X127.644 Y114.314 E0.01676
G1 X121.884 Y108.554 E0.25573
G1 X121.884 Y109.088 E0.01675
G1 X127.110 Y114.314 E0.23203
G1 X126.576 Y114.314 E0.01676
G1 X121.883 Y109.621 E0.20834
G1 X121.883 Y110.155 E0.01675
G1 X126.042 Y114.314 E0.18465
G1 X125.508 Y114.314 E0.01676
G1 X121.883 Y110.689 E0.16096
G1 X121.883 Y111.222 E0.01675
G1 X124.974 Y114.314 E0.13726
G1 X124.441 Y114.314 E0.01676
G1 X121.882 Y111.756 E0.11357
G1 X121.882 Y112.290 E0.01675
G1 X123.907 Y114.314 E0.08988
G1 X123.373 Y114.314 E0.01676
G1 X121.882 Y112.823 E0.06619
G1 X121.882 Y113.357 E0.01675
G1 X122.839 Y114.314 E0.04250
G1 X122.305 Y114.314 E0.01676
G1 X121.712 Y113.721 E0.02633
G1 E-0.80000 F2100.00000
G1 Z0.800 F10800.000
G1 X172.012 Y114.484
G1 Z0.200
G1 E0.80000 F2100.00000
G1 F1200.000
G1 X171.404 Y113.876 E0.02746
G1 X171.404 Y113.332 E0.01737
G1 X172.385 Y114.314 E0.04436
G1 X172.929 Y114.314 E0.01737
G1 X171.404 Y112.789 E0.06892
G1 X171.404 Y112.246 E0.01737
G1 X173.472 Y114.314 E0.09347
G1 X173.930 Y114.314 E0.01463
G1 X173.930 Y114.228 E0.00274
G1 X171.404 Y111.702 E0.11416
G1 X171.404 Y111.159 E0.01737
G1 X173.930 Y113.685 E0.11416
G1 X173.930 Y113.141 E0.01737
G1 X171.404 Y110.615 E0.11416
G1 X171.404 Y110.072 E0.01737
G1 X173.930 Y112.598 E0.11416
G1 X173.930 Y112.054 E0.01737
G1 X171.404 Y109.528 E0.11416
G1 X171.404 Y108.985 E0.01737
G1 X173.930 Y111.511 E0.11416
G1 X173.930 Y110.968 E0.01737
G1 X171.404 Y108.441 E0.11416
G1 X171.404 Y107.898 E0.01737
G1 X173.930 Y110.424 E0.11416
G1 X173.930 Y109.881 E0.01737
G1 X171.404 Y107.354 E0.11416
G1 X171.404 Y106.811 E0.01737
G1 X173.930 Y109.337 E0.11416
G1 X173.930 Y108.794 E0.01737
G1 X171.404 Y106.267 E0.11416
G1 X171.404 Y105.724 E0.01737
G1 X173.930 Y108.250 E0.11416
G1 X173.930 Y107.707 E0.01737
G1 X171.404 Y105.180 E0.11416
G1 X171.404 Y104.637 E0.01737
G1 X173.930 Y107.163 E0.11416
G1 X173.930 Y106.620 E0.01737
G1 X171.404 Y104.093 E0.11416
G1 X171.404 Y103.913 E0.00578
G1 X171.592 Y103.913 E0.00602
G1 X171.592 Y103.738 E0.00556
G1 X173.930 Y106.076 E0.10564
G1 X173.930 Y105.533 E0.01737
G1 X171.862 Y103.464 E0.09348
G1 X172.405 Y103.464 E0.01737
G1 X173.930 Y104.989 E0.06892
G1 X173.930 Y104.446 E0.01737
G1 X172.948 Y103.464 E0.04436
G1 X173.492 Y103.464 E0.01737
G1 X174.100 Y104.072 E0.02747
; stop printing object Drop Target.STL id:0 copy 0
M106 S255
;BEFORE_LAYER_CHANGE
G92 E0.0
;0.55


G1 E-0.80000 F2100.00000
G1 Z0.800 F10800.000
;AFTER_LAYER_CHANGE
;0.55
M104 S210 ; set temperature
G1 X177.182 Y101.425
G1 Z0.550
G1 E0.80000 F2100.00000
G1 F3000.000
G1 X177.377 Y102.320 E0.04597
G1 X177.357 Y115.692 E0.67108
G1 X177.138 Y116.422 E0.03826
G1 X176.700 Y117.045 E0.03826
G1 X176.087 Y117.498 E0.03826
G1 X175.362 Y117.733 E0.03826
G1 X74.954 Y117.761 E5.03903
G1 X74.144 Y117.601 E0.04146
G1 X73.436 Y117.174 E0.04146
G1 X72.918 Y116.531 E0.04146
G1 X72.651 Y115.745 E0.04165
G1 X72.641 Y102.070 E0.68630
G1 X72.858 Y101.335 E0.03845
G1 X73.297 Y100.708 E0.03845
G1 X73.913 Y100.252 E0.03845
G1 X74.638 Y100.017 E0.03826
G1 X175.004 Y99.989 E5.03693
G1 X175.902 Y100.167 E0.04597
G1 X176.664 Y100.669 E0.04578
G1 X177.149 Y101.375 E0.04296
; printing object Drop Target.STL id:0 copy 0
G1 X174.260 Y103.134 F10800.000
M204 S800
G1 F3000.000
G1 X174.260 Y114.644 E0.59439
G1 X170.533 Y114.644 E0.19246
G1 X170.533 Y103.844 E0.55772
G1 X153.517 Y103.844 E0.87875
G1 X153.517 Y114.644 E0.55772
G1 X121.543 Y114.644 E1.65114
G1 X121.564 Y104.424 E0.52775
G1 X121.583 Y104.195 E0.01187
G1 X121.628 Y104.006 E0.01008
G1 X121.703 Y103.825 E0.01009
G1 X121.806 Y103.656 E0.01022
G1 X121.936 Y103.505 E0.01029
G1 X122.085 Y103.377 E0.01013
G1 X122.254 Y103.274 E0.01024
