; generated by Slic3r Prusa Edition 1.40.1+ on 2018-08-06 at 14:53:54

; 

; external perimeters extrusion width = 0.45mm
; perimeters extrusion width = 0.45mm
; infill extrusion width = 0.45mm
; solid infill extrusion width = 0.45mm
; top infill extrusion width = 0.40mm
; support material extrusion width = 0.35mm
; first layer extrusion width = 0.42mm

M107
M115 U3.1.0 ; tell printer latest fw version
M201 X9000 Y9000 Z500 E10000 ; sets maximum accelerations, mm/sec^2
M203 X500 Y500 Z12 E120 ; sets maximum feedrates, mm/sec
M204 S1500 T1500 ; sets acceleration (S) and retract acceleration (T)
M205 X10 Y10 Z0.2 E2.5 ; sets the jerk limits, mm/sec
M205 S0 T0 ; sets the minimum extruding and travel feed rate, mm/sec
M83  ; extruder relative mode
M104 S215 ; set extruder temp
M140 S60 ; set bed temp
M190 S60 ; wait for bed temp
M109 S215 ; wait for extruder temp
G28 W ; home all without mesh bed level
G80 ; mesh bed leveling
G1 Y-3.0 F1000.0 ; go outside print area
G92 E0.0
G1 X60.0 E9.0  F1000.0 ; intro line
G1 X100.0 E12.5  F1000.0 ; intro line
G92 E0.0
M900 K30; Filament gcode
G21 ; set units to millimeters
G90 ; use absolute coordinates
M83 ; use relative distances for extrusion
;BEFORE_LAYER_CHANGE
G92 E0.0
;0.2


G1 E-0.80000 F2100.00000
G1 Z0.600 F10800.000
;AFTER_LAYER_CHANGE
;0.2
G1 X115.646 Y65.686
G1 Z0.200
G1 E0.80000 F2100.00000
M204 S1000
G1 F1800
G1 X134.354 Y65.686 E0.58660
G1 X139.286 Y101.413 E1.13080
G1 X110.714 Y101.413 E0.89585
G1 X115.637 Y65.746 E1.12891
G1 X115.317 Y65.309 F10800.000
G1 F1800
G1 X134.683 Y65.309 E0.60721
G1 X139.719 Y101.790 E1.15467
G1 X110.281 Y101.790 E0.92299
G1 X115.309 Y65.369 E1.15278
G1 X115.696 Y65.438 F10800.000
G1 F8640
G1 X118.600 Y65.359 E-0.76000
G1 E-0.04000 F2100.00000
G1 Z0.800 F10800.000
G1 X134.379 Y66.692
G1 Z0.200
G1 E0.80000 F2100.00000
G1 F1800
G1 X133.656 Y65.969 E0.03222
G1 X133.120 Y65.969 E0.01691
G1 X134.266 Y67.115 E0.05110
G1 X134.352 Y67.737 E0.01980
G1 X132.584 Y65.969 E0.07884
G1 X132.048 Y65.969 E0.01691
G1 X134.438 Y68.359 E0.10658
G1 X134.524 Y68.982 E0.01980
G1 X131.511 Y65.969 E0.13432
G1 X130.975 Y65.969 E0.01691
G1 X134.610 Y69.604 E0.16206
G1 X134.696 Y70.226 E0.01980
G1 X130.439 Y65.969 E0.18981
G1 X129.903 Y65.969 E0.01691
G1 X134.781 Y70.848 E0.21755
G1 X134.867 Y71.470 E0.01980
G1 X129.366 Y65.969 E0.24529
G1 X128.830 Y65.969 E0.01691
G1 X134.953 Y72.092 E0.27303
G1 X135.039 Y72.714 E0.01980
G1 X128.294 Y65.969 E0.30077
G1 X127.758 Y65.969 E0.01691
G1 X135.125 Y73.337 E0.32851
G1 X135.211 Y73.959 E0.01980
G1 X127.221 Y65.969 E0.35625
G1 X126.685 Y65.969 E0.01691
G1 X135.297 Y74.581 E0.38399
G1 X135.383 Y75.203 E0.01980
G1 X126.149 Y65.969 E0.41173
G1 X125.613 Y65.969 E0.01691
G1 X135.468 Y75.825 E0.43947
G1 X135.554 Y76.447 E0.01980
G1 X125.076 Y65.969 E0.46721
G1 X124.540 Y65.969 E0.01691
G1 X135.640 Y77.069 E0.49495
G1 X135.726 Y77.691 E0.01980
G1 X124.004 Y65.969 E0.52269
G1 X123.468 Y65.969 E0.01691
G1 X135.812 Y78.314 E0.55043
G1 X135.898 Y78.936 E0.01980
G1 X122.931 Y65.969 E0.57817
G1 X122.395 Y65.969 E0.01691
G1 X135.984 Y79.558 E0.60591
G1 X136.070 Y80.180 E0.01980
G1 X121.859 Y65.969 E0.63365
G1 X121.323 Y65.969 E0.01691
G1 X136.155 Y80.802 E0.66139
G1 X136.241 Y81.424 E0.01980
G1 X120.786 Y65.969 E0.68914
G1 X120.250 Y65.969 E0.01691
G1 X136.327 Y82.046 E0.71688
G1 X136.413 Y82.668 E0.01980
G1 X119.714 Y65.969 E0.74462
G1 X119.178 Y65.969 E0.01691
G1 X136.499 Y83.291 E0.77236
G1 X136.585 Y83.913 E0.01980
G1 X118.641 Y65.969 E0.80010
G1 X118.105 Y65.969 E0.01691
G1 X136.671 Y84.535 E0.82784
G1 X136.757 Y85.157 E0.01980
G1 X117.569 Y65.969 E0.85558
G1 X117.032 Y65.969 E0.01691
G1 X136.842 Y85.779 E0.88332
G1 X136.928 Y86.401 E0.01980
G1 X116.496 Y65.969 E0.91106
G1 X115.960 Y65.969 E0.01691
G1 X137.014 Y87.023 E0.93880
G1 X137.100 Y87.646 E0.01980
G1 X115.835 Y66.381 E0.94819
G1 X115.770 Y66.852 E0.01500
G1 X137.186 Y88.268 E0.95492
G1 X137.272 Y88.890 E0.01980
G1 X115.705 Y67.323 E0.96165
G1 X115.640 Y67.794 E0.01500
G1 X137.358 Y89.512 E0.96838
G1 X137.444 Y90.134 E0.01980
G1 X115.575 Y68.266 E0.97511
G1 X115.510 Y68.737 E0.01500
G1 X137.529 Y90.756 E0.98184
G1 X137.615 Y91.378 E0.01980
G1 X115.445 Y69.208 E0.98857
G1 X115.380 Y69.679 E0.01500
G1 X137.701 Y92.000 E0.99530
G1 X137.787 Y92.623 E0.01980
G1 X115.315 Y70.150 E1.00203
G1 X115.250 Y70.622 E0.01500
G1 X137.873 Y93.245 E1.00876
G1 X137.959 Y93.867 E0.01980
G1 X115.185 Y71.093 E1.01549
G1 X115.120 Y71.564 E0.01500
G1 X138.045 Y94.489 E1.02222
G1 X138.131 Y95.111 E0.01980
G1 X115.055 Y72.035 E1.02895
G1 X114.990 Y72.506 E0.01500
G1 X138.217 Y95.733 E1.03568
G1 X138.302 Y96.355 E0.01980
G1 X114.925 Y72.978 E1.04241
G1 X114.860 Y73.449 E0.01500
G1 X138.388 Y96.977 E1.04914
G1 X138.474 Y97.600 E0.01980
G1 X114.795 Y73.920 E1.05586
G1 X114.729 Y74.391 E0.01500
G1 X138.560 Y98.222 E1.06259
G1 X138.646 Y98.844 E0.01980
G1 X114.664 Y74.862 E1.06932
G1 X114.599 Y75.334 E0.01500
G1 X138.732 Y99.466 E1.07605
G1 X138.818 Y100.088 E0.01980
G1 X114.534 Y75.805 E1.08278
G1 X114.469 Y76.276 E0.01500
G1 X138.904 Y100.710 E1.08951
G1 X138.961 Y101.130 E0.01336
G1 X138.787 Y101.130 E0.00550
G1 X114.404 Y76.747 E1.08721
G1 X114.339 Y77.218 E0.01500
G1 X138.251 Y101.130 E1.06620
G1 X137.714 Y101.130 E0.01691
G1 X114.274 Y77.690 E1.04519
G1 X114.209 Y78.161 E0.01500
G1 X137.178 Y101.130 E1.02418
G1 X136.642 Y101.130 E0.01691
G1 X114.144 Y78.632 E1.00317
G1 X114.079 Y79.103 E0.01500
G1 X136.106 Y101.130 E0.98216
G1 X135.569 Y101.130 E0.01691
G1 X114.014 Y79.574 E0.96115
G1 X113.949 Y80.046 E0.01500
G1 X135.033 Y101.130 E0.94014
G1 X134.497 Y101.130 E0.01691
G1 X113.884 Y80.517 E0.91913
G1 X113.819 Y80.988 E0.01500
G1 X133.961 Y101.130 E0.89811
G1 X133.424 Y101.130 E0.01691
G1 X113.754 Y81.459 E0.87710
G1 X113.689 Y81.931 E0.01500
G1 X132.888 Y101.130 E0.85609
G1 X132.352 Y101.130 E0.01691
G1 X113.624 Y82.402 E0.83508
G1 X113.559 Y82.873 E0.01500
G1 X131.816 Y101.130 E0.81407
G1 X131.279 Y101.130 E0.01691
G1 X113.494 Y83.344 E0.79306
G1 X113.429 Y83.815 E0.01500
G1 X130.743 Y101.130 E0.77205
G1 X130.207 Y101.130 E0.01691
G1 X113.364 Y84.287 E0.75104
G1 X113.299 Y84.758 E0.01500
G1 X129.671 Y101.130 E0.73003
G1 X129.134 Y101.130 E0.01691
G1 X113.233 Y85.229 E0.70902
G1 X113.168 Y85.700 E0.01500
G1 X128.598 Y101.130 E0.68800
G1 X128.062 Y101.130 E0.01691
G1 X113.103 Y86.171 E0.66699
G1 X113.038 Y86.643 E0.01500
G1 X127.526 Y101.130 E0.64598
G1 X126.989 Y101.130 E0.01691
G1 X112.973 Y87.114 E0.62497
G1 X112.908 Y87.585 E0.01500
G1 X126.453 Y101.130 E0.60396
G1 X125.917 Y101.130 E0.01691
G1 X112.843 Y88.056 E0.58295
G1 X112.778 Y88.527 E0.01500
G1 X125.381 Y101.130 E0.56194
G1 X124.844 Y101.130 E0.01691
G1 X112.713 Y88.999 E0.54093
G1 X112.648 Y89.470 E0.01500
G1 X124.308 Y101.130 E0.51992
G1 X123.772 Y101.130 E0.01691
G1 X112.583 Y89.941 E0.49891
G1 X112.518 Y90.412 E0.01500
G1 X123.236 Y101.130 E0.47789
G1 X122.699 Y101.130 E0.01691
G1 X112.453 Y90.883 E0.45688
G1 X112.388 Y91.355 E0.01500
G1 X122.163 Y101.130 E0.43587
G1 X121.627 Y101.130 E0.01691
G1 X112.323 Y91.826 E0.41486
G1 X112.258 Y92.297 E0.01500
G1 X121.091 Y101.130 E0.39385
G1 X120.554 Y101.130 E0.01691
G1 X112.193 Y92.768 E0.37284
G1 X112.128 Y93.240 E0.01500
G1 X120.018 Y101.130 E0.35183
G1 X119.482 Y101.130 E0.01691
G1 X112.063 Y93.711 E0.33082
G1 X111.998 Y94.182 E0.01500
G1 X118.946 Y101.130 E0.30981
G1 X118.409 Y101.130 E0.01691
G1 X111.933 Y94.653 E0.28880
G1 X111.868 Y95.124 E0.01500
G1 X117.873 Y101.130 E0.26778
G1 X117.337 Y101.130 E0.01691
G1 X111.802 Y95.596 E0.24677
G1 X111.737 Y96.067 E0.01500
G1 X116.801 Y101.130 E0.22576
G1 X116.264 Y101.130 E0.01691
G1 X111.672 Y96.538 E0.20475
G1 X111.607 Y97.009 E0.01500
G1 X115.728 Y101.130 E0.18374
G1 X115.192 Y101.130 E0.01691
G1 X111.542 Y97.480 E0.16273
G1 X111.477 Y97.952 E0.01500
G1 X114.656 Y101.130 E0.14172
G1 X114.119 Y101.130 E0.01691
G1 X111.412 Y98.423 E0.12071
G1 X111.347 Y98.894 E0.01500
G1 X113.583 Y101.130 E0.09970
G1 X113.047 Y101.130 E0.01691
G1 X111.282 Y99.365 E0.07869
G1 X111.217 Y99.836 E0.01500
G1 X112.511 Y101.130 E0.05767
G1 X111.974 Y101.130 E0.01691
G1 X111.152 Y100.308 E0.03666
G1 X111.087 Y100.779 E0.01500
G1 X111.608 Y101.300 E0.02322
G1 F8640
G1 X111.087 Y100.779 E-0.17004
G1 X111.152 Y100.308 E-0.10983
G1 X111.974 Y101.130 E-0.26850
G1 X112.511 Y101.130 E-0.12382
G1 X112.242 Y100.861 E-0.08780
G1 E-0.04000 F2100.00000
G1 Z0.800 F10800.000
G1 X146.634 Y101.413
G1 Z0.200
G1 E0.80000 F2100.00000
G1 F1800
G1 X151.565 Y65.686 E1.13080
G1 X170.274 Y65.686 E0.58660
G1 X175.206 Y101.413 E1.13080
G1 X146.694 Y101.413 E0.89397
G1 X146.201 Y101.790 F10800.000
G1 F1800
G1 X151.237 Y65.309 E1.15467
G1 X170.603 Y65.309 E0.60721
G1 X175.638 Y101.790 E1.15467
G1 X146.261 Y101.790 E0.92111
G1 X146.315 Y101.406 F10800.000
G1 F8640
G1 X146.706 Y98.529 E-0.76000
G1 E-0.04000 F2100.00000
G1 Z0.800 F10800.000
G1 X147.527 Y101.300
G1 Z0.200
G1 E0.80000 F2100.00000
G1 F1800
G1 X147.007 Y100.779 E0.02322
G1 X147.072 Y100.308 E0.01500
G1 X147.894 Y101.130 E0.03666
G1 X148.430 Y101.130 E0.01691
G1 X147.137 Y99.836 E0.05767
G1 X147.202 Y99.365 E0.01500
G1 X148.966 Y101.130 E0.07869
G1 X149.503 Y101.130 E0.01691
G1 X147.267 Y98.894 E0.09970
G1 X147.332 Y98.423 E0.01500
G1 X150.039 Y101.130 E0.12071
G1 X150.575 Y101.130 E0.01691
G1 X147.397 Y97.952 E0.14172
G1 X147.462 Y97.480 E0.01500
G1 X151.111 Y101.130 E0.16273
G1 X151.648 Y101.130 E0.01691
G1 X147.527 Y97.009 E0.18374
G1 X147.592 Y96.538 E0.01500
G1 X152.184 Y101.130 E0.20475
G1 X152.720 Y101.130 E0.01691
G1 X147.657 Y96.067 E0.22576
G1 X147.722 Y95.596 E0.01500
G1 X153.257 Y101.130 E0.24677
G1 X153.793 Y101.130 E0.01691
G1 X147.787 Y95.124 E0.26778
G1 X147.852 Y94.653 E0.01500
G1 X154.329 Y101.130 E0.28880
G1 X154.865 Y101.130 E0.01691
G1 X147.917 Y94.182 E0.30981
G1 X147.982 Y93.711 E0.01500
G1 X155.402 Y101.130 E0.33082
G1 X155.938 Y101.130 E0.01691
G1 X148.047 Y93.240 E0.35183
G1 X148.112 Y92.768 E0.01500
G1 X156.474 Y101.130 E0.37284
G1 X157.010 Y101.130 E0.01691
G1 X148.177 Y92.297 E0.39385
G1 X148.243 Y91.826 E0.01500
G1 X157.547 Y101.130 E0.41486
G1 X158.083 Y101.130 E0.01691
G1 X148.308 Y91.355 E0.43587
G1 X148.373 Y90.883 E0.01500
G1 X158.619 Y101.130 E0.45688
G1 X159.155 Y101.130 E0.01691
G1 X148.438 Y90.412 E0.47789
G1 X148.503 Y89.941 E0.01500
G1 X159.692 Y101.130 E0.49891
G1 X160.228 Y101.130 E0.01691
G1 X148.568 Y89.470 E0.51992
G1 X148.633 Y88.999 E0.01500
G1 X160.764 Y101.130 E0.54093
G1 X161.300 Y101.130 E0.01691
G1 X148.698 Y88.527 E0.56194
G1 X148.763 Y88.056 E0.01500
G1 X161.837 Y101.130 E0.58295
G1 X162.373 Y101.130 E0.01691
G1 X148.828 Y87.585 E0.60396
G1 X148.893 Y87.114 E0.01500
G1 X162.909 Y101.130 E0.62497
G1 X163.445 Y101.130 E0.01691
G1 X148.958 Y86.643 E0.64598
G1 X149.023 Y86.171 E0.01500
G1 X163.982 Y101.130 E0.66699
G1 X164.518 Y101.130 E0.01691
G1 X149.088 Y85.700 E0.68800
G1 X149.153 Y85.229 E0.01500
G1 X165.054 Y101.130 E0.70902
G1 X165.590 Y101.130 E0.01691
G1 X149.218 Y84.758 E0.73003
G1 X149.283 Y84.287 E0.01500
G1 X166.127 Y101.130 E0.75104
G1 X166.663 Y101.130 E0.01691
G1 X149.348 Y83.815 E0.77205
G1 X149.413 Y83.344 E0.01500
G1 X167.199 Y101.130 E0.79306
G1 X167.735 Y101.130 E0.01691
G1 X149.478 Y82.873 E0.81407
G1 X149.543 Y82.402 E0.01500
G1 X168.272 Y101.130 E0.83508
G1 X168.808 Y101.130 E0.01691
G1 X149.608 Y81.931 E0.85609
G1 X149.674 Y81.459 E0.01500
G1 X169.344 Y101.130 E0.87710
G1 X169.880 Y101.130 E0.01691
G1 X149.739 Y80.988 E0.89811
G1 X149.804 Y80.517 E0.01500
G1 X170.417 Y101.130 E0.91913
G1 X170.953 Y101.130 E0.01691
G1 X149.869 Y80.046 E0.94014
G1 X149.934 Y79.574 E0.01500
G1 X171.489 Y101.130 E0.96115
G1 X172.025 Y101.130 E0.01691
G1 X149.999 Y79.103 E0.98216
G1 X150.064 Y78.632 E0.01500
G1 X172.562 Y101.130 E1.00317
G1 X173.098 Y101.130 E0.01691
G1 X150.129 Y78.161 E1.02418
G1 X150.194 Y77.690 E0.01500
G1 X173.634 Y101.130 E1.04519
G1 X174.170 Y101.130 E0.01691
G1 X150.259 Y77.218 E1.06620
G1 X150.324 Y76.747 E0.01500
G1 X174.707 Y101.130 E1.08721
G1 X174.881 Y101.130 E0.00550
G1 X174.823 Y100.710 E0.01336
G1 X150.389 Y76.276 E1.08951
G1 X150.454 Y75.805 E0.01500
G1 X174.737 Y100.088 E1.08278
G1 X174.651 Y99.466 E0.01980
G1 X150.519 Y75.334 E1.07605
G1 X150.584 Y74.862 E0.01500
G1 X174.566 Y98.844 E1.06932
G1 X174.480 Y98.222 E0.01980
G1 X150.649 Y74.391 E1.06259
G1 X150.714 Y73.920 E0.01500
G1 X174.394 Y97.600 E1.05586
G1 X174.308 Y96.977 E0.01980
G1 X150.779 Y73.449 E1.04914
G1 X150.844 Y72.978 E0.01500
G1 X174.222 Y96.355 E1.04241
G1 X174.136 Y95.733 E0.01980
G1 X150.909 Y72.506 E1.03568
G1 X150.974 Y72.035 E0.01500
G1 X174.050 Y95.111 E1.02895
G1 X173.964 Y94.489 E0.01980
G1 X151.039 Y71.564 E1.02222
G1 X151.104 Y71.093 E0.01500
G1 X173.879 Y93.867 E1.01549
G1 X173.793 Y93.245 E0.01980
G1 X151.170 Y70.622 E1.00876
G1 X151.235 Y70.150 E0.01500
G1 X173.707 Y92.623 E1.00203
G1 X173.621 Y92.000 E0.01980
G1 X151.300 Y69.679 E0.99530
G1 X151.365 Y69.208 E0.01500
G1 X173.535 Y91.378 E0.98857
G1 X173.449 Y90.756 E0.01980
G1 X151.430 Y68.737 E0.98184
G1 X151.495 Y68.266 E0.01500
G1 X173.363 Y90.134 E0.97511
G1 X173.277 Y89.512 E0.01980
G1 X151.560 Y67.794 E0.96838
G1 X151.625 Y67.323 E0.01500
G1 X173.192 Y88.890 E0.96165
G1 X173.106 Y88.268 E0.01980
G1 X151.690 Y66.852 E0.95492
G1 X151.755 Y66.381 E0.01500
G1 X173.020 Y87.646 E0.94819
G1 X172.934 Y87.023 E0.01980
G1 X151.880 Y65.969 E0.93880
G1 X152.416 Y65.969 E0.01691
G1 X172.848 Y86.401 E0.91106
G1 X172.762 Y85.779 E0.01980
G1 X152.952 Y65.969 E0.88332
G1 X153.488 Y65.969 E0.01691
G1 X172.676 Y85.157 E0.85558
G1 X172.590 Y84.535 E0.01980
G1 X154.025 Y65.969 E0.82784
G1 X154.561 Y65.969 E0.01691
G1 X172.505 Y83.913 E0.80010
G1 X172.419 Y83.291 E0.01980
G1 X155.097 Y65.969 E0.77236
G1 X155.633 Y65.969 E0.01691
G1 X172.333 Y82.668 E0.74462
G1 X172.247 Y82.046 E0.01980
G1 X156.170 Y65.969 E0.71688
G1 X156.706 Y65.969 E0.01691
G1 X172.161 Y81.424 E0.68914
G1 X172.075 Y80.802 E0.01980
G1 X157.242 Y65.969 E0.66139
G1 X157.778 Y65.969 E0.01691
G1 X171.989 Y80.180 E0.63365
G1 X171.903 Y79.558 E0.01980
G1 X158.315 Y65.969 E0.60591
G1 X158.851 Y65.969 E0.01691
G1 X171.818 Y78.936 E0.57817
G1 X171.732 Y78.314 E0.01980
G1 X159.387 Y65.969 E0.55043
G1 X159.923 Y65.969 E0.01691
G1 X171.646 Y77.691 E0.52269
G1 X171.560 Y77.069 E0.01980
G1 X160.460 Y65.969 E0.49495
G1 X160.996 Y65.969 E0.01691
G1 X171.474 Y76.447 E0.46721
G1 X171.388 Y75.825 E0.01980
G1 X161.532 Y65.969 E0.43947
G1 X162.068 Y65.969 E0.01691
G1 X171.302 Y75.203 E0.41173
G1 X171.216 Y74.581 E0.01980
G1 X162.605 Y65.969 E0.38399
G1 X163.141 Y65.969 E0.01691
G1 X171.130 Y73.959 E0.35625
G1 X171.045 Y73.337 E0.01980
G1 X163.677 Y65.969 E0.32851
G1 X164.213 Y65.969 E0.01691
G1 X170.959 Y72.714 E0.30077
G1 X170.873 Y72.092 E0.01980
G1 X164.750 Y65.969 E0.27303
G1 X165.286 Y65.969 E0.01691
G1 X170.787 Y71.470 E0.24529
G1 X170.701 Y70.848 E0.01980
G1 X165.822 Y65.969 E0.21755
G1 X166.359 Y65.969 E0.01691
G1 X170.615 Y70.226 E0.18981
G1 X170.529 Y69.604 E0.01980
G1 X166.895 Y65.969 E0.16206
G1 X167.431 Y65.969 E0.01691
G1 X170.443 Y68.982 E0.13432
G1 X170.358 Y68.359 E0.01980
G1 X167.967 Y65.969 E0.10658
G1 X168.504 Y65.969 E0.01691
G1 X170.272 Y67.737 E0.07884
G1 X170.186 Y67.115 E0.01980
G1 X169.040 Y65.969 E0.05110
G1 X169.576 Y65.969 E0.01691
G1 X170.299 Y66.692 E0.03222
G1 F8640
G1 X169.576 Y65.969 E-0.23598
G1 X169.040 Y65.969 E-0.12382
G1 X170.186 Y67.115 E-0.37424
G1 X170.201 Y67.227 E-0.02595
G1 E-0.04000 F2100.00000
G1 Z0.800 F10800.000
G1 X170.274 Y108.587
G1 Z0.200
G1 E0.80000 F2100.00000
G1 F1800
G1 X175.206 Y144.314 E1.13080
G1 X146.634 Y144.314 E0.89585
G1 X151.565 Y108.587 E1.13080
G1 X170.214 Y108.587 E0.58472
G1 X170.603 Y108.210 F10800.000
G1 F1800
G1 X175.638 Y144.691 E1.15467
G1 X146.201 Y144.691 E0.92299
G1 X151.237 Y108.210 E1.15467
G1 X170.543 Y108.210 E0.60532
G1 X170.561 Y108.608 F10800.000
G1 F8640
G1 X170.998 Y111.470 E-0.76000
G1 E-0.04000 F2100.00000
G1 Z0.800 F10800.000
G1 X170.299 Y109.593
G1 Z0.200
G1 E0.80000 F2100.00000
G1 F1800
G1 X169.576 Y108.870 E0.03222
G1 X169.040 Y108.870 E0.01691
