; generated by PrusaSlicer 2.2.0+win64 on 2022-02-17 at 16:43:01 UTC

; 

; external perimeters extrusion width = 0.45mm
; perimeters extrusion width = 0.45mm
; infill extrusion width = 0.45mm
; solid infill extrusion width = 0.45mm
; top infill extrusion width = 0.45mm
; first layer extrusion width = 0.42mm

M73 P0 R5
M201 X9000 Y9000 Z500 E10000 ; sets maximum accelerations, mm/sec^2
M203 X500 Y500 Z12 E120 ; sets maximum feedrates, mm/sec
M204 P2000 R1500 T2000 ; sets acceleration (P, T) and retract acceleration (R), mm/sec^2
M205 X10.00 Y10.00 Z0.20 E2.50 ; sets the jerk limits, mm/sec
M205 S0 T0 ; sets the minimum extruding and travel feed rate, mm/sec
M107
M862.3 P "MK2S" ; printer model check
M862.1 P0.4 ; nozzle diameter check
M115 U3.2.3 ; tell printer latest fw version
G90 ; use absolute coordinates
M83 ; extruder relative mode
M204 S2000 T1500 ; MK2 firmware only supports the old M204 format
M104 S215 ; set extruder temp
M140 S60 ; set bed temp
M190 S60 ; wait for bed temp
M109 S215 ; wait for extruder temp
G28 W ; home all without mesh bed level
G80 ; mesh bed leveling
G1 Y-3.0 F1000.0 ; go outside print area
G92 E0.0
G1 X60.0 E9.0  F1000.0 ; intro line
M73 P1 R5
G1 X100.0 E12.5 F1000.0 ; intro line
G92 E0.0
G21 ; set units to millimeters
G90 ; use absolute coordinates
M83 ; use relative distances for extrusion
M900 K0.05 ; Filament gcode LA 1.5
M900 K30 ; Filament gcode LA 1.0
;BEFORE_LAYER_CHANGE
G92 E0.0
;0.2


G1 E-0.80000 F2100.00000
G1 Z0.400 F10800.000
;AFTER_LAYER_CHANGE
;0.2
G1 X107.971 Y98.741
G1 Z0.200
G1 E0.80000 F2100.00000
M204 S1000
G1 F1200.000
G1 X108.708 Y98.003 E0.03273
G1 X109.510 Y97.540 E0.02902
G1 X110.213 Y97.322 E0.02309
G1 X110.937 Y97.246 E0.02283
G1 X139.010 Y97.246 E0.88022
G1 X139.727 Y97.316 E0.02257
G1 X140.413 Y97.519 E0.02243
G1 X141.054 Y97.853 E0.02268
G1 X141.593 Y98.279 E0.02153
G1 X142.081 Y98.846 E0.02346
G1 X142.424 Y99.446 E0.02167
G1 X142.659 Y100.131 E0.02270
G1 X142.749 Y100.738 E0.01924
G1 X142.761 Y109.016 E0.25956
G1 X142.691 Y109.725 E0.02232
G1 X142.436 Y110.528 E0.02641
G1 X141.972 Y111.298 E0.02819
G1 X141.241 Y112.015 E0.03210
G1 X140.454 Y112.464 E0.02843
G1 X139.754 Y112.679 E0.02294
G1 X139.035 Y112.754 E0.02268
G1 X110.797 Y112.749 E0.88535
G1 X109.706 Y112.535 E0.03489
G1 X108.833 Y112.090 E0.03072
G1 X107.995 Y111.291 E0.03629
G1 X107.501 Y110.449 E0.03061
G1 X107.288 Y109.761 E0.02257
G1 X107.211 Y109.066 E0.02194
G1 X107.263 Y100.380 E0.27233
G1 X107.513 Y99.525 E0.02794
G1 X107.940 Y98.793 E0.02657
G1 X108.263 Y98.981 F10800.000
G1 F1200.000
G1 X108.947 Y98.295 E0.03037
G1 X109.680 Y97.878 E0.02644
G1 X110.299 Y97.689 E0.02031
G1 X110.946 Y97.623 E0.02037
G1 X139.010 Y97.623 E0.87994
G1 X139.657 Y97.686 E0.02037
G1 X140.276 Y97.871 E0.02027
G1 X140.856 Y98.174 E0.02051
G1 X141.344 Y98.563 E0.01957
G1 X141.782 Y99.075 E0.02111
G1 X142.088 Y99.619 E0.01957
G1 X142.297 Y100.239 E0.02053
G1 X142.375 Y100.793 E0.01755
G1 X142.384 Y109.011 E0.25767
G1 X142.326 Y109.624 E0.01931
G1 X142.099 Y110.358 E0.02409
G1 X141.682 Y111.057 E0.02550
G1 X141.007 Y111.719 E0.02965
G1 X140.285 Y112.126 E0.02597
G1 X139.666 Y112.312 E0.02028
G1 X139.026 Y112.377 E0.02016
G1 X110.832 Y112.373 E0.88400
G1 X109.831 Y112.179 E0.03197
G1 X109.046 Y111.779 E0.02763
G1 X108.280 Y111.044 E0.03331
G1 X107.838 Y110.277 E0.02775
G1 X107.655 Y109.672 E0.01982
G1 X107.588 Y109.051 E0.01958
G1 X107.633 Y100.455 E0.26953
G1 X107.856 Y99.680 E0.02528
G1 X108.233 Y99.033 E0.02347
; printing object LightSensorAngled.stl id:0 copy 0
G1 F8640.000
G1 X108.947 Y98.295 E-0.23706
G1 X109.680 Y97.878 E-0.19475
G1 X110.299 Y97.689 E-0.14956
G1 X110.946 Y97.623 E-0.15001
G1 X111.070 Y97.623 E-0.02862
G1 E-0.04000 F2100.00000
G1 Z0.600 F10800.000
G1 X131.801 Y104.182
G1 Z0.200
G1 E0.80000 F2100.00000
G1 F1200.000
G1 X131.929 Y103.789 E0.01295
G1 X132.105 Y103.415 E0.01295
G1 X132.326 Y103.067 E0.01295
G1 X132.590 Y102.749 E0.01295
G1 X132.891 Y102.466 E0.01295
G1 X133.225 Y102.223 E0.01295
G1 X133.587 Y102.024 E0.01295
G1 X133.972 Y101.872 E0.01295
G1 X134.372 Y101.770 E0.01296
G1 X134.782 Y101.718 E0.01296
G1 X135.195 Y101.718 E0.01296
G1 X135.530 Y101.760 E0.01060
G1 X135.999 Y101.870 E0.01510
G1 X136.389 Y102.024 E0.01315
G1 X136.751 Y102.223 E0.01295
G1 X137.086 Y102.466 E0.01295
G1 X137.387 Y102.749 E0.01295
G1 X137.651 Y103.067 E0.01295
G1 X137.872 Y103.415 E0.01295
G1 X138.048 Y103.789 E0.01295
G1 X138.176 Y104.182 E0.01295
G1 X138.253 Y104.588 E0.01295
G1 X138.274 Y104.912 E0.01018
G1 X138.255 Y105.405 E0.01548
G1 X138.176 Y105.818 E0.01318
G1 X138.048 Y106.211 E0.01295
G1 X137.872 Y106.585 E0.01295
G1 X137.651 Y106.933 E0.01295
G1 X137.383 Y107.257 E0.01316
G1 X137.020 Y107.582 E0.01527
G1 X136.751 Y107.777 E0.01041
G1 X136.384 Y107.979 E0.01315
G1 X135.931 Y108.147 E0.01514
G1 X135.605 Y108.230 E0.01056
G1 X135.195 Y108.282 E0.01296
G1 X134.782 Y108.282 E0.01296
G1 X134.372 Y108.230 E0.01296
G1 X133.972 Y108.128 E0.01296
G1 X133.587 Y107.976 E0.01295
G1 X133.225 Y107.777 E0.01295
G1 X132.891 Y107.534 E0.01295
G1 X132.590 Y107.252 E0.01295
G1 X132.326 Y106.933 E0.01295
G1 X132.105 Y106.585 E0.01295
G1 X131.929 Y106.211 E0.01295
G1 X131.801 Y105.818 E0.01295
G1 X131.723 Y105.412 E0.01295
G1 X131.697 Y105.000 E0.01295
G1 X131.723 Y104.588 E0.01295
G1 X131.789 Y104.241 E0.01107
G1 X132.160 Y104.312 F10800.000
G1 F1200.000
G1 X132.280 Y103.928 E0.01259
G1 X132.436 Y103.598 E0.01146
G1 X132.632 Y103.289 E0.01146
G1 X132.865 Y103.007 E0.01147
G1 X133.132 Y102.757 E0.01147
G1 X133.428 Y102.542 E0.01147
G1 X133.748 Y102.366 E0.01147
G1 X134.088 Y102.232 E0.01147
G1 X134.443 Y102.141 E0.01147
G1 X134.805 Y102.095 E0.01147
G1 X135.171 Y102.095 E0.01147
G1 X135.464 Y102.132 E0.00924
G1 X135.886 Y102.231 E0.01361
G1 X136.229 Y102.366 E0.01154
G1 X136.549 Y102.542 E0.01147
G1 X136.845 Y102.757 E0.01147
G1 X137.112 Y103.007 E0.01147
G1 X137.345 Y103.289 E0.01147
G1 X137.541 Y103.598 E0.01146
G1 X137.697 Y103.928 E0.01146
G1 X137.810 Y104.276 E0.01146
G1 X137.879 Y104.635 E0.01146
G1 X137.896 Y104.916 E0.00884
G1 X137.879 Y105.362 E0.01399
G1 X137.810 Y105.724 E0.01154
G1 X137.697 Y106.072 E0.01146
G1 X137.541 Y106.402 E0.01146
G1 X137.345 Y106.711 E0.01146
G1 X137.110 Y106.995 E0.01154
G1 X136.783 Y107.288 E0.01379
G1 X136.549 Y107.458 E0.00906
G1 X136.227 Y107.635 E0.01154
G1 X135.818 Y107.786 E0.01365
G1 X135.534 Y107.859 E0.00920
G1 X135.171 Y107.905 E0.01147
G1 X134.805 Y107.905 E0.01147
G1 X134.443 Y107.859 E0.01147
G1 X134.088 Y107.768 E0.01147
G1 X133.748 Y107.634 E0.01147
G1 X133.428 Y107.458 E0.01147
G1 X133.132 Y107.243 E0.01147
G1 X132.865 Y106.993 E0.01147
G1 X132.632 Y106.711 E0.01147
G1 X132.436 Y106.402 E0.01146
G1 X132.280 Y106.072 E0.01146
G1 X132.167 Y105.724 E0.01146
G1 X132.098 Y105.365 E0.01146
G1 X132.075 Y105.000 E0.01146
G1 X132.098 Y104.635 E0.01146
G1 X132.149 Y104.371 E0.00844
G1 X131.872 Y104.034 F10800.000
G1 F8640.000
G1 X132.280 Y103.928 E-0.10651
G1 X132.436 Y103.598 E-0.08442
G1 X132.632 Y103.289 E-0.08443
G1 X132.865 Y103.007 E-0.08444
G1 X133.132 Y102.757 E-0.08444
G1 X133.428 Y102.542 E-0.08445
G1 X133.748 Y102.366 E-0.08445
G1 X134.088 Y102.232 E-0.08446
G1 X134.350 Y102.165 E-0.06241
G1 E-0.04000 F2100.00000
G1 Z0.600 F10800.000
G1 X139.073 Y100.807
G1 Z0.200
G1 E0.80000 F2100.00000
G1 F1200.000
G1 X139.167 Y100.884 E0.00382
G1 X139.206 Y101.039 E0.00500
G1 X139.206 Y108.961 E0.24841
G1 X139.167 Y109.116 E0.00500
G1 X139.109 Y109.174 E0.00256
G1 X139.033 Y109.205 E0.00257
G1 X111.004 Y109.213 E0.87883
G1 X110.848 Y109.174 E0.00503
G1 X110.791 Y109.116 E0.00256
G1 X110.759 Y109.041 E0.00255
G1 X110.752 Y101.039 E0.25090
G1 X110.791 Y100.884 E0.00500
G1 X110.848 Y100.826 E0.00256
G1 X110.924 Y100.795 E0.00257
G1 X112.545 Y100.787 E0.05083
G1 X112.545 Y102.782 E0.06255
G1 X112.255 Y103.141 E0.01448
G1 X112.044 Y103.494 E0.01289
G1 X111.864 Y103.913 E0.01430
G1 X111.752 Y104.310 E0.01295
G1 X111.691 Y104.716 E0.01287
G1 X111.681 Y105.125 E0.01282
G1 X111.716 Y105.491 E0.01152
G1 X111.814 Y105.933 E0.01421
G1 X111.956 Y106.321 E0.01296
G1 X112.144 Y106.686 E0.01288
G1 X112.376 Y107.024 E0.01283
G1 X112.618 Y107.299 E0.01149
G1 X112.956 Y107.601 E0.01423
G1 X113.299 Y107.833 E0.01297
G1 X113.665 Y108.019 E0.01288
G1 X114.050 Y108.157 E0.01284
G1 X114.406 Y108.239 E0.01144
G1 X114.859 Y108.287 E0.01428
G1 X115.272 Y108.274 E0.01298
G1 X115.678 Y108.211 E0.01288
G1 X116.072 Y108.098 E0.01284
G1 X116.406 Y107.957 E0.01136
G1 X116.803 Y107.731 E0.01433
G1 X117.132 Y107.479 E0.01298
G1 X117.424 Y107.190 E0.01288
G1 X117.677 Y106.868 E0.01284
G1 X117.864 Y106.561 E0.01129
G1 X118.055 Y106.144 E0.01438
G1 X118.174 Y105.747 E0.01299
G1 X118.242 Y105.342 E0.01287
G1 X118.259 Y104.932 E0.01287
G1 X118.225 Y104.523 E0.01287
G1 X118.140 Y104.121 E0.01287
G1 X118.006 Y103.733 E0.01287
G1 X117.823 Y103.363 E0.01294
G1 X117.580 Y103.000 E0.01370
G1 X117.299 Y102.681 E0.01334
G1 X117.299 Y100.787 E0.05938
G1 X139.015 Y100.793 E0.68089
G1 F8640.000
G1 X139.167 Y100.884 E-0.04098
G1 X139.206 Y101.039 E-0.03682
G1 X139.206 Y103.993 E-0.68221
G1 E-0.04000 F2100.00000
G1 Z0.600 F10800.000
G1 X116.922 Y100.410
G1 Z0.200
G1 E0.80000 F2100.00000
G1 F1200.000
G1 X138.972 Y100.410 E0.69138
G1 X139.218 Y100.457 E0.00784
G1 X139.320 Y100.511 E0.00362
G1 X139.482 Y100.674 E0.00720
G1 X139.570 Y100.885 E0.00719
G1 X139.583 Y101.020 E0.00425
G1 X139.583 Y108.980 E0.24957
G1 X139.536 Y109.225 E0.00782
G1 X139.409 Y109.416 E0.00720
G1 X139.320 Y109.489 E0.00362
G1 X139.107 Y109.577 E0.00721
G1 X138.972 Y109.590 E0.00426
G1 X110.986 Y109.590 E0.87749
G1 X110.850 Y109.577 E0.00426
G1 X110.638 Y109.489 E0.00721
G1 X110.549 Y109.416 E0.00362
G1 X110.421 Y109.225 E0.00720
G1 X110.375 Y108.980 E0.00782
G1 X110.375 Y101.020 E0.24957
G1 X110.388 Y100.885 E0.00425
G1 X110.476 Y100.674 E0.00719
G1 X110.638 Y100.511 E0.00720
G1 X110.850 Y100.423 E0.00721
G1 X112.922 Y100.410 E0.06497
G1 X112.922 Y102.936 E0.07921
G1 X112.773 Y103.088 E0.00668
G1 X112.567 Y103.354 E0.01054
G1 X112.381 Y103.666 E0.01140
G1 X112.220 Y104.039 E0.01273
G1 X112.122 Y104.390 E0.01142
G1 X112.068 Y104.749 E0.01139
G1 X112.059 Y105.112 E0.01137
G1 X112.089 Y105.432 E0.01009
G1 X112.177 Y105.827 E0.01269
G1 X112.302 Y106.169 E0.01143
G1 X112.469 Y106.492 E0.01140
G1 X112.674 Y106.792 E0.01138
G1 X112.886 Y107.033 E0.01007
G1 X113.188 Y107.303 E0.01272
G1 X113.490 Y107.507 E0.01143
G1 X113.815 Y107.672 E0.01140
G1 X114.157 Y107.795 E0.01139
G1 X114.468 Y107.866 E0.01002
G1 X114.873 Y107.909 E0.01277
G1 X115.238 Y107.898 E0.01144
G1 X115.597 Y107.842 E0.01140
G1 X115.946 Y107.742 E0.01139
G1 X116.238 Y107.618 E0.00995
G1 X116.594 Y107.416 E0.01283
G1 X116.883 Y107.194 E0.01144
G1 X117.142 Y106.939 E0.01140
G1 X117.367 Y106.653 E0.01139
G1 X117.530 Y106.384 E0.00988
G1 X117.701 Y106.010 E0.01288
G1 X117.806 Y105.661 E0.01144
G1 X117.866 Y105.303 E0.01139
G1 X117.882 Y104.940 E0.01139
G1 X117.851 Y104.578 E0.01139
G1 X117.776 Y104.222 E0.01139
G1 X117.657 Y103.879 E0.01139
G1 X117.496 Y103.552 E0.01142
G1 X117.279 Y103.229 E0.01221
G1 X117.062 Y102.975 E0.01047
G1 X116.922 Y102.847 E0.00597
G1 X116.922 Y100.470 E0.07452
G1 X117.272 Y100.604 F10800.000
G1 F8640.000
G1 X120.213 Y100.461 E-0.76000
G1 E-0.04000 F2100.00000
G1 Z0.600 F10800.000
G1 X112.432 Y101.287
G1 Z0.200
G1 E0.80000 F2100.00000
G1 F1200.000
G1 X112.215 Y101.070 E0.00968
G1 X111.679 Y101.070 E0.01685
G1 X112.263 Y101.653 E0.02596
G1 X112.263 Y102.188 E0.01685
G1 X111.144 Y101.070 E0.04979
G1 X111.034 Y101.070 E0.00345
G1 X111.034 Y101.496 E0.01340
G1 X112.244 Y102.705 E0.05385
G1 X112.008 Y103.004 E0.01200
G1 X111.034 Y102.031 E0.04333
G1 X111.034 Y102.566 E0.01685
G1 X111.807 Y103.339 E0.03441
G1 X111.643 Y103.711 E0.01278
G1 X111.034 Y103.102 E0.02710
G1 X111.034 Y103.637 E0.01685
G1 X111.513 Y104.116 E0.02131
G1 X111.428 Y104.566 E0.01442
G1 X111.034 Y104.173 E0.01751
G1 X111.034 Y104.708 E0.01685
G1 X111.400 Y105.073 E0.01626
G1 X111.436 Y105.535 E0.01458
G1 X111.468 Y105.677 E0.00457
G1 X111.034 Y105.243 E0.01928
G1 X111.034 Y105.779 E0.01685
G1 X111.703 Y106.447 E0.02976
G1 X111.901 Y106.832 E0.01362
G1 X112.152 Y107.197 E0.01397
G1 X112.417 Y107.499 E0.01261
G1 X112.782 Y107.825 E0.01542
G1 X113.155 Y108.077 E0.01417
G1 X113.516 Y108.261 E0.01275
G1 X114.179 Y108.923 E0.02950
G1 X114.714 Y108.923 E0.01686
G1 X114.294 Y108.503 E0.01870
G1 X114.895 Y108.568 E0.01901
G1 X115.250 Y108.924 E0.01581
G1 X115.786 Y108.924 E0.01686
G1 X115.402 Y108.540 E0.01707
G1 X115.853 Y108.455 E0.01443
G1 X116.321 Y108.924 E0.02086
G1 X116.857 Y108.924 E0.01686
G1 X116.259 Y108.326 E0.02661
G1 X116.625 Y108.157 E0.01270
G1 X117.392 Y108.924 E0.03413
G1 X117.928 Y108.924 E0.01686
G1 X116.966 Y107.962 E0.04282
G1 X117.269 Y107.730 E0.01202
G1 X118.463 Y108.924 E0.05317
G1 X118.999 Y108.925 E0.01686
G1 X117.544 Y107.469 E0.06478
G1 X117.791 Y107.181 E0.01195
G1 X119.534 Y108.925 E0.07761
G1 X120.070 Y108.925 E0.01686
G1 X118.010 Y106.865 E0.09170
G1 X118.196 Y106.515 E0.01246
G1 X120.605 Y108.925 E0.10727
G1 X121.141 Y108.925 E0.01686
G1 X118.352 Y106.137 E0.12414
G1 X118.466 Y105.715 E0.01374
G1 X121.676 Y108.925 E0.14291
G1 X122.212 Y108.925 E0.01686
G1 X118.529 Y105.243 E0.16394
G1 X118.543 Y104.926 E0.00999
G1 X118.524 Y104.702 E0.00707
G1 X122.747 Y108.926 E0.18802
G1 X123.283 Y108.926 E0.01686
G1 X118.416 Y104.059 E0.21665
G1 X118.268 Y103.624 E0.01448
G1 X118.069 Y103.221 E0.01414
G1 X117.978 Y103.085 E0.00515
G1 X123.819 Y108.926 E0.26002
G1 X124.354 Y108.926 E0.01686
G1 X117.581 Y102.154 E0.30150
G1 X117.581 Y101.618 E0.01685
G1 X124.890 Y108.926 E0.32534
G1 X125.425 Y108.926 E0.01686
G1 X117.581 Y101.070 E0.34946
G1 X118.104 Y101.070 E0.01646
G1 X125.961 Y108.927 E0.34974
G1 X126.496 Y108.927 E0.01686
G1 X118.640 Y101.070 E0.34974
G1 X119.175 Y101.071 E0.01686
G1 X127.032 Y108.927 E0.34974
G1 X127.567 Y108.927 E0.01686
G1 X119.711 Y101.071 E0.34974
G1 X120.247 Y101.071 E0.01686
G1 X128.103 Y108.927 E0.34973
G1 X128.638 Y108.927 E0.01686
G1 X120.782 Y101.071 E0.34973
G1 X121.318 Y101.071 E0.01686
G1 X129.174 Y108.927 E0.34973
G1 X129.709 Y108.928 E0.01686
G1 X121.853 Y101.072 E0.34973
G1 X122.389 Y101.072 E0.01686
G1 X130.245 Y108.928 E0.34973
G1 X130.780 Y108.928 E0.01686
G1 X122.925 Y101.072 E0.34972
G1 X123.460 Y101.072 E0.01686
G1 X131.316 Y108.928 E0.34972
G1 X131.852 Y108.928 E0.01686
G1 X123.996 Y101.072 E0.34972
G1 X124.531 Y101.073 E0.01686
G1 X132.387 Y108.928 E0.34972
G1 X132.923 Y108.928 E0.01686
G1 X125.067 Y101.073 E0.34972
G1 X125.602 Y101.073 E0.01686
G1 X133.628 Y109.098 E0.35727
G1 F8640.000
G1 X131.300 Y106.771 E-0.76000
G1 E-0.04000 F2100.00000
G1 Z0.600 F10800.000
G1 X139.090 Y104.388
G1 Z0.200
G1 E0.80000 F2100.00000
G1 F1200.000
G1 X138.245 Y103.543 E0.03761
G1 X138.312 Y103.685 E0.00493
G1 X138.450 Y104.111 E0.01412
G1 X138.491 Y104.325 E0.00683
G1 X138.920 Y104.753 E0.01908
G1 X138.919 Y105.288 E0.01684
G1 X138.556 Y104.925 E0.01615
G1 X138.536 Y105.440 E0.01623
G1 X138.919 Y105.823 E0.01703
G1 X138.918 Y106.358 E0.01684
G1 X138.450 Y105.890 E0.02084
G1 X138.319 Y106.294 E0.01337
G1 X138.917 Y106.893 E0.02666
G1 X138.917 Y107.428 E0.01684
G1 X138.149 Y106.660 E0.03417
G1 X137.947 Y106.993 E0.01227
G1 X138.916 Y107.962 E0.04314
G1 X138.916 Y108.497 E0.01684
G1 X137.716 Y107.298 E0.05341
G1 X137.587 Y107.453 E0.00636
G1 X137.455 Y107.572 E0.00559
G1 X138.813 Y108.930 E0.06047
G1 X138.278 Y108.930 E0.01686
G1 X137.170 Y107.822 E0.04931
G1 X136.855 Y108.043 E0.01210
G1 X137.742 Y108.930 E0.03950
G1 X137.207 Y108.930 E0.01686
G1 X136.510 Y108.232 E0.03104
G1 X136.120 Y108.378 E0.01309
G1 X136.671 Y108.930 E0.02454
G1 X136.136 Y108.929 E0.01686
G1 X135.703 Y108.497 E0.01924
G1 X135.233 Y108.562 E0.01494
G1 X135.600 Y108.929 E0.01633
G1 X135.065 Y108.929 E0.01686
G1 X134.691 Y108.556 E0.01662
G1 X134.319 Y108.509 E0.01183
G1 X134.037 Y108.436 E0.00917
G1 X134.529 Y108.929 E0.02192
G1 X133.994 Y108.929 E0.01686
G1 X126.138 Y101.073 E0.34971
G1 X126.674 Y101.073 E0.01686
G1 X131.544 Y105.944 E0.21684
G1 X131.442 Y105.448 E0.01595
