; generated by PrusaSlicer 2.2.0+win64 on 2020-10-23 at 19:19:13 UTC

; 

; external perimeters extrusion width = 0.60mm
; perimeters extrusion width = 0.43mm
; infill extrusion width = 0.45mm
; solid infill extrusion width = 0.70mm
; top infill extrusion width = 0.43mm
; first layer extrusion width = 0.42mm

M73 P0 R50
M201 X9000 Y9000 Z500 E10000 ; sets maximum accelerations, mm/sec^2
M203 X500 Y500 Z12 E120 ; sets maximum feedrates, mm/sec
M204 P2000 R1500 T2000 ; sets acceleration (P, T) and retract acceleration (R), mm/sec^2
M205 X10.00 Y10.00 Z0.20 E2.50 ; sets the jerk limits, mm/sec
M205 S0 T0 ; sets the minimum extruding and travel feed rate, mm/sec
M107
M862.3 P "MK2S" ; printer model check
M862.1 P0.4 ; nozzle diameter check
M115 U3.2.3 ; tell printer latest fw version
G90 ; use absolute coordinates
M83 ; extruder relative mode
M204 S2000 T1500 ; MK2 firmware only supports the old M204 format
M104 S215 ; set extruder temp
M140 S60 ; set bed temp
M190 S60 ; wait for bed temp
M109 S215 ; wait for extruder temp
G28 W ; home all without mesh bed level
G80 ; mesh bed leveling
G1 Y-3.0 F1000.0 ; go outside print area
G92 E0.0
G1 X60.0 E9.0  F1000.0 ; intro line
M73 P0 R50
G1 X100.0 E12.5 F1000.0 ; intro line
G92 E0.0
G21 ; set units to millimeters
G90 ; use absolute coordinates
M83 ; use relative distances for extrusion
M900 K0.05 ; Filament gcode LA 1.5
M900 K30 ; Filament gcode LA 1.0
;BEFORE_LAYER_CHANGE
G92 E0.0
;0.2


G1 E-0.80000 F2100.00000
G1 Z0.600 F10800.000
;AFTER_LAYER_CHANGE
;0.2
G1 X96.406 Y85.301
G1 Z0.200
G1 E0.80000 F2100.00000
M204 S1000
G1 F1200.000
G1 X97.558 Y84.123 E0.05166
G1 X98.343 Y83.574 E0.03001
G1 X99.256 Y83.115 E0.03204
G1 X100.715 Y82.683 E0.04773
G1 X101.744 Y82.572 E0.03246
G1 X147.931 Y82.571 E1.44816
G1 X149.506 Y82.718 E0.04958
G1 X150.511 Y83.003 E0.03276
G1 X151.969 Y83.749 E0.05136
G1 X152.798 Y84.391 E0.03287
G1 X153.520 Y85.156 E0.03299
G1 X154.398 Y86.526 E0.05101
G1 X154.784 Y87.507 E0.03305
G1 X155.080 Y89.035 E0.04880
G1 X155.089 Y120.855 E0.99770
G1 X154.788 Y122.477 E0.05172
G1 X154.399 Y123.471 E0.03347
G1 X153.506 Y124.862 E0.05183
G1 X152.706 Y125.689 E0.03608
G1 X151.456 Y126.562 E0.04779
G1 X150.603 Y126.960 E0.02953
G1 X149.636 Y127.256 E0.03169
G1 X148.605 Y127.409 E0.03269
G1 X101.775 Y127.429 E1.46833
G1 X100.871 Y127.346 E0.02847
G1 X100.095 Y127.176 E0.02489
G1 X99.008 Y126.776 E0.03633
G1 X98.307 Y126.404 E0.02488
G1 X97.584 Y125.898 E0.02764
G1 X96.932 Y125.308 E0.02758
G1 X96.402 Y124.695 E0.02543
G1 X95.842 Y123.851 E0.03174
G1 X95.411 Y122.931 E0.03186
G1 X95.021 Y121.454 E0.04792
G1 X94.941 Y120.504 E0.02989
G1 X94.940 Y89.527 E0.97127
G1 X94.997 Y88.689 E0.02633
G1 X95.166 Y87.824 E0.02763
G1 X95.443 Y86.983 E0.02776
G1 X95.773 Y86.280 E0.02436
G1 X96.374 Y85.351 E0.03467
G1 E-0.80000 F2100.00000
G1 Z0.800 F10800.000
G1 X145.271 Y118.785
G1 Z0.200
G1 E0.80000 F2100.00000
G1 F1200.000
G1 X145.595 Y118.322 E0.01771
G1 X145.994 Y117.923 E0.01771
G1 X146.457 Y117.599 E0.01771
G1 X146.968 Y117.360 E0.01771
G1 X147.514 Y117.214 E0.01771
G1 X148.077 Y117.165 E0.01771
G1 X148.639 Y117.214 E0.01771
G1 X149.185 Y117.360 E0.01771
G1 X149.697 Y117.599 E0.01771
G1 X150.159 Y117.923 E0.01771
G1 X150.559 Y118.322 E0.01771
G1 X150.883 Y118.785 E0.01771
G1 X151.121 Y119.297 E0.01771
G1 X151.268 Y119.842 E0.01771
G1 X151.317 Y120.405 E0.01771
G1 X151.268 Y120.967 E0.01771
G1 X151.121 Y121.513 E0.01771
G1 X150.883 Y122.025 E0.01771
G1 X150.559 Y122.487 E0.01771
G1 X150.159 Y122.887 E0.01771
G1 X149.697 Y123.211 E0.01771
G1 X149.185 Y123.449 E0.01771
G1 X148.639 Y123.596 E0.01771
G1 X148.077 Y123.645 E0.01771
G1 X147.514 Y123.596 E0.01771
G1 X146.968 Y123.449 E0.01771
G1 X146.457 Y123.211 E0.01771
G1 X145.994 Y122.887 E0.01771
G1 X145.595 Y122.487 E0.01771
G1 X145.271 Y122.025 E0.01771
G1 X145.032 Y121.513 E0.01771
G1 X144.886 Y120.967 E0.01771
G1 X144.837 Y120.405 E0.01771
G1 X144.886 Y119.842 E0.01771
G1 X145.032 Y119.297 E0.01771
G1 X145.245 Y118.839 E0.01583
G1 X145.587 Y118.998 F10800.000
G1 F1200.000
G1 X145.885 Y118.565 E0.01647
G1 X146.237 Y118.213 E0.01564
G1 X146.646 Y117.927 E0.01564
G1 X147.098 Y117.716 E0.01564
G1 X147.580 Y117.587 E0.01564
G1 X148.077 Y117.543 E0.01564
G1 X148.574 Y117.587 E0.01564
G1 X149.055 Y117.716 E0.01564
G1 X149.507 Y117.927 E0.01564
G1 X149.916 Y118.213 E0.01564
G1 X150.269 Y118.565 E0.01564
G1 X150.555 Y118.974 E0.01564
G1 X150.766 Y119.426 E0.01564
G1 X150.895 Y119.908 E0.01564
G1 X150.938 Y120.405 E0.01564
G1 X150.895 Y120.902 E0.01564
G1 X150.766 Y121.384 E0.01564
G1 X150.555 Y121.836 E0.01564
G1 X150.269 Y122.244 E0.01564
G1 X149.916 Y122.597 E0.01564
G1 X149.507 Y122.883 E0.01564
G1 X149.055 Y123.094 E0.01564
G1 X148.574 Y123.223 E0.01564
G1 X148.077 Y123.266 E0.01564
G1 X147.580 Y123.223 E0.01564
G1 X147.098 Y123.094 E0.01564
G1 X146.646 Y122.883 E0.01564
G1 X146.237 Y122.597 E0.01564
G1 X145.885 Y122.244 E0.01564
G1 X145.598 Y121.836 E0.01564
G1 X145.388 Y121.384 E0.01564
G1 X145.259 Y120.902 E0.01564
G1 X145.215 Y120.405 E0.01564
G1 X145.259 Y119.908 E0.01564
G1 X145.388 Y119.426 E0.01564
G1 X145.562 Y119.053 E0.01291
G1 X145.385 Y118.653 F10800.000
G1 X144.660 Y118.619
G1 F1200.000
G1 X144.982 Y118.095 E0.01927
G1 X145.303 Y117.719 E0.01551
G1 X145.669 Y117.386 E0.01551
G1 X146.075 Y117.103 E0.01551
G1 X146.514 Y116.874 E0.01551
G1 X146.978 Y116.703 E0.01551
G1 X147.460 Y116.593 E0.01551
G1 X147.953 Y116.545 E0.01551
G1 X148.447 Y116.561 E0.01551
G1 X148.936 Y116.640 E0.01551
G1 X149.410 Y116.781 E0.01551
G1 X149.863 Y116.981 E0.01551
G1 X150.286 Y117.238 E0.01551
G1 X150.673 Y117.546 E0.01551
G1 X151.017 Y117.902 E0.01551
G1 X151.313 Y118.298 E0.01551
G1 X151.556 Y118.729 E0.01551
G1 X151.741 Y119.188 E0.01551
G1 X151.867 Y119.667 E0.01551
G1 X151.932 Y120.170 E0.01591
G1 X151.932 Y120.640 E0.01473
G1 X151.867 Y121.143 E0.01591
G1 X151.741 Y121.622 E0.01551
G1 X151.556 Y122.080 E0.01551
G1 X151.313 Y122.511 E0.01551
G1 X151.017 Y122.908 E0.01551
G1 X150.673 Y123.263 E0.01551
G1 X150.286 Y123.572 E0.01551
G1 X149.863 Y123.828 E0.01551
G1 X149.410 Y124.029 E0.01551
G1 X148.936 Y124.169 E0.01551
G1 X148.447 Y124.248 E0.01551
G1 X147.953 Y124.264 E0.01551
G1 X147.460 Y124.217 E0.01551
G1 X146.978 Y124.107 E0.01551
G1 X146.514 Y123.936 E0.01551
G1 X146.075 Y123.707 E0.01551
G1 X145.669 Y123.424 E0.01551
G1 X145.303 Y123.091 E0.01551
G1 X144.982 Y122.714 E0.01551
G1 X144.712 Y122.300 E0.01551
G1 X144.498 Y121.854 E0.01551
G1 X144.342 Y121.384 E0.01551
G1 X144.247 Y120.899 E0.01551
G1 X144.215 Y120.405 E0.01551
G1 X144.247 Y119.911 E0.01551
G1 X144.342 Y119.425 E0.01551
G1 X144.498 Y118.956 E0.01551
G1 X144.634 Y118.673 E0.00985
G1 X144.383 Y118.325 F10800.000
G1 F1200.000
G1 X144.679 Y117.869 E0.01703
G1 X145.031 Y117.456 E0.01703
G1 X145.434 Y117.090 E0.01703
G1 X145.879 Y116.780 E0.01703
G1 X146.361 Y116.528 E0.01703
G1 X146.870 Y116.341 E0.01703
G1 X147.400 Y116.220 E0.01703
G1 X147.941 Y116.168 E0.01703
G1 X148.484 Y116.185 E0.01703
G1 X149.020 Y116.272 E0.01703
G1 X149.541 Y116.426 E0.01703
G1 X150.037 Y116.646 E0.01703
G1 X150.502 Y116.928 E0.01703
G1 X150.927 Y117.267 E0.01703
G1 X151.305 Y117.657 E0.01703
G1 X151.629 Y118.092 E0.01703
G1 X151.896 Y118.566 E0.01703
G1 X152.100 Y119.069 E0.01703
G1 X152.238 Y119.594 E0.01703
G1 X152.308 Y120.140 E0.01724
G1 X152.308 Y120.670 E0.01662
G1 X152.238 Y121.215 E0.01724
G1 X152.100 Y121.741 E0.01703
G1 X151.896 Y122.244 E0.01703
G1 X151.629 Y122.717 E0.01703
G1 X151.305 Y123.153 E0.01703
G1 X150.927 Y123.543 E0.01703
G1 X150.502 Y123.882 E0.01703
G1 X150.037 Y124.163 E0.01703
G1 X149.541 Y124.383 E0.01703
G1 X149.020 Y124.538 E0.01703
G1 X148.484 Y124.624 E0.01703
G1 X147.941 Y124.642 E0.01703
G1 X147.400 Y124.590 E0.01703
G1 X146.870 Y124.469 E0.01703
G1 X146.361 Y124.281 E0.01703
G1 X145.879 Y124.030 E0.01703
G1 X145.434 Y123.719 E0.01703
G1 X145.031 Y123.354 E0.01703
G1 X144.679 Y122.940 E0.01703
G1 X144.383 Y122.485 E0.01703
G1 X144.147 Y121.996 E0.01703
G1 X143.976 Y121.480 E0.01703
G1 X143.872 Y120.947 E0.01703
G1 X143.837 Y120.405 E0.01703
G1 X143.872 Y119.863 E0.01703
G1 X143.976 Y119.330 E0.01703
G1 X144.147 Y118.814 E0.01703
G1 X144.357 Y118.379 E0.01515
G1 X144.783 Y118.320 F10800.000
G1 X144.979 Y118.673
G1 F1200.000
G1 X145.366 Y118.117 E0.01368
G1 X145.531 Y117.939 E0.00489
G1 X145.865 Y117.631 E0.00917
G1 X146.312 Y117.327 E0.01091
G1 X146.642 Y117.164 E0.00744
G1 X147.068 Y117.006 E0.00917
G1 X147.510 Y116.901 E0.00918
G1 X148.066 Y116.857 E0.01126
G1 X148.417 Y116.877 E0.00709
G1 X148.866 Y116.948 E0.00917
G1 X149.281 Y117.065 E0.00871
G1 X149.841 Y117.328 E0.01249
G1 X150.365 Y117.694 E0.01290
G1 X150.789 Y118.115 E0.01207
G1 X151.154 Y118.640 E0.01291
G1 X151.270 Y118.867 E0.00515
G1 X151.443 Y119.287 E0.00917
G1 X151.573 Y119.799 E0.01066
G1 X151.628 Y120.394 E0.01207
G1 X151.616 Y120.614 E0.00445
G1 X151.570 Y121.031 E0.00847
G1 X151.443 Y121.523 E0.01024
G1 X151.270 Y121.943 E0.00917
G1 X151.154 Y122.169 E0.00515
G1 X150.780 Y122.706 E0.01320
G1 X150.461 Y123.030 E0.00918
G1 X150.104 Y123.312 E0.00917
G1 X149.717 Y123.549 E0.00917
G1 X149.303 Y123.737 E0.00918
G1 X148.866 Y123.861 E0.00918
G1 X148.417 Y123.933 E0.00917
G1 X148.087 Y123.952 E0.00667
G1 X147.510 Y123.908 E0.01168
G1 X146.873 Y123.741 E0.01329
G1 X146.293 Y123.473 E0.01290
G1 X145.788 Y123.116 E0.01249
G1 X145.531 Y122.871 E0.00718
G1 X145.236 Y122.525 E0.00917
G1 X144.984 Y122.147 E0.00918
G1 X144.789 Y121.736 E0.00918
G1 X144.648 Y121.304 E0.00917
G1 X144.560 Y120.858 E0.00917
G1 X144.526 Y120.415 E0.00897
G1 X144.560 Y119.951 E0.00939
G1 X144.648 Y119.506 E0.00917
G1 X144.740 Y119.201 E0.00642
G1 X144.953 Y118.728 E0.01049
G1 E-0.80000 F2100.00000
G1 Z0.800 F10800.000
G1 X135.897 Y119.842
G1 Z0.200
G1 E0.80000 F2100.00000
G1 F1200.000
G1 X135.946 Y120.405 E0.01771
G1 X135.897 Y120.967 E0.01771
G1 X135.751 Y121.513 E0.01771
G1 X135.512 Y122.025 E0.01771
G1 X135.188 Y122.487 E0.01771
G1 X134.789 Y122.887 E0.01771
G1 X134.326 Y123.211 E0.01771
G1 X133.815 Y123.449 E0.01771
G1 X133.269 Y123.596 E0.01771
G1 X132.706 Y123.645 E0.01771
G1 X132.144 Y123.596 E0.01771
G1 X131.598 Y123.449 E0.01771
G1 X131.086 Y123.211 E0.01771
G1 X130.624 Y122.887 E0.01771
G1 X130.224 Y122.487 E0.01771
G1 X129.900 Y122.025 E0.01771
G1 X129.662 Y121.513 E0.01771
G1 X129.515 Y120.967 E0.01771
G1 X129.466 Y120.405 E0.01771
G1 X129.515 Y119.842 E0.01771
G1 X129.662 Y119.297 E0.01771
G1 X129.900 Y118.785 E0.01771
G1 X130.224 Y118.322 E0.01771
G1 X130.624 Y117.923 E0.01771
G1 X131.086 Y117.599 E0.01771
G1 X131.598 Y117.360 E0.01771
G1 X132.144 Y117.214 E0.01771
G1 X132.706 Y117.165 E0.01771
G1 X133.269 Y117.214 E0.01771
G1 X133.815 Y117.360 E0.01771
G1 X134.326 Y117.599 E0.01771
G1 X134.789 Y117.923 E0.01771
G1 X135.188 Y118.322 E0.01771
G1 X135.512 Y118.785 E0.01771
G1 X135.751 Y119.297 E0.01771
G1 X135.882 Y119.784 E0.01583
G1 X135.517 Y119.882 F10800.000
G1 F1200.000
G1 X135.568 Y120.405 E0.01647
G1 X135.524 Y120.902 E0.01564
G1 X135.395 Y121.384 E0.01564
G1 X135.185 Y121.836 E0.01564
G1 X134.898 Y122.244 E0.01564
G1 X134.546 Y122.597 E0.01564
G1 X134.137 Y122.883 E0.01564
G1 X133.685 Y123.094 E0.01564
G1 X133.203 Y123.223 E0.01564
G1 X132.706 Y123.266 E0.01564
G1 X132.209 Y123.223 E0.01564
G1 X131.728 Y123.094 E0.01564
G1 X131.276 Y122.883 E0.01564
G1 X130.867 Y122.597 E0.01564
G1 X130.514 Y122.244 E0.01564
G1 X130.228 Y121.836 E0.01564
G1 X130.017 Y121.384 E0.01564
G1 X129.888 Y120.902 E0.01564
G1 X129.845 Y120.405 E0.01564
G1 X129.888 Y119.908 E0.01564
G1 X130.017 Y119.426 E0.01564
G1 X130.228 Y118.974 E0.01564
G1 X130.514 Y118.565 E0.01564
G1 X130.867 Y118.213 E0.01564
G1 X131.276 Y117.927 E0.01564
G1 X131.728 Y117.716 E0.01564
G1 X132.209 Y117.587 E0.01564
G1 X132.706 Y117.543 E0.01564
G1 X133.203 Y117.587 E0.01564
G1 X133.685 Y117.716 E0.01564
G1 X134.137 Y117.927 E0.01564
G1 X134.546 Y118.213 E0.01564
G1 X134.898 Y118.565 E0.01564
G1 X135.185 Y118.974 E0.01564
G1 X135.395 Y119.426 E0.01564
G1 X135.502 Y119.824 E0.01291
G1 X135.894 Y120.016 F10800.000
G1 X136.471 Y119.570
G1 F1200.000
G1 X136.561 Y120.170 E0.01903
G1 X136.569 Y120.405 E0.00737
G1 X136.561 Y120.640 E0.00737
G1 X136.496 Y121.143 E0.01591
G1 X136.371 Y121.622 E0.01551
G1 X136.185 Y122.080 E0.01551
G1 X135.942 Y122.511 E0.01551
G1 X135.647 Y122.908 E0.01551
G1 X135.302 Y123.263 E0.01551
G1 X134.915 Y123.572 E0.01551
G1 X134.492 Y123.828 E0.01551
G1 X134.040 Y124.029 E0.01551
G1 X133.566 Y124.169 E0.01551
G1 X133.077 Y124.248 E0.01551
G1 X132.583 Y124.264 E0.01551
G1 X132.090 Y124.217 E0.01551
G1 X131.608 Y124.107 E0.01551
G1 X131.143 Y123.936 E0.01551
G1 X130.705 Y123.707 E0.01551
G1 X130.299 Y123.424 E0.01551
G1 X129.933 Y123.091 E0.01551
G1 X129.612 Y122.714 E0.01551
G1 X129.342 Y122.300 E0.01551
G1 X129.127 Y121.854 E0.01551
G1 X128.971 Y121.384 E0.01551
G1 X128.877 Y120.899 E0.01551
G1 X128.845 Y120.405 E0.01551
G1 X128.877 Y119.911 E0.01551
G1 X128.971 Y119.425 E0.01551
G1 X129.127 Y118.956 E0.01551
G1 X129.342 Y118.510 E0.01551
G1 X129.612 Y118.095 E0.01551
G1 X129.933 Y117.719 E0.01551
G1 X130.299 Y117.386 E0.01551
G1 X130.705 Y117.103 E0.01551
G1 X131.143 Y116.874 E0.01551
G1 X131.608 Y116.703 E0.01551
G1 X132.090 Y116.593 E0.01551
G1 X132.583 Y116.545 E0.01551
G1 X133.077 Y116.561 E0.01551
G1 X133.566 Y116.640 E0.01551
G1 X134.040 Y116.781 E0.01551
G1 X134.492 Y116.981 E0.01551
G1 X134.915 Y117.238 E0.01551
G1 X135.302 Y117.546 E0.01551
G1 X135.647 Y117.902 E0.01551
G1 X135.942 Y118.298 E0.01551
G1 X136.185 Y118.729 E0.01551
G1 X136.371 Y119.188 E0.01551
G1 X136.456 Y119.512 E0.01049
G1 X136.821 Y119.416 F10800.000
G1 F1200.000
G1 X136.867 Y119.594 E0.00578
G1 X136.938 Y120.140 E0.01724
G1 X136.946 Y120.405 E0.00832
G1 X136.938 Y120.670 E0.00832
G1 X136.867 Y121.215 E0.01724
G1 X136.730 Y121.741 E0.01703
G1 X136.526 Y122.244 E0.01703
G1 X136.259 Y122.717 E0.01703
G1 X135.934 Y123.153 E0.01703
G1 X135.556 Y123.543 E0.01703
G1 X135.132 Y123.882 E0.01703
G1 X134.667 Y124.163 E0.01703
G1 X134.170 Y124.383 E0.01703
G1 X133.650 Y124.538 E0.01703
G1 X133.113 Y124.624 E0.01703
G1 X132.570 Y124.642 E0.01703
G1 X132.030 Y124.590 E0.01703
G1 X131.500 Y124.469 E0.01703
G1 X130.990 Y124.281 E0.01703
G1 X130.509 Y124.030 E0.01703
G1 X130.063 Y123.719 E0.01703
G1 X129.661 Y123.354 E0.01703
G1 X129.309 Y122.940 E0.01703
G1 X129.013 Y122.485 E0.01703
G1 X128.777 Y121.996 E0.01703
G1 X128.606 Y121.480 E0.01703
G1 X128.502 Y120.947 E0.01703
G1 X128.467 Y120.405 E0.01703
G1 X128.502 Y119.863 E0.01703
G1 X128.606 Y119.330 E0.01703
G1 X128.777 Y118.814 E0.01703
G1 X129.013 Y118.325 E0.01703
G1 X129.309 Y117.869 E0.01703
G1 X129.661 Y117.456 E0.01703
G1 X130.063 Y117.090 E0.01703
G1 X130.509 Y116.780 E0.01703
G1 X130.990 Y116.528 E0.01703
G1 X131.500 Y116.341 E0.01703
G1 X132.030 Y116.220 E0.01703
G1 X132.570 Y116.168 E0.01703
G1 X133.113 Y116.185 E0.01703
G1 X133.650 Y116.272 E0.01703
G1 X134.170 Y116.426 E0.01703
G1 X134.667 Y116.646 E0.01703
G1 X135.132 Y116.928 E0.01703
G1 X135.556 Y117.267 E0.01703
G1 X135.934 Y117.657 E0.01703
G1 X136.259 Y118.092 E0.01703
G1 X136.526 Y118.566 E0.01703
G1 X136.730 Y119.069 E0.01703
G1 X136.805 Y119.358 E0.00937
G1 X136.693 Y119.549 F10800.000
G1 X136.189 Y119.726
G1 F1200.000
G1 X136.258 Y120.405 E0.01376
G1 X136.200 Y121.031 E0.01270
G1 X136.037 Y121.628 E0.01248
G1 X135.900 Y121.943 E0.00693
G1 X135.678 Y122.339 E0.00917
G1 X135.409 Y122.706 E0.00918
G1 X135.091 Y123.030 E0.00918
G1 X134.734 Y123.312 E0.00917
G1 X134.347 Y123.549 E0.00917
G1 X133.933 Y123.737 E0.00918
G1 X133.332 Y123.896 E0.01253
G1 X132.696 Y123.953 E0.01290
G1 X132.100 Y123.902 E0.01207
G1 X131.484 Y123.734 E0.01290
G1 X130.867 Y123.439 E0.01380
G1 X130.418 Y123.116 E0.01117
G1 X130.160 Y122.871 E0.00718
G1 X129.865 Y122.525 E0.00917
G1 X129.627 Y122.171 E0.00862
G1 X129.419 Y121.736 E0.00973
G1 X129.278 Y121.304 E0.00917
G1 X129.215 Y121.031 E0.00565
G1 X129.156 Y120.405 E0.01270
G1 X129.190 Y119.951 E0.00918
G1 X129.278 Y119.506 E0.00917
G1 X129.419 Y119.074 E0.00917
G1 X129.614 Y118.663 E0.00918
