; generated by Slic3r Prusa Edition 1.40.1+ on 2018-10-23 at 15:08:29

; 

; external perimeters extrusion width = 0.45mm
; perimeters extrusion width = 0.45mm
; infill extrusion width = 0.45mm
; solid infill extrusion width = 0.45mm
; top infill extrusion width = 0.40mm
; support material extrusion width = 0.35mm

M107
M115 U3.1.0 ; tell printer latest fw version
M201 X9000 Y9000 Z500 E10000 ; sets maximum accelerations, mm/sec^2
M203 X500 Y500 Z12 E120 ; sets maximum feedrates, mm/sec
M204 S1500 T1500 ; sets acceleration (S) and retract acceleration (T)
M205 X10 Y10 Z0.2 E2.5 ; sets the jerk limits, mm/sec
M205 S0 T0 ; sets the minimum extruding and travel feed rate, mm/sec
M83  ; extruder relative mode
M104 S215 ; set extruder temp
M140 S60 ; set bed temp
M190 S60 ; wait for bed temp
M109 S215 ; wait for extruder temp
G28 W ; home all without mesh bed level
G80 ; mesh bed leveling
G1 Y-3.0 F1000.0 ; go outside print area
G92 E0.0
G1 X60.0 E9.0  F1000.0 ; intro line
G1 X100.0 E12.5  F1000.0 ; intro line
G92 E0.0
M900 K30; Filament gcode
G21 ; set units to millimeters
G90 ; use absolute coordinates
M83 ; use relative distances for extrusion
;BEFORE_LAYER_CHANGE
G92 E0.0
;0.2


G1 E-0.80000 F2100.00000
G1 Z0.600 F10800.000
;AFTER_LAYER_CHANGE
;0.2
G1 X92.616 Y74.826
G1 Z0.200
G1 E0.80000 F2100.00000
M204 S1000
G1 F1800
G1 X92.616 Y84.471 E0.24627
G1 X93.230 Y84.471 E0.01568
G1 X93.230 Y75.636 E0.22560
G1 X93.844 Y76.250 E0.02218
G1 X93.844 Y84.609 E0.21345
G1 F8640
G1 X93.844 Y81.318 E-0.76000
G1 E-0.04000 F2100.00000
G1 Z0.800 F10800.000
G1 X114.111 Y78.420
G1 Z0.200
G1 E0.80000 F2100.00000
G1 F1800
G1 X114.111 Y78.771 E0.00896
G1 X113.497 Y78.771 E0.01568
G1 X113.497 Y78.558 E0.00543
G1 X112.883 Y78.558 E0.01568
G1 X112.883 Y78.771 E0.00543
G1 X112.269 Y78.771 E0.01568
G1 X112.269 Y78.558 E0.00543
G1 X111.654 Y78.558 E0.01568
G1 X111.654 Y78.771 E0.00543
G1 X111.040 Y78.771 E0.01568
G1 X111.040 Y78.558 E0.00543
G1 X110.426 Y78.558 E0.01568
G1 X110.426 Y78.771 E0.00543
G1 X109.812 Y78.771 E0.01568
G1 X109.812 Y78.558 E0.00543
G1 X109.198 Y78.558 E0.01568
G1 X109.198 Y78.771 E0.00543
G1 X108.584 Y78.771 E0.01568
G1 X108.584 Y78.558 E0.00543
G1 X107.969 Y78.558 E0.01568
G1 X107.969 Y78.771 E0.00543
G1 X107.355 Y78.771 E0.01568
G1 X107.355 Y78.558 E0.00543
G1 X106.741 Y78.558 E0.01568
G1 X106.741 Y78.771 E0.00543
G1 X106.127 Y78.771 E0.01568
G1 X106.127 Y78.558 E0.00543
G1 X105.513 Y78.558 E0.01568
G1 X105.513 Y78.771 E0.00543
G1 X104.899 Y78.771 E0.01568
G1 X104.899 Y78.558 E0.00543
G1 X104.285 Y78.558 E0.01568
G1 X104.285 Y78.771 E0.00543
G1 X103.670 Y78.771 E0.01568
G1 X103.670 Y78.558 E0.00543
G1 X103.056 Y78.558 E0.01568
G1 X103.056 Y78.771 E0.00543
G1 X102.442 Y78.771 E0.01568
G1 X102.442 Y78.558 E0.00543
G1 X101.828 Y78.558 E0.01568
G1 X101.828 Y78.771 E0.00543
G1 X101.214 Y78.771 E0.01568
G1 X101.214 Y78.558 E0.00543
G1 X100.600 Y78.558 E0.01568
G1 X100.600 Y78.771 E0.00543
G1 X99.985 Y78.771 E0.01568
G1 X99.985 Y78.558 E0.00543
G1 X99.371 Y78.558 E0.01568
G1 X99.371 Y78.771 E0.00543
G1 X98.757 Y78.771 E0.01568
G1 X98.757 Y78.558 E0.00543
G1 X98.143 Y78.558 E0.01568
G1 X98.143 Y78.771 E0.00543
G1 X97.529 Y78.771 E0.01568
G1 X97.529 Y78.558 E0.00543
G1 X96.915 Y78.558 E0.01568
G1 X96.915 Y78.771 E0.00543
G1 X96.300 Y78.771 E0.01568
G1 X96.300 Y78.558 E0.00543
G1 X96.152 Y78.558 E0.00380
G1 X95.686 Y78.092 E0.01681
G1 X95.686 Y78.771 E0.01732
G1 X95.072 Y78.771 E0.01568
G1 X95.072 Y77.478 E0.03300
G1 X94.458 Y76.864 E0.02218
G1 X94.458 Y84.471 E0.19424
G1 X95.072 Y84.471 E0.01568
G1 X95.072 Y81.558 E0.07439
G1 X95.686 Y81.558 E0.01568
G1 X95.686 Y84.471 E0.07439
G1 X96.300 Y84.471 E0.01568
G1 X96.300 Y81.558 E0.07439
G1 X96.915 Y81.558 E0.01568
G1 X96.915 Y84.471 E0.07439
G1 X97.529 Y84.471 E0.01568
G1 X97.529 Y81.558 E0.07439
G1 X98.143 Y81.558 E0.01568
G1 X98.143 Y84.471 E0.07439
G1 X98.757 Y84.471 E0.01568
G1 X98.757 Y81.558 E0.07439
G1 X99.371 Y81.558 E0.01568
G1 X99.371 Y84.471 E0.07439
G1 X99.985 Y84.471 E0.01568
G1 X99.985 Y81.558 E0.07439
G1 X100.600 Y81.558 E0.01568
G1 X100.600 Y84.471 E0.07439
G1 X101.214 Y84.471 E0.01568
G1 X101.214 Y81.558 E0.07439
G1 X101.828 Y81.558 E0.01568
G1 X101.828 Y84.471 E0.07439
G1 X102.442 Y84.471 E0.01568
G1 X102.442 Y81.558 E0.07439
G1 X103.056 Y81.558 E0.01568
G1 X103.056 Y84.471 E0.07439
G1 X103.670 Y84.471 E0.01568
G1 X103.670 Y81.558 E0.07439
G1 X104.285 Y81.558 E0.01568
G1 X104.285 Y84.471 E0.07439
G1 X104.899 Y84.471 E0.01568
G1 X104.899 Y81.558 E0.07439
G1 X105.513 Y81.558 E0.01568
G1 X105.513 Y84.471 E0.07439
G1 X106.127 Y84.471 E0.01568
G1 X106.127 Y81.558 E0.07439
G1 X106.741 Y81.558 E0.01568
G1 X106.741 Y84.471 E0.07439
G1 X107.355 Y84.471 E0.01568
G1 X107.355 Y81.558 E0.07439
G1 X107.969 Y81.558 E0.01568
G1 X107.969 Y84.471 E0.07439
G1 X108.584 Y84.471 E0.01568
G1 X108.584 Y81.558 E0.07439
G1 X109.198 Y81.558 E0.01568
G1 X109.198 Y84.471 E0.07439
G1 X109.812 Y84.471 E0.01568
G1 X109.812 Y81.558 E0.07439
G1 X110.426 Y81.558 E0.01568
G1 X110.426 Y84.471 E0.07439
G1 X111.040 Y84.471 E0.01568
G1 X111.040 Y81.558 E0.07439
G1 X111.654 Y81.558 E0.01568
G1 X111.654 Y84.471 E0.07439
G1 X112.269 Y84.471 E0.01568
G1 X112.269 Y81.558 E0.07439
G1 X112.883 Y81.558 E0.01568
G1 X112.883 Y128.442 E1.19714
G1 X113.497 Y128.442 E0.01568
G1 X113.497 Y81.558 E1.19714
G1 X114.111 Y81.558 E0.01568
G1 X114.111 Y128.442 E1.19714
G1 X114.725 Y128.442 E0.01568
G1 X114.725 Y81.558 E1.19714
G1 X115.339 Y81.558 E0.01568
G1 X115.339 Y128.442 E1.19714
G1 X115.954 Y128.442 E0.01568
G1 X115.954 Y81.558 E1.19714
G1 X116.568 Y81.558 E0.01568
G1 X116.568 Y128.442 E1.19714
G1 X117.182 Y128.442 E0.01568
G1 X117.182 Y81.558 E1.19714
G1 X117.796 Y81.558 E0.01568
G1 X117.796 Y128.442 E1.19714
G1 X118.410 Y128.442 E0.01568
G1 X118.410 Y81.558 E1.19714
G1 X118.568 Y81.558 E0.00402
G1 X118.798 Y81.327 E0.00832
G1 X118.798 Y80.778 E0.01401
G1 X119.024 Y80.778 E0.00578
G1 X119.024 Y132.920 E1.33137
G1 X119.638 Y132.920 E0.01568
G1 X119.639 Y80.778 E1.33137
G1 X120.253 Y80.778 E0.01568
G1 X120.253 Y132.920 E1.33137
G1 X120.867 Y132.920 E0.01568
G1 X120.867 Y80.778 E1.33137
G1 X121.481 Y80.778 E0.01568
G1 X121.481 Y132.920 E1.33137
G1 X122.095 Y132.920 E0.01568
G1 X122.095 Y80.778 E1.33137
G1 X122.709 Y80.778 E0.01568
G1 X122.709 Y132.920 E1.33137
G1 X123.323 Y132.920 E0.01568
G1 X123.323 Y80.778 E1.33137
G1 X123.450 Y80.778 E0.00323
G1 X123.450 Y115.385 E0.88363
G1 X123.938 Y115.385 E0.01245
G1 X123.938 Y132.920 E0.44774
G1 X124.552 Y132.920 E0.01568
G1 X124.552 Y115.385 E0.44774
G1 X125.166 Y115.385 E0.01568
G1 X125.166 Y133.058 E0.45127
G1 X118.410 Y133.058 F10800.000
G1 F1800
G1 X118.410 Y131.229 E0.04670
G1 X117.796 Y131.229 E0.01568
G1 X117.796 Y132.920 E0.04317
G1 X117.182 Y132.920 E0.01568
G1 X117.182 Y131.229 E0.04317
G1 X116.568 Y131.229 E0.01568
G1 X116.568 Y132.920 E0.04317
G1 X116.529 Y132.920 E0.00100
G1 X116.529 Y135.227 E0.05891
G1 X115.954 Y135.227 E0.01469
G1 X115.954 Y131.229 E0.10208
G1 X115.339 Y131.229 E0.01568
G1 X115.339 Y135.227 E0.10208
G1 X114.725 Y135.227 E0.01568
G1 X114.725 Y131.229 E0.10208
G1 X114.111 Y131.229 E0.01568
G1 X114.111 Y135.227 E0.10208
G1 X113.497 Y135.227 E0.01568
G1 X113.497 Y131.229 E0.10208
G1 X112.883 Y131.229 E0.01568
G1 X112.883 Y135.365 E0.10560
G1 X112.269 Y135.365 F10800.000
G1 F1800
G1 X112.269 Y131.229 E0.10560
G1 X111.654 Y131.229 E0.01568
G1 X111.654 Y135.227 E0.10208
G1 X111.040 Y135.227 E0.01568
G1 X111.040 Y131.229 E0.10208
G1 X110.426 Y131.229 E0.01568
G1 X110.426 Y135.227 E0.10208
G1 X109.812 Y135.227 E0.01568
G1 X109.812 Y131.229 E0.10208
G1 X109.198 Y131.229 E0.01568
G1 X109.198 Y135.227 E0.10208
G1 X108.584 Y135.227 E0.01568
G1 X108.584 Y131.229 E0.10208
G1 X107.969 Y131.229 E0.01568
G1 X107.969 Y135.227 E0.10208
G1 X107.355 Y135.227 E0.01568
G1 X107.355 Y131.229 E0.10208
G1 X106.741 Y131.229 E0.01568
G1 X106.741 Y135.227 E0.10208
G1 X106.127 Y135.227 E0.01568
G1 X106.127 Y131.229 E0.10208
G1 X105.513 Y131.229 E0.01568
G1 X105.513 Y135.227 E0.10208
G1 X104.899 Y135.227 E0.01568
G1 X104.899 Y131.229 E0.10208
G1 X104.285 Y131.229 E0.01568
G1 X104.285 Y135.227 E0.10208
G1 X103.670 Y135.227 E0.01568
G1 X103.670 Y131.229 E0.10208
G1 X103.056 Y131.229 E0.01568
G1 X103.056 Y135.227 E0.10208
G1 X102.442 Y135.227 E0.01568
G1 X102.442 Y131.229 E0.10208
G1 X101.828 Y131.229 E0.01568
G1 X101.828 Y135.227 E0.10208
G1 X101.214 Y135.227 E0.01568
G1 X101.214 Y131.229 E0.10208
G1 X100.600 Y131.229 E0.01568
G1 X100.600 Y135.227 E0.10208
G1 X99.985 Y135.227 E0.01568
G1 X99.985 Y131.229 E0.10208
G1 X99.371 Y131.229 E0.01568
G1 X99.371 Y135.227 E0.10208
G1 X98.757 Y135.227 E0.01568
G1 X98.757 Y131.229 E0.10208
G1 X98.143 Y131.229 E0.01568
G1 X98.143 Y135.227 E0.10208
G1 X97.529 Y135.227 E0.01568
G1 X97.529 Y131.229 E0.10208
G1 X96.915 Y131.229 E0.01568
G1 X96.915 Y135.227 E0.10208
G1 X96.300 Y135.227 E0.01568
G1 X96.300 Y131.229 E0.10208
G1 X95.686 Y131.229 E0.01568
G1 X95.686 Y135.227 E0.10208
G1 X95.072 Y135.227 E0.01568
G1 X95.072 Y131.229 E0.10208
G1 X94.909 Y131.229 E0.00416
G1 X94.679 Y130.999 E0.00832
G1 X94.679 Y128.673 E0.05939
G1 X94.909 Y128.442 E0.00832
G1 X95.072 Y128.442 E0.00416
G1 X95.072 Y124.613 E0.09778
G1 X95.686 Y124.613 E0.01568
G1 X95.686 Y128.442 E0.09778
G1 X96.300 Y128.442 E0.01568
G1 X96.300 Y124.613 E0.09778
G1 X96.915 Y124.613 E0.01568
G1 X96.915 Y128.442 E0.09778
G1 X97.529 Y128.442 E0.01568
G1 X97.529 Y124.613 E0.09778
G1 X98.143 Y124.613 E0.01568
G1 X98.143 Y128.442 E0.09778
G1 X98.757 Y128.442 E0.01568
G1 X98.757 Y124.613 E0.09778
G1 X99.371 Y124.613 E0.01568
G1 X99.371 Y128.442 E0.09778
G1 X99.985 Y128.442 E0.01568
G1 X99.985 Y124.613 E0.09778
G1 X100.600 Y124.613 E0.01568
G1 X100.600 Y128.442 E0.09778
G1 X101.214 Y128.442 E0.01568
G1 X101.214 Y124.613 E0.09778
G1 X101.828 Y124.613 E0.01568
G1 X101.828 Y128.442 E0.09778
G1 X102.442 Y128.442 E0.01568
G1 X102.442 Y124.613 E0.09778
G1 X103.056 Y124.613 E0.01568
G1 X103.056 Y128.442 E0.09778
G1 X103.670 Y128.442 E0.01568
G1 X103.670 Y124.613 E0.09778
G1 X104.285 Y124.613 E0.01568
G1 X104.285 Y128.442 E0.09778
G1 X104.899 Y128.442 E0.01568
G1 X104.899 Y124.613 E0.09778
G1 X105.513 Y124.613 E0.01568
G1 X105.513 Y128.442 E0.09778
G1 X106.127 Y128.442 E0.01568
G1 X106.127 Y124.613 E0.09778
G1 X106.741 Y124.613 E0.01568
G1 X106.741 Y128.442 E0.09778
G1 X107.355 Y128.442 E0.01568
G1 X107.355 Y124.613 E0.09778
G1 X107.969 Y124.613 E0.01568
G1 X107.969 Y128.442 E0.09778
G1 X108.584 Y128.442 E0.01568
G1 X108.584 Y124.613 E0.09778
G1 X109.198 Y124.613 E0.01568
G1 X109.198 Y128.442 E0.09778
G1 X109.812 Y128.442 E0.01568
G1 X109.812 Y124.613 E0.09778
G1 X110.426 Y124.613 E0.01568
G1 X110.426 Y128.442 E0.09778
G1 X111.040 Y128.442 E0.01568
G1 X111.040 Y124.613 E0.09778
G1 X111.654 Y124.613 E0.01568
G1 X111.654 Y128.442 E0.09778
G1 X112.269 Y128.442 E0.01568
G1 X112.269 Y124.475 E0.10130
G1 F8640
G1 X112.269 Y127.766 E-0.76000
G1 E-0.04000 F2100.00000
G1 Z0.800 F10800.000
G1 X94.458 Y135.365
G1 Z0.200
G1 E0.80000 F2100.00000
G1 F1800
G1 X94.458 Y124.613 E0.27454
G1 X93.844 Y124.613 E0.01568
G1 X93.844 Y135.227 E0.27102
G1 X93.230 Y135.227 E0.01568
G1 X93.230 Y124.613 E0.27102
G1 X92.616 Y124.613 E0.01568
G1 X92.616 Y135.365 E0.27454
G1 F8640
G1 X92.616 Y132.074 E-0.76000
G1 E-0.04000 F2100.00000
G1 Z0.800 F10800.000
G1 X95.908 Y129.836
G1 Z0.200
G1 E0.80000 F2100.00000
G1 F1800
G1 X117.569 Y129.836 E0.59215
G1 X117.772 Y130.204 F10800.000
G1 F1800
G1 X95.704 Y130.204 E0.74698
G1 X95.704 Y129.468 E0.02491
G1 X117.772 Y129.468 E0.74698
G1 X117.772 Y130.144 E0.02288
G1 X118.180 Y130.611 F10800.000
G1 F1800
G1 X95.297 Y130.611 E0.77454
G1 X95.297 Y129.061 E0.05247
G1 X118.180 Y129.061 E0.77454
G1 X118.180 Y130.551 E0.05043
G1 X117.780 Y130.602 F10800.000
G1 F8640
G1 X114.888 Y130.559 E-0.76000
G1 E-0.04000 F2100.00000
G1 Z0.800 F10800.000
G1 X117.569 Y80.164
G1 Z0.200
G1 E0.80000 F2100.00000
G1 F1800
G1 X95.908 Y80.164 E0.59215
G1 F8640
G1 X99.199 Y80.164 E-0.76000
G1 E-0.04000 F2100.00000
G1 Z0.800 F10800.000
G1 X117.772 Y80.532
G1 Z0.200
G1 E0.80000 F2100.00000
G1 F1800
G1 X95.704 Y80.532 E0.74698
G1 X95.704 Y79.796 E0.02491
G1 X117.772 Y79.796 E0.74698
G1 X117.772 Y80.472 E0.02288
G1 X118.180 Y80.939 F10800.000
G1 F1800
G1 X95.297 Y80.939 E0.77454
G1 X95.297 Y79.389 E0.05247
G1 X118.180 Y79.389 E0.77454
G1 X118.180 Y80.879 E0.05043
G1 X117.780 Y80.930 F10800.000
G1 F8640
G1 X114.888 Y80.888 E-0.76000
G1 E-0.04000 F2100.00000
G1 Z0.800 F10800.000
G1 X126.772 Y84.609
G1 Z0.200
G1 E0.80000 F2100.00000
G1 F1800
G1 X126.772 Y76.250 E0.21345
G1 X126.158 Y75.636 E0.02218
G1 X126.158 Y84.471 E0.22560
G1 X125.543 Y84.471 E0.01568
G1 X125.543 Y74.826 E0.24627
G1 F8640
G1 X125.543 Y78.118 E-0.76000
G1 E-0.04000 F2100.00000
G1 Z0.800 F10800.000
G1 X147.039 Y78.420
G1 Z0.200
G1 E0.80000 F2100.00000
G1 F1800
G1 X147.039 Y78.771 E0.00896
G1 X146.425 Y78.771 E0.01568
G1 X146.425 Y78.558 E0.00543
G1 X145.811 Y78.558 E0.01568
G1 X145.811 Y78.771 E0.00543
G1 X145.196 Y78.771 E0.01568
G1 X145.196 Y78.558 E0.00543
G1 X144.582 Y78.558 E0.01568
G1 X144.582 Y78.771 E0.00543
G1 X143.968 Y78.771 E0.01568
G1 X143.968 Y78.558 E0.00543
G1 X143.354 Y78.558 E0.01568
G1 X143.354 Y78.771 E0.00543
G1 X142.740 Y78.771 E0.01568
G1 X142.740 Y78.558 E0.00543
G1 X142.126 Y78.558 E0.01568
G1 X142.126 Y78.771 E0.00543
G1 X141.511 Y78.771 E0.01568
G1 X141.511 Y78.558 E0.00543
G1 X140.897 Y78.558 E0.01568
G1 X140.897 Y78.771 E0.00543
G1 X140.283 Y78.771 E0.01568
G1 X140.283 Y78.558 E0.00543
G1 X139.669 Y78.558 E0.01568
G1 X139.669 Y78.771 E0.00543
G1 X139.055 Y78.771 E0.01568
G1 X139.055 Y78.558 E0.00543
G1 X138.441 Y78.558 E0.01568
G1 X138.441 Y78.771 E0.00543
G1 X137.827 Y78.771 E0.01568
G1 X137.827 Y78.558 E0.00543
G1 X137.212 Y78.558 E0.01568
G1 X137.212 Y78.771 E0.00543
G1 X136.598 Y78.771 E0.01568
G1 X136.598 Y78.558 E0.00543
G1 X135.984 Y78.558 E0.01568
G1 X135.984 Y78.771 E0.00543
G1 X135.370 Y78.771 E0.01568
G1 X135.370 Y78.558 E0.00543
G1 X134.756 Y78.558 E0.01568
G1 X134.756 Y78.771 E0.00543
G1 X134.142 Y78.771 E0.01568
G1 X134.142 Y78.558 E0.00543
G1 X133.527 Y78.558 E0.01568
G1 X133.527 Y78.771 E0.00543
G1 X132.913 Y78.771 E0.01568
G1 X132.913 Y78.558 E0.00543
G1 X132.299 Y78.558 E0.01568
G1 X132.299 Y78.771 E0.00543
G1 X131.685 Y78.771 E0.01568
G1 X131.685 Y78.558 E0.00543
G1 X131.071 Y78.558 E0.01568
G1 X131.071 Y78.771 E0.00543
G1 X130.457 Y78.771 E0.01568
G1 X130.457 Y78.558 E0.00543
G1 X129.842 Y78.558 E0.01568
G1 X129.842 Y78.771 E0.00543
G1 X129.228 Y78.771 E0.01568
G1 X129.228 Y78.558 E0.00543
G1 X129.080 Y78.558 E0.00380
G1 X128.614 Y78.092 E0.01681
G1 X128.614 Y78.771 E0.01732
G1 X128.000 Y78.771 E0.01568
G1 X128.000 Y77.478 E0.03300
G1 X127.386 Y76.864 E0.02218
G1 X127.386 Y84.471 E0.19424
G1 X128.000 Y84.471 E0.01568
G1 X128.000 Y81.558 E0.07439
G1 X128.614 Y81.558 E0.01568
G1 X128.614 Y84.471 E0.07439
G1 X129.228 Y84.471 E0.01568
G1 X129.228 Y81.558 E0.07439
G1 X129.842 Y81.558 E0.01568
G1 X129.842 Y84.471 E0.07439
G1 X130.457 Y84.471 E0.01568
G1 X130.457 Y81.558 E0.07439
G1 X131.071 Y81.558 E0.01568
G1 X131.071 Y84.471 E0.07439
G1 X131.685 Y84.471 E0.01568
G1 X131.685 Y81.558 E0.07439
G1 X132.299 Y81.558 E0.01568
G1 X132.299 Y84.471 E0.07439
G1 X132.913 Y84.471 E0.01568
G1 X132.913 Y81.558 E0.07439
G1 X133.527 Y81.558 E0.01568
G1 X133.527 Y84.471 E0.07439
G1 X134.142 Y84.471 E0.01568
G1 X134.142 Y81.558 E0.07439
G1 X134.756 Y81.558 E0.01568
G1 X134.756 Y84.471 E0.07439
G1 X135.370 Y84.471 E0.01568
G1 X135.370 Y81.558 E0.07439
G1 X135.984 Y81.558 E0.01568
G1 X135.984 Y84.471 E0.07439
G1 X136.598 Y84.471 E0.01568
G1 X136.598 Y81.558 E0.07439
G1 X137.212 Y81.558 E0.01568
G1 X137.212 Y84.471 E0.07439
G1 X137.827 Y84.471 E0.01568
G1 X137.827 Y81.558 E0.07439
G1 X138.441 Y81.558 E0.01568
G1 X138.441 Y84.471 E0.07439
G1 X139.055 Y84.471 E0.01568
G1 X139.055 Y81.558 E0.07439
G1 X139.669 Y81.558 E0.01568
G1 X139.669 Y84.471 E0.07439
G1 X140.283 Y84.471 E0.01568
G1 X140.283 Y81.558 E0.07439
G1 X140.897 Y81.558 E0.01568
G1 X140.897 Y84.471 E0.07439
G1 X141.511 Y84.471 E0.01568
