; generated by PrusaSlicer 2.2.0+win64 on 2021-03-10 at 16:04:33 UTC

; 

; external perimeters extrusion width = 0.60mm
; perimeters extrusion width = 0.43mm
; infill extrusion width = 0.45mm
; solid infill extrusion width = 0.70mm
; top infill extrusion width = 0.43mm
; first layer extrusion width = 0.42mm

M73 P0 R133
M201 X9000 Y9000 Z500 E10000 ; sets maximum accelerations, mm/sec^2
M203 X500 Y500 Z12 E120 ; sets maximum feedrates, mm/sec
M204 P2000 R1500 T2000 ; sets acceleration (P, T) and retract acceleration (R), mm/sec^2
M205 X10.00 Y10.00 Z0.20 E2.50 ; sets the jerk limits, mm/sec
M205 S0 T0 ; sets the minimum extruding and travel feed rate, mm/sec
M107
M862.3 P "MK2S" ; printer model check
M862.1 P0.4 ; nozzle diameter check
M115 U3.2.3 ; tell printer latest fw version
G90 ; use absolute coordinates
M83 ; extruder relative mode
M204 S2000 T1500 ; MK2 firmware only supports the old M204 format
M104 S215 ; set extruder temp
M140 S60 ; set bed temp
M190 S60 ; wait for bed temp
M109 S215 ; wait for extruder temp
G28 W ; home all without mesh bed level
G80 ; mesh bed leveling
G1 Y-3.0 F1000.0 ; go outside print area
G92 E0.0
G1 X60.0 E9.0  F1000.0 ; intro line
M73 P0 R133
G1 X100.0 E12.5 F1000.0 ; intro line
G92 E0.0
G21 ; set units to millimeters
G90 ; use absolute coordinates
M83 ; use relative distances for extrusion
M900 K0.05 ; Filament gcode LA 1.5
M900 K30 ; Filament gcode LA 1.0
;BEFORE_LAYER_CHANGE
G92 E0.0
;0.2


G1 E-0.80000 F2100.00000
G1 Z0.600 F10800.000
;AFTER_LAYER_CHANGE
;0.2
G1 X76.375 Y65.023
G1 Z0.200
G1 E0.80000 F2100.00000
M204 S1000
G1 F1200.000
G1 X76.788 Y64.312 E0.02579
G1 X77.156 Y63.960 E0.01597
G1 X77.591 Y63.694 E0.01597
G1 X78.072 Y63.528 E0.01597
G1 X78.578 Y63.467 E0.01597
G1 X146.701 Y63.467 E2.13595
G1 X147.189 Y63.518 E0.01538
G1 X147.659 Y63.670 E0.01550
G1 X148.088 Y63.916 E0.01550
G1 X148.454 Y64.243 E0.01538
G1 X173.182 Y92.382 E1.17455
G1 X173.530 Y92.903 E0.01965
G1 X173.708 Y93.401 E0.01657
G1 X173.771 Y93.922 E0.01645
G1 X173.771 Y116.082 E0.69484
G1 X173.623 Y116.880 E0.02543
G1 X173.212 Y117.584 E0.02555
G1 X148.468 Y145.742 E1.17534
G1 X147.966 Y146.166 E0.02060
G1 X147.371 Y146.436 E0.02048
G1 X146.702 Y146.533 E0.02119
G1 X78.590 Y146.533 E2.13560
G1 X77.781 Y146.386 E0.02579
G1 X77.074 Y145.974 E0.02567
G1 X76.719 Y145.603 E0.01609
G1 X76.453 Y145.164 E0.01609
G1 X76.287 Y144.678 E0.01609
G1 X76.229 Y144.165 E0.01621
G1 X76.229 Y65.829 E2.45617
G1 X76.364 Y65.082 E0.02379
; printing object splint 1p.stl id:0 copy 7
G1 E-0.80000 F2100.00000
G1 Z0.800 F10800.000
G1 X128.787 Y140.427
G1 Z0.200
G1 E0.80000 F2100.00000
G1 F1200.000
G1 X136.631 Y140.421 E0.24595
G1 X136.631 Y138.764 E0.05196
G1 X142.092 Y138.764 E0.17122
G1 X142.094 Y142.140 E0.10586
G1 X142.145 Y143.389 E0.03918
G1 X141.292 Y143.369 E0.02675
G1 X128.787 Y143.369 E0.39207
G1 X128.787 Y140.487 E0.09035
G1 E-0.80000 F2100.00000
G1 Z0.800 F10800.000
G1 X128.799 Y125.781
G1 Z0.200
G1 E0.80000 F2100.00000
G1 F1200.000
G1 X128.787 Y122.839 E0.09223
G1 X142.144 Y122.827 E0.41881
G1 X142.094 Y124.068 E0.03894
G1 X142.092 Y127.444 E0.10586
G1 X136.631 Y127.444 E0.17122
G1 X136.631 Y125.787 E0.05196
G1 X128.859 Y125.781 E0.24370
G1 X129.052 Y126.158 F10800.000
G1 F1200.000
G1 X136.254 Y126.164 E0.22583
G1 X136.254 Y127.821 E0.05197
G1 X142.469 Y127.821 E0.19486
G1 X142.471 Y124.075 E0.11744
G1 X142.523 Y122.793 E0.04024
G1 X145.457 Y122.793 E0.09198
G1 X145.497 Y123.648 E0.02683
G1 X145.512 Y124.648 E0.03135
G1 X145.512 Y141.560 E0.53029
G1 X145.497 Y142.560 E0.03135
G1 X145.457 Y143.415 E0.02683
G1 X142.523 Y143.415 E0.09198
G1 X142.471 Y142.133 E0.04024
G1 X142.469 Y138.387 E0.11744
G1 X136.254 Y138.387 E0.19486
G1 X136.254 Y140.044 E0.05197
G1 X129.052 Y140.050 E0.22583
G1 X129.052 Y126.218 E0.43370
G1 X128.988 Y125.763 F10800.000
G1 E-0.80000 F2100.00000
G1 Z0.800 F10800.000
G1 X145.835 Y143.391
G1 Z0.200
G1 E0.80000 F2100.00000
G1 F1200.000
G1 X145.874 Y142.572 E0.02572
G1 X145.889 Y141.563 E0.03162
G1 X145.889 Y124.645 E0.53047
G1 X145.874 Y123.636 E0.03162
G1 X145.835 Y122.817 E0.02572
G1 X145.910 Y122.819 E0.00235
G1 X145.910 Y143.389 E0.64495
G1 X145.895 Y143.389 E0.00047
G1 X146.287 Y143.754 F10800.000
G1 F1200.000
G1 X145.217 Y143.789 E0.03356
G1 X143.255 Y143.792 E0.06152
G1 X141.287 Y143.746 E0.06172
G1 X128.410 Y143.746 E0.40376
G1 X128.410 Y122.462 E0.66734
G1 X141.286 Y122.462 E0.40373
G1 X142.276 Y122.448 E0.03105
G1 X142.767 Y122.419 E0.01541
G1 X145.218 Y122.419 E0.07684
G1 X146.287 Y122.454 E0.03355
G1 X146.287 Y143.694 E0.66595
G1 X145.933 Y143.567 F10800.000
G1 E-0.80000 F2100.00000
G1 Z0.800 F10800.000
G1 X141.980 Y139.662
G1 Z0.200
G1 E0.80000 F2100.00000
G1 F1200.000
G1 X141.365 Y139.047 E0.02802
G1 X140.817 Y139.047 E0.01765
G1 X141.810 Y140.040 E0.04526
G1 X141.810 Y140.589 E0.01766
G1 X140.269 Y139.047 E0.07024
G1 X139.721 Y139.047 E0.01765
G1 X141.811 Y141.137 E0.09522
G1 X141.811 Y141.685 E0.01766
G1 X139.173 Y139.047 E0.12019
G1 X138.625 Y139.047 E0.01765
G1 X141.815 Y142.237 E0.14534
G1 X141.838 Y142.808 E0.01841
G1 X138.077 Y139.047 E0.17135
G1 X137.529 Y139.047 E0.01765
G1 X141.575 Y143.093 E0.18433
G1 X141.021 Y143.086 E0.01786
G1 X136.981 Y139.047 E0.18403
G1 X136.914 Y139.047 E0.00217
G1 X136.914 Y139.527 E0.01548
G1 X140.473 Y143.086 E0.16214
G1 X139.925 Y143.086 E0.01765
G1 X136.914 Y140.075 E0.13717
G1 X136.914 Y140.623 E0.01765
G1 X139.377 Y143.086 E0.11221
G1 X138.829 Y143.086 E0.01765
G1 X136.447 Y140.704 E0.10853
G1 X135.900 Y140.705 E0.01764
G1 X138.281 Y143.086 E0.10851
G1 X137.733 Y143.086 E0.01765
G1 X135.352 Y140.705 E0.10849
G1 X134.805 Y140.705 E0.01764
G1 X137.185 Y143.086 E0.10847
G1 X136.637 Y143.086 E0.01765
G1 X134.257 Y140.706 E0.10845
G1 X133.710 Y140.706 E0.01764
G1 X136.090 Y143.086 E0.10843
G1 X135.542 Y143.086 E0.01765
G1 X133.162 Y140.707 E0.10841
G1 X132.615 Y140.707 E0.01764
G1 X134.994 Y143.086 E0.10839
G1 X134.446 Y143.086 E0.01765
G1 X132.067 Y140.708 E0.10837
G1 X131.520 Y140.708 E0.01764
G1 X133.898 Y143.086 E0.10835
G1 X133.350 Y143.086 E0.01765
G1 X130.972 Y140.708 E0.10833
G1 X130.425 Y140.709 E0.01764
G1 X132.802 Y143.086 E0.10831
G1 X132.254 Y143.086 E0.01765
G1 X129.877 Y140.709 E0.10829
G1 X129.330 Y140.710 E0.01764
G1 X131.706 Y143.086 E0.10827
G1 X131.158 Y143.086 E0.01765
G1 X129.070 Y140.998 E0.09515
G1 X129.070 Y141.546 E0.01765
G1 X130.610 Y143.086 E0.07019
G1 X130.063 Y143.086 E0.01765
G1 X129.070 Y142.093 E0.04522
G1 X129.070 Y142.641 E0.01765
G1 X129.684 Y143.256 E0.02799
G1 X128.731 Y140.239 F10800.000
G1 F1200.000
G1 X128.731 Y125.969 E0.31395
G1 X128.900 Y124.881 F10800.000
G1 F1200.000
G1 X129.517 Y125.498 E0.02818
G1 X130.067 Y125.499 E0.01776
G1 X129.070 Y124.502 E0.04554
G1 X129.070 Y123.952 E0.01774
G1 X130.617 Y125.499 E0.07065
G1 X131.166 Y125.500 E0.01776
G1 X129.070 Y123.403 E0.09577
G1 X129.070 Y123.122 E0.00909
G1 X129.337 Y123.121 E0.00864
G1 X131.716 Y125.500 E0.10865
G1 X132.266 Y125.501 E0.01776
G1 X129.886 Y123.121 E0.10870
G1 X130.435 Y123.120 E0.01773
G1 X132.816 Y125.501 E0.10874
G1 X133.365 Y125.501 E0.01776
G1 X130.984 Y123.120 E0.10878
G1 X131.533 Y123.119 E0.01773
G1 X133.915 Y125.502 E0.10883
G1 X134.465 Y125.502 E0.01776
G1 X132.081 Y123.119 E0.10887
G1 X132.630 Y123.118 E0.01773
G1 X135.015 Y125.503 E0.10891
G1 X135.564 Y125.503 E0.01776
G1 X133.179 Y123.118 E0.10895
G1 X133.728 Y123.117 E0.01773
G1 X136.284 Y125.673 E0.11675
G1 X137.392 Y127.331 F10800.000
G1 F1200.000
G1 X136.914 Y126.853 E0.02184
G1 X136.914 Y126.303 E0.01774
G1 X137.772 Y127.161 E0.03918
G1 X138.321 Y127.161 E0.01774
G1 X134.277 Y123.117 E0.18473
G1 X134.826 Y123.116 E0.01773
G1 X138.870 Y127.161 E0.18476
G1 X139.420 Y127.161 E0.01774
G1 X135.374 Y123.116 E0.18478
G1 X135.923 Y123.115 E0.01773
G1 X139.969 Y127.161 E0.18480
G1 X140.518 Y127.161 E0.01774
G1 X136.472 Y123.115 E0.18483
G1 X137.021 Y123.114 E0.01773
G1 X141.068 Y127.161 E0.18485
G1 X141.617 Y127.161 E0.01774
G1 X137.570 Y123.114 E0.18487
G1 X138.118 Y123.113 E0.01773
G1 X141.810 Y126.805 E0.16860
G1 X141.810 Y126.256 E0.01773
G1 X138.667 Y123.113 E0.14355
G1 X139.216 Y123.112 E0.01773
G1 X141.810 Y125.707 E0.11850
G1 X141.811 Y125.158 E0.01773
G1 X139.765 Y123.112 E0.09345
G1 X140.314 Y123.111 E0.01773
G1 X141.811 Y124.609 E0.06840
G1 X141.812 Y124.060 E0.01773
G1 X140.862 Y123.111 E0.04335
G1 X141.411 Y123.110 E0.01773
G1 X141.996 Y123.695 E0.02671
; stop printing object splint 1p.stl id:0 copy 7
; printing object splint 1p.stl id:0 copy 4
G1 E-0.80000 F2100.00000
G1 Z0.800 F10800.000
G1 X117.395 Y138.764
G1 Z0.200
G1 E0.80000 F2100.00000
G1 F1200.000
G1 X117.397 Y142.140 E0.10586
G1 X117.448 Y143.389 E0.03918
G1 X116.595 Y143.369 E0.02675
G1 X104.090 Y143.369 E0.39207
G1 X104.090 Y140.427 E0.09223
G1 X111.934 Y140.421 E0.24595
G1 X111.934 Y138.764 E0.05196
G1 X117.335 Y138.764 E0.16934
G1 E-0.80000 F2100.00000
G1 Z0.800 F10800.000
G1 X117.335 Y127.444
G1 Z0.200
G1 E0.80000 F2100.00000
G1 F1200.000
G1 X111.934 Y127.444 E0.16934
G1 X111.934 Y125.787 E0.05196
G1 X104.090 Y125.781 E0.24595
G1 X104.090 Y122.839 E0.09223
G1 X117.447 Y122.827 E0.41881
G1 X117.397 Y124.068 E0.03894
G1 X117.395 Y127.444 E0.10586
G1 E-0.80000 F2100.00000
G1 Z0.800 F10800.000
G1 X120.760 Y122.793
G1 Z0.200
G1 E0.80000 F2100.00000
G1 F1200.000
G1 X120.800 Y123.648 E0.02683
G1 X120.815 Y124.648 E0.03135
G1 X120.815 Y141.560 E0.53029
G1 X120.800 Y142.560 E0.03135
G1 X120.760 Y143.415 E0.02683
G1 X117.826 Y143.415 E0.09198
G1 X117.774 Y142.133 E0.04024
G1 X117.772 Y138.387 E0.11744
G1 X111.557 Y138.387 E0.19486
G1 X111.557 Y140.044 E0.05197
G1 X104.355 Y140.050 E0.22583
G1 X104.355 Y126.158 E0.43558
G1 X111.557 Y126.164 E0.22583
G1 X111.557 Y127.821 E0.05197
G1 X117.772 Y127.821 E0.19486
G1 X117.774 Y124.075 E0.11744
G1 X117.826 Y122.793 E0.04024
G1 X120.700 Y122.793 E0.09010
G1 X121.154 Y122.727 F10800.000
G1 X121.138 Y122.817
G1 F1200.000
G1 X121.213 Y122.819 E0.00235
G1 X121.213 Y143.389 E0.64495
G1 X121.138 Y143.391 E0.00235
G1 X121.177 Y142.572 E0.02572
G1 X121.192 Y141.563 E0.03162
G1 X121.192 Y124.645 E0.53047
G1 X121.177 Y123.636 E0.03162
G1 X121.141 Y122.877 E0.02384
G1 X121.590 Y122.454 F10800.000
G1 F1200.000
G1 X121.590 Y143.754 E0.66783
M73 P0 R131
G1 X120.520 Y143.789 E0.03356
G1 X118.558 Y143.792 E0.06152
G1 X116.590 Y143.746 E0.06172
G1 X103.713 Y143.746 E0.40376
G1 X103.713 Y122.462 E0.66734
G1 X116.589 Y122.462 E0.40373
G1 X117.579 Y122.448 E0.03105
G1 X118.070 Y122.419 E0.01541
G1 X120.520 Y122.419 E0.07684
G1 X121.530 Y122.452 E0.03167
G1 X121.389 Y122.800 F10800.000
G1 X117.299 Y123.695
G1 F1200.000
G1 X116.714 Y123.110 E0.02671
G1 X116.165 Y123.111 E0.01773
G1 X117.114 Y124.060 E0.04335
G1 X117.114 Y124.609 E0.01773
G1 X115.617 Y123.111 E0.06840
G1 X115.068 Y123.112 E0.01773
G1 X117.114 Y125.158 E0.09345
G1 X117.113 Y125.707 E0.01773
G1 X114.519 Y123.112 E0.11850
G1 X113.970 Y123.113 E0.01773
G1 X117.113 Y126.256 E0.14355
G1 X117.113 Y126.805 E0.01773
G1 X113.421 Y123.113 E0.16860
G1 X112.872 Y123.114 E0.01773
G1 X116.920 Y127.161 E0.18487
G1 X116.371 Y127.161 E0.01774
G1 X112.324 Y123.114 E0.18485
G1 X111.775 Y123.115 E0.01773
G1 X115.821 Y127.161 E0.18483
G1 X115.272 Y127.161 E0.01774
G1 X111.226 Y123.115 E0.18480
G1 X110.677 Y123.116 E0.01773
G1 X114.723 Y127.161 E0.18478
G1 X114.173 Y127.161 E0.01774
G1 X110.128 Y123.116 E0.18476
G1 X109.580 Y123.117 E0.01773
G1 X113.624 Y127.161 E0.18473
G1 X113.075 Y127.161 E0.01774
G1 X112.217 Y126.303 E0.03918
G1 X112.217 Y126.853 E0.01774
G1 X112.695 Y127.331 E0.02184
G1 X111.587 Y125.673 F10800.000
G1 F1200.000
G1 X109.031 Y123.117 E0.11675
G1 X108.482 Y123.118 E0.01773
G1 X110.867 Y125.503 E0.10895
G1 X110.318 Y125.503 E0.01776
G1 X107.933 Y123.118 E0.10891
G1 X107.384 Y123.119 E0.01773
G1 X109.768 Y125.502 E0.10887
G1 X109.218 Y125.502 E0.01776
G1 X106.836 Y123.119 E0.10883
G1 X106.287 Y123.120 E0.01773
G1 X108.668 Y125.501 E0.10878
G1 X108.119 Y125.501 E0.01776
G1 X105.738 Y123.120 E0.10874
G1 X105.189 Y123.121 E0.01773
G1 X107.569 Y125.501 E0.10870
G1 X107.019 Y125.500 E0.01776
G1 X104.640 Y123.121 E0.10865
G1 X104.373 Y123.122 E0.00864
G1 X104.373 Y123.403 E0.00909
G1 X106.469 Y125.500 E0.09577
G1 X105.920 Y125.499 E0.01776
G1 X104.373 Y123.952 E0.07065
G1 X104.373 Y124.502 E0.01774
G1 X105.370 Y125.499 E0.04554
G1 X104.820 Y125.498 E0.01776
G1 X104.203 Y124.881 E0.02818
G1 X104.034 Y125.969 F10800.000
G1 F1200.000
G1 X104.034 Y140.239 E0.31395
G1 X104.987 Y143.256 F10800.000
G1 F1200.000
G1 X104.373 Y142.641 E0.02799
G1 X104.373 Y142.093 E0.01765
G1 X105.365 Y143.086 E0.04522
G1 X105.913 Y143.086 E0.01765
G1 X104.373 Y141.546 E0.07019
G1 X104.373 Y140.998 E0.01765
G1 X106.461 Y143.086 E0.09515
G1 X107.009 Y143.086 E0.01765
G1 X104.633 Y140.710 E0.10827
G1 X105.180 Y140.709 E0.01764
G1 X107.557 Y143.086 E0.10829
G1 X108.105 Y143.086 E0.01765
G1 X105.728 Y140.709 E0.10831
G1 X106.275 Y140.708 E0.01764
G1 X108.653 Y143.086 E0.10833
G1 X109.201 Y143.086 E0.01765
G1 X106.823 Y140.708 E0.10835
G1 X107.370 Y140.708 E0.01764
G1 X109.749 Y143.086 E0.10837
G1 X110.297 Y143.086 E0.01765
G1 X107.918 Y140.707 E0.10839
G1 X108.465 Y140.707 E0.01764
G1 X110.845 Y143.086 E0.10841
G1 X111.392 Y143.086 E0.01765
G1 X109.012 Y140.706 E0.10843
G1 X109.560 Y140.706 E0.01764
G1 X111.940 Y143.086 E0.10845
G1 X112.488 Y143.086 E0.01765
G1 X110.107 Y140.705 E0.10847
G1 X110.655 Y140.705 E0.01764
G1 X113.036 Y143.086 E0.10849
G1 X113.584 Y143.086 E0.01765
G1 X111.202 Y140.705 E0.10851
G1 X111.750 Y140.704 E0.01764
G1 X114.132 Y143.086 E0.10853
G1 X114.680 Y143.086 E0.01765
G1 X112.217 Y140.623 E0.11221
G1 X112.217 Y140.075 E0.01765
G1 X115.228 Y143.086 E0.13717
G1 X115.776 Y143.086 E0.01765
G1 X112.217 Y139.527 E0.16214
G1 X112.217 Y139.047 E0.01548
G1 X112.284 Y139.047 E0.00217
G1 X116.324 Y143.086 E0.18403
G1 X116.878 Y143.093 E0.01786
G1 X112.832 Y139.047 E0.18433
G1 X113.380 Y139.047 E0.01765
G1 X117.141 Y142.808 E0.17135
G1 X117.118 Y142.237 E0.01841
G1 X113.928 Y139.047 E0.14534
G1 X114.476 Y139.047 E0.01765
G1 X117.114 Y141.685 E0.12019
G1 X117.114 Y141.137 E0.01766
G1 X115.024 Y139.047 E0.09522
G1 X115.572 Y139.047 E0.01765
G1 X117.113 Y140.589 E0.07024
G1 X117.113 Y140.040 E0.01766
G1 X116.119 Y139.047 E0.04526
G1 X116.667 Y139.047 E0.01765
G1 X117.282 Y139.662 E0.02802
; stop printing object splint 1p.stl id:0 copy 4
; printing object splint 1p.stl id:0 copy 5
G1 E-0.80000 F2100.00000
G1 Z0.800 F10800.000
G1 X87.237 Y140.421
G1 Z0.200
G1 E0.80000 F2100.00000
G1 F1200.000
G1 X87.237 Y138.764 E0.05196
G1 X92.698 Y138.764 E0.17122
G1 X92.700 Y142.140 E0.10586
G1 X92.750 Y143.389 E0.03918
G1 X91.897 Y143.369 E0.02675
G1 X79.393 Y143.369 E0.39207
G1 X79.393 Y140.427 E0.09223
G1 X87.177 Y140.421 E0.24407
G1 E-0.80000 F2100.00000
G1 Z0.800 F10800.000
G1 X87.237 Y127.444
G1 Z0.200
G1 E0.80000 F2100.00000
G1 F1200.000
G1 X87.237 Y125.787 E0.05196
G1 X79.393 Y125.781 E0.24595
G1 X79.393 Y122.839 E0.09223
G1 X92.750 Y122.827 E0.41881
G1 X92.700 Y124.068 E0.03894
G1 X92.698 Y127.444 E0.10586
G1 X87.297 Y127.444 E0.16934
G1 E-0.80000 F2100.00000
G1 Z0.800 F10800.000
G1 X96.062 Y122.793
G1 Z0.200
G1 E0.80000 F2100.00000
G1 F1200.000
G1 X96.103 Y123.648 E0.02683
G1 X96.118 Y124.648 E0.03135
G1 X96.118 Y141.560 E0.53029
G1 X96.103 Y142.560 E0.03135
G1 X96.062 Y143.415 E0.02683
G1 X93.129 Y143.415 E0.09198
G1 X93.077 Y142.133 E0.04024
G1 X93.075 Y138.387 E0.11744
G1 X86.860 Y138.387 E0.19486
G1 X86.860 Y140.044 E0.05197
G1 X79.657 Y140.050 E0.22583
G1 X79.657 Y126.158 E0.43558
G1 X86.860 Y126.164 E0.22583
G1 X86.860 Y127.821 E0.05197
G1 X93.075 Y127.821 E0.19486
G1 X93.077 Y124.075 E0.11744
G1 X93.129 Y122.793 E0.04024
G1 X96.002 Y122.793 E0.09010
G1 X96.457 Y122.727 F10800.000
G1 X96.441 Y122.817
G1 F1200.000
G1 X96.516 Y122.819 E0.00235
G1 X96.516 Y143.389 E0.64495
G1 X96.441 Y143.391 E0.00235
G1 X96.480 Y142.572 E0.02572
G1 X96.495 Y141.563 E0.03162
G1 X96.495 Y124.645 E0.53047
G1 X96.480 Y123.636 E0.03162
G1 X96.444 Y122.877 E0.02384
G1 X96.893 Y122.454 F10800.000
G1 F1200.000
G1 X96.893 Y143.754 E0.66783
